P3
320 240
255
95 145 166
95 145 166
95 145 166
95 145 166
95 145 166
95 145 166
95 145 166
95 145 166
95 145 166
95 145 166
95 145 166
95 145 166
95 145 166
95 145 166
95 145 166
95 145 166
95 145 166
95 145 166
95 145 166
95 145 166
95 145 166
95 145 166
95 145 166
95 145 166
95 145 166
95 145 166
95 145 166
95 145 166
95 145 166
95 145 166
95 145 166
95 145 166
95 145 166
95 145 166
95 145 166
95 145 166
95 145 166
95 145 166
95 145 166
95 145 166
95 145 166
95 145 166
95 145 166
95 145 166
95 145 166
95 145 166
95 145 166
95 145 166
95 145 166
95 145 166
95 145 166
95 145 166
95 145 166
95 145 166
95 146 166
95 146 166
95 146 166
95 146 166
95 146 166
95 146 166
95 146 166
95 146 166
95 146 166
95 146 166
95 146 166
95 146 166
95 146 166
95 146 166
95 146 166
95 146 166
95 146 166
95 146 166
95 146 166
95 146 166
95 146 166
95 146 166
95 146 166
95 146 166
95 146 166
95 146 166
95 146 166
95 146 166
95 146 166
95 146 166
95 146 166
95 146 166
95 146 166
95 146 166
95 146 166
95 146 166
95 146 166
95 146 166
95 146 166
95 146 166
95 146 166
95 146 166
95 146 166
95 146 166
95 146 166
95 146 166
95 146 166
95 146 166
95 146 166
95 146 166
95 146 166
95 146 166
95 146 166
95 146 166
95 146 166
95 146 166
95 146 166
95 146 166
95 146 166
95 146 166
95 146 166
95 146 166
95 146 166
95 146 166
95 146 166
95 146 166
95 146 166
95 146 166
95 146 166
95 146 166
95 146 166
95 146 166
95 146 166
95 146 166
95 146 166
95 146 166
95 146 166
95 146 166
95 146 166
95 146 166
95 146 166
95 146 166
95 146 166
95 146 166
95 146 166
95 146 166
95 146 166
95 146 166
95 146 166
95 146 166
95 146 166
95 146 166
95 146 166
95 146 166
95 146 166
95 146 166
95 146 166
95 146 166
95 146 166
95 146 166
95 146 166
95 146 166
95 146 166
95 146 166
95 146 166
95 146 166
95 146 166
95 146 166
95 146 166
95 146 166
95 146 166
95 146 166
95 146 166
95 146 166
95 146 166
95 146 166
95 146 166
95 146 166
95 146 166
95 146 166
95 146 166
95 146 166
95 146 166
95 146 166
95 146 166
95 146 166
95 146 166
95 146 166
95 146 166
95 146 166
95 146 166
95 146 166
95 146 166
95 146 166
95 146 166
95 146 166
95 146 166
95 146 166
95 146 166
95 146 166
95 146 166
95 146 166
95 146 166
95 146 166
95 146 166
95 146 166
95 146 166
95 146 166
95 146 166
95 146 166
95 146 166
95 146 166
95 146 166
95 146 166
95 146 166
95 146 166
95 146 166
95 146 166
95 146 166
95 146 166
95 146 166
95 146 166
95 146 166
95 146 166
95 146 166
95 146 166
95 146 166
95 146 166
95 146 166
95 146 166
95 146 166
95 146 166
95 146 166
95 146 166
95 146 166
95 146 166
95 146 166
95 146 166
95 146 166
95 146 166
95 146 166
95 146 166
95 146 166
95 146 166
95 146 166
95 146 166
95 146 166
95 146 166
95 146 166
95 146 166
95 146 166
95 146 166
95 146 166
95 146 166
95 146 166
95 146 166
95 146 166
95 146 166
95 146 166
95 146 166
95 146 166
95 146 166
95 146 166
95 146 166
95 146 166
95 146 166
95 146 166
95 146 166
95 146 166
95 146 166
95 146 166
95 146 166
95 145 166
95 145 166
95 145 166
95 145 166
95 145 166
95 145 166
95 145 166
95 145 166
95 145 166
95 145 166
95 145 166
95 145 166
95 145 166
95 145 166
95 145 166
95 145 166
95 145 166
95 145 166
95 145 166
95 145 166
95 145 166
95 145 166
95 145 166
95 145 166
95 145 166
95 145 166
95 145 166
95 145 166
95 145 166
95 145 166
95 145 166
95 145 166
95 145 166
95 145 166
95 145 166
95 145 166
95 145 166
95 145 166
95 145 166
95 145 166
95 145 166
95 145 166
95 145 166
95 145 166
95 145 166
95 145 166
95 145 166
95 145 166
95 145 166
95 145 166
95 145 166
95 145 166
95 145 166
95 145 166
95 145 166
95 145 166
95 145 166
95 145 166
95 145 166
95 145 166
95 145 166
95 145 166
95 145 166
95 145 166
95 145 166
95 145 166
95 145 166
95 145 166
95 145 166
95 145 166
95 145 166
95 145 166
95 145 166
95 145 166
95 145 166
95 145 166
95 145 166
95 145 166
95 145 166
95 145 166
95 145 166
95 145 166
95 145 166
95 145 166
95 145 166
95 145 166
95 145 166
95 145 166
95 145 166
95 145 166
95 145 166
95 145 166
95 145 166
95 145 166
95 145 166
95 145 166
95 145 166
95 145 166
95 145 166
95 145 166
95 145 166
95 145 166
95 145 166
95 145 166
95 145 166
95 145 166
95 145 166
95 145 166
95 145 166
95 145 166
95 145 166
95 145 166
95 145 166
95 145 166
95 145 166
95 145 166
95 145 166
95 145 166
95 145 166
95 145 166
95 145 166
95 145 166
95 145 166
95 145 166
95 145 166
95 145 166
95 145 166
95 145 166
95 145 166
95 145 166
95 145 166
95 145 166
95 145 166
95 145 166
95 145 166
95 145 166
95 145 166
95 145 166
95 145 166
95 145 166
95 145 166
95 145 166
95 145 166
95 145 166
95 145 166
95 145 166
95 145 166
95 145 166
95 145 166
95 145 166
95 145 166
95 145 166
95 145 166
95 145 166
95 145 166
95 145 166
95 145 166
95 145 166
95 145 166
95 145 166
95 145 166
95 145 166
95 145 166
95 145 166
95 145 166
95 145 166
95 145 166
95 145 166
95 145 166
95 145 166
95 145 166
95 145 166
95 145 166
95 145 166
95 145 166
95 145 166
95 145 166
95 145 166
95 145 166
95 145 166
95 145 166
95 145 166
95 145 166
95 145 166
95 145 166
95 145 166
95 145 166
95 145 166
95 145 166
95 145 166
95 145 166
95 145 166
95 145 166
95 145 166
95 145 166
95 145 166
95 145 166
95 145 166
95 145 166
95 145 166
95 145 166
95 145 166
95 145 166
95 145 166
95 145 166
95 145 166
95 145 166
95 145 166
95 145 166
95 145 166
95 145 166
95 145 166
95 145 166
95 145 166
95 145 166
95 145 166
95 145 166
95 145 166
95 145 166
95 145 166
95 145 166
95 145 166
95 145 166
95 145 166
95 145 166
95 145 166
95 145 166
95 145 166
95 145 166
95 145 166
95 145 166
95 145 166
95 145 166
95 145 166
95 145 166
95 145 166
95 145 166
95 145 166
95 145 166
95 145 166
95 145 166
95 145 166
95 145 166
95 145 166
95 145 166
95 145 166
95 145 166
95 145 166
95 145 166
95 145 166
95 145 166
95 145 166
95 145 166
95 145 166
95 145 166
95 145 166
95 145 166
95 145 166
95 145 166
95 145 166
95 145 166
95 145 166
95 145 166
95 145 166
95 145 166
95 145 166
95 145 166
95 145 166
95 145 166
95 145 166
95 145 166
95 145 166
95 145 166
95 145 166
95 145 166
95 145 166
95 145 166
95 145 166
95 145 166
95 145 166
95 145 166
95 145 166
95 145 166
95 145 166
95 145 166
95 145 166
95 145 166
95 145 166
95 145 166
95 145 166
95 145 166
95 145 166
95 145 166
95 145 166
95 145 166
95 145 166
95 145 166
95 145 166
95 145 166
95 145 166
95 145 166
95 145 166
95 145 166
95 145 166
95 145 166
95 145 166
95 145 166
95 145 166
95 145 166
95 145 166
95 145 166
95 145 166
95 145 166
95 145 166
95 145 166
95 145 166
95 145 166
95 145 166
95 145 166
95 145 166
95 145 166
95 145 166
95 145 166
95 145 166
95 145 166
95 145 166
95 145 166
95 145 166
95 145 166
95 145 166
95 145 166
95 145 166
95 145 166
95 145 166
95 145 166
95 145 166
95 145 166
95 145 166
95 145 166
95 145 166
95 145 166
95 145 166
95 145 166
95 145 166
95 145 166
95 145 166
95 145 166
95 145 166
95 145 166
95 145 166
95 145 166
95 145 166
95 145 166
95 145 166
95 145 166
95 145 166
95 145 166
95 145 166
95 145 166
95 145 166
95 145 166
95 145 166
95 145 166
95 145 166
95 145 166
95 145 166
95 145 166
95 145 166
95 145 166
95 145 166
95 145 166
95 145 166
95 145 166
95 145 166
95 145 165
95 145 165
95 145 165
95 145 165
95 145 165
95 145 165
95 145 165
95 145 165
95 145 165
95 145 165
95 145 165
95 145 165
95 145 165
95 145 165
95 145 165
95 145 165
95 145 165
95 145 165
95 145 165
95 145 165
95 145 165
95 145 165
95 145 166
95 145 166
95 145 166
95 145 166
95 145 166
95 145 166
95 145 166
95 145 166
95 145 166
95 145 166
95 145 166
95 145 166
95 145 166
95 145 166
95 145 166
95 145 166
95 145 166
95 145 166
95 145 166
95 145 166
95 145 166
95 145 166
95 145 166
95 145 166
95 145 166
95 145 166
95 145 166
95 145 166
95 145 166
95 145 166
95 145 166
95 145 166
95 145 166
95 145 166
95 145 166
95 145 166
95 145 166
95 145 166
95 145 166
95 145 166
95 145 166
95 145 166
95 145 166
95 145 166
95 145 166
95 145 166
95 145 166
95 145 166
95 145 166
95 145 166
95 145 166
95 145 166
95 145 166
95 145 166
95 145 166
95 145 166
95 145 166
95 145 166
95 145 166
95 145 166
95 145 166
95 145 166
95 145 166
95 145 166
95 145 166
95 145 166
95 145 166
95 145 166
95 145 166
95 145 166
95 145 166
95 145 166
95 145 166
95 145 166
95 145 166
95 145 166
95 145 166
95 145 166
95 145 166
95 145 166
95 145 166
95 145 166
95 145 166
95 145 166
95 145 166
95 145 166
95 145 166
95 145 166
95 145 166
95 145 166
95 145 166
95 145 166
95 145 166
95 145 166
95 145 166
95 145 166
95 145 166
95 145 166
95 145 166
95 145 166
95 145 166
95 145 166
95 145 166
95 145 166
95 145 166
95 145 166
95 145 166
95 145 166
95 145 166
95 145 166
95 145 166
95 145 166
95 145 166
95 145 166
95 145 166
95 145 166
95 145 166
95 145 166
95 145 166
95 145 166
95 145 166
95 145 166
95 145 166
95 145 166
95 145 166
95 145 166
95 145 166
95 145 166
95 145 166
95 145 166
95 145 166
95 145 166
95 145 166
95 145 166
95 145 166
95 145 166
95 145 166
95 145 166
95 145 166
95 145 166
95 145 166
95 145 166
95 145 166
95 145 166
95 145 166
95 145 166
95 145 166
95 145 166
95 145 166
95 145 166
95 145 166
95 145 166
95 145 166
95 145 166
95 145 166
95 145 166
95 145 166
95 145 166
95 145 166
95 145 166
95 145 166
95 145 166
95 145 166
95 145 166
95 145 166
95 145 166
95 145 166
95 145 166
95 145 166
95 145 166
95 145 166
95 145 166
95 145 166
95 145 166
95 145 166
95 145 166
95 145 166
95 145 166
95 145 166
95 145 166
95 145 166
95 145 166
95 145 166
95 145 166
95 145 166
95 145 166
95 145 166
95 145 166
95 145 166
95 145 166
95 145 166
95 145 166
95 145 166
95 145 166
95 145 166
95 145 166
95 145 166
95 145 166
95 145 166
95 145 166
95 145 166
95 145 166
95 145 166
95 145 166
95 145 166
95 145 166
95 145 166
95 145 166
95 145 166
95 145 166
95 145 166
95 145 166
95 145 166
95 145 166
95 145 166
95 145 166
95 145 166
95 145 166
95 145 166
95 145 166
95 145 166
95 145 166
95 145 166
95 145 166
95 145 166
95 145 166
95 145 166
95 145 166
95 145 166
95 145 166
95 145 166
95 145 166
95 145 166
95 145 166
95 145 166
95 145 166
95 145 166
95 145 166
95 145 166
95 145 166
95 145 166
95 145 166
95 145 166
95 145 166
95 145 166
95 145 166
95 145 166
95 145 166
95 145 166
95 145 166
95 145 166
95 145 166
95 145 166
95 145 166
95 145 166
95 145 166
95 145 166
95 145 166
95 145 166
95 145 166
95 145 166
95 145 166
95 145 166
95 145 166
95 145 166
95 145 166
95 145 166
95 145 166
95 145 166
95 145 166
95 145 166
95 145 166
95 145 166
95 145 166
95 145 166
95 145 166
95 145 165
95 145 165
95 145 165
95 145 165
95 145 165
95 145 165
95 145 165
95 145 165
95 145 165
95 145 165
95 145 165
95 145 165
95 145 165
95 145 165
95 145 165
95 145 165
95 145 165
95 145 165
95 145 165
95 145 165
95 145 165
95 145 165
95 145 165
95 145 165
95 145 165
95 145 165
95 145 165
95 145 165
95 145 165
95 145 165
95 145 165
95 145 165
95 145 165
95 145 165
95 145 165
95 145 165
95 145 165
95 145 165
95 145 165
95 145 165
95 145 165
95 145 165
95 145 165
95 145 165
95 145 165
95 145 165
95 145 165
95 145 165
95 145 165
95 145 165
95 145 165
95 145 165
95 145 165
95 145 165
95 145 165
95 145 165
95 145 165
95 145 165
95 145 165
95 145 165
95 145 165
95 145 165
95 145 165
95 145 165
95 145 165
95 145 165
95 145 165
95 145 165
95 145 165
95 145 165
95 145 165
95 145 165
95 145 165
95 145 165
95 145 165
95 145 165
95 145 165
95 145 165
95 145 165
95 145 165
95 145 165
95 145 165
95 145 165
95 145 165
95 145 165
95 145 165
95 145 165
95 145 165
95 145 165
95 145 165
95 145 165
95 145 165
95 145 165
95 145 165
95 145 165
95 145 165
95 145 165
95 145 165
95 145 165
95 145 165
95 145 165
95 145 165
95 145 165
95 145 165
95 145 165
95 145 165
95 145 165
95 145 165
95 145 165
95 145 165
95 145 165
95 145 165
95 145 165
95 145 165
95 145 165
95 145 165
95 145 165
95 145 165
95 145 165
95 145 165
95 145 165
95 145 165
95 145 165
95 145 165
95 145 165
95 145 165
95 145 165
95 145 165
95 145 165
95 145 165
95 145 165
95 145 165
95 145 165
95 145 165
95 145 165
95 145 165
95 145 165
95 145 165
95 145 165
95 145 165
95 145 165
95 145 165
95 145 165
95 145 165
95 145 165
95 145 165
95 145 165
95 145 165
95 145 165
95 145 165
95 145 165
95 145 165
95 145 165
95 145 165
95 145 165
95 145 165
95 145 165
95 145 165
95 145 165
95 145 165
95 145 165
95 145 165
95 145 165
95 145 165
95 145 165
95 145 165
95 145 165
95 145 165
95 145 165
95 145 165
95 145 165
95 145 165
95 145 165
95 145 165
95 145 165
95 145 165
95 145 165
95 145 165
95 145 165
95 145 165
95 145 165
95 145 165
95 145 165
95 145 165
95 145 165
95 145 165
95 145 165
95 145 165
95 145 165
95 145 165
95 145 165
95 145 165
95 145 165
95 145 165
95 145 165
95 145 165
95 145 165
95 145 165
95 145 165
95 145 165
95 145 165
95 145 165
95 145 165
95 145 165
95 145 165
95 145 165
95 145 165
95 145 165
95 145 165
95 145 165
95 145 165
95 145 165
95 145 165
95 145 165
95 145 165
95 145 165
95 145 165
95 145 165
95 145 165
95 145 165
95 145 165
95 145 165
95 145 165
95 145 165
95 145 165
95 145 165
95 145 165
95 145 165
95 145 165
95 145 165
95 145 165
95 145 165
95 145 165
95 145 165
95 145 165
95 145 165
95 145 165
95 145 165
95 145 165
95 145 165
95 145 165
95 145 165
95 145 165
95 145 165
95 145 165
95 145 165
95 145 165
95 145 165
95 145 165
95 145 165
95 145 165
95 145 165
95 145 165
95 145 165
95 145 165
95 145 165
95 145 165
95 145 165
95 145 165
95 145 165
95 145 165
95 145 165
95 145 165
95 145 165
95 145 165
95 145 165
95 145 165
95 145 165
95 145 165
95 145 165
95 145 165
95 145 165
95 145 165
95 145 165
95 145 165
95 145 165
95 145 165
95 145 165
95 145 165
95 145 165
95 145 165
95 145 165
95 145 165
95 145 165
95 145 165
95 145 165
95 145 165
95 145 165
95 145 165
95 145 165
95 145 165
95 145 165
95 145 165
95 145 165
95 145 165
95 145 165
95 145 165
95 145 165
95 145 165
95 145 165
95 145 165
95 145 165
95 145 165
95 145 165
95 145 165
95 145 165
95 145 165
95 145 165
95 145 165
95 145 165
95 145 165
95 145 165
95 145 165
95 145 165
95 145 165
95 145 165
95 145 165
95 145 165
95 145 165
95 145 165
95 145 165
95 145 165
95 145 165
95 145 165
95 145 165
95 145 165
95 145 165
95 145 165
95 145 165
95 145 165
95 145 165
95 145 165
95 145 165
95 145 165
95 145 165
95 145 165
95 145 165
95 145 165
95 145 165
95 145 165
95 145 165
95 145 165
95 145 165
95 145 165
95 145 165
95 145 165
95 145 165
95 145 165
95 145 165
95 145 165
95 145 165
95 145 165
95 145 165
95 145 165
95 145 165
95 145 165
95 145 165
95 145 165
95 145 165
95 145 165
95 145 165
95 145 165
95 145 165
95 145 165
95 145 165
95 145 165
95 145 165
95 145 165
95 145 165
95 145 165
95 145 165
95 145 165
95 145 165
95 145 165
95 145 165
95 145 165
95 145 165
95 145 165
95 145 165
95 145 165
95 145 165
95 145 165
95 145 165
95 145 165
95 145 165
95 145 165
95 145 165
95 145 165
95 145 165
95 145 165
95 145 165
95 145 165
95 145 165
95 145 165
95 145 165
95 145 165
95 145 165
95 145 165
95 145 165
95 145 165
95 145 165
95 145 165
95 145 165
95 145 165
95 145 165
95 145 165
95 145 165
95 145 165
95 145 165
95 145 165
95 145 165
95 145 165
95 145 165
95 145 165
95 145 165
95 145 165
95 145 165
95 145 165
95 145 165
95 145 165
95 145 165
95 145 165
95 145 165
95 145 165
95 145 165
95 145 165
95 145 165
95 145 165
95 145 165
95 145 165
95 145 165
95 145 165
95 145 165
95 145 165
95 145 165
95 145 165
95 145 165
95 145 165
95 145 165
95 145 165
95 145 165
95 145 165
95 145 165
95 145 165
95 145 165
95 145 165
95 145 165
95 145 165
95 145 165
95 145 165
95 145 165
95 145 165
95 145 165
95 145 165
95 145 165
95 145 165
95 145 165
95 145 165
95 145 165
95 145 165
95 145 165
95 145 165
95 145 165
95 145 165
95 145 165
95 145 165
95 145 165
95 145 165
95 145 165
95 145 165
95 145 165
95 145 165
95 145 165
95 145 165
95 145 165
95 145 165
95 145 165
95 145 165
95 145 165
95 145 165
95 145 165
95 145 165
95 145 165
95 145 165
95 145 165
95 145 165
95 145 165
95 145 165
95 145 165
95 145 165
95 145 165
95 145 165
95 145 165
95 145 165
95 145 165
95 145 165
95 145 165
95 145 165
95 145 165
95 145 165
95 145 165
95 145 165
95 145 165
95 145 165
95 145 165
95 145 165
95 145 165
95 145 165
95 145 165
95 145 165
95 145 165
95 145 165
95 145 165
95 145 165
95 145 165
95 145 165
95 145 165
95 145 165
95 145 165
95 145 165
95 145 165
95 145 165
95 145 165
95 145 165
95 145 165
95 145 165
95 145 165
95 145 165
95 145 165
95 145 165
95 145 165
95 145 165
95 145 165
95 145 165
95 145 165
95 145 165
95 145 165
95 145 165
95 145 165
95 145 165
95 145 165
95 145 165
95 145 165
95 145 165
95 145 165
95 145 165
95 145 165
95 145 165
95 145 165
95 145 165
95 145 165
95 145 165
95 145 165
95 145 165
95 145 165
95 145 165
95 145 165
95 145 165
95 145 165
95 145 165
95 145 165
95 145 165
95 145 165
95 145 165
95 145 165
95 145 165
95 145 165
95 145 165
95 145 165
95 145 165
95 145 165
95 145 165
95 145 165
95 145 165
95 145 165
95 145 165
95 145 165
95 145 165
95 145 165
95 145 165
95 145 165
95 145 165
95 145 165
95 145 165
95 145 165
95 145 165
95 145 165
95 145 165
95 145 165
95 145 165
95 145 165
95 145 165
95 145 165
95 145 165
95 145 165
95 145 165
95 145 165
95 145 165
95 145 165
95 145 165
95 145 165
95 145 165
95 145 165
95 145 165
95 145 165
95 145 165
95 145 165
95 145 165
95 145 165
95 145 165
95 145 165
95 145 165
95 145 165
95 145 165
95 145 165
95 145 165
95 145 165
95 145 165
95 145 165
95 145 165
95 145 165
95 145 165
95 145 165
95 145 165
95 145 165
95 145 165
95 145 165
95 145 165
95 145 165
95 145 165
95 145 165
95 145 165
95 145 165
95 145 165
95 145 165
95 145 165
95 145 165
95 145 165
95 145 165
95 145 165
95 145 165
95 145 165
95 145 165
95 145 165
95 145 165
95 145 165
95 145 165
95 145 165
95 145 165
95 145 165
95 145 165
95 145 165
95 145 165
95 145 165
95 145 165
95 145 165
95 145 165
95 145 165
95 145 165
95 145 165
95 145 165
95 145 165
94 144 165
94 144 165
94 144 165
94 144 165
94 144 165
94 144 165
94 144 165
94 144 165
94 144 165
94 144 165
94 144 165
94 144 165
94 144 165
94 144 165
94 144 165
94 144 165
94 144 165
94 144 165
94 144 165
94 144 165
94 144 165
94 144 165
94 144 165
94 144 165
94 144 165
94 144 165
94 144 165
94 144 165
94 144 165
94 144 165
94 144 165
94 144 165
94 144 165
94 144 165
94 144 165
94 144 165
94 144 165
94 144 165
94 144 165
94 144 165
94 144 165
94 144 165
94 144 165
94 144 165
94 144 165
94 144 165
94 144 165
94 144 165
94 144 165
94 144 165
94 144 165
94 144 165
95 144 165
95 144 165
95 144 165
95 144 165
95 144 165
95 144 165
95 144 165
95 144 165
95 144 165
95 144 165
95 144 165
95 144 165
95 144 165
95 144 165
95 144 165
95 144 165
95 144 165
95 144 165
95 144 165
95 144 165
95 144 165
95 144 165
95 144 165
95 144 165
95 144 165
95 144 165
95 144 165
95 144 165
95 144 165
95 144 165
95 144 165
95 144 165
95 144 165
95 144 165
95 145 165
95 145 165
95 145 165
95 145 165
95 145 165
95 145 165
95 145 165
95 145 165
95 145 165
95 145 165
95 145 165
95 145 165
95 145 165
95 145 165
95 145 165
95 145 165
95 145 165
95 145 165
95 145 165
95 145 165
95 145 165
95 145 165
95 145 165
95 145 165
95 145 165
95 145 165
95 145 165
95 145 165
95 145 165
95 145 165
95 145 165
95 145 165
95 145 165
95 145 165
95 145 165
95 145 165
95 145 165
95 145 165
95 145 165
95 145 165
95 145 165
95 145 165
95 145 165
95 145 165
95 145 165
95 145 165
95 145 165
95 145 165
95 145 165
95 145 165
95 145 165
95 145 165
95 145 165
95 145 165
95 145 165
95 145 165
95 145 165
95 145 165
95 145 165
95 145 165
95 145 165
95 145 165
95 145 165
95 145 165
95 145 165
95 145 165
95 145 165
95 145 165
95 145 165
95 145 165
95 145 165
95 145 165
95 145 165
95 145 165
95 145 165
95 145 165
95 145 165
95 145 165
95 145 165
95 145 165
95 145 165
95 145 165
95 145 165
95 145 165
95 145 165
95 145 165
95 145 165
95 145 165
95 145 165
95 145 165
95 145 165
95 145 165
95 145 165
95 145 165
95 145 165
95 145 165
95 145 165
95 145 165
95 145 165
95 145 165
95 145 165
95 145 165
95 145 165
95 145 165
95 145 165
95 145 165
95 145 165
95 145 165
95 145 165
95 145 165
95 145 165
95 145 165
95 145 165
95 145 165
95 145 165
95 145 165
95 145 165
95 145 165
95 145 165
95 145 165
95 145 165
95 145 165
95 145 165
95 145 165
95 145 165
95 145 165
95 145 165
95 145 165
95 145 165
95 145 165
95 145 165
95 145 165
95 145 165
95 145 165
95 145 165
95 145 165
95 145 165
95 145 165
95 145 165
95 145 165
95 145 165
95 145 165
95 145 165
95 145 165
95 145 165
95 145 165
95 145 165
95 145 165
95 144 165
95 144 165
95 144 165
95 144 165
95 144 165
95 144 165
95 144 165
95 144 165
95 144 165
95 144 165
95 144 165
95 144 165
95 144 165
95 144 165
95 144 165
95 144 165
95 144 165
95 144 165
95 144 165
95 144 165
95 144 165
95 144 165
95 144 165
95 144 165
95 144 165
95 144 165
95 144 165
95 144 165
95 144 165
95 144 165
95 144 165
95 144 165
95 144 165
95 144 165
94 144 165
94 144 165
94 144 165
94 144 165
94 144 165
94 144 165
94 144 165
94 144 165
94 144 165
94 144 165
94 144 165
94 144 165
94 144 165
94 144 165
94 144 165
94 144 165
94 144 165
94 144 165
94 144 165
94 144 165
94 144 165
94 144 165
94 144 165
94 144 165
94 144 165
94 144 165
94 144 165
94 144 165
94 144 165
94 144 165
94 144 165
94 144 165
94 144 165
94 144 165
94 144 165
94 144 165
94 144 165
94 144 165
94 144 165
94 144 165
94 144 165
94 144 165
94 144 165
94 144 165
94 144 165
94 144 165
94 144 165
94 144 165
94 144 165
94 144 165
94 144 165
94 144 165
94 144 165
94 144 165
94 144 165
94 144 165
94 144 165
94 144 165
94 144 165
94 144 165
94 144 165
94 144 165
94 144 165
94 144 165
94 144 165
94 144 165
94 144 165
94 144 165
94 144 165
94 144 165
94 144 165
94 144 165
94 144 165
94 144 165
94 144 165
94 144 165
94 144 165
94 144 165
94 144 165
94 144 165
94 144 165
94 144 165
94 144 165
94 144 165
94 144 165
94 144 165
94 144 165
94 144 165
94 144 165
94 144 165
94 144 165
94 144 165
94 144 165
94 144 165
94 144 165
94 144 165
94 144 165
94 144 165
94 144 165
94 144 165
94 144 165
94 144 165
94 144 165
94 144 165
94 144 165
94 144 165
94 144 165
94 144 165
94 144 165
94 144 165
94 144 165
94 144 165
94 144 165
94 144 165
94 144 165
94 144 165
94 144 165
94 144 165
94 144 165
94 144 165
94 144 165
94 144 165
94 144 165
94 144 165
94 144 165
94 144 165
94 144 165
94 144 165
94 144 165
94 144 165
94 144 165
94 144 165
94 144 165
94 144 165
94 144 165
94 144 165
94 144 165
94 144 165
94 144 165
94 144 165
94 144 165
94 144 165
94 144 165
94 144 165
94 144 165
94 144 165
94 144 165
94 144 165
94 144 165
94 144 165
94 144 165
94 144 165
94 144 165
94 144 165
94 144 165
94 144 165
94 144 165
94 144 165
94 144 165
94 144 165
94 144 165
94 144 165
94 144 165
94 144 165
94 144 165
94 144 165
94 144 165
94 144 165
94 144 165
94 144 165
94 144 165
94 144 165
94 144 165
94 144 165
94 144 165
94 144 165
94 144 165
94 144 165
94 144 165
94 144 165
94 144 165
94 144 165
94 144 165
94 144 165
94 144 165
94 144 165
94 144 165
94 144 165
94 144 165
94 144 165
94 144 165
94 144 165
94 144 165
94 144 165
94 144 165
94 144 165
94 144 165
94 144 165
94 144 165
94 144 165
94 144 165
94 144 165
94 144 165
94 144 165
94 144 165
94 144 165
94 144 165
94 144 165
94 144 165
94 144 165
94 144 165
94 144 165
94 144 165
94 144 165
94 144 165
94 144 165
94 144 165
94 144 165
94 144 165
94 144 165
94 144 165
94 144 165
94 144 165
94 144 165
94 144 165
94 144 165
94 144 165
94 144 165
94 144 165
94 144 165
94 144 165
94 144 165
94 144 165
94 144 165
94 144 165
94 144 165
94 144 165
94 144 165
94 144 165
94 144 165
94 144 165
94 144 165
94 144 165
94 144 165
94 144 165
94 144 165
94 144 165
94 144 165
94 144 165
94 144 165
94 144 165
94 144 165
94 144 165
94 144 165
94 144 165
94 144 165
94 144 165
94 144 165
94 144 165
94 144 165
94 144 165
94 144 165
94 144 165
94 144 165
94 144 165
94 144 165
94 144 165
94 144 165
94 144 165
94 144 165
94 144 165
94 144 165
94 144 165
94 144 165
94 144 165
94 144 165
94 144 165
94 144 165
94 144 165
94 144 165
94 144 165
94 144 165
94 144 165
94 144 165
94 144 165
94 144 165
94 144 165
94 144 165
94 144 165
94 144 165
94 144 165
94 144 165
94 144 165
94 144 165
94 144 165
94 144 165
94 144 165
94 144 165
94 144 165
94 144 165
94 144 165
94 144 165
94 144 165
94 144 165
94 144 165
94 144 165
94 144 165
94 144 165
94 144 165
94 144 165
94 144 165
94 144 165
94 144 165
94 144 165
94 144 165
94 144 165
94 144 165
94 144 165
94 144 165
94 144 165
94 144 165
94 144 165
94 144 165
94 144 165
94 144 165
94 144 165
94 144 165
94 144 165
94 144 165
94 144 165
94 144 165
94 144 165
94 144 165
94 144 165
94 144 165
94 144 165
94 144 165
94 144 165
94 144 165
94 144 165
94 144 165
94 144 165
94 144 165
94 144 165
94 144 165
94 144 165
94 144 165
94 144 165
94 144 165
94 144 165
94 144 165
94 144 165
94 144 165
94 144 165
94 144 165
94 144 165
94 144 165
94 144 165
94 144 165
94 144 165
94 144 165
94 144 165
94 144 165
94 144 165
94 144 165
94 144 165
94 144 165
94 144 165
94 144 165
94 144 165
94 144 165
94 144 165
94 144 164
94 144 164
94 144 164
94 144 164
94 144 164
94 144 164
94 144 164
94 144 164
94 144 164
94 144 164
94 144 164
94 144 164
94 144 164
94 144 164
94 144 164
94 144 164
94 144 164
94 144 164
94 144 164
94 144 164
94 144 164
94 144 164
94 144 164
94 144 164
94 144 164
94 144 164
94 144 164
94 144 164
94 144 164
94 144 164
94 144 164
94 144 164
94 144 164
94 144 164
94 144 164
94 144 164
94 144 164
94 144 164
94 144 164
94 144 164
94 144 164
94 144 164
94 144 164
94 144 164
94 144 164
94 144 164
94 144 164
94 144 164
94 144 164
94 144 164
94 144 164
94 144 164
94 144 164
94 144 164
94 144 164
94 144 164
94 144 164
94 144 164
94 144 164
94 144 164
94 144 164
94 144 164
94 144 164
94 144 164
94 144 164
94 144 164
94 144 164
94 144 164
94 144 164
94 144 164
94 144 164
94 144 164
94 144 164
94 144 164
94 144 164
94 144 164
94 144 164
94 144 164
94 144 164
94 144 164
94 144 164
94 144 164
94 144 164
94 144 164
94 144 164
94 144 164
94 144 164
94 144 164
94 144 164
94 144 164
94 144 164
94 144 164
94 144 164
94 144 164
94 144 164
94 144 164
94 144 164
94 144 164
94 144 164
94 144 164
94 144 164
94 144 164
94 144 164
94 144 164
94 144 164
94 144 164
94 144 164
94 144 164
94 144 164
94 144 164
94 144 164
94 144 164
94 144 164
94 144 164
94 144 164
94 144 164
94 144 164
94 144 164
94 144 164
94 144 164
94 144 164
94 144 164
94 144 164
94 144 164
94 144 164
94 144 164
94 144 164
94 144 164
94 144 164
94 144 164
94 144 164
94 144 164
94 144 164
94 144 164
94 144 164
94 144 164
94 144 164
94 144 164
94 144 164
94 144 164
94 144 164
94 144 164
94 144 164
94 144 164
94 144 164
94 144 164
94 144 164
94 144 164
94 144 164
94 144 164
94 144 164
94 144 164
94 144 164
94 144 164
94 144 164
94 144 164
94 144 164
94 144 164
94 144 164
94 144 164
94 144 164
94 144 164
94 144 164
94 144 164
94 144 164
94 144 164
94 144 164
94 144 164
94 144 164
94 144 164
94 144 164
94 144 164
94 144 164
94 144 164
94 144 164
94 144 164
94 144 164
94 144 164
94 144 164
94 144 164
94 144 164
94 144 164
94 144 164
94 144 164
94 144 164
94 144 164
94 144 164
94 144 164
94 144 164
94 144 164
94 144 164
94 144 164
94 144 164
94 144 164
94 144 164
94 144 164
94 144 164
94 144 164
94 144 164
94 144 164
94 144 164
94 144 164
94 144 164
94 144 164
94 144 164
94 144 164
94 144 164
94 144 164
94 144 164
94 144 164
94 144 164
94 144 164
94 144 164
94 144 164
94 144 164
94 144 164
94 144 164
94 144 164
94 144 164
94 144 164
94 144 164
94 144 164
94 144 164
94 144 164
94 144 164
94 144 164
94 144 164
94 144 164
94 144 164
94 144 164
94 144 164
94 144 164
94 144 164
94 144 164
94 144 164
94 144 164
94 144 164
94 144 164
94 144 164
94 144 164
94 144 164
94 144 164
94 144 164
94 144 164
94 144 164
94 144 164
94 144 164
94 144 164
94 144 164
94 144 164
94 144 164
94 144 164
94 144 164
94 144 164
94 144 164
94 144 164
94 144 164
94 144 164
94 144 164
94 144 164
94 144 164
94 144 164
94 144 164
94 144 164
94 144 164
94 144 164
94 144 164
94 144 164
94 144 164
94 144 164
94 144 164
94 144 164
94 144 164
94 144 164
94 144 164
94 144 164
94 144 164
94 144 164
94 144 164
94 144 164
94 144 164
94 144 164
94 144 164
94 144 164
94 144 164
94 144 164
94 144 164
94 144 164
94 144 164
94 144 164
94 144 164
94 144 164
94 144 164
94 144 164
94 144 164
94 144 164
94 144 164
94 144 164
94 144 164
94 144 164
94 144 164
94 144 164
94 144 164
94 144 164
94 144 164
94 144 164
94 144 164
94 144 164
94 144 164
94 144 164
94 144 164
94 144 164
94 144 164
94 144 164
94 144 164
94 144 164
94 144 164
94 144 164
94 144 164
94 144 164
94 144 164
94 144 164
94 144 164
94 144 164
94 144 164
94 144 164
94 144 164
94 144 164
94 144 164
94 144 164
94 144 164
94 144 164
94 144 164
94 144 164
94 144 164
94 144 164
94 144 164
94 144 164
94 144 164
94 144 164
94 144 164
94 144 164
94 144 164
94 144 164
94 144 164
94 144 164
94 144 164
94 144 164
94 144 164
94 144 164
94 144 164
94 144 164
94 144 164
94 144 164
94 144 164
94 144 164
94 144 164
94 144 164
94 144 164
94 144 164
94 144 164
94 144 164
94 144 164
94 144 164
94 144 164
94 144 164
94 144 164
94 144 164
94 144 164
94 144 164
94 144 164
94 144 164
94 144 164
94 144 164
94 144 164
94 144 164
94 144 164
94 144 164
94 144 164
94 144 164
94 144 164
94 144 164
94 144 164
94 144 164
94 144 164
94 144 164
94 144 164
94 144 164
94 144 164
94 144 164
94 144 164
94 144 164
94 144 164
94 144 164
94 144 164
94 144 164
94 144 164
94 144 164
94 144 164
94 144 164
94 144 164
94 144 164
94 144 164
94 144 164
94 144 164
94 144 164
94 144 164
94 144 164
94 144 164
94 144 164
94 144 164
94 144 164
94 144 164
94 144 164
94 144 164
94 144 164
94 144 164
94 144 164
94 144 164
94 144 164
94 144 164
94 144 164
94 144 164
94 144 164
94 144 164
94 144 164
94 144 164
94 144 164
94 144 164
94 144 164
94 144 164
94 144 164
94 144 164
94 144 164
94 144 164
94 144 164
94 144 164
94 144 164
94 144 164
94 144 164
94 144 164
94 144 164
94 144 164
94 144 164
94 144 164
94 144 164
94 144 164
94 144 164
94 144 164
94 144 164
94 144 164
94 144 164
94 144 164
94 144 164
94 144 164
94 144 164
94 144 164
94 144 164
94 144 164
94 144 164
94 144 164
94 144 164
94 144 164
94 144 164
94 144 164
94 144 164
94 144 164
94 144 164
94 144 164
94 144 164
94 144 164
94 144 164
94 144 164
94 144 164
94 144 164
94 144 164
94 144 164
94 144 164
94 144 164
94 144 164
94 144 164
94 144 164
94 144 164
94 144 164
94 144 164
94 144 164
94 144 164
94 144 164
94 144 164
94 144 164
94 144 164
94 144 164
94 144 164
94 144 164
94 144 164
94 144 164
94 144 164
94 144 164
94 144 164
94 144 164
94 144 164
94 144 164
94 144 164
94 144 164
94 144 164
94 144 164
94 144 164
94 144 164
94 144 164
94 144 164
94 144 164
94 144 164
94 144 164
94 144 164
94 144 164
94 144 164
94 144 164
94 144 164
94 144 164
94 144 164
94 144 164
94 144 164
94 144 164
94 144 164
94 144 164
94 144 164
94 144 164
94 144 164
94 144 164
94 144 164
94 144 164
94 144 164
94 144 164
94 144 164
94 144 164
94 144 164
94 144 164
94 144 164
94 144 164
94 144 164
94 144 164
94 144 164
94 144 164
94 144 164
94 144 164
94 144 164
94 144 164
94 144 164
94 144 164
94 144 164
94 144 164
94 144 164
94 144 164
94 144 164
94 144 164
94 144 164
94 144 164
94 144 164
94 144 164
94 144 164
94 144 164
94 144 164
94 144 164
94 144 164
94 144 164
94 144 164
94 144 164
94 144 164
94 144 164
94 144 164
94 144 164
94 144 164
94 144 164
94 144 164
94 144 164
94 144 164
94 144 164
94 144 164
94 144 164
94 144 164
94 144 164
94 144 164
94 144 164
94 144 164
94 144 164
94 144 164
94 144 164
94 144 164
94 144 164
94 144 164
94 144 164
94 144 164
94 144 164
94 144 164
94 144 164
94 144 164
94 144 164
94 144 164
94 144 164
94 144 164
94 144 164
94 144 164
94 144 164
94 144 164
94 144 164
94 144 164
94 144 164
94 144 164
94 144 164
94 144 164
94 144 164
94 144 164
94 144 164
94 144 164
94 144 164
94 144 164
94 144 164
94 144 164
94 144 164
94 144 164
94 144 164
94 144 164
94 144 164
94 144 164
94 144 164
94 144 164
94 144 164
94 144 164
94 144 164
94 144 164
94 144 164
94 144 164
94 144 164
94 144 164
94 144 164
94 144 164
94 144 164
94 144 164
94 144 164
94 144 164
94 144 164
94 144 164
94 144 164
94 144 164
94 144 164
94 144 164
94 144 164
94 144 164
94 144 164
94 144 164
94 144 164
94 144 164
94 144 164
94 144 164
94 144 164
94 144 164
94 144 164
94 144 164
94 144 164
94 144 164
94 144 164
94 144 164
94 144 164
94 144 164
94 144 164
94 144 164
94 144 164
94 144 164
94 144 164
94 144 164
94 144 164
94 144 164
94 144 164
94 144 164
94 144 164
94 144 164
94 144 164
94 144 164
94 144 164
94 144 164
94 144 164
94 144 164
94 144 164
94 144 164
94 144 164
94 144 164
94 144 164
94 144 164
94 144 164
94 144 164
94 144 164
94 144 164
94 144 164
94 144 164
94 144 164
94 144 164
94 144 164
94 144 164
94 144 164
94 144 164
94 144 164
94 144 164
94 144 164
94 144 164
94 144 164
94 144 164
94 144 164
94 144 164
94 144 164
94 144 164
94 144 164
94 144 164
94 144 164
94 144 164
94 144 164
94 144 164
94 144 164
94 144 164
94 144 164
94 144 164
94 144 164
94 144 164
94 144 164
94 144 164
94 144 164
94 144 164
94 144 164
94 144 164
94 144 164
94 144 164
94 144 164
94 144 164
94 144 164
94 144 164
94 144 164
94 144 164
94 144 164
94 144 164
94 144 164
94 144 164
94 144 164
94 144 164
94 144 164
94 144 164
94 144 164
94 144 164
94 144 164
94 144 164
94 144 164
94 144 164
94 144 164
94 144 164
94 144 164
94 144 164
94 144 164
94 144 164
94 144 164
94 144 164
94 144 164
94 144 164
94 144 164
94 144 164
94 144 164
94 144 164
94 144 164
94 144 164
94 144 164
94 144 164
94 144 164
94 144 164
94 144 164
94 144 164
94 144 164
94 144 164
94 144 164
94 144 164
94 144 164
94 144 164
94 144 164
94 144 164
94 144 164
94 144 164
94 144 164
94 144 164
94 144 164
94 144 164
94 144 164
94 144 164
94 144 164
94 144 164
94 144 164
94 144 164
94 144 164
94 144 164
94 144 164
94 144 164
94 144 164
94 144 164
94 144 164
94 144 164
94 144 164
94 144 164
94 144 164
94 144 164
94 144 164
94 144 164
94 144 164
94 144 164
94 144 164
94 144 164
94 144 164
94 144 164
94 144 164
94 144 164
94 144 164
94 144 164
94 144 164
94 144 164
94 144 164
94 144 164
94 144 164
94 144 164
94 144 164
94 144 164
94 144 164
94 144 164
94 144 164
94 144 164
94 144 164
94 144 164
94 144 164
94 144 164
94 144 164
94 144 164
94 144 164
94 144 164
94 144 164
94 144 164
94 144 164
94 144 164
94 144 164
94 144 164
94 144 164
94 144 164
94 144 164
94 144 164
94 144 164
94 144 164
94 144 164
94 144 164
94 144 164
94 144 164
94 144 164
94 144 164
94 144 164
94 144 164
94 144 164
94 144 164
94 144 164
94 144 164
94 144 164
94 144 164
94 144 164
94 144 164
94 144 164
94 144 164
94 144 164
94 144 164
94 144 164
94 144 164
94 144 164
94 144 164
94 144 164
94 144 164
94 144 164
94 144 164
94 144 164
94 144 164
94 144 164
94 144 164
94 144 164
94 144 164
94 144 164
94 144 164
94 144 164
94 144 164
94 144 164
94 144 164
94 144 164
94 144 164
94 144 164
94 144 164
94 144 164
94 144 164
94 144 164
94 144 164
94 144 164
94 144 164
94 144 164
94 144 164
94 144 164
94 144 164
94 144 164
94 144 164
94 144 164
94 144 164
94 144 164
94 144 164
94 144 164
94 144 164
94 144 164
94 144 164
94 144 164
94 144 164
94 144 164
94 144 164
94 144 164
94 144 164
94 144 164
94 144 164
94 144 164
94 144 164
94 144 164
94 144 164
94 144 164
94 144 164
94 144 164
94 144 164
94 144 164
94 144 164
94 144 164
94 144 164
94 144 164
94 144 164
94 144 164
94 144 164
94 144 164
94 144 164
94 144 164
94 144 164
94 144 164
94 144 164
94 144 164
94 144 164
94 144 164
94 144 164
94 144 164
94 144 164
94 144 164
94 144 164
94 144 164
94 144 164
94 144 164
94 144 164
94 144 164
94 144 164
94 144 164
94 144 164
94 144 164
94 144 164
94 144 164
94 144 164
94 144 164
94 144 164
94 144 164
94 144 164
94 144 164
94 144 164
94 144 164
94 144 164
94 144 164
94 144 164
94 144 164
94 144 164
94 144 164
94 144 164
94 144 164
94 144 164
94 144 164
94 144 164
94 144 164
94 144 164
94 144 164
94 144 164
94 144 164
94 144 164
94 144 164
94 144 164
94 144 164
94 144 164
94 144 164
94 144 164
94 144 164
94 144 164
94 144 164
94 144 164
94 144 164
94 144 164
94 144 164
94 144 164
94 144 164
94 144 164
94 144 164
94 144 164
94 144 164
94 144 164
94 144 164
94 144 164
94 144 164
94 144 164
94 144 164
94 144 164
94 144 164
94 144 164
94 144 164
94 144 164
94 144 164
94 144 164
94 144 164
94 144 164
94 144 164
94 144 164
94 144 164
94 144 164
94 144 164
94 144 164
94 144 164
94 144 164
94 144 164
94 144 164
94 144 164
94 144 164
94 144 164
94 144 164
94 144 164
94 144 164
94 144 164
94 144 164
94 144 164
94 144 164
94 144 164
94 144 164
94 144 164
94 144 164
94 144 164
94 144 164
94 144 164
94 144 164
94 144 164
94 144 164
94 144 164
94 144 164
94 144 164
94 144 164
94 144 164
94 144 164
94 144 164
94 144 164
94 144 164
94 144 164
94 144 164
94 144 164
94 144 164
94 144 164
94 144 164
94 144 164
94 144 164
94 144 164
94 144 164
94 144 164
94 144 164
94 144 164
94 144 164
94 144 164
94 144 164
94 144 164
94 144 164
94 144 164
94 144 164
94 144 164
94 144 164
94 144 164
94 144 164
94 144 164
94 144 164
94 144 164
94 144 164
94 144 164
94 144 164
94 144 164
94 144 164
94 144 164
94 144 164
94 144 164
94 144 164
94 144 164
94 144 164
94 144 164
94 144 164
94 144 164
94 144 164
94 144 164
94 144 164
94 144 164
94 144 164
94 144 164
94 144 164
94 144 164
94 144 164
94 144 164
94 144 164
94 144 164
94 144 164
94 144 164
94 144 164
94 144 164
94 144 164
94 144 164
94 144 164
94 144 164
94 144 164
94 144 164
94 144 164
94 144 164
94 144 164
94 144 164
94 144 164
94 144 164
94 144 164
94 144 164
94 144 164
94 144 164
94 144 164
94 144 164
94 144 164
94 144 164
94 144 164
94 144 164
94 144 164
94 144 164
94 144 164
94 144 164
94 144 164
94 144 164
94 144 164
94 144 164
94 144 164
94 144 164
94 144 164
94 144 164
94 144 164
94 144 164
94 144 164
94 144 164
94 144 164
94 144 164
94 144 164
94 144 164
94 144 164
94 144 164
94 144 164
94 144 164
94 144 164
94 144 164
94 144 164
94 144 164
94 144 164
94 144 164
94 144 164
94 144 164
94 144 164
94 144 164
94 144 164
94 144 164
94 144 164
94 144 164
94 144 164
94 144 164
94 144 164
94 144 164
94 144 164
94 144 164
94 144 164
94 144 164
94 144 164
94 144 164
94 144 164
94 144 164
94 144 164
94 144 164
94 144 164
94 144 164
94 144 164
94 144 164
94 144 164
94 144 164
94 144 164
94 144 164
94 144 164
94 144 164
94 144 164
94 144 164
94 144 164
94 144 164
94 144 164
94 144 164
94 144 164
94 144 164
94 144 164
94 144 164
94 144 164
94 144 164
94 144 164
94 144 164
94 144 164
94 144 164
94 144 164
94 144 164
94 144 164
94 144 164
94 144 164
94 144 164
94 144 164
94 144 164
94 144 164
94 144 164
94 144 164
94 144 164
94 144 164
94 144 164
94 144 164
94 144 164
94 144 164
94 144 164
94 144 164
94 144 164
94 144 164
94 144 164
94 144 164
94 144 164
94 144 164
94 144 164
94 144 164
94 144 164
94 144 164
94 144 164
94 144 164
94 144 164
94 144 164
94 144 164
94 144 164
94 144 164
94 144 164
94 144 164
94 144 164
94 144 164
94 144 164
94 144 164
94 144 164
94 144 164
94 144 164
94 144 164
94 144 164
94 144 164
94 144 164
94 144 164
94 144 164
94 144 164
94 144 164
94 144 164
94 144 164
94 144 164
94 144 164
94 144 164
94 144 164
94 144 164
94 144 164
94 144 164
94 144 164
94 144 164
94 144 164
94 144 164
94 144 164
94 144 164
94 144 164
94 144 164
94 144 164
94 144 164
94 144 164
94 144 164
94 144 164
94 144 164
94 144 164
94 144 164
94 144 164
94 144 164
94 144 164
94 144 164
94 144 164
94 144 164
94 144 164
94 144 164
94 144 164
94 144 164
94 144 164
94 144 164
94 144 164
94 144 164
94 144 164
94 144 164
94 144 164
94 144 164
94 144 164
94 144 164
94 144 164
94 144 164
94 144 164
94 144 164
94 144 164
94 144 164
94 144 164
94 144 164
94 144 164
94 144 164
94 144 164
94 144 164
94 144 164
94 144 164
94 144 164
94 144 164
94 144 164
94 144 164
94 144 164
94 144 164
94 144 164
94 144 164
94 144 164
94 144 164
94 144 164
94 144 164
94 144 164
94 144 164
94 144 164
94 144 164
94 144 164
94 144 164
94 144 164
94 144 164
94 144 164
94 144 164
94 144 164
94 144 164
94 144 164
94 144 164
94 144 164
94 144 164
94 144 164
94 144 164
94 144 164
94 144 164
94 144 164
94 144 164
94 144 164
94 144 164
94 144 164
94 144 164
94 144 164
94 144 164
94 144 164
94 144 164
94 144 164
94 144 164
94 144 164
94 144 164
94 144 164
94 144 164
94 144 164
94 144 164
94 144 164
94 144 164
94 144 164
94 144 164
94 144 164
94 144 164
94 144 164
94 144 164
94 144 164
94 144 164
94 144 164
94 144 164
94 144 164
94 144 164
94 144 164
94 144 164
94 144 164
94 144 164
94 144 164
94 144 164
94 144 164
94 144 164
94 144 164
94 144 164
94 144 164
94 144 164
94 144 164
94 144 164
94 144 164
94 144 164
94 144 164
94 144 164
94 144 164
94 144 164
94 144 164
94 144 164
94 144 164
94 144 164
94 144 164
94 144 164
94 144 164
94 144 164
94 144 164
94 144 164
94 144 164
94 144 164
94 144 164
94 144 164
94 144 164
94 144 164
94 144 164
94 144 164
94 144 164
94 144 164
94 144 164
94 144 164
94 144 164
94 144 164
94 144 164
94 144 164
94 144 164
94 144 164
94 144 164
94 144 164
94 144 164
94 144 164
94 144 164
94 144 164
94 144 164
94 144 164
94 144 164
94 144 164
94 144 164
94 144 164
94 144 164
94 144 164
94 144 164
94 144 164
94 144 164
94 144 164
94 144 164
94 144 164
94 144 164
94 144 164
94 144 164
94 144 164
94 144 164
94 144 164
94 144 164
94 144 164
94 144 164
94 144 164
94 144 164
94 144 164
94 144 164
94 144 164
94 144 164
94 144 164
94 144 164
94 144 164
94 144 164
94 144 164
94 144 164
94 144 164
94 144 164
94 144 164
94 144 164
94 144 164
94 144 164
94 144 164
94 144 164
94 144 164
94 144 164
94 144 164
94 144 164
94 144 164
94 144 164
94 144 164
94 144 164
94 144 164
94 144 164
94 144 164
94 144 164
94 144 164
94 144 164
94 144 164
94 144 164
94 144 164
94 144 164
94 144 164
94 144 164
94 144 164
94 144 164
94 144 164
94 144 164
94 144 164
94 144 164
94 144 164
94 144 164
94 144 164
94 144 164
94 144 164
94 144 164
94 144 164
94 144 164
94 144 164
94 144 164
94 144 164
94 144 164
94 144 164
94 144 164
94 144 164
94 144 164
94 144 164
94 144 164
94 144 164
94 144 164
94 144 164
94 144 164
94 144 164
94 144 164
94 144 164
94 144 164
94 144 164
94 144 164
94 144 164
94 144 164
94 144 164
94 144 164
94 144 164
94 144 164
94 144 164
94 144 164
94 144 164
94 144 164
94 144 164
94 144 164
94 144 164
94 144 164
94 144 164
94 144 164
94 144 164
94 144 164
94 144 164
94 144 164
94 144 164
94 144 164
94 144 164
94 144 164
94 144 164
94 144 164
94 144 164
94 144 164
94 144 164
94 144 164
94 144 164
94 144 164
94 144 164
94 144 164
94 144 164
94 144 164
94 144 164
94 144 164
94 144 164
94 144 164
94 144 164
94 144 164
94 144 164
94 144 164
94 144 164
94 144 164
94 144 164
94 144 164
94 144 164
94 144 164
94 144 164
94 144 164
94 144 164
94 144 164
94 144 164
94 144 164
94 144 164
94 144 164
94 144 164
94 144 164
94 144 164
94 144 164
94 144 164
94 144 164
94 144 164
94 144 164
94 144 164
94 144 164
94 144 164
94 144 164
94 144 164
94 144 164
94 144 164
94 144 164
94 144 164
94 144 164
94 144 164
94 144 164
94 144 164
94 144 164
94 144 164
94 144 164
94 144 164
94 144 164
94 144 164
94 144 164
94 144 164
94 144 164
94 144 164
94 144 164
94 144 164
94 144 164
94 144 164
94 144 164
94 144 164
94 144 164
94 144 164
94 144 164
94 144 164
94 144 164
94 144 164
94 144 164
94 144 164
94 144 164
94 144 164
94 144 164
94 144 164
94 144 164
94 144 164
94 144 164
94 144 164
94 144 164
94 144 164
94 144 164
94 144 164
94 144 164
94 144 164
94 144 164
94 144 164
94 144 164
94 144 164
94 144 164
94 144 164
94 144 164
94 144 164
94 144 164
94 144 164
94 144 164
94 144 164
94 144 164
94 144 164
94 144 164
94 144 164
94 144 164
94 144 164
94 144 164
94 144 164
94 144 164
94 144 164
94 144 164
94 144 164
94 144 164
94 144 164
94 144 164
94 144 164
94 144 164
94 144 164
94 144 164
94 144 164
94 144 164
94 144 164
94 144 164
94 144 164
94 144 164
94 144 164
94 144 164
94 144 164
94 144 164
94 144 164
94 144 164
94 144 164
94 144 164
94 144 164
94 144 164
94 144 164
94 144 164
94 144 164
94 144 164
94 144 164
94 144 164
94 144 164
94 144 164
94 144 164
94 144 164
94 144 164
94 144 164
94 144 164
94 144 164
94 144 164
94 144 164
94 144 164
94 144 164
94 144 164
94 144 164
94 144 164
94 144 164
94 144 164
94 144 164
94 144 164
94 144 164
94 144 164
94 144 164
94 144 164
94 144 164
94 144 164
94 144 164
94 144 164
94 144 164
94 144 164
94 144 164
94 144 164
94 144 164
94 144 164
94 144 164
94 144 164
94 144 164
94 144 164
94 144 164
94 144 164
94 144 164
94 144 164
94 144 164
94 144 164
94 144 164
94 144 164
94 144 164
94 144 164
94 144 164
94 144 164
94 144 164
94 144 164
94 144 164
94 144 164
94 144 164
94 144 164
94 144 164
94 144 164
94 144 164
94 144 164
94 144 164
94 144 164
94 144 164
94 144 164
94 144 164
94 144 164
94 144 164
94 144 164
94 144 164
94 144 164
94 144 164
94 144 164
94 144 164
94 144 164
94 144 164
94 144 164
94 144 164
94 144 164
94 144 164
94 144 164
94 144 164
94 144 164
94 144 164
94 144 164
94 144 164
94 144 164
94 144 164
94 144 164
94 144 164
94 144 164
94 144 164
94 144 164
94 144 164
94 144 164
94 144 164
94 144 164
94 144 164
94 144 164
94 144 164
94 144 164
94 144 164
94 144 164
94 144 164
94 144 164
94 144 164
94 144 164
94 144 164
94 144 164
94 144 164
94 144 164
94 144 164
94 144 164
94 144 164
94 144 164
94 144 164
94 144 164
94 144 164
94 144 164
94 144 164
94 144 164
94 144 164
94 144 164
94 144 164
94 144 164
94 144 164
94 144 164
94 144 164
94 144 164
94 144 164
94 144 164
94 144 164
94 144 164
94 144 164
94 144 164
94 144 164
94 144 164
94 144 164
94 144 164
94 144 164
94 144 164
94 144 164
94 144 164
94 144 164
94 144 164
94 144 164
94 144 164
94 144 164
94 144 164
94 144 164
94 144 164
94 144 164
94 144 164
94 144 164
94 144 164
94 144 164
94 144 164
94 144 164
94 144 164
94 144 164
94 144 164
94 144 164
94 144 164
94 144 164
94 144 164
94 144 164
94 144 164
94 144 164
94 144 164
94 144 164
94 144 164
94 144 164
94 144 164
94 144 164
94 144 164
94 144 164
94 144 164
94 144 164
94 144 164
94 144 164
94 144 164
94 144 164
94 144 164
94 144 164
94 144 164
94 144 164
94 144 164
94 144 164
94 144 164
94 144 164
94 144 164
94 144 164
94 144 164
94 144 164
94 144 164
94 144 164
94 144 164
94 144 164
94 144 164
94 144 164
94 144 164
94 144 164
94 144 164
94 144 164
94 144 164
94 144 164
94 144 164
94 144 164
94 144 164
94 144 164
94 144 164
94 144 164
94 144 164
94 144 164
94 144 164
94 144 164
94 144 164
94 144 164
94 144 164
94 144 164
94 144 164
94 144 164
94 144 164
94 144 164
94 144 164
94 144 164
94 144 164
94 144 164
94 144 164
94 144 164
94 144 164
94 144 164
94 144 164
94 144 164
94 144 164
94 144 164
94 144 164
94 144 164
94 144 164
94 144 164
94 144 164
94 144 164
94 144 164
94 144 164
94 144 164
94 144 164
94 144 164
94 144 164
94 144 164
94 144 164
94 144 164
94 144 164
94 144 164
94 144 164
94 144 164
94 144 164
94 144 164
94 144 164
94 144 164
94 144 164
94 144 164
94 144 164
94 144 164
94 144 164
94 144 164
94 144 164
94 144 164
94 144 164
94 144 164
94 144 164
94 144 164
94 144 164
94 144 164
94 144 164
94 144 164
94 144 164
94 144 164
94 144 164
94 144 164
94 144 164
94 144 164
94 144 164
94 144 164
94 144 164
94 144 164
94 144 164
94 144 164
94 144 164
94 144 164
94 144 164
94 144 164
94 144 164
94 144 164
94 144 164
94 144 164
94 144 164
94 144 164
94 144 164
94 144 164
94 144 164
94 144 164
94 144 164
94 144 164
94 144 164
94 144 164
94 144 164
94 144 164
94 144 164
94 144 164
94 144 164
94 144 164
94 144 164
94 144 164
94 144 164
94 144 164
94 144 164
94 144 164
94 144 164
94 144 164
94 144 164
94 144 164
94 144 164
94 144 164
94 144 164
94 144 164
94 144 164
94 144 164
94 144 164
94 144 164
94 144 164
94 144 164
94 144 164
94 144 164
94 144 164
94 144 164
94 144 164
94 144 164
94 144 164
94 144 164
94 144 164
94 144 164
94 144 164
94 144 164
94 144 164
94 144 164
94 144 164
94 144 164
94 144 164
94 144 164
94 144 164
94 144 164
94 144 164
94 144 164
94 144 164
94 144 164
94 144 164
94 144 164
94 144 164
94 144 164
94 144 164
94 144 164
94 144 164
94 144 164
94 144 164
94 144 164
94 144 164
94 144 164
94 144 164
94 144 164
94 144 164
94 144 164
94 144 164
94 144 164
94 144 164
94 144 164
94 144 164
94 144 164
94 144 164
94 144 164
94 144 164
94 144 164
94 144 164
94 144 164
94 144 164
94 144 164
94 144 164
94 144 164
94 144 164
94 144 164
94 144 164
94 144 164
94 144 164
94 144 164
94 144 164
94 144 164
94 144 164
94 144 164
94 144 164
94 144 164
94 144 164
94 144 164
94 144 164
94 144 164
94 144 164
94 144 164
94 144 164
94 144 164
94 144 164
94 144 164
94 144 164
94 144 164
94 144 164
94 144 164
94 144 164
94 144 164
94 144 164
94 144 164
94 144 164
94 144 164
94 144 164
94 144 164
94 144 164
94 144 164
94 144 164
94 144 164
94 144 164
94 144 164
94 144 164
94 144 164
94 144 164
94 144 164
94 144 164
94 144 164
94 144 164
94 144 164
94 144 164
94 144 164
94 144 164
94 144 164
94 144 164
94 144 164
94 144 164
94 144 164
94 144 164
94 144 164
94 144 164
94 144 164
94 144 164
94 144 164
94 144 164
94 144 164
94 144 164
94 144 164
94 144 164
94 144 164
94 144 164
94 144 164
94 144 164
94 144 164
94 144 164
94 144 164
94 144 164
94 144 164
94 144 164
94 144 164
94 144 164
94 144 164
94 144 164
94 144 164
94 144 164
94 144 164
94 144 164
94 144 164
94 144 164
94 144 164
94 144 164
94 144 164
94 144 164
94 144 164
94 144 164
94 144 164
94 144 164
94 144 164
94 144 164
94 144 164
94 144 164
94 144 164
94 144 164
94 144 164
94 144 164
94 144 164
94 144 164
94 144 164
94 144 164
94 144 164
94 144 164
94 144 164
94 144 164
94 144 164
94 144 164
94 144 164
94 144 164
94 144 164
94 144 164
94 144 164
94 144 164
94 144 164
94 144 164
94 144 164
94 144 164
94 144 164
94 144 164
94 144 164
94 144 164
94 144 164
94 144 164
94 144 164
94 144 164
94 144 164
94 144 164
94 144 164
94 144 164
94 144 164
94 144 164
94 144 164
94 144 164
94 144 164
94 144 164
94 144 164
94 144 164
94 144 164
94 144 164
94 144 164
94 144 164
94 144 164
94 144 164
94 144 164
94 144 164
94 144 164
94 144 164
94 144 164
94 144 164
94 144 164
94 144 164
94 144 164
94 144 164
94 144 164
94 144 164
94 144 164
94 144 164
94 144 164
94 144 164
94 144 164
94 144 164
94 144 164
94 144 164
94 144 164
94 144 164
94 144 164
94 144 164
94 144 164
94 144 164
94 144 164
94 144 164
94 144 164
94 144 164
94 144 164
94 144 164
94 144 164
94 144 164
94 144 164
94 144 164
94 144 164
94 144 164
94 144 164
94 144 164
94 144 164
94 144 164
94 144 164
94 144 164
94 144 164
94 144 164
94 144 164
94 144 164
94 144 164
94 144 164
94 144 164
94 144 164
94 144 164
94 144 164
94 144 164
94 144 164
94 144 164
94 144 164
94 144 164
94 144 164
94 144 164
94 144 164
94 144 164
94 144 164
94 144 164
94 144 164
94 144 164
94 144 164
94 144 164
94 144 164
94 144 164
94 144 164
94 144 164
94 144 164
94 144 164
94 144 164
94 144 164
94 144 164
94 144 164
94 144 164
94 144 164
94 144 164
94 144 164
94 144 164
94 144 164
94 144 164
94 144 164
94 144 164
94 144 164
94 144 164
94 144 164
94 144 164
94 144 164
94 144 164
94 144 164
94 144 164
94 144 164
94 144 164
94 144 164
94 144 164
94 144 164
94 144 164
94 144 164
94 144 164
94 144 164
94 144 164
94 144 164
94 144 164
94 144 164
94 144 164
94 144 164
94 144 164
94 144 164
94 144 164
94 144 164
94 144 164
94 144 164
94 144 164
94 144 164
94 144 164
94 144 164
94 144 164
94 144 164
94 144 164
94 144 164
94 144 164
94 144 164
94 144 164
94 144 164
94 144 164
94 144 164
94 144 164
94 144 164
94 144 164
94 144 164
94 144 164
94 144 164
94 144 164
94 144 164
94 144 164
94 144 164
94 144 164
94 144 164
94 144 164
94 144 164
94 144 164
94 144 164
94 144 164
94 144 164
94 144 164
94 144 164
94 144 164
94 144 164
94 144 164
94 144 164
94 144 164
94 144 164
94 144 164
94 144 164
94 144 164
94 144 164
94 144 164
94 144 164
94 144 164
94 144 164
94 144 164
94 144 164
94 144 164
94 144 164
94 144 164
94 144 164
94 144 164
94 144 164
94 144 164
94 144 164
94 144 164
94 144 164
94 144 164
94 144 164
94 144 164
94 144 164
94 144 164
94 144 164
94 144 164
94 144 164
94 144 164
94 144 164
94 144 164
94 144 164
94 144 164
94 144 164
94 144 164
94 144 164
94 144 164
94 144 164
94 144 164
94 144 164
94 144 164
94 144 164
94 144 164
94 144 164
94 144 164
94 144 164
94 144 164
94 144 164
94 144 164
94 144 164
94 144 164
94 144 164
94 144 164
94 144 164
94 144 164
94 144 164
94 144 164
94 144 164
94 144 164
94 144 164
94 144 164
94 144 164
94 144 164
94 144 164
94 144 164
94 144 164
94 144 164
94 144 164
94 144 164
94 144 164
94 144 164
94 144 164
94 144 164
94 144 164
94 144 164
94 144 164
94 144 164
94 144 164
94 144 164
94 144 164
94 144 164
94 144 164
94 144 164
94 144 164
94 144 164
94 144 164
94 144 164
94 144 164
94 144 164
94 144 164
94 144 164
94 144 164
94 144 164
94 144 164
94 144 164
94 144 164
94 144 164
94 144 164
94 144 164
94 144 164
94 144 164
94 144 164
94 144 164
94 144 164
94 144 164
94 144 164
94 144 164
94 144 164
94 144 164
94 144 164
94 144 164
94 144 164
94 144 164
94 144 164
94 144 164
94 144 164
94 144 164
94 144 164
94 144 164
94 144 164
94 144 164
94 144 164
94 144 164
94 144 164
94 144 164
94 144 164
94 144 164
94 144 164
94 144 164
94 144 164
94 144 164
94 144 164
94 144 164
94 144 164
94 144 164
94 144 164
94 144 164
94 144 164
94 144 164
94 144 164
94 144 164
94 144 164
94 144 164
94 144 164
94 144 164
94 144 164
94 144 164
94 144 164
94 144 164
94 144 164
94 144 164
94 144 164
94 144 164
94 144 164
94 144 164
94 144 164
94 144 164
94 144 164
94 144 164
94 144 164
94 144 164
94 144 164
94 144 164
94 144 164
94 144 164
94 144 164
94 144 164
94 144 164
94 144 164
94 144 164
94 144 164
94 144 164
94 144 164
94 144 164
94 144 164
94 144 164
94 144 164
94 144 164
94 144 164
94 144 164
94 144 164
94 144 164
94 144 164
94 144 164
94 144 164
94 144 164
94 144 164
94 144 164
94 144 164
94 144 164
94 144 164
94 144 164
94 144 164
94 144 164
94 144 164
94 144 164
94 144 164
94 144 164
94 144 164
94 144 164
94 144 164
94 144 164
94 144 164
94 144 164
94 144 164
94 144 164
94 144 164
94 144 164
94 144 164
94 144 164
94 144 164
94 144 164
94 144 164
94 144 164
94 144 164
94 144 164
94 144 164
94 144 164
94 144 164
94 144 164
94 144 164
94 144 164
94 144 164
94 144 164
94 144 164
94 144 164
94 144 164
94 144 164
94 144 164
94 144 164
94 144 164
94 144 164
94 144 164
94 144 164
94 144 164
94 144 164
94 144 164
94 144 164
94 144 164
94 144 164
94 144 164
94 144 164
94 144 164
94 144 164
94 144 164
94 144 164
94 144 164
94 144 164
94 144 164
94 144 164
94 144 164
94 144 164
94 144 164
94 144 164
94 144 164
94 144 164
94 144 164
94 144 164
94 144 164
94 144 164
94 144 164
94 144 164
94 144 164
94 144 164
94 144 164
94 144 164
94 144 164
94 144 164
94 144 164
94 144 164
94 144 164
94 144 164
94 144 164
94 144 164
94 144 164
94 144 164
94 144 164
94 144 164
94 144 164
94 144 164
94 144 164
94 144 164
94 144 164
94 144 164
94 144 164
94 144 164
94 144 164
94 144 164
94 144 164
94 144 164
94 144 164
94 144 164
94 144 164
94 144 164
94 144 164
94 144 164
94 144 164
94 144 164
94 144 164
94 144 164
94 144 164
94 144 164
94 144 164
94 144 164
94 144 164
94 144 164
94 144 164
94 144 164
94 144 164
94 144 164
94 144 164
94 144 164
94 144 164
94 144 164
94 144 164
94 144 164
94 144 164
94 144 164
94 144 164
94 144 164
94 144 164
94 144 164
94 144 164
94 144 164
94 144 164
94 144 164
94 144 164
94 144 164
94 144 164
94 144 164
94 144 164
94 144 164
94 144 164
94 144 164
94 144 164
94 144 164
94 144 164
94 144 164
94 144 164
94 144 164
94 144 164
94 144 164
94 144 164
94 144 164
94 144 164
94 144 164
94 144 164
94 144 164
94 144 164
94 144 164
94 144 164
94 144 164
94 144 164
94 144 164
94 144 164
94 144 164
94 144 164
94 144 164
94 144 164
94 144 164
94 144 164
94 144 164
94 144 164
94 144 164
94 144 164
94 144 164
94 144 164
94 144 164
94 144 164
94 144 164
94 144 164
94 144 164
94 144 164
94 144 164
94 144 164
94 144 164
94 144 164
94 144 164
94 144 164
94 144 164
94 144 164
94 144 164
94 144 164
94 144 164
94 144 164
94 144 164
94 144 164
94 144 164
94 144 164
94 144 164
94 144 164
94 144 164
94 144 164
94 144 164
94 144 164
94 144 164
94 144 164
94 144 164
94 144 164
94 144 164
94 144 164
94 144 164
94 144 164
94 144 164
94 144 164
94 144 164
94 144 164
94 144 164
94 144 164
94 144 164
94 144 164
94 144 164
94 144 164
94 144 164
94 144 164
94 144 164
94 144 164
94 144 164
94 144 164
94 144 164
94 144 164
94 144 164
94 144 164
94 144 164
94 144 164
94 144 164
94 144 164
94 144 164
94 144 164
94 144 164
94 144 164
94 144 164
94 144 164
94 144 164
94 144 164
94 144 164
94 144 164
94 144 164
94 144 164
94 144 164
94 144 164
94 144 164
94 144 164
94 144 164
94 144 164
94 144 164
94 144 164
94 144 164
94 144 164
94 144 164
94 144 164
94 144 164
94 144 164
94 144 164
94 144 164
94 144 164
94 144 164
94 144 164
94 144 164
94 144 164
94 144 164
94 144 164
94 144 164
94 144 164
94 144 164
94 144 164
94 144 164
94 144 164
94 144 164
94 144 164
94 144 164
94 144 164
94 144 164
94 144 164
94 144 164
94 144 164
94 144 164
94 144 164
94 144 164
94 144 164
94 144 164
94 144 164
94 144 164
94 144 164
94 144 164
94 144 164
94 144 164
94 144 164
94 144 164
94 144 164
94 144 164
94 144 164
94 144 164
94 144 164
94 144 164
94 144 164
94 144 164
94 144 164
94 144 164
94 144 164
94 144 164
94 144 164
94 144 164
94 144 164
94 144 164
94 144 164
94 144 164
94 144 164
94 144 164
94 144 164
94 144 164
94 144 164
94 144 164
94 144 164
94 144 164
94 144 164
94 144 164
94 144 164
94 144 164
94 144 164
94 144 164
94 144 164
94 144 164
94 144 164
94 144 164
94 144 164
94 144 164
94 144 164
94 144 164
94 144 164
94 144 164
94 144 164
94 144 164
94 144 164
94 144 164
94 144 164
94 144 164
94 144 164
94 144 164
94 144 164
94 144 164
94 144 164
94 144 164
94 144 164
94 144 164
94 144 164
94 144 164
94 144 164
94 144 164
94 144 164
94 144 164
94 144 164
94 144 164
94 144 164
94 144 164
94 144 164
94 144 164
94 144 164
94 144 164
94 144 164
94 144 164
94 144 164
94 144 164
94 144 164
94 144 164
94 144 164
94 144 164
94 144 164
94 144 164
94 144 164
94 144 164
94 144 164
94 144 164
94 144 164
94 144 164
94 144 164
94 144 164
94 144 164
94 144 164
94 144 164
94 144 164
94 144 164
94 144 164
94 144 164
94 144 164
94 144 164
94 144 164
94 144 164
94 144 164
94 144 164
94 144 164
94 144 164
94 144 164
94 144 164
94 144 164
94 144 164
94 144 164
94 144 164
94 144 164
94 144 164
94 144 164
94 144 164
94 144 164
94 144 164
94 144 164
94 144 164
94 144 164
94 144 164
94 144 164
94 144 164
94 144 164
94 144 164
94 144 164
94 144 164
94 144 164
94 144 164
94 144 164
94 144 164
94 144 164
94 144 164
94 144 164
94 144 164
94 144 164
94 144 164
94 144 164
94 144 164
94 144 164
94 144 164
94 144 164
94 144 164
94 144 164
94 144 164
94 144 164
94 144 164
94 144 164
94 144 164
94 144 164
94 144 164
94 144 164
94 144 164
94 144 164
94 144 164
94 144 164
94 144 164
94 144 164
94 144 164
94 144 164
94 144 164
94 144 164
94 144 164
94 144 164
94 144 164
94 144 164
94 144 164
94 144 164
94 144 164
94 144 164
94 144 164
94 144 164
94 144 164
94 144 164
94 144 164
94 144 164
94 144 164
94 144 164
94 144 164
94 144 164
94 144 164
94 144 164
94 144 164
94 144 164
94 144 164
94 144 164
94 144 164
94 144 164
94 144 164
94 144 164
94 144 164
94 144 164
94 144 164
94 144 164
94 144 164
94 144 164
94 144 164
94 144 164
94 144 164
94 144 164
94 144 164
94 144 164
94 144 164
94 144 164
94 144 164
94 144 164
94 144 164
94 144 164
94 144 164
94 144 164
94 144 164
94 144 164
94 144 164
94 144 164
94 144 164
94 144 164
94 144 164
94 144 164
94 144 164
94 144 164
94 144 164
94 144 164
94 144 164
94 144 164
94 144 164
94 144 164
94 144 164
94 144 164
94 144 164
94 144 164
94 144 164
94 144 164
94 144 164
94 144 164
94 144 164
94 144 164
94 144 164
94 144 164
94 144 164
94 144 164
94 144 164
94 144 164
94 144 164
94 144 164
94 144 164
94 144 164
94 144 164
94 144 164
94 144 164
94 144 164
94 144 164
94 144 164
94 144 164
94 144 164
94 144 164
94 144 164
94 144 164
94 144 164
94 144 164
94 144 164
94 144 164
94 144 164
94 144 164
94 144 164
94 144 164
94 144 164
94 144 164
94 144 164
94 144 164
94 144 164
94 144 164
94 144 164
94 144 164
94 144 164
94 144 164
94 144 164
94 144 164
94 144 164
94 144 164
94 144 164
94 144 164
94 144 164
94 144 164
94 144 164
94 144 164
94 144 164
94 144 164
94 144 164
94 144 164
94 144 164
94 144 164
94 144 164
94 144 164
94 144 164
94 144 164
94 144 164
94 144 164
94 144 164
94 144 164
94 144 164
94 144 164
94 144 164
94 144 164
94 144 164
94 144 164
94 144 164
94 144 164
94 144 164
94 144 164
94 144 164
94 144 164
94 144 164
94 144 164
94 144 164
94 144 164
94 144 164
94 144 164
94 144 164
94 144 164
94 144 164
94 144 164
94 144 164
94 144 164
94 144 164
94 144 164
94 144 164
94 144 164
94 144 164
94 144 164
94 144 164
94 144 164
94 144 164
94 144 164
94 144 164
94 144 164
94 144 164
94 144 164
94 144 164
94 144 164
94 144 164
94 144 164
94 144 164
94 144 164
94 144 164
94 144 164
94 144 164
94 144 164
94 144 164
94 144 164
94 144 164
94 144 164
94 144 164
94 144 164
94 144 164
94 144 164
94 144 164
94 144 164
94 144 164
94 144 164
94 144 164
94 144 164
94 144 164
94 144 164
94 144 164
94 144 164
94 144 164
94 144 164
94 144 164
94 144 164
94 144 164
94 144 164
94 144 164
94 144 164
94 144 164
94 144 164
94 144 164
94 144 164
94 144 164
94 144 164
94 144 164
94 144 164
94 144 164
94 144 164
94 144 164
94 144 164
94 144 164
94 144 164
94 144 164
94 144 164
94 144 164
94 144 164
94 144 164
94 144 164
94 144 164
94 144 164
94 144 164
94 144 164
94 144 164
94 144 164
94 144 164
94 144 164
94 144 164
94 144 164
94 144 164
94 144 164
94 144 164
94 144 164
94 144 164
94 144 164
94 144 164
94 144 164
94 144 164
94 144 164
94 144 164
94 144 164
94 144 164
94 144 164
94 144 164
94 144 164
94 144 164
94 144 164
94 144 164
94 144 164
94 144 164
94 144 164
94 144 164
94 144 164
94 144 164
94 144 164
94 144 164
94 144 164
94 144 164
94 144 164
94 144 164
94 144 164
94 144 164
94 144 164
94 144 164
94 144 164
94 144 164
94 144 164
94 144 164
94 144 164
94 144 164
94 144 164
94 144 164
94 144 164
94 144 164
94 144 164
94 144 164
94 144 164
94 144 164
94 144 164
94 144 164
94 144 164
94 144 164
94 144 164
94 144 164
94 144 164
94 144 164
94 144 164
94 144 164
94 144 164
94 144 164
94 144 164
94 144 164
94 144 164
94 144 164
94 144 164
94 144 164
94 144 164
94 144 164
94 144 164
94 144 164
94 144 164
94 144 164
94 144 164
94 144 164
94 144 164
94 144 164
94 144 164
94 144 164
94 144 164
94 144 164
94 144 164
94 144 164
94 144 164
94 144 164
94 144 164
94 144 164
94 144 164
94 144 164
94 144 164
94 144 164
94 144 164
94 144 164
94 144 164
94 144 164
94 144 164
94 144 164
94 144 164
94 144 164
94 144 164
94 144 164
94 144 164
94 144 164
94 144 164
94 144 164
94 144 164
94 144 164
94 144 164
94 144 164
94 144 164
94 144 164
94 144 164
94 144 164
94 144 164
94 144 164
94 144 164
94 144 164
94 144 164
94 144 164
94 144 164
94 144 164
94 144 164
94 144 164
94 144 164
94 144 164
94 144 164
94 144 164
94 144 164
94 144 164
94 144 164
94 144 164
94 144 164
94 144 164
94 144 164
94 144 164
94 144 164
94 144 164
94 144 164
94 144 164
94 144 164
94 144 164
94 144 164
94 144 164
94 144 164
94 144 164
94 144 164
94 144 164
94 144 164
94 144 164
94 144 164
94 144 164
94 144 164
94 144 164
94 144 164
94 144 164
94 144 164
94 144 164
94 144 164
94 144 164
94 144 164
94 144 164
94 144 164
94 144 164
94 144 164
94 144 164
94 144 164
94 144 164
94 144 164
94 144 164
94 144 164
94 144 164
94 144 164
94 144 164
94 144 164
94 144 164
94 144 164
94 144 164
94 144 164
94 144 164
94 144 164
94 144 164
94 144 164
94 144 164
94 144 164
94 144 164
94 144 164
94 144 164
94 144 164
94 144 164
94 144 164
94 144 164
94 144 164
94 144 164
94 144 164
94 144 164
94 144 164
94 144 164
94 144 164
94 144 164
94 144 164
94 144 164
94 144 164
94 144 164
94 144 164
94 144 164
94 144 164
94 144 164
94 144 164
94 144 164
94 144 164
94 144 164
94 144 164
94 144 164
94 144 164
94 144 164
94 144 164
94 144 164
94 144 164
94 144 164
94 144 164
94 144 164
94 144 164
94 144 164
94 144 164
94 144 164
94 144 164
94 144 164
94 144 164
94 144 164
94 144 164
94 144 164
94 144 164
94 144 164
94 144 164
94 144 164
94 144 164
94 144 164
94 144 164
94 144 164
94 144 164
94 144 164
94 144 164
94 144 164
94 144 164
94 144 164
94 144 164
94 144 164
94 144 164
94 144 164
94 144 164
94 144 164
94 144 164
94 144 164
94 144 164
94 144 164
94 144 164
94 144 164
94 144 164
94 144 164
94 144 164
94 144 164
94 144 164
94 144 164
94 144 164
94 144 164
94 144 164
94 144 164
94 144 164
94 144 164
94 144 164
94 144 164
94 144 164
94 144 164
94 144 164
94 144 164
94 144 164
94 144 164
94 144 164
94 144 164
94 144 164
94 144 164
94 144 164
94 144 164
94 144 164
94 144 164
94 144 164
94 144 164
94 144 164
94 144 164
94 144 164
94 144 164
94 144 164
94 144 164
94 144 164
94 144 164
94 144 164
94 144 164
94 144 164
94 144 164
94 144 164
94 144 164
94 144 164
94 144 164
94 144 164
94 144 164
94 144 164
94 144 164
94 144 164
94 144 164
94 144 164
94 144 164
94 144 164
94 144 164
94 144 164
94 144 164
94 144 164
94 144 164
94 144 164
94 144 164
94 144 164
94 144 164
94 144 164
94 144 164
94 144 164
94 144 164
94 144 164
94 144 164
94 144 164
94 144 164
94 144 164
94 144 164
94 144 164
94 144 164
94 144 164
94 144 164
94 144 164
94 144 164
94 144 164
94 144 164
94 144 164
94 144 164
94 144 164
94 144 164
94 144 164
94 144 164
94 144 164
94 144 164
94 144 164
94 144 164
94 144 164
94 144 164
94 144 164
94 144 164
94 144 164
94 144 164
94 144 164
94 144 164
94 144 164
94 144 164
94 144 164
94 144 164
94 144 164
94 144 164
94 144 164
94 144 164
94 144 164
94 144 164
94 144 164
94 144 164
94 144 164
94 144 164
94 144 164
94 144 164
94 144 164
94 144 164
94 144 164
94 144 164
94 144 164
94 144 164
94 144 164
94 144 164
94 144 164
94 144 164
94 144 164
94 144 164
94 144 164
94 144 164
94 144 164
94 144 164
94 144 164
94 144 164
94 144 164
94 144 164
94 144 164
94 144 164
94 144 164
94 144 164
94 144 164
94 144 164
94 144 164
94 144 164
94 144 164
94 144 164
94 144 164
94 144 164
94 144 164
94 144 164
94 144 164
94 144 164
94 144 164
94 144 164
94 144 164
94 144 164
94 144 164
94 144 164
94 144 164
94 144 164
94 144 164
94 144 164
94 144 164
94 144 164
94 144 164
94 144 164
94 144 164
94 144 164
94 144 164
94 144 164
94 144 164
94 144 164
94 144 164
94 144 164
94 144 164
94 144 164
94 144 164
94 144 164
94 144 164
94 144 164
94 144 164
94 144 164
94 144 164
94 144 164
94 144 164
94 144 164
94 144 164
94 144 164
94 144 164
94 144 164
94 144 164
94 144 164
94 144 164
94 144 164
94 144 164
94 144 164
94 144 164
94 144 164
94 144 164
94 144 164
94 144 164
94 144 164
94 144 164
94 144 164
94 144 164
94 144 164
94 144 164
94 144 164
94 144 164
94 144 164
94 144 164
94 144 164
94 144 164
94 144 164
94 144 164
94 144 164
94 144 164
94 144 164
94 144 164
94 144 164
94 144 164
94 144 164
94 144 164
94 144 164
94 144 164
94 144 164
94 144 164
94 144 164
94 144 164
94 144 164
94 144 164
94 144 164
94 144 164
94 144 164
94 144 164
94 144 164
94 144 164
94 144 164
94 144 164
94 144 164
94 144 164
94 144 164
94 144 164
94 144 164
94 144 164
94 144 164
94 144 164
94 144 164
94 144 164
94 144 164
94 144 164
94 144 164
94 144 164
94 144 164
94 144 164
94 144 164
94 144 164
94 144 164
94 144 164
94 144 164
94 144 164
94 144 164
94 144 164
94 144 164
94 144 164
94 144 164
94 144 164
94 144 164
94 144 164
94 144 164
94 144 164
94 144 164
94 144 164
94 144 164
94 144 164
94 144 164
94 144 164
94 144 164
94 144 164
94 144 164
94 144 164
94 144 164
94 144 164
94 144 164
94 144 164
94 144 164
94 144 164
94 144 164
94 144 164
94 144 164
94 144 164
94 144 164
94 144 164
94 144 164
94 144 164
94 144 164
94 144 164
94 144 164
94 144 164
94 144 164
94 144 164
94 144 164
94 144 164
94 144 164
94 144 164
94 144 164
94 144 164
94 144 164
94 144 164
94 144 164
94 144 164
94 144 164
94 144 164
94 144 164
94 144 164
94 144 164
94 144 164
94 144 164
94 144 164
94 144 164
94 144 164
94 144 164
94 144 164
94 144 164
94 144 164
94 144 164
94 144 164
94 144 164
94 144 164
94 144 164
94 144 164
94 144 164
94 144 164
94 144 164
94 144 164
94 144 164
94 144 164
94 144 164
94 144 164
94 144 164
94 144 164
94 144 164
94 144 164
94 144 164
94 144 164
94 144 164
94 144 164
94 144 164
94 144 164
94 144 164
94 144 164
94 144 164
94 144 164
94 144 164
94 144 164
94 144 164
94 144 164
94 144 164
94 144 164
94 144 164
94 144 164
94 144 164
94 144 164
94 144 164
94 144 164
94 144 164
94 144 164
94 144 164
94 144 164
94 144 164
94 144 164
94 144 164
94 144 164
94 144 164
94 144 164
94 144 164
94 144 164
94 144 164
94 144 164
94 144 164
94 144 164
94 144 164
94 144 164
94 144 164
94 144 164
94 144 164
94 144 164
94 144 164
94 144 164
94 144 164
94 144 164
94 144 164
94 144 164
94 144 164
94 144 164
94 144 164
94 144 164
94 144 164
94 144 164
94 144 164
94 144 164
94 144 164
94 144 164
94 144 164
94 144 164
94 144 164
94 144 164
94 144 164
94 144 164
94 144 164
94 144 164
94 144 164
94 144 164
94 144 164
94 144 164
94 144 164
94 144 164
94 144 164
94 144 164
94 144 164
94 144 164
94 144 164
94 144 164
94 144 164
94 144 164
94 144 164
94 144 164
94 144 164
94 144 164
94 144 164
94 144 164
94 144 164
94 144 164
94 144 164
94 144 164
94 144 164
94 144 164
94 144 164
94 144 164
94 144 164
94 144 164
94 144 164
94 144 164
94 144 164
94 144 164
94 144 164
94 144 164
94 144 164
94 144 164
94 144 164
94 144 164
94 144 164
94 144 164
94 144 164
94 144 164
94 144 164
94 144 164
94 144 164
94 144 164
94 144 164
94 144 164
94 144 164
94 144 164
94 144 164
94 144 164
94 144 164
94 144 164
94 144 164
94 144 164
94 144 164
94 144 164
94 144 164
94 144 164
94 144 164
94 144 164
94 144 164
94 144 164
94 144 164
94 144 164
94 144 164
94 144 164
94 144 164
94 144 164
94 144 164
94 144 164
94 144 164
94 144 164
94 144 164
94 144 164
94 144 164
94 144 164
94 144 164
94 144 164
94 144 164
94 144 164
94 144 164
94 144 164
94 144 164
94 144 164
94 144 164
94 144 164
94 144 164
94 144 164
94 144 164
94 144 164
94 144 164
94 144 164
94 144 164
94 144 164
94 144 164
94 144 164
94 144 164
94 144 164
94 144 164
94 144 164
94 144 164
94 144 164
94 144 164
94 144 164
94 144 164
94 144 164
94 144 164
94 144 164
94 144 164
94 144 164
94 144 164
94 144 164
94 144 164
94 144 164
94 144 164
94 144 164
94 144 164
94 144 164
94 144 164
94 144 164
94 144 164
94 144 164
94 144 164
94 144 164
94 144 164
94 144 164
94 144 164
94 144 164
94 144 164
94 144 164
94 144 164
94 144 164
94 144 164
94 144 164
94 144 164
94 144 164
94 144 164
94 144 164
94 144 164
94 144 164
94 144 164
94 144 164
94 144 164
94 144 164
94 144 164
94 144 164
94 144 164
94 144 164
94 144 164
94 144 164
94 144 164
94 144 164
94 144 164
94 144 164
94 144 164
94 144 164
94 144 164
94 144 164
94 144 164
94 144 164
94 144 164
94 144 164
94 144 164
94 144 164
94 144 164
94 144 164
94 144 164
94 144 164
94 144 164
94 144 164
94 144 164
94 144 164
94 144 164
94 144 164
94 144 164
94 144 164
94 144 164
94 144 164
94 144 164
94 144 164
94 144 164
94 144 164
94 144 164
94 144 164
94 144 164
94 144 164
94 144 164
94 144 164
94 144 164
94 144 164
94 144 164
94 144 164
94 144 164
94 144 164
94 144 164
94 144 164
94 144 164
94 144 164
94 144 164
94 144 164
94 144 164
94 144 164
94 144 164
94 144 164
94 144 164
94 144 164
94 144 164
94 144 164
94 144 164
94 144 164
94 144 164
94 144 164
94 144 164
94 144 164
94 144 164
94 144 164
94 144 164
94 144 164
94 144 164
94 144 164
94 144 164
94 144 164
94 144 164
94 144 164
94 144 164
94 144 164
94 144 164
94 144 164
94 144 164
94 144 164
94 144 164
94 144 164
94 144 164
94 144 164
94 144 164
94 144 164
94 144 164
94 144 164
94 144 164
94 144 164
94 144 164
94 144 164
94 144 164
94 144 164
94 144 164
94 144 164
94 144 164
94 144 164
94 144 164
94 144 164
94 144 164
94 144 164
94 144 164
94 144 164
94 144 164
94 144 164
94 144 164
94 144 164
94 144 164
94 144 164
94 144 164
94 144 164
94 144 164
94 144 164
94 144 164
94 144 164
94 144 164
94 144 164
94 144 164
94 144 164
94 144 164
94 144 164
94 144 164
94 144 164
94 144 164
94 144 164
94 144 164
94 144 164
94 144 164
94 144 164
94 144 164
94 144 164
94 144 164
94 144 164
94 144 164
94 144 164
94 144 164
94 144 164
94 144 164
94 144 164
94 144 164
94 144 164
94 144 164
94 144 164
94 144 164
94 144 164
94 144 164
94 144 164
94 144 164
94 144 164
94 144 164
94 144 164
94 144 164
94 144 164
94 144 164
94 144 164
94 144 164
94 144 164
94 144 164
94 144 164
94 144 164
94 144 164
94 144 164
94 144 164
94 144 164
94 144 164
94 144 164
94 144 164
94 144 164
94 144 164
94 144 164
94 144 164
94 144 164
94 144 164
94 144 164
94 144 164
94 144 164
94 144 164
94 144 164
94 144 164
94 144 164
94 144 164
94 144 164
94 144 164
94 144 164
94 144 164
94 144 164
94 144 164
94 144 164
94 144 164
94 144 164
94 144 164
94 144 164
94 144 164
94 144 164
94 144 164
94 144 164
94 144 164
94 144 164
94 144 164
94 144 164
94 144 164
94 144 164
94 144 164
94 144 164
94 144 164
94 144 164
94 144 164
94 144 164
94 144 164
94 144 164
94 144 164
94 144 164
94 144 164
94 144 164
94 144 164
94 144 164
94 144 164
94 144 164
94 144 164
94 144 164
94 144 164
94 144 164
94 144 164
94 144 164
94 144 164
94 144 164
94 144 164
94 144 164
94 144 164
94 144 164
94 144 164
94 144 164
94 144 164
94 144 164
94 144 164
94 144 164
94 144 164
94 144 164
94 144 164
94 144 164
94 144 164
94 144 164
94 144 164
94 144 164
94 144 164
94 144 164
94 144 164
94 144 164
94 144 164
94 144 164
94 144 164
94 144 164
94 144 164
94 144 164
94 144 164
94 144 164
94 144 164
94 144 164
94 144 164
94 144 164
94 144 164
94 144 164
94 144 164
94 144 164
94 144 164
94 144 164
94 144 164
94 144 164
94 144 164
94 144 164
94 144 164
94 144 164
94 144 164
94 144 164
94 144 164
94 144 164
94 144 164
94 144 164
94 144 164
94 144 164
94 144 164
94 144 164
94 144 164
94 144 164
94 144 164
94 144 164
94 144 164
94 144 164
94 144 164
94 144 164
94 144 164
94 144 164
94 144 164
94 144 164
94 144 164
94 144 164
94 144 164
94 144 164
94 144 164
94 144 164
94 144 164
94 144 164
94 144 164
94 144 164
94 144 164
94 144 164
94 144 164
94 144 164
94 144 164
94 144 164
94 144 164
94 144 164
94 144 164
94 144 164
94 144 164
94 144 164
94 144 164
94 144 164
94 144 164
94 144 164
94 144 164
94 144 164
94 144 164
94 144 164
94 144 164
94 144 164
94 144 164
94 144 164
94 144 164
94 144 164
94 144 164
94 144 164
94 144 164
94 144 164
94 144 164
94 144 164
94 144 164
94 144 164
94 144 164
94 144 164
94 144 164
94 144 164
94 144 164
94 144 164
94 144 164
94 144 164
94 144 164
94 144 164
94 144 164
94 144 164
94 144 164
94 144 164
94 144 164
94 144 164
94 144 164
94 144 164
94 144 164
94 144 164
94 144 164
94 144 164
94 144 164
94 144 164
94 144 164
94 144 164
94 144 164
94 144 164
94 144 164
94 144 164
94 144 164
94 144 164
94 144 164
94 144 164
94 144 164
94 144 164
94 144 164
94 144 164
94 144 164
94 144 164
94 144 164
94 144 164
94 144 164
94 144 164
94 144 164
94 144 164
94 144 164
94 144 164
94 144 164
94 144 164
94 144 164
94 144 164
94 144 164
94 144 164
94 144 164
94 144 164
94 144 164
94 144 164
94 144 164
94 144 164
94 144 164
94 144 164
94 144 164
94 144 164
94 144 164
94 144 164
94 144 164
94 144 164
94 144 164
94 144 164
94 144 164
94 144 164
94 144 164
94 144 164
94 144 164
94 144 164
94 144 164
94 144 164
94 144 164
94 144 164
94 144 164
94 144 164
94 144 164
94 144 164
94 144 164
94 144 164
94 144 164
94 144 164
94 144 164
94 144 164
94 144 164
94 144 164
94 144 164
94 144 164
94 144 164
94 144 164
94 144 164
94 144 164
94 144 164
94 144 164
94 144 164
94 144 164
94 144 164
94 144 164
94 144 164
94 144 164
94 144 164
94 144 164
94 144 164
94 144 164
94 144 164
94 144 164
94 144 164
94 144 164
94 144 164
94 144 164
94 144 164
94 144 164
94 144 164
94 144 164
94 144 164
94 144 164
94 144 164
94 144 164
94 144 164
94 144 164
94 144 164
94 144 164
94 144 164
94 144 164
94 144 164
94 144 164
94 144 164
94 144 164
94 144 164
94 144 164
94 144 164
94 144 164
94 144 164
94 144 164
94 144 164
94 144 164
94 144 164
94 144 164
94 144 164
94 144 164
94 144 164
94 144 164
94 144 164
94 144 164
94 144 164
94 144 164
94 144 164
94 144 164
94 144 164
94 144 164
94 144 164
94 144 164
94 144 164
94 144 164
94 144 164
94 144 164
94 144 164
94 144 164
94 144 164
94 144 164
94 144 164
94 144 164
94 144 164
94 144 164
94 144 164
94 144 164
94 144 164
94 144 164
94 144 164
94 144 164
94 144 164
94 144 164
94 144 164
94 144 164
94 144 164
94 144 164
94 144 164
94 144 164
94 144 164
94 144 164
94 144 164
94 144 164
94 144 164
94 144 164
94 144 164
94 144 164
94 144 164
94 144 164
94 144 164
94 144 164
94 144 164
94 144 164
94 144 164
94 144 164
94 144 164
94 144 164
94 144 164
94 144 164
94 144 164
94 144 164
94 144 164
94 144 164
94 144 164
94 144 164
94 144 164
94 144 164
94 144 164
94 144 164
94 144 164
94 144 164
94 144 164
94 144 164
94 144 164
94 144 164
94 144 164
94 144 164
94 144 164
94 144 164
94 144 164
94 144 164
94 144 164
94 144 164
94 144 164
94 144 164
94 144 164
94 144 164
94 144 164
94 144 164
94 144 164
94 144 164
94 144 164
94 144 164
94 144 164
94 144 164
94 144 164
94 144 164
94 144 164
94 144 164
94 144 164
94 144 164
94 144 164
94 144 164
94 144 164
94 144 164
94 144 164
94 144 164
94 144 164
94 144 164
94 144 164
94 144 164
94 144 164
94 144 164
94 144 164
94 144 164
94 144 164
94 144 164
94 144 164
94 144 164
94 144 164
94 144 164
94 144 164
94 144 164
94 144 164
94 144 164
94 144 164
94 144 164
94 144 164
94 144 164
94 144 164
94 144 164
94 144 164
94 144 164
94 144 164
94 144 164
94 144 164
94 144 164
94 144 164
94 144 164
94 144 164
94 144 164
94 144 164
94 144 164
94 144 164
94 144 164
94 144 164
94 144 164
94 144 164
94 144 164
94 144 164
94 144 164
94 144 164
94 144 164
94 144 164
94 144 164
94 144 164
94 144 164
94 144 164
94 144 164
94 144 164
94 144 164
94 144 164
94 144 164
94 144 164
94 144 164
94 144 164
94 144 164
94 144 164
94 144 164
94 144 164
94 144 164
94 144 164
94 144 164
94 144 164
94 144 164
94 144 164
94 144 164
94 144 164
94 144 164
94 144 164
94 144 164
94 144 164
94 144 164
94 144 164
94 144 164
94 144 164
94 144 164
94 144 164
94 144 164
94 144 164
94 144 164
94 144 164
94 144 164
94 144 164
94 144 164
94 144 164
94 144 164
94 144 164
94 144 164
94 144 164
94 144 164
94 144 164
94 144 164
94 144 164
94 144 164
94 144 164
94 144 164
94 144 164
94 144 164
94 144 164
94 144 164
94 144 164
94 144 164
94 144 164
94 144 164
94 144 164
94 144 164
94 144 164
94 144 164
94 144 164
94 144 164
94 144 164
94 144 164
94 144 164
94 144 164
94 144 164
94 144 164
94 144 164
94 144 164
94 144 164
94 144 164
94 144 164
94 144 164
94 144 164
94 144 164
94 144 164
94 144 164
94 144 164
94 144 164
94 144 164
94 144 164
94 144 164
94 144 164
94 144 164
94 144 164
94 144 164
94 144 164
94 144 164
94 144 164
94 144 164
94 144 164
94 144 164
94 144 164
94 144 164
94 144 164
94 144 164
94 144 164
94 144 164
94 144 164
94 144 164
94 144 164
94 144 164
94 144 164
94 144 164
94 144 164
94 144 164
94 144 164
94 144 164
94 144 164
94 144 164
94 144 164
94 144 164
94 144 164
94 144 164
94 144 164
94 144 164
94 144 164
94 144 164
94 144 164
94 144 164
94 144 164
94 144 164
94 144 164
94 144 164
94 144 164
94 144 164
94 144 164
94 144 164
94 144 164
94 144 164
94 144 164
94 144 164
94 144 164
94 144 164
94 144 164
94 144 164
94 144 164
94 144 164
94 144 164
94 144 164
94 144 164
94 144 164
94 144 164
94 144 164
94 144 164
94 144 164
94 144 164
94 144 164
94 144 164
94 144 164
94 144 164
94 144 164
94 144 164
94 144 164
94 144 164
94 144 164
94 144 164
94 144 164
94 144 164
94 144 164
94 144 164
94 144 164
94 144 164
94 144 164
94 144 164
94 144 164
94 144 164
94 144 164
94 144 164
94 144 164
94 144 164
94 144 164
94 144 164
94 144 164
94 144 164
94 144 164
94 144 164
94 144 164
94 144 164
94 144 164
94 144 164
94 144 164
94 144 164
94 144 164
94 144 164
94 144 164
94 144 164
94 144 164
94 144 164
94 144 164
94 144 164
94 144 164
94 144 164
94 144 164
94 144 164
94 144 164
94 144 164
94 144 164
94 144 164
94 144 164
94 144 164
94 144 164
94 144 164
94 144 164
94 144 164
94 144 164
94 144 164
94 144 164
94 144 164
94 144 164
94 144 164
94 144 164
94 144 164
94 144 164
94 144 164
94 144 164
94 144 164
94 144 164
94 144 164
94 144 164
94 144 164
94 144 164
94 144 164
94 144 164
94 144 164
94 144 164
94 144 164
94 144 164
94 144 164
94 144 164
94 144 164
94 144 164
94 144 164
94 144 164
94 144 164
94 144 164
94 144 164
94 144 164
94 144 164
94 144 164
94 144 164
94 144 164
94 144 164
94 144 164
94 144 164
94 144 164
94 144 164
94 144 164
94 144 164
94 144 164
94 144 164
94 144 164
94 144 164
94 144 164
94 144 164
94 144 164
94 144 164
94 144 164
94 144 164
94 144 164
94 144 164
94 144 164
94 144 164
94 144 164
94 144 164
94 144 164
94 144 164
94 144 164
94 144 164
94 144 164
94 144 164
94 144 164
94 144 164
94 144 164
94 144 164
94 144 164
94 144 164
94 144 164
94 144 164
94 144 164
94 144 164
94 144 164
94 144 164
94 144 164
94 144 164
94 144 164
94 144 164
94 144 164
94 144 164
94 144 164
94 144 164
94 144 164
94 144 164
94 144 164
94 144 164
94 144 164
94 144 164
94 144 164
94 144 164
94 144 164
94 144 164
94 144 164
94 144 164
94 144 164
94 144 164
94 144 164
94 144 164
94 144 164
94 144 164
94 144 164
94 144 164
94 144 164
94 144 164
94 144 164
94 144 164
94 144 164
94 144 164
94 144 164
94 144 164
94 144 164
94 144 164
94 144 164
94 144 164
94 144 164
94 144 164
94 144 164
94 144 164
94 144 164
94 144 164
94 144 164
94 144 164
94 144 164
94 144 164
94 144 164
94 144 164
94 144 164
94 144 164
94 144 164
94 144 164
94 144 164
94 144 164
94 144 164
94 144 164
94 144 164
94 144 164
94 144 164
94 144 164
94 144 164
94 144 164
94 144 164
94 144 164
94 144 164
94 144 164
94 144 164
94 144 164
94 144 164
94 144 164
94 144 164
94 144 164
94 144 164
94 144 164
94 144 164
94 144 164
94 144 164
94 144 164
94 144 164
94 144 164
94 144 164
94 144 164
94 144 164
94 144 164
94 144 164
94 144 164
94 144 164
94 144 164
94 144 164
94 144 164
94 144 164
94 144 164
94 144 164
94 144 164
94 144 164
94 144 164
94 144 164
94 144 164
94 144 164
94 144 164
94 144 164
94 144 164
94 144 164
94 144 164
94 144 164
94 144 164
94 144 164
94 144 164
94 144 164
94 144 164
94 144 164
94 144 164
94 144 164
94 144 164
94 144 164
94 144 164
94 144 164
94 144 164
94 144 164
94 144 164
94 144 164
94 144 164
94 144 164
94 144 164
94 144 164
94 144 164
94 144 164
94 144 164
94 144 164
94 144 164
94 144 164
94 144 164
94 144 164
94 144 164
94 144 164
94 144 164
94 144 164
94 144 164
94 144 164
94 144 164
94 144 164
94 144 164
94 144 164
94 144 164
94 144 164
94 144 164
94 144 164
94 144 164
94 144 164
94 144 164
94 144 164
94 144 164
94 144 164
94 144 164
94 144 164
94 144 164
94 144 164
94 144 164
94 144 164
94 144 164
94 144 164
94 144 164
94 144 164
94 144 164
94 144 164
94 144 164
94 144 164
94 144 164
94 144 164
94 144 164
94 144 164
94 144 164
94 144 164
94 144 164
94 144 164
94 144 164
94 144 164
94 144 164
94 144 164
94 144 164
94 144 164
94 144 164
94 144 164
94 144 164
94 144 164
94 144 164
94 144 164
94 144 164
94 144 164
94 144 164
94 144 164
94 144 164
94 144 164
94 144 164
94 144 164
94 144 164
94 144 164
94 144 164
94 144 164
94 144 164
94 144 164
94 144 164
94 144 164
94 144 164
94 144 164
94 144 164
94 144 164
94 144 164
94 144 164
94 144 164
94 144 164
94 144 164
94 144 164
94 144 164
94 144 164
94 144 164
94 144 164
94 144 164
94 144 164
94 144 164
94 144 164
94 144 164
94 144 164
94 144 164
94 144 164
94 144 164
94 144 164
94 144 164
94 144 164
94 144 164
94 144 164
94 144 164
94 144 164
94 144 164
94 144 164
94 144 164
94 144 164
94 144 164
94 144 164
94 144 164
94 144 164
94 144 164
94 144 164
94 144 164
94 144 164
94 144 164
94 144 164
94 144 164
94 144 164
94 144 164
94 144 164
94 144 164
94 144 164
94 144 164
94 144 164
94 144 164
94 144 164
94 144 164
94 144 164
94 144 164
94 144 164
94 144 164
94 144 164
94 144 164
94 144 164
94 144 164
94 144 164
94 144 164
94 144 164
94 144 164
94 144 164
94 144 164
94 144 164
94 144 164
94 144 164
94 144 164
94 144 164
94 144 164
94 144 164
94 144 164
94 144 164
94 144 164
94 144 164
94 144 164
94 144 164
94 144 164
94 144 164
94 144 164
94 144 164
94 144 164
94 144 164
94 144 164
94 144 164
94 144 164
94 144 164
94 144 164
94 144 164
94 144 164
94 144 164
94 144 164
94 144 164
94 144 164
94 144 164
94 144 164
94 144 164
94 144 164
94 144 164
94 144 164
94 144 164
94 144 164
94 144 164
94 144 164
94 144 164
94 144 164
94 144 164
94 144 164
94 144 164
94 144 164
94 144 164
94 144 164
94 144 164
94 144 164
94 144 164
94 144 164
94 144 164
94 144 164
94 144 164
94 144 164
94 144 164
94 144 164
94 144 164
94 144 164
94 144 164
94 144 164
94 144 164
94 144 164
94 144 164
94 144 164
94 144 164
94 144 164
94 144 164
94 144 164
94 144 164
94 144 164
94 144 164
94 144 164
94 144 164
94 144 164
94 144 164
94 144 164
94 144 164
94 144 164
94 144 164
94 144 164
94 144 164
94 144 164
94 144 164
94 144 164
94 144 164
94 144 164
94 144 164
94 144 164
94 144 164
94 144 164
94 144 164
94 144 164
94 144 164
94 144 164
94 144 164
94 144 164
94 144 164
94 144 164
94 144 164
94 144 164
94 144 164
94 144 164
94 144 164
94 144 164
94 144 164
94 144 164
94 144 164
94 144 164
94 144 164
94 144 164
94 144 164
94 144 164
94 144 164
94 144 164
94 144 164
94 144 164
94 144 164
94 144 164
94 144 164
94 144 164
94 144 164
94 144 164
94 144 164
94 144 164
94 144 164
94 144 164
94 144 164
94 144 164
94 144 164
94 144 164
94 144 164
94 144 164
94 144 164
94 144 164
94 144 164
94 144 164
94 144 164
94 144 164
94 144 164
94 144 164
94 144 164
94 144 164
94 144 164
94 144 164
94 144 164
94 144 164
94 144 164
94 144 164
94 144 164
94 144 164
94 144 164
94 144 164
94 144 164
94 144 164
94 144 164
94 144 164
94 144 164
94 144 164
94 144 164
94 144 164
94 144 164
94 144 164
94 144 164
94 144 164
94 144 164
94 144 164
94 144 164
94 144 164
94 144 164
94 144 164
94 144 164
94 144 164
94 144 164
94 144 164
94 144 164
94 144 164
94 144 164
94 144 164
94 144 164
94 144 164
94 144 164
94 144 164
94 144 164
94 144 164
94 144 164
94 144 164
94 144 164
94 144 164
94 144 164
94 144 164
94 144 164
94 144 164
94 144 164
94 144 164
94 144 164
94 144 164
94 144 164
94 144 164
94 144 164
94 144 164
94 144 164
94 144 164
94 144 164
94 144 164
94 144 164
94 144 164
94 144 164
94 144 164
94 144 164
94 144 164
94 144 164
94 144 164
94 144 164
94 144 164
94 144 164
94 144 164
94 144 164
94 144 164
94 144 164
94 144 164
94 144 164
94 144 164
94 144 164
94 144 164
94 144 164
94 144 164
94 144 164
94 144 164
94 144 164
94 144 164
94 144 164
94 144 164
94 144 164
94 144 164
94 144 164
94 144 164
94 144 164
94 144 164
94 144 164
94 144 164
94 144 164
94 144 164
94 144 164
94 144 164
94 144 164
94 144 164
94 144 164
94 144 164
94 144 164
94 144 164
94 144 164
94 144 164
94 144 164
94 144 164
94 144 164
94 144 164
94 144 164
94 144 164
94 144 164
94 144 164
94 144 164
94 144 164
94 144 164
94 144 164
94 144 164
94 144 164
94 144 164
94 144 164
94 144 164
94 144 164
94 144 164
94 144 164
94 144 164
94 144 164
94 144 164
94 144 164
94 144 164
94 144 164
94 144 164
94 144 164
94 144 164
94 144 164
94 144 164
94 144 164
94 144 164
94 144 164
94 144 164
94 144 164
94 144 164
94 144 164
94 144 164
94 144 164
94 144 164
94 144 164
94 144 164
94 144 164
94 144 164
94 144 164
94 144 164
94 144 164
94 144 164
94 144 164
94 144 164
94 144 164
94 144 164
94 144 164
94 144 164
94 144 164
94 144 164
94 144 164
94 144 164
94 144 164
94 144 164
94 144 164
94 144 164
94 144 164
94 144 164
94 144 164
94 144 164
94 144 164
94 144 164
94 144 164
94 144 164
94 144 164
94 144 164
94 144 164
94 144 164
94 144 164
94 144 164
94 144 164
94 144 164
94 144 164
94 144 164
94 144 164
94 144 164
94 144 164
94 144 164
94 144 164
94 144 164
94 144 164
94 144 164
94 144 164
94 144 164
94 144 164
94 144 164
94 144 164
94 144 164
94 144 164
94 144 164
94 144 164
94 144 164
94 144 164
94 144 164
94 144 164
94 144 164
94 144 164
94 144 164
94 144 164
94 144 164
94 144 164
94 144 164
94 144 164
94 144 164
94 144 164
94 144 164
94 144 164
94 144 164
94 144 164
94 144 164
94 144 164
94 144 164
94 144 164
94 144 164
94 144 164
94 144 164
94 144 164
94 144 164
94 144 164
94 144 164
94 144 164
94 144 164
94 144 164
94 144 164
94 144 164
94 144 164
94 144 164
94 144 164
94 144 164
94 144 164
94 144 164
94 144 164
94 144 164
94 144 164
94 144 164
94 144 164
94 144 164
94 144 164
94 144 164
94 144 164
94 144 164
94 144 164
94 144 164
94 144 164
94 144 164
94 144 164
94 144 164
94 144 164
94 144 164
94 144 164
94 144 164
94 144 164
94 144 164
94 144 164
94 144 164
94 144 164
94 144 164
94 144 164
94 144 164
94 144 164
94 144 164
94 144 164
94 144 164
94 144 164
94 144 164
94 144 164
94 144 164
94 144 164
94 144 164
94 144 164
94 144 164
94 144 164
94 144 164
94 144 164
94 144 164
94 144 164
94 144 164
94 144 164
94 144 164
94 144 164
94 144 164
94 144 164
94 144 164
94 144 164
94 144 164
94 144 164
94 144 164
94 144 164
94 144 164
94 144 164
94 144 164
94 144 164
94 144 164
94 144 164
94 144 164
94 144 164
94 144 164
94 144 164
94 144 164
94 144 164
94 144 164
94 144 164
94 144 164
94 144 164
94 144 164
94 144 164
94 144 164
94 144 164
94 144 164
94 144 164
94 144 164
94 144 164
94 144 164
94 144 164
94 144 164
94 144 164
94 144 164
94 144 164
94 144 164
94 144 164
94 144 164
94 144 164
94 144 164
94 144 164
94 144 164
94 144 164
94 144 164
94 144 164
94 144 164
94 144 164
94 144 164
94 144 164
94 144 164
94 144 164
94 144 164
94 144 164
94 144 164
94 144 164
94 144 164
94 144 164
94 144 164
94 144 164
94 144 164
94 144 164
94 144 164
94 144 164
94 144 164
94 144 164
94 144 164
94 144 164
94 144 164
94 144 164
94 144 164
94 144 164
94 144 164
94 144 164
94 144 164
94 144 164
94 144 164
94 144 164
94 144 164
94 144 164
94 144 164
94 144 164
94 144 164
94 144 164
94 144 164
94 144 164
94 144 164
94 144 164
94 144 164
94 144 164
94 144 164
94 144 164
94 144 164
94 144 164
94 144 164
94 144 164
94 144 164
94 144 164
94 144 164
94 144 164
94 144 164
94 144 164
94 144 164
94 144 164
94 144 164
94 144 164
94 144 164
94 144 164
94 144 164
94 144 164
94 144 164
94 144 164
94 144 164
94 144 164
94 144 164
94 144 164
94 144 164
94 144 164
94 144 164
94 144 164
94 144 164
94 144 164
94 144 164
94 144 164
94 144 164
94 144 164
94 144 164
94 144 164
94 144 164
94 144 164
94 144 164
94 144 164
94 144 164
94 144 164
94 144 164
94 144 164
94 144 164
94 144 164
94 144 164
94 144 164
94 144 164
94 144 164
94 144 164
94 144 164
94 144 164
94 144 164
94 144 164
94 144 164
94 144 164
94 144 164
94 144 164
94 144 164
94 144 164
94 144 164
94 144 164
94 144 164
94 144 164
94 144 164
94 144 164
94 144 164
94 144 164
94 144 164
94 144 164
94 144 164
94 144 164
94 144 164
94 144 164
94 144 164
94 144 164
94 144 164
94 144 164
94 144 164
94 144 164
94 144 164
94 144 164
94 144 164
94 144 164
94 144 164
94 144 164
94 144 164
94 144 164
94 144 164
94 144 164
94 144 164
94 144 164
94 144 164
94 144 164
94 144 164
94 144 164
94 144 164
94 144 164
94 144 164
94 144 164
94 144 164
94 144 164
94 144 164
94 144 164
94 144 164
94 144 164
94 144 164
94 144 164
94 144 164
94 144 164
94 144 164
94 144 164
94 144 164
94 144 164
94 144 164
94 144 164
94 144 164
94 144 164
94 144 164
94 144 164
94 144 164
94 144 164
94 144 164
94 144 164
94 144 164
94 144 164
94 144 164
94 144 164
94 144 164
94 144 164
94 144 164
94 144 164
94 144 164
94 144 164
94 144 164
94 144 164
94 144 164
94 144 164
94 144 164
94 144 164
94 144 164
94 144 164
94 144 164
94 144 164
94 144 164
94 144 164
94 144 164
94 144 164
94 144 164
94 144 164
94 144 164
94 144 164
94 144 164
94 144 164
94 144 164
94 144 164
94 144 164
94 144 164
94 144 164
94 144 164
94 144 164
94 144 164
94 144 164
94 144 164
94 144 164
94 144 164
94 144 164
94 144 164
94 144 164
94 144 164
94 144 164
94 144 164
94 144 164
94 144 164
94 144 164
94 144 164
94 144 164
94 144 164
94 144 164
94 144 164
94 144 164
94 144 164
94 144 164
94 144 164
94 144 164
94 144 164
94 144 164
94 144 164
94 144 164
94 144 164
94 144 164
94 144 164
94 144 164
94 144 164
94 144 164
94 144 164
94 144 164
94 144 164
94 144 164
94 144 164
94 144 164
94 144 164
94 144 164
94 144 164
94 144 164
94 144 164
94 144 164
94 144 164
94 144 164
94 144 164
94 144 164
94 144 164
94 144 164
94 144 164
94 144 164
94 144 164
94 144 164
94 144 164
94 144 164
94 144 164
94 144 164
94 144 164
94 144 164
94 144 164
94 144 164
94 144 164
94 144 164
94 144 164
94 144 164
94 144 164
94 144 164
94 144 164
94 144 164
94 144 164
94 144 164
94 144 164
94 144 164
94 144 164
94 144 164
94 144 164
94 144 164
94 144 164
94 144 164
94 144 164
94 144 164
94 144 164
94 144 164
94 144 164
94 144 164
94 144 164
94 144 164
94 144 164
94 144 164
94 144 164
94 144 164
94 144 164
94 144 164
94 144 164
94 144 164
94 144 164
94 144 164
94 144 164
94 144 164
94 144 164
94 144 164
94 144 164
94 144 164
94 144 164
94 144 164
94 144 164
94 144 164
94 144 164
94 144 164
94 144 164
94 144 164
94 144 164
94 144 164
94 144 164
94 144 164
94 144 164
94 144 164
94 144 164
94 144 164
94 144 164
94 144 164
94 144 164
94 144 164
94 144 164
94 144 164
94 144 164
94 144 164
94 144 164
94 144 164
94 144 164
94 144 164
94 144 164
94 144 164
94 144 164
94 144 164
94 144 164
94 144 164
94 144 164
94 144 164
94 144 164
94 144 164
94 144 164
94 144 164
94 144 164
94 144 164
94 144 164
94 144 164
94 144 164
94 144 164
94 144 164
94 144 164
94 144 164
94 144 164
94 144 164
94 144 164
94 144 164
94 144 164
94 144 164
94 144 164
94 144 164
94 144 164
94 144 164
94 144 164
94 144 164
94 144 164
94 144 164
94 144 164
94 144 164
94 144 164
94 144 164
94 144 164
94 144 164
94 144 164
94 144 164
94 144 164
94 144 164
94 144 164
94 144 164
94 144 164
94 144 164
94 144 164
94 144 164
94 144 164
94 144 164
94 144 164
94 144 164
94 144 164
94 144 164
94 144 164
94 144 164
94 144 164
94 144 164
94 144 164
94 144 164
94 144 164
94 144 164
94 144 164
94 144 164
94 144 164
94 144 164
94 144 164
94 144 164
94 144 164
94 144 164
94 144 164
94 144 164
94 144 164
94 144 164
94 144 164
94 144 164
94 144 164
94 144 164
94 144 164
94 144 164
94 144 164
94 144 164
94 144 164
94 144 164
94 144 164
94 144 164
94 144 164
94 144 164
94 144 164
94 144 164
94 144 164
94 144 164
94 144 164
94 144 164
94 144 164
94 144 164
94 144 164
94 144 164
94 144 164
94 144 164
94 144 164
94 144 164
94 144 164
94 144 164
94 144 164
94 144 164
94 144 164
94 144 164
94 144 164
94 144 164
94 144 164
94 144 164
94 144 164
94 144 164
94 144 164
94 144 164
94 144 164
94 144 164
94 144 164
94 144 164
94 144 164
94 144 164
94 144 164
94 144 164
94 144 164
94 144 164
94 144 164
94 144 164
94 144 164
94 144 164
94 144 164
94 144 164
94 144 164
94 144 164
94 144 164
94 144 164
94 144 164
94 144 164
94 144 164
94 144 164
94 144 164
94 144 164
94 144 164
94 144 164
94 144 164
94 144 164
94 144 164
94 144 164
94 144 164
94 144 164
94 144 164
94 144 164
94 144 164
94 144 164
94 144 164
94 144 164
94 144 164
94 144 164
94 144 164
94 144 164
94 144 164
94 144 164
94 144 164
94 144 164
94 144 164
94 144 164
94 144 164
94 144 164
94 144 164
94 144 164
94 144 164
94 144 164
94 144 164
94 144 164
94 144 164
94 144 164
94 144 164
94 144 164
94 144 164
94 144 164
94 144 164
94 144 164
94 144 164
94 144 164
94 144 164
94 144 164
94 144 164
94 144 164
94 144 164
94 144 164
94 144 164
94 144 164
94 144 164
94 144 164
94 144 164
94 144 164
94 144 164
94 144 164
94 144 164
94 144 164
94 144 164
94 144 164
94 144 164
94 144 164
94 144 164
94 144 164
94 144 164
94 144 164
94 144 164
94 144 164
94 144 164
94 144 164
94 144 164
94 144 164
94 144 164
94 144 164
94 144 164
94 144 164
94 144 164
94 144 164
94 144 164
94 144 164
94 144 164
94 144 164
94 144 164
94 144 164
94 144 164
94 144 164
94 144 164
94 144 164
94 144 164
94 144 164
94 144 164
94 144 164
94 144 164
94 144 164
94 144 164
94 144 164
94 144 164
94 144 164
94 144 164
94 144 164
94 144 164
94 144 164
94 144 164
94 144 164
94 144 164
94 144 164
94 144 164
94 144 164
94 144 164
94 144 164
94 144 164
94 144 164
94 144 164
94 144 164
94 144 164
94 144 164
94 144 164
94 144 164
94 144 164
94 144 164
94 144 164
94 144 164
94 144 164
94 144 164
94 144 164
94 144 164
94 144 164
94 144 164
94 144 164
94 144 164
94 144 164
94 144 164
94 144 164
94 144 164
94 144 164
94 144 164
94 144 164
94 144 164
94 144 164
94 144 164
94 144 164
94 144 164
94 144 164
94 144 164
94 144 164
94 144 164
94 144 164
94 144 164
94 144 164
94 144 164
94 144 164
94 144 164
94 144 164
94 144 164
94 144 164
94 144 164
94 144 164
94 144 164
94 144 164
94 144 164
94 144 164
94 144 164
94 144 164
94 144 164
94 144 164
94 144 164
94 144 164
94 144 164
94 144 164
94 144 164
94 144 164
94 144 164
94 144 164
94 144 164
94 144 164
94 144 164
94 144 164
94 144 164
94 144 164
94 144 164
94 144 164
94 144 164
94 144 164
94 144 164
94 144 164
94 144 164
94 144 164
94 144 164
94 144 164
94 144 164
94 144 164
94 144 164
94 144 164
94 144 164
94 144 164
94 144 164
94 144 164
94 144 164
94 144 164
94 144 164
94 144 164
94 144 164
94 144 164
94 144 164
94 144 164
94 144 164
94 144 164
94 144 164
94 144 164
94 144 164
94 144 164
94 144 164
94 144 164
94 144 164
94 144 164
94 144 164
94 144 164
94 144 164
94 144 164
94 144 164
94 144 164
94 144 164
94 144 164
94 144 164
94 144 164
94 144 164
94 144 164
94 144 164
94 144 164
94 144 164
94 144 164
94 144 164
94 144 164
94 144 164
94 144 164
94 144 164
94 144 164
94 144 164
94 144 164
94 144 164
94 144 164
94 144 164
94 144 164
94 144 164
94 144 164
94 144 164
94 144 164
94 144 164
94 144 164
94 144 164
94 144 164
94 144 164
94 144 164
94 144 164
94 144 164
94 144 164
94 144 164
94 144 164
94 144 164
94 144 164
94 144 164
94 144 164
94 144 164
94 144 164
94 144 164
94 144 164
94 144 164
94 144 164
94 144 164
94 144 164
94 144 164
94 144 164
94 144 164
94 144 164
94 144 164
94 144 164
94 144 164
94 144 164
94 144 164
94 144 164
94 144 164
94 144 164
94 144 164
94 144 164
94 144 164
94 144 164
94 144 164
94 144 164
94 144 164
94 144 164
94 144 164
94 144 164
94 144 164
94 144 164
94 144 164
94 144 164
94 144 164
94 144 164
94 144 164
94 144 164
94 144 164
94 144 164
94 144 164
94 144 164
94 144 164
94 144 164
94 144 164
94 144 164
94 144 164
94 144 164
94 144 164
94 144 164
94 144 164
94 144 164
94 144 164
94 144 164
94 144 164
94 144 164
94 144 164
94 144 164
94 144 164
94 144 164
94 144 164
94 144 164
94 144 164
94 144 164
94 144 164
94 144 164
94 144 164
94 144 164
94 144 164
94 144 164
94 144 164
94 144 164
94 144 164
94 144 164
94 144 164
94 144 164
94 144 164
94 144 164
94 144 164
94 144 164
94 144 164
94 144 164
94 144 164
94 144 164
94 144 164
94 144 164
94 144 164
94 144 164
94 144 164
94 144 164
94 144 164
94 144 164
94 144 164
94 144 164
94 144 164
94 144 164
94 144 164
94 144 164
94 144 164
94 144 164
94 144 164
94 144 164
94 144 164
94 144 164
94 144 164
94 144 164
94 144 164
94 144 164
94 144 164
94 144 164
94 144 164
94 144 164
94 144 164
94 144 164
94 144 164
94 144 164
94 144 164
94 144 164
94 144 164
94 144 164
94 144 164
94 144 164
94 144 164
94 144 164
94 144 164
94 144 164
94 144 164
94 144 164
94 144 164
94 144 164
94 144 164
94 144 164
94 144 164
94 144 164
94 144 164
94 144 164
94 144 164
94 144 164
94 144 164
94 144 164
94 144 164
94 144 164
94 144 164
94 144 164
94 144 164
94 144 164
94 144 164
94 144 164
94 144 164
94 144 164
94 144 164
94 144 164
94 144 164
94 144 164
94 144 164
94 144 164
94 144 164
94 144 164
94 144 164
94 144 164
94 144 164
94 144 164
94 144 164
94 144 164
94 144 164
94 144 164
94 144 164
94 144 164
94 144 164
94 144 164
94 144 164
94 144 164
94 144 164
94 144 164
94 144 164
94 144 164
94 144 164
94 144 164
94 144 164
94 144 164
94 144 164
94 144 164
94 144 164
94 144 164
94 144 164
94 144 164
94 144 164
94 144 164
94 144 164
94 144 164
94 144 164
94 144 164
94 144 164
94 144 164
94 144 164
94 144 164
94 144 164
94 144 164
94 144 164
94 144 164
94 144 164
94 144 164
94 144 164
94 144 164
94 144 164
94 144 164
94 144 164
94 144 164
94 144 164
94 144 164
94 144 164
94 144 164
94 144 164
94 144 164
94 144 164
94 144 164
94 144 164
94 144 164
94 144 164
94 144 164
94 144 164
94 144 164
94 144 164
94 144 164
94 144 164
94 144 164
94 144 164
94 144 164
94 144 164
94 144 164
94 144 164
94 144 164
94 144 164
94 144 164
94 144 164
94 144 164
94 144 164
94 144 164
94 144 164
94 144 164
94 144 164
94 144 164
94 144 164
94 144 164
94 144 164
94 144 164
94 144 164
94 144 164
94 144 164
94 144 164
94 144 164
94 144 164
94 144 164
94 144 164
94 144 164
94 144 164
94 144 164
94 144 164
94 144 164
94 144 164
94 144 164
94 144 164
94 144 164
94 144 164
94 144 164
94 144 164
94 144 164
94 144 164
94 144 164
94 144 164
94 144 164
94 144 164
94 144 164
94 144 164
94 144 164
94 144 164
94 144 164
94 144 164
94 144 164
94 144 164
94 144 164
94 144 164
94 144 164
94 144 164
94 144 164
94 144 164
94 144 164
94 144 164
94 144 164
94 144 164
94 144 164
94 144 164
94 144 164
94 144 164
94 144 164
94 144 164
94 144 164
94 144 164
94 144 164
94 144 164
94 144 164
94 144 164
94 144 164
94 144 164
94 144 164
94 144 164
94 144 164
94 144 164
94 144 164
94 144 164
94 144 164
94 144 164
94 144 164
94 144 164
94 144 164
94 144 164
94 144 164
94 144 164
94 144 164
94 144 164
94 144 164
94 144 164
94 144 164
94 144 164
94 144 164
94 144 164
94 144 164
94 144 164
94 144 164
94 144 164
94 144 164
94 144 164
94 144 164
94 144 164
94 144 164
94 144 164
94 144 164
94 144 164
94 144 164
94 144 164
94 144 164
94 144 164
94 144 164
94 144 164
94 144 164
94 144 164
94 144 164
94 144 164
94 144 164
94 144 164
94 144 164
94 144 164
94 144 164
94 144 164
94 144 164
94 144 164
94 144 164
94 144 164
94 144 164
94 144 164
94 144 164
94 144 164
94 144 164
94 144 164
94 144 164
94 144 164
94 144 164
94 144 164
94 144 164
94 144 164
94 144 164
94 144 164
94 144 164
94 144 164
94 144 164
94 144 164
94 144 164
94 144 164
94 144 164
94 144 164
94 144 164
94 144 164
94 144 164
94 144 164
94 144 164
94 144 164
94 144 164
94 144 164
94 144 164
94 144 164
94 144 164
94 144 164
94 144 164
94 144 164
94 144 164
94 144 164
94 144 164
94 144 164
94 144 164
94 144 164
94 144 164
94 144 164
94 144 164
94 144 164
94 144 164
94 144 164
94 144 164
94 144 164
94 144 164
94 144 164
94 144 164
94 144 164
94 144 164
94 144 164
94 144 164
94 144 164
94 144 164
94 144 164
94 144 164
94 144 164
94 144 164
94 144 164
94 144 164
94 144 164
94 144 164
94 144 164
94 144 164
94 144 164
94 144 164
94 144 164
94 144 164
94 144 164
94 144 164
94 144 164
94 144 164
94 144 164
94 144 164
94 144 164
94 144 164
94 144 164
94 144 164
94 144 164
94 144 164
94 144 164
94 144 164
94 144 164
94 144 164
94 144 164
94 144 164
94 144 164
94 144 164
94 144 164
94 144 164
94 144 164
94 144 164
94 144 164
94 144 164
94 144 164
94 144 164
94 144 164
94 144 164
94 144 164
94 144 164
94 144 164
94 144 164
94 144 164
94 144 164
94 144 164
94 144 164
94 144 164
94 144 164
94 144 164
94 144 164
94 144 164
94 144 164
94 144 164
94 144 164
94 144 164
94 144 164
94 144 164
94 144 164
94 144 164
94 144 164
94 144 164
94 144 164
94 144 164
94 144 164
94 144 164
94 144 164
94 144 164
94 144 164
94 144 164
94 144 164
94 144 164
94 144 164
94 144 164
94 144 164
94 144 164
94 144 164
94 144 164
94 144 164
94 144 164
94 144 164
94 144 164
94 144 164
94 144 164
94 144 164
94 144 164
94 144 164
94 144 164
94 144 164
94 144 164
94 144 164
94 144 164
94 144 164
94 144 164
94 144 164
94 144 164
94 144 164
94 144 164
94 144 164
94 144 164
94 144 164
94 144 164
94 144 164
94 144 164
94 144 164
94 144 164
94 144 164
94 144 164
94 144 164
94 144 164
94 144 164
94 144 164
94 144 164
94 144 164
94 144 164
94 144 164
94 144 164
94 144 164
94 144 164
94 144 164
94 144 164
94 144 164
94 144 164
94 144 164
94 144 164
94 144 164
94 144 164
94 144 164
94 144 164
94 144 164
94 144 164
94 144 164
94 144 164
94 144 164
94 144 164
94 144 164
94 144 164
94 144 164
94 144 164
94 144 164
94 144 164
94 144 164
94 144 164
94 144 164
94 144 164
94 144 164
94 144 164
94 144 164
94 144 164
94 144 164
94 144 164
94 144 164
94 144 164
94 144 164
94 144 164
94 144 164
94 144 164
94 144 164
94 144 164
94 144 164
94 144 164
94 144 164
94 144 164
94 144 164
94 144 164
94 144 164
94 144 164
94 144 164
94 144 164
94 144 164
94 144 164
94 144 164
94 144 164
94 144 164
94 144 164
94 144 164
94 144 164
94 144 164
94 144 164
94 144 164
94 144 164
94 144 164
94 144 164
94 144 164
94 144 164
94 144 164
94 144 164
94 144 164
94 144 164
94 144 164
94 144 164
94 144 164
94 144 164
94 144 164
94 144 164
94 144 164
94 144 164
94 144 164
94 144 164
94 144 164
94 144 164
94 144 164
94 144 164
94 144 164
94 144 164
94 144 164
94 144 164
94 144 164
94 144 164
94 144 164
94 144 164
94 144 164
94 144 164
94 144 164
94 144 164
94 144 164
94 144 164
94 144 164
94 144 164
94 144 164
94 144 164
94 144 164
94 144 164
94 144 164
94 144 164
94 144 164
94 144 164
94 144 164
94 144 164
94 144 164
94 144 164
94 144 164
94 144 164
94 144 164
94 144 164
94 144 164
94 144 164
94 144 164
94 144 164
94 144 164
94 144 164
94 144 164
94 144 164
94 144 164
94 144 164
94 144 164
94 144 164
94 144 164
94 144 164
94 144 164
94 144 164
94 144 164
94 144 164
94 144 164
94 144 164
94 144 164
94 144 164
94 144 164
94 144 164
94 144 164
94 144 164
94 144 164
94 144 164
94 144 164
94 144 164
94 144 164
94 144 164
94 144 164
94 144 164
94 144 164
94 144 164
94 144 164
94 144 164
94 144 164
94 144 164
94 144 164
94 144 164
94 144 164
94 144 164
94 144 164
94 144 164
94 144 164
94 144 164
94 144 164
94 144 164
94 144 164
94 144 164
94 144 164
94 144 164
94 144 164
94 144 164
94 144 164
94 144 164
94 144 164
94 144 164
94 144 164
94 144 164
94 144 164
94 144 164
94 144 164
94 144 164
94 144 164
94 144 164
94 144 164
94 144 164
94 144 164
94 144 164
94 144 164
94 144 164
94 144 164
94 144 164
94 144 164
94 144 164
94 144 164
94 144 164
94 144 164
94 144 164
94 144 164
94 144 164
94 144 164
94 144 164
94 144 164
94 144 164
94 144 164
94 144 164
94 144 164
94 144 164
94 144 164
94 144 164
94 144 164
94 144 164
94 144 164
94 144 164
94 144 164
94 144 164
94 144 164
94 144 164
94 144 164
94 144 164
94 144 164
94 144 164
94 144 164
94 144 164
94 144 164
94 144 164
94 144 164
94 144 164
94 144 164
94 144 164
94 144 164
94 144 164
94 144 164
94 144 164
94 144 164
94 144 164
94 144 164
94 144 164
94 144 164
94 144 164
94 144 164
94 144 164
94 144 164
94 144 164
94 144 164
94 144 164
94 144 164
94 144 164
94 144 164
94 144 164
94 144 164
94 144 164
94 144 164
94 144 164
94 144 164
94 144 164
94 144 164
94 144 164
94 144 164
94 144 164
94 144 164
94 144 164
94 144 164
94 144 164
94 144 164
94 144 164
94 144 164
94 144 164
94 144 164
94 144 164
94 144 164
94 144 164
94 144 164
94 144 164
94 144 164
94 144 164
94 144 164
94 144 164
94 144 164
94 144 164
94 144 164
94 144 164
94 144 164
94 144 164
94 144 164
94 144 164
94 144 164
94 144 164
94 144 164
94 144 164
94 144 164
94 144 164
94 144 164
94 144 164
94 144 164
94 144 164
94 144 164
94 144 164
94 144 164
94 144 164
94 144 164
94 144 164
94 144 164
94 144 164
94 144 164
94 144 164
94 144 164
94 144 164
94 144 164
94 144 164
94 144 164
94 144 164
94 144 164
94 144 164
94 144 164
94 144 164
94 144 164
94 144 164
94 144 164
94 144 164
94 144 164
94 144 164
94 144 164
94 144 164
94 144 164
94 144 164
94 144 164
94 144 164
94 144 164
94 144 164
94 144 164
94 144 164
94 144 164
94 144 164
94 144 164
94 144 164
94 144 164
94 144 164
94 144 164
94 144 164
94 144 164
94 144 164
94 144 164
94 144 164
94 144 164
94 144 164
94 144 164
94 144 164
94 144 164
94 144 164
94 144 164
94 144 164
94 144 164
94 144 164
94 144 164
94 144 164
94 144 164
94 144 164
94 144 164
94 144 164
94 144 164
94 144 164
94 144 164
94 144 164
94 144 164
94 144 164
94 144 164
94 144 164
94 144 164
94 144 164
94 144 164
94 144 164
94 144 164
94 144 164
94 144 164
94 144 164
94 144 164
94 144 164
94 144 164
94 144 164
94 144 164
94 144 164
94 144 164
94 144 164
94 144 164
94 144 164
94 144 164
94 144 164
94 144 164
94 144 164
94 144 164
94 144 164
94 144 164
94 144 164
94 144 164
94 144 164
94 144 164
94 144 164
94 144 164
94 144 164
94 144 164
94 144 164
94 144 164
94 144 164
94 144 164
94 144 164
94 144 164
94 144 164
94 144 164
94 144 164
94 144 164
94 144 164
94 144 164
94 144 164
94 144 164
94 144 164
94 144 164
94 144 164
94 144 164
94 144 164
94 144 164
94 144 164
94 144 164
94 144 164
94 144 164
94 144 164
94 144 164
94 144 164
94 144 164
94 144 164
94 144 164
94 144 164
94 144 164
94 144 164
94 144 164
94 144 164
94 144 164
94 144 164
94 144 164
94 144 164
94 144 164
94 144 164
94 144 164
94 144 164
94 144 164
94 144 164
94 144 164
94 144 164
94 144 164
94 144 164
94 144 164
94 144 164
94 144 164
94 144 164
94 144 164
94 144 164
94 144 164
94 144 164
94 144 164
94 144 164
94 144 164
94 144 164
94 144 164
94 144 164
94 144 164
94 144 164
94 144 164
94 144 164
94 144 164
94 144 164
94 144 164
94 144 164
94 144 164
94 144 164
94 144 164
94 144 164
94 144 164
94 144 164
94 144 164
94 144 164
94 144 164
94 144 164
94 144 164
94 144 164
94 144 164
94 144 164
94 144 164
94 144 164
94 144 164
94 144 164
94 144 164
94 144 164
94 144 164
94 144 164
94 144 164
94 144 164
94 144 164
94 144 164
94 144 164
94 144 164
94 144 164
94 144 164
94 144 164
94 144 164
94 144 164
94 144 164
94 144 164
94 144 164
94 144 164
94 144 164
94 144 164
94 144 164
94 144 164
94 144 164
94 144 164
94 144 164
94 144 164
94 144 164
94 144 164
94 144 164
94 144 164
94 144 164
94 144 164
94 144 164
94 144 164
94 144 164
94 144 164
94 144 164
94 144 164
94 144 164
94 144 164
94 144 164
94 144 164
94 144 164
94 144 164
94 144 164
94 144 164
94 144 164
94 144 164
94 144 164
94 144 164
94 144 164
94 144 164
94 144 164
94 144 164
94 144 164
94 144 164
94 144 164
94 144 164
94 144 164
94 144 164
94 144 164
94 144 164
94 144 164
94 144 164
94 144 164
94 144 164
94 144 164
94 144 164
94 144 164
94 144 164
94 144 164
94 144 164
94 144 164
94 144 164
94 144 164
94 144 164
94 144 164
94 144 164
94 144 164
94 144 164
94 144 164
94 144 164
94 144 164
94 144 164
94 144 164
94 144 164
94 144 164
94 144 164
94 144 164
94 144 164
94 144 164
94 144 164
94 144 164
94 144 164
94 144 164
94 144 164
94 144 164
94 144 164
94 144 164
94 144 164
94 144 164
94 144 164
94 144 164
94 144 164
94 144 164
94 144 164
94 144 164
94 144 164
94 144 164
94 144 164
94 144 164
94 144 164
94 144 164
94 144 164
94 144 164
94 144 164
94 144 164
94 144 164
94 144 164
94 144 164
94 144 164
94 144 164
94 144 164
94 144 164
94 144 164
94 144 164
94 144 164
94 144 164
94 144 164
94 144 164
94 144 164
94 144 164
94 144 164
94 144 164
94 144 164
94 144 164
94 144 164
94 144 164
94 144 164
94 144 164
94 144 164
94 144 164
94 144 164
94 144 164
94 144 164
94 144 164
94 144 164
94 144 164
94 144 164
94 144 164
94 144 164
94 144 164
94 144 164
94 144 164
94 144 164
94 144 164
94 144 164
94 144 164
94 144 164
94 144 164
94 144 164
94 144 164
94 144 164
94 144 164
94 144 164
94 144 164
94 144 164
94 144 164
94 144 164
94 144 164
94 144 164
94 144 164
94 144 164
94 144 164
94 144 164
94 144 164
94 144 164
94 144 164
94 144 164
94 144 164
94 144 164
94 144 164
94 144 164
94 144 164
94 144 164
94 144 164
94 144 164
94 144 164
94 144 164
94 144 164
94 144 164
94 144 164
94 144 164
94 144 164
94 144 164
94 144 164
94 144 164
94 144 164
94 144 164
94 144 164
94 144 164
94 144 164
94 144 164
94 144 164
94 144 164
94 144 164
94 144 164
94 144 164
94 144 164
94 144 164
94 144 164
94 144 164
94 144 164
94 144 164
94 144 164
94 144 164
94 144 164
94 144 164
94 144 164
94 144 164
94 144 164
94 144 164
94 144 164
94 144 164
94 144 164
94 144 164
94 144 164
94 144 164
94 144 164
94 144 164
94 144 164
94 144 164
94 144 164
94 144 164
94 144 164
94 144 164
94 144 164
94 144 164
94 144 164
94 144 164
94 144 164
94 144 164
94 144 164
94 144 164
94 144 164
94 144 164
94 144 164
94 144 164
94 144 164
94 144 164
94 144 164
94 144 164
94 144 164
94 144 164
94 144 164
94 144 164
94 144 164
94 144 164
94 144 164
94 144 164
94 144 164
94 144 164
94 144 164
94 144 164
94 144 164
94 144 164
94 144 164
94 144 164
94 144 164
94 144 164
94 144 164
94 144 164
94 144 164
94 144 164
94 144 164
94 144 164
94 144 164
94 144 164
94 144 164
94 144 164
94 144 164
94 144 164
94 144 164
94 144 164
94 144 164
94 144 164
94 144 164
94 144 164
94 144 164
94 144 164
94 144 164
94 144 164
94 144 164
94 144 164
94 144 164
94 144 164
94 144 164
94 144 164
94 144 164
94 144 164
94 144 164
94 144 164
94 144 164
94 144 164
94 144 164
94 144 164
94 144 164
94 144 164
94 144 164
94 144 164
94 144 164
94 144 164
94 144 164
94 144 164
94 144 164
94 144 164
94 144 164
94 144 164
94 144 164
94 144 164
94 144 164
94 144 164
94 144 164
94 144 164
94 144 164
94 144 164
94 144 164
94 144 164
94 144 164
94 144 164
94 144 164
94 144 164
94 144 164
94 144 164
94 144 164
94 144 164
94 144 164
94 144 164
94 144 164
94 144 164
94 144 164
94 144 164
94 144 164
94 144 164
94 144 164
94 144 164
94 144 164
94 144 164
94 144 164
94 144 164
94 144 164
94 144 164
94 144 164
94 144 164
94 144 164
94 144 164
94 144 164
94 144 164
94 144 164
94 144 164
94 144 164
94 144 164
94 144 164
94 144 164
94 144 164
94 144 164
94 144 164
94 144 164
94 144 164
94 144 164
94 144 164
94 144 164
94 144 164
94 144 164
94 144 164
94 144 164
94 144 164
94 144 164
94 144 164
94 144 164
94 144 164
94 144 164
94 144 164
94 144 164
94 144 164
94 144 164
94 144 164
94 144 164
94 144 164
94 144 164
94 144 164
94 144 164
94 144 164
94 144 164
94 144 164
94 144 164
94 144 164
94 144 164
94 144 164
94 144 164
94 144 164
94 144 164
94 144 164
94 144 164
94 144 164
94 144 164
94 144 164
94 144 164
94 144 164
94 144 164
94 144 164
94 144 164
94 144 164
94 144 164
94 144 164
94 144 164
94 144 164
94 144 164
94 144 164
94 144 164
94 144 164
94 144 164
94 144 164
94 144 164
94 144 164
94 144 164
94 144 164
94 144 164
94 144 164
94 144 164
94 144 164
94 144 164
94 144 164
94 144 164
94 144 164
94 144 164
94 144 164
94 144 164
94 144 164
94 144 164
94 144 164
94 144 164
94 144 164
94 144 164
94 144 164
94 144 164
94 144 164
94 144 164
94 144 164
94 144 164
94 144 164
94 144 164
94 144 164
94 144 164
94 144 164
94 144 164
94 144 164
94 144 164
94 144 164
94 144 164
94 144 164
94 144 164
94 144 164
94 144 164
94 144 164
94 144 164
94 144 164
94 144 164
94 144 164
94 144 164
94 144 164
94 144 164
94 144 164
94 144 164
94 144 164
94 144 164
94 144 164
94 144 164
94 144 164
94 144 164
94 144 164
94 144 164
94 144 164
94 144 164
94 144 164
94 144 164
94 144 164
94 144 164
94 144 164
94 144 164
94 144 164
94 144 164
94 144 164
94 144 164
94 144 164
94 144 164
94 144 164
94 144 164
94 144 164
94 144 164
94 144 164
94 144 164
94 144 164
94 144 164
94 144 164
94 144 164
94 144 164
94 144 164
94 144 164
94 144 164
94 144 164
94 144 164
94 144 164
94 144 164
94 144 164
94 144 164
94 144 164
94 144 164
94 144 164
94 144 164
94 144 164
94 144 164
94 144 164
94 144 164
94 144 164
94 144 164
94 144 164
94 144 164
94 144 164
94 144 164
94 144 164
94 144 164
94 144 164
94 144 164
94 144 164
94 144 164
94 144 164
94 144 164
94 144 164
94 144 164
94 144 164
94 144 164
94 144 164
94 144 164
94 144 164
94 144 164
94 144 164
94 144 164
94 144 164
94 144 164
94 144 164
94 144 164
94 144 164
94 144 164
94 144 164
94 144 164
94 144 164
94 144 164
94 144 164
94 144 164
94 144 164
94 144 164
94 144 164
94 144 164
94 144 164
94 144 164
94 144 164
94 144 164
94 144 164
94 144 164
94 144 164
94 144 164
94 144 164
94 144 164
94 144 164
94 144 164
94 144 164
94 144 164
94 144 164
94 144 164
94 144 164
94 144 164
94 144 164
94 144 164
94 144 164
94 144 164
94 144 164
94 144 164
94 144 164
94 144 164
94 144 164
94 144 164
94 144 164
94 144 164
94 144 164
94 144 164
94 144 164
94 144 164
94 144 164
94 144 164
94 144 164
94 144 164
94 144 164
94 144 164
94 144 164
94 144 164
94 144 164
94 144 164
94 144 164
94 144 164
94 144 164
94 144 164
94 144 164
94 144 164
94 144 164
94 144 164
94 144 164
94 144 164
94 144 164
94 144 164
94 144 164
94 144 164
94 144 164
94 144 164
94 144 164
94 144 164
94 144 164
94 144 164
94 144 164
94 144 164
94 144 164
94 144 164
94 144 164
94 144 164
94 144 164
94 144 164
94 144 164
94 144 164
94 144 164
94 144 164
94 144 164
94 144 164
94 144 164
94 144 164
94 144 164
94 144 164
94 144 164
94 144 164
94 144 164
94 144 164
94 144 164
94 144 164
94 144 164
94 144 164
94 144 164
94 144 164
94 144 164
94 144 164
94 144 164
94 144 164
94 144 164
94 144 164
94 144 164
94 144 164
94 144 164
94 144 164
94 144 164
94 144 164
94 144 164
94 144 164
94 144 164
94 144 164
94 144 164
94 144 164
94 144 164
94 144 164
94 144 164
94 144 164
94 144 164
94 144 164
94 144 164
94 144 164
94 144 164
94 144 164
94 144 164
94 144 164
94 144 164
94 144 164
94 144 164
94 144 164
94 144 164
94 144 164
94 144 164
94 144 164
94 144 164
94 144 164
94 144 164
94 144 164
94 144 164
94 144 164
94 144 164
94 144 164
94 144 164
94 144 164
94 144 164
94 144 164
94 144 164
94 144 164
94 144 164
94 144 164
94 144 164
94 144 164
94 144 164
94 144 164
94 144 164
94 144 164
94 144 164
94 144 164
94 144 164
94 144 164
94 144 164
94 144 164
94 144 164
94 144 164
94 144 164
94 144 164
94 144 164
94 144 164
94 144 164
94 144 164
94 144 164
94 144 164
94 144 164
94 144 164
94 144 164
94 144 164
94 144 164
94 144 164
94 144 164
94 144 164
94 144 164
94 144 164
94 144 164
94 144 164
94 144 164
94 144 164
94 144 164
94 144 164
94 144 164
94 144 164
94 144 164
94 144 164
94 144 164
94 144 164
94 144 164
94 144 164
94 144 164
94 144 164
94 144 164
94 144 164
94 144 164
94 144 164
94 144 164
94 144 164
94 144 164
94 144 164
94 144 164
94 144 164
94 144 164
94 144 164
94 144 164
94 144 164
94 144 164
94 144 164
94 144 164
94 144 164
94 144 164
94 144 164
94 144 164
94 144 164
94 144 164
94 144 164
94 144 164
94 144 164
94 144 164
94 144 164
94 144 164
94 144 164
94 144 164
94 144 164
94 144 164
94 144 164
94 144 164
94 144 164
94 144 164
94 144 164
94 144 164
94 144 164
94 144 164
94 144 164
94 144 164
94 144 164
94 144 164
94 144 164
94 144 164
94 144 164
94 144 164
94 144 164
94 144 164
94 144 164
94 144 164
94 144 164
94 144 164
94 144 164
94 144 164
94 144 164
94 144 164
94 144 164
94 144 164
94 144 164
94 144 164
94 144 164
94 144 164
94 144 164
94 144 164
94 144 164
94 144 164
94 144 164
94 144 164
94 144 164
94 144 164
94 144 164
94 144 164
94 144 164
94 144 164
94 144 164
94 144 164
94 144 164
94 144 164
94 144 164
94 144 164
94 144 164
94 144 164
94 144 164
94 144 164
94 144 164
94 144 164
94 144 164
94 144 164
94 144 164
94 144 164
94 144 164
94 144 164
94 144 164
94 144 164
94 144 164
94 144 164
94 144 164
94 144 164
94 144 164
94 144 164
94 144 164
94 144 164
94 144 164
94 144 164
94 144 164
94 144 164
94 144 164
94 144 164
94 144 164
94 144 164
94 144 164
94 144 164
94 144 164
94 144 164
94 144 164
94 144 164
94 144 164
94 144 164
94 144 164
94 144 164
94 144 164
94 144 164
94 144 164
94 144 164
94 144 164
94 144 164
94 144 164
94 144 164
94 144 164
94 144 164
94 144 164
94 144 164
94 144 164
94 144 164
94 144 164
94 144 164
94 144 164
94 144 164
94 144 164
94 144 164
94 144 164
94 144 164
94 144 164
94 144 164
94 144 164
94 144 164
94 144 164
94 144 164
94 144 164
94 144 164
94 144 164
94 144 164
94 144 164
94 144 164
94 144 164
94 144 164
94 144 164
94 144 164
94 144 164
94 144 164
94 144 164
94 144 164
94 144 164
94 144 164
94 144 164
94 144 164
94 144 164
94 144 164
94 144 164
94 144 164
94 144 164
94 144 164
94 144 164
94 144 164
94 144 164
94 144 164
94 144 164
94 144 164
94 144 164
94 144 164
94 144 164
94 144 164
94 144 164
94 144 164
94 144 164
94 144 164
94 144 164
94 144 164
94 144 164
94 144 164
94 144 164
94 144 164
94 144 164
94 144 164
94 144 164
94 144 164
94 144 164
94 144 164
94 144 164
94 144 164
94 144 164
94 144 164
94 144 164
94 144 164
94 144 164
94 144 164
94 144 164
94 144 164
94 144 164
94 144 164
94 144 164
94 144 164
94 144 164
94 144 164
94 144 164
94 144 164
94 144 164
94 144 164
94 144 164
94 144 164
94 144 164
94 144 164
94 144 164
94 144 164
94 144 164
94 144 164
94 144 164
94 144 164
94 144 164
94 144 164
94 144 164
94 144 164
94 144 164
94 144 164
94 144 164
94 144 164
94 144 164
94 144 164
94 144 164
94 144 164
94 144 164
94 144 164
94 144 164
94 144 164
94 144 164
94 144 164
94 144 164
94 144 164
94 144 164
94 144 164
94 144 164
94 144 164
94 144 164
94 144 164
94 144 164
94 144 164
94 144 164
94 144 164
94 144 164
94 144 164
94 144 164
94 144 164
94 144 164
94 144 164
94 144 164
94 144 164
94 144 164
94 144 164
94 144 164
94 144 164
94 144 164
94 144 164
94 144 164
94 144 164
94 144 164
94 144 164
94 144 164
94 144 164
94 144 164
94 144 164
94 144 164
94 144 164
94 144 164
94 144 164
94 144 164
94 144 164
94 144 164
94 144 164
94 144 164
94 144 164
94 144 164
94 144 164
94 144 164
94 144 164
94 144 164
94 144 164
94 144 164
94 144 164
94 144 164
94 144 164
94 144 164
94 144 164
94 144 164
94 144 164
94 144 164
94 144 164
94 144 164
94 144 164
94 144 164
94 144 164
94 144 164
94 144 164
94 144 164
94 144 164
94 144 164
94 144 164
94 144 164
94 144 164
94 144 164
94 144 164
94 144 164
94 144 164
94 144 164
94 144 164
94 144 164
94 144 164
94 144 164
94 144 164
94 144 164
94 144 164
94 144 164
94 144 164
94 144 164
94 144 164
94 144 164
94 144 164
94 144 164
94 144 164
94 144 164
94 144 164
94 144 164
94 144 164
94 144 164
94 144 164
94 144 164
94 144 164
94 144 164
94 144 164
94 144 164
94 144 164
94 144 164
94 144 164
94 144 164
94 144 164
94 144 164
94 144 164
94 144 164
94 144 164
94 144 164
94 144 164
94 144 164
94 144 164
94 144 164
94 144 164
94 144 164
94 144 164
94 144 164
94 144 164
94 144 164
94 144 164
94 144 164
94 144 164
94 144 164
94 144 164
94 144 164
94 144 164
94 144 164
94 144 164
94 144 164
94 144 164
94 144 164
94 144 164
94 144 164
94 144 164
94 144 164
94 144 164
94 144 164
94 144 164
94 144 164
94 144 164
94 144 164
94 144 164
94 144 164
94 144 164
94 144 164
94 144 164
94 144 164
94 144 164
94 144 164
94 144 164
94 144 164
94 144 164
94 144 164
94 144 164
94 144 164
94 144 164
94 144 164
94 144 164
94 144 164
94 144 164
94 144 164
94 144 164
94 144 164
94 144 164
94 144 164
94 144 164
94 144 164
94 144 164
94 144 164
94 144 164
94 144 164
94 144 164
94 144 164
94 144 164
94 144 164
94 144 164
94 144 164
94 144 164
94 144 164
94 144 164
94 144 164
94 144 164
94 144 164
94 144 164
94 144 164
94 144 164
94 144 164
94 144 164
94 144 164
94 144 164
94 144 164
94 144 164
94 144 164
94 144 164
94 144 164
94 144 164
94 144 164
94 144 164
94 144 164
94 144 164
94 144 164
94 144 164
94 144 164
94 144 164
94 144 164
94 144 164
94 144 164
94 144 164
94 144 164
94 144 164
94 144 164
94 144 164
94 144 164
94 144 164
94 144 164
94 144 164
94 144 164
94 144 164
94 144 164
94 144 164
94 144 164
94 144 164
94 144 164
94 144 164
94 144 164
94 144 164
94 144 164
94 144 164
94 144 164
94 144 164
94 144 164
94 144 164
94 144 164
94 144 164
94 144 164
94 144 164
94 144 164
94 144 164
94 144 164
94 144 164
94 144 164
94 144 164
94 144 164
94 144 164
94 144 164
94 144 164
94 144 164
94 144 164
94 144 164
94 144 164
94 144 164
94 144 164
94 144 164
94 144 164
94 144 164
94 144 164
94 144 164
94 144 164
94 144 164
94 144 164
94 144 164
94 144 164
94 144 164
94 144 164
94 144 164
94 144 164
94 144 164
94 144 164
94 144 164
94 144 164
94 144 164
94 144 164
94 144 164
94 144 164
94 144 164
94 144 164
94 144 164
94 144 164
94 144 164
94 144 164
94 144 164
94 144 164
94 144 164
94 144 164
94 144 164
94 144 164
94 144 164
94 144 164
94 144 164
94 144 164
94 144 164
94 144 164
94 144 164
94 144 164
94 144 164
94 144 164
94 144 164
94 144 164
94 144 164
94 144 164
94 144 164
94 144 164
94 144 164
94 144 164
94 144 164
94 144 164
94 144 164
94 144 164
94 144 164
94 144 164
94 144 164
94 144 164
94 144 164
94 144 164
94 144 164
94 144 164
94 144 164
94 144 164
94 144 164
94 144 164
94 144 164
94 144 164
94 144 164
94 144 164
94 144 164
94 144 164
94 144 164
94 144 164
94 144 164
94 144 164
94 144 164
94 144 164
94 144 164
94 144 164
94 144 164
94 144 164
94 144 164
94 144 164
94 144 164
94 144 164
94 144 164
94 144 164
94 144 164
94 144 164
94 144 164
94 144 164
94 144 164
94 144 164
94 144 164
94 144 164
94 144 164
94 144 164
94 144 164
94 144 164
94 144 164
94 144 164
94 144 164
94 144 164
94 144 164
94 144 164
94 144 164
94 144 164
94 144 164
94 144 164
94 144 164
94 144 164
94 144 164
94 144 164
94 144 164
94 144 164
94 144 164
94 144 164
94 144 164
94 144 164
94 144 164
94 144 164
94 144 164
94 144 164
94 144 164
94 144 164
94 144 164
94 144 164
94 144 164
94 144 164
94 144 164
94 144 164
94 144 164
94 144 164
94 144 164
94 144 164
94 144 164
94 144 164
94 144 164
94 144 164
94 144 164
94 144 164
94 144 164
94 144 164
94 144 164
94 144 164
94 144 164
94 144 164
94 144 164
94 144 164
94 144 164
94 144 164
94 144 164
94 144 164
94 144 164
94 144 164
94 144 164
94 144 164
94 144 164
94 144 164
94 144 164
94 144 164
94 144 164
94 144 164
94 144 164
94 144 164
94 144 164
94 144 164
94 144 164
94 144 164
94 144 164
94 144 164
94 144 164
94 144 164
94 144 164
94 144 164
94 144 164
94 144 164
94 144 164
94 144 164
94 144 164
94 144 164
94 144 164
94 144 164
94 144 164
94 144 164
94 144 164
94 144 164
94 144 164
94 144 164
94 144 164
94 144 164
94 144 164
94 144 164
94 144 164
94 144 164
94 144 164
94 144 164
94 144 164
94 144 164
94 144 164
94 144 164
94 144 164
94 144 164
94 144 164
94 144 164
94 144 164
94 144 164
94 144 164
94 144 164
94 144 164
94 144 164
94 144 164
94 144 164
94 144 164
94 144 164
94 144 164
94 144 164
94 144 164
94 144 164
94 144 164
94 144 164
94 144 164
94 144 164
94 144 164
94 144 164
94 144 164
94 144 164
94 144 164
94 144 164
94 144 164
94 144 164
94 144 164
94 144 164
94 144 164
94 144 164
94 144 164
94 144 164
94 144 164
94 144 164
94 144 164
94 144 164
94 144 164
94 144 164
94 144 164
94 144 164
94 144 164
94 144 164
94 144 164
94 144 164
94 144 164
94 144 164
94 144 164
94 144 164
94 144 164
94 144 164
94 144 164
94 144 164
94 144 164
94 144 164
94 144 164
94 144 164
94 144 164
94 144 164
94 144 164
94 144 164
94 144 164
94 144 164
94 144 164
94 144 164
94 144 164
94 144 164
94 144 164
94 144 164
94 144 164
94 144 164
94 144 164
94 144 164
94 144 164
94 144 164
94 144 164
94 144 164
94 144 164
94 144 164
94 144 164
94 144 164
94 144 164
94 144 164
94 144 164
94 144 164
94 144 164
94 144 164
94 144 164
94 144 164
94 144 164
94 144 164
94 144 164
94 144 164
94 144 164
94 144 164
94 144 164
94 144 164
94 144 164
94 144 164
94 144 164
94 144 164
94 144 164
94 144 164
94 144 164
94 144 164
94 144 164
94 144 164
94 144 164
94 144 164
94 144 164
94 144 164
94 144 164
94 144 164
94 144 164
94 144 164
94 144 164
94 144 164
94 144 164
94 144 164
94 144 164
94 144 164
94 144 164
94 144 164
94 144 164
94 144 164
94 144 164
94 144 164
94 144 164
94 144 164
94 144 164
94 144 164
94 144 164
94 144 164
94 144 164
94 144 164
94 144 164
94 144 164
94 144 164
94 144 164
94 144 164
94 144 164
94 144 164
94 144 164
94 144 164
94 144 164
94 144 164
94 144 164
94 144 164
94 144 164
94 144 164
94 144 164
94 144 164
94 144 164
94 144 164
94 144 164
94 144 164
94 144 164
94 144 164
94 144 164
94 144 164
94 144 164
94 144 164
94 144 164
94 144 164
94 144 164
94 144 164
94 144 164
94 144 164
94 144 164
94 144 164
94 144 164
94 144 164
94 144 164
94 144 164
94 144 164
94 144 164
94 144 164
94 144 164
94 144 164
94 144 164
94 144 164
94 144 164
94 144 164
94 144 164
94 144 164
94 144 164
94 144 164
94 144 164
94 144 164
94 144 164
94 144 164
94 144 164
94 144 164
94 144 164
94 144 164
94 144 164
94 144 164
94 144 164
94 144 164
94 144 164
94 144 164
94 144 164
94 144 164
94 144 164
94 144 164
94 144 164
94 144 164
94 144 164
94 144 164
94 144 164
94 144 164
94 144 164
94 144 164
94 144 164
94 144 164
94 144 164
94 144 164
94 144 164
94 144 164
94 144 164
94 144 164
94 144 164
94 144 164
94 144 164
94 144 164
94 144 164
94 144 164
94 144 164
94 144 164
94 144 164
94 144 164
94 144 164
94 144 164
94 144 164
94 144 164
94 144 164
94 144 164
94 144 164
94 144 164
94 144 164
94 144 164
94 144 164
94 144 164
94 144 164
94 144 164
94 144 164
94 144 164
94 144 164
94 144 164
94 144 164
94 144 164
94 144 164
94 144 164
94 144 164
94 144 164
94 144 164
94 144 164
94 144 164
94 144 164
94 144 164
94 144 164
94 144 164
94 144 164
94 144 164
94 144 164
94 144 164
94 144 164
94 144 164
94 144 164
94 144 164
94 144 164
94 144 164
94 144 164
94 144 164
94 144 164
94 144 164
94 144 164
94 144 164
94 144 164
94 144 164
94 144 164
94 144 164
94 144 164
94 144 164
94 144 164
94 144 164
94 144 164
94 144 164
94 144 164
94 144 164
94 144 164
94 144 164
94 144 164
94 144 164
94 144 164
94 144 164
94 144 164
94 144 164
94 144 164
94 144 164
94 144 164
94 144 164
94 144 164
94 144 164
94 144 164
94 144 164
94 144 164
94 144 164
94 144 164
94 144 164
94 144 164
94 144 164
94 144 164
94 144 164
94 144 164
94 144 164
94 144 164
94 144 164
94 144 164
94 144 164
94 144 164
94 144 164
94 144 164
94 144 164
94 144 164
94 144 164
94 144 164
94 144 164
94 144 164
94 144 164
94 144 164
94 144 164
94 144 164
94 144 164
94 144 164
94 144 164
94 144 164
94 144 164
94 144 164
94 144 164
94 144 164
94 144 164
94 144 164
94 144 164
94 144 164
94 144 164
94 144 164
94 144 164
94 144 164
94 144 164
94 144 164
94 144 164
94 144 164
94 144 164
94 144 164
94 144 164
94 144 164
94 144 164
94 144 164
94 144 164
94 144 164
94 144 164
94 144 164
94 144 164
94 144 164
94 144 164
94 144 164
94 144 164
94 144 164
94 144 164
94 144 164
94 144 164
94 144 164
94 144 164
94 144 164
94 144 164
94 144 164
94 144 164
94 144 164
94 144 164
94 144 164
94 144 164
94 144 164
94 144 164
94 144 164
94 144 164
94 144 164
94 144 164
94 144 164
94 144 164
94 144 164
94 144 164
94 144 164
94 144 164
94 144 164
94 144 164
94 144 164
94 144 164
94 144 164
94 144 164
94 144 164
94 144 164
94 144 164
94 144 164
94 144 164
94 144 164
94 144 164
94 144 164
94 144 164
94 144 164
94 144 164
94 144 164
94 144 164
94 144 164
94 144 164
94 144 164
94 144 164
94 144 164
94 144 164
94 144 164
94 144 164
94 144 164
94 144 164
94 144 164
94 144 164
94 144 164
94 144 164
94 144 164
94 144 164
94 144 164
94 144 164
94 144 164
94 144 164
94 144 164
94 144 164
94 144 164
94 144 164
94 144 164
94 144 164
94 144 164
94 144 164
94 144 164
94 144 164
94 144 164
94 144 164
94 144 164
94 144 164
94 144 164
94 144 164
94 144 164
94 144 164
94 144 164
94 144 164
94 144 164
94 144 164
94 144 164
94 144 164
94 144 164
94 144 164
94 144 164
94 144 164
94 144 164
94 144 164
94 144 164
94 144 164
94 144 164
94 144 164
94 144 164
94 144 164
94 144 164
94 144 164
94 144 164
94 144 164
94 144 164
94 144 164
94 144 164
94 144 164
94 144 164
94 144 164
94 144 164
94 144 164
94 144 164
94 144 164
94 144 164
94 144 164
94 144 164
94 144 164
94 144 164
94 144 164
94 144 164
94 144 164
94 144 164
94 144 164
94 144 164
94 144 164
94 144 164
94 144 164
94 144 164
94 144 164
94 144 164
94 144 164
94 144 164
94 144 164
94 144 164
94 144 164
94 144 164
94 144 164
94 144 164
94 144 164
94 144 164
94 144 164
94 144 164
94 144 164
94 144 164
94 144 164
94 144 164
94 144 164
94 144 164
94 144 164
94 144 164
94 144 164
94 144 164
94 144 164
94 144 164
94 144 164
94 144 164
94 144 164
94 144 164
94 144 164
94 144 164
94 144 164
94 144 164
94 144 164
94 144 164
94 144 164
94 144 164
94 144 164
94 144 164
94 144 164
94 144 164
94 144 164
94 144 164
94 144 164
94 144 164
94 144 164
94 144 164
94 144 164
94 144 164
94 144 164
94 144 164
94 144 164
94 144 164
94 144 164
94 144 164
94 144 164
94 144 164
94 144 164
94 144 164
94 144 164
94 144 164
94 144 164
94 144 164
94 144 164
94 144 164
94 144 164
94 144 164
94 144 164
94 144 164
94 144 164
94 144 164
94 144 164
94 144 164
94 144 164
94 144 164
94 144 164
94 144 164
94 144 164
94 144 164
94 144 164
94 144 164
94 144 164
94 144 164
94 144 164
94 144 164
94 144 164
94 144 164
94 144 164
94 144 164
94 144 164
94 144 164
94 144 164
94 144 164
94 144 164
94 144 164
94 144 164
94 144 164
94 144 164
94 144 164
94 144 164
94 144 164
94 144 164
94 144 164
94 144 164
94 144 164
94 144 164
94 144 164
94 144 164
94 144 164
94 144 164
94 144 164
94 144 164
94 144 164
94 144 164
94 144 164
94 144 164
94 144 164
94 144 164
94 144 164
94 144 164
94 144 164
94 144 164
94 144 164
94 144 164
94 144 164
94 144 164
94 144 164
94 144 164
94 144 164
94 144 164
94 144 164
94 144 164
94 144 164
94 144 164
94 144 164
94 144 164
94 144 164
94 144 164
94 144 164
94 144 164
94 144 164
94 144 164
94 144 164
94 144 164
94 144 164
94 144 164
94 144 164
94 144 164
94 144 164
94 144 164
94 144 164
94 144 164
94 144 164
94 144 164
94 144 164
94 144 164
94 144 164
94 144 164
94 144 164
94 144 164
94 144 164
94 144 164
94 144 164
94 144 164
94 144 164
94 144 164
94 144 164
94 144 164
94 144 164
94 144 164
94 144 164
94 144 164
94 144 164
94 144 164
94 144 164
94 144 164
94 144 164
94 144 164
94 144 164
94 144 164
94 144 164
94 144 164
94 144 164
94 144 164
94 144 164
94 144 164
94 144 164
94 144 164
94 144 164
94 144 164
94 144 164
94 144 164
94 144 164
94 144 164
94 144 164
94 144 164
94 144 164
94 144 164
94 144 164
94 144 164
94 144 164
94 144 164
94 144 164
94 144 164
94 144 164
94 144 164
94 144 164
94 144 164
94 144 164
94 144 164
94 144 164
94 144 164
94 144 164
94 144 164
94 144 164
94 144 164
94 144 164
94 144 164
94 144 164
94 144 164
94 144 164
94 144 164
94 144 164
94 144 164
94 144 164
94 144 164
94 144 164
94 144 164
94 144 164
94 144 164
94 144 164
94 144 164
94 144 164
94 144 164
94 144 164
94 144 164
94 144 164
94 144 164
94 144 164
94 144 164
94 144 164
94 144 164
94 144 164
94 144 164
94 144 164
94 144 164
94 144 164
94 144 164
94 144 164
94 144 164
94 144 164
94 144 164
94 144 164
94 144 164
94 144 164
94 144 164
94 144 164
94 144 164
94 144 164
94 144 164
94 144 164
94 144 164
94 144 164
94 144 164
94 144 164
94 144 164
94 144 164
94 144 164
94 144 164
94 144 164
94 144 164
94 144 164
94 144 164
94 144 164
94 144 164
94 144 164
94 144 164
94 144 164
94 144 164
94 144 164
94 144 164
94 144 164
94 144 164
94 144 164
94 144 164
94 144 164
94 144 164
94 144 164
94 144 164
94 144 164
94 144 164
94 144 164
94 144 164
94 144 164
94 144 164
94 144 164
94 144 164
94 144 164
94 144 164
94 144 164
94 144 164
94 144 164
94 144 164
94 144 164
94 144 164
94 144 164
94 144 164
94 144 164
94 144 164
94 144 164
94 144 164
94 144 164
94 144 164
94 144 164
94 144 164
94 144 164
94 144 164
94 144 164
94 144 164
94 144 164
94 144 164
94 144 164
94 144 164
94 144 164
94 144 164
94 144 164
94 144 164
94 144 164
94 144 164
94 144 164
94 144 164
94 144 164
94 144 164
94 144 164
94 144 164
94 144 164
94 144 164
94 144 164
94 144 164
94 144 164
94 144 164
94 144 164
94 144 164
94 144 164
94 144 164
94 144 164
94 144 164
94 144 164
94 144 164
94 144 164
94 144 164
94 144 164
94 144 164
94 144 164
94 144 164
94 144 164
94 144 164
94 144 164
94 144 164
94 144 164
94 144 164
94 144 164
94 144 164
94 144 164
94 144 164
94 144 164
94 144 164
94 144 164
94 144 164
94 144 164
94 144 164
94 144 164
94 144 164
94 144 164
94 144 164
94 144 164
94 144 164
94 144 164
94 144 164
94 144 164
94 144 164
94 144 164
94 144 164
94 144 164
94 144 164
94 144 164
94 144 164
94 144 164
94 144 164
94 144 164
94 144 164
94 144 164
94 144 164
94 144 164
94 144 164
94 144 164
94 144 164
94 144 164
94 144 164
94 144 164
94 144 164
94 144 164
94 144 164
94 144 164
94 144 164
94 144 164
94 144 164
94 144 164
94 144 164
94 144 164
94 144 164
94 144 164
94 144 164
94 144 164
94 144 164
94 144 164
94 144 164
94 144 164
94 144 164
94 144 164
94 144 164
94 144 164
94 144 164
94 144 164
94 144 164
94 144 164
94 144 164
94 144 164
94 144 164
94 144 164
94 144 164
94 144 164
94 144 164
94 144 164
94 144 164
94 144 164
94 144 164
94 144 164
94 144 164
94 144 164
94 144 164
94 144 164
94 144 164
94 144 164
94 144 164
94 144 164
94 144 164
94 144 164
94 144 164
94 144 164
94 144 164
94 144 164
94 144 164
94 144 164
94 144 164
94 144 164
94 144 164
94 144 164
94 144 164
94 144 164
94 144 164
94 144 164
94 144 164
94 144 164
94 144 164
94 144 164
94 144 164
94 144 164
94 144 164
94 144 164
94 144 164
94 144 164
94 144 164
94 144 164
94 144 164
94 144 164
94 144 164
94 144 164
94 144 164
94 144 164
94 144 164
94 144 164
94 144 164
94 144 164
94 144 164
94 144 164
94 144 164
94 144 164
94 144 164
94 144 164
94 144 164
94 144 164
94 144 164
94 144 164
94 144 164
94 144 164
94 144 164
94 144 164
94 144 164
94 144 164
94 144 164
94 144 164
94 144 164
94 144 164
94 144 164
94 144 164
94 144 164
94 144 164
94 144 164
94 144 164
94 144 164
94 144 164
94 144 164
94 144 164
94 144 164
94 144 164
94 144 164
94 144 164
94 144 164
94 144 164
94 144 164
94 144 164
94 144 164
94 144 164
94 144 164
94 144 164
94 144 164
94 144 164
94 144 164
94 144 164
94 144 164
94 144 164
94 144 164
94 144 164
94 144 164
94 144 164
94 144 164
94 144 164
94 144 164
94 144 164
94 144 164
94 144 164
94 144 164
94 144 164
94 144 164
94 144 164
94 144 164
94 144 164
94 144 164
94 144 164
94 144 164
94 144 164
94 144 164
94 144 164
94 144 164
94 144 164
94 144 164
94 144 164
94 144 164
94 144 164
94 144 164
94 144 164
94 144 164
94 144 164
94 144 164
94 144 164
94 144 164
94 144 164
94 144 164
94 144 164
94 144 164
94 144 164
94 144 164
94 144 164
94 144 164
94 144 164
94 144 164
94 144 164
94 144 164
94 144 164
94 144 164
94 144 164
94 144 164
94 144 164
94 144 164
94 144 164
94 144 164
94 144 164
94 144 164
94 144 164
94 144 164
94 144 164
94 144 164
94 144 164
94 144 164
94 144 164
94 144 164
94 144 164
94 144 164
94 144 164
94 144 164
94 144 164
94 144 164
94 144 164
94 144 164
94 144 164
94 144 164
94 144 164
94 144 164
94 144 164
94 144 164
94 144 164
94 144 164
94 144 164
94 144 164
94 144 164
94 144 164
94 144 164
94 144 164
94 144 164
94 144 164
94 144 164
94 144 164
94 144 164
94 144 164
94 144 164
94 144 164
94 144 164
94 144 164
94 144 164
94 144 164
94 144 164
94 144 164
94 144 164
94 144 164
94 144 164
94 144 164
94 144 164
94 144 164
94 144 164
94 144 164
94 144 164
94 144 164
94 144 164
94 144 164
94 144 164
94 144 164
94 144 164
94 144 164
94 144 164
94 144 164
94 144 164
94 144 164
94 144 164
94 144 164
94 144 164
94 144 164
94 144 164
94 144 164
94 144 164
94 144 164
94 144 164
94 144 164
94 144 164
94 144 164
94 144 164
94 144 164
94 144 164
94 144 164
94 144 164
94 144 164
94 144 164
94 144 164
94 144 164
94 144 164
94 144 164
94 144 164
94 144 164
94 144 164
94 144 164
94 144 164
94 144 164
94 144 164
94 144 164
94 144 164
94 144 164
94 144 164
94 144 164
94 144 164
94 144 164
94 144 164
94 144 164
94 144 164
94 144 164
94 144 164
94 144 164
94 144 164
94 144 164
94 144 164
94 144 164
94 144 164
94 144 164
94 144 164
94 144 164
94 144 164
94 144 164
94 144 164
94 144 164
94 144 164
94 144 164
94 144 164
94 144 164
94 144 164
94 144 164
94 144 164
94 144 164
94 144 164
94 144 164
94 144 164
94 144 164
94 144 164
94 144 164
94 144 164
94 144 164
94 144 164
94 144 164
94 144 164
94 144 164
94 144 164
94 144 164
94 144 164
94 144 164
94 144 164
94 144 164
94 144 164
94 144 164
94 144 164
94 144 164
94 144 164
94 144 164
94 144 164
94 144 164
94 144 164
94 144 164
94 144 164
94 144 164
94 144 164
94 144 164
94 144 164
94 144 164
94 144 164
94 144 164
94 144 164
94 144 164
94 144 164
94 144 164
94 144 164
94 144 164
94 144 164
94 144 164
94 144 164
94 144 164
94 144 164
94 144 164
94 144 164
94 144 164
94 144 164
94 144 164
94 144 164
94 144 164
94 144 164
94 144 164
94 144 164
94 144 164
94 144 164
94 144 164
94 144 164
94 144 164
94 144 164
94 144 164
94 144 164
94 144 164
94 144 164
94 144 164
94 144 164
94 144 164
94 144 164
94 144 164
94 144 164
94 144 164
94 144 164
94 144 164
94 144 164
94 144 164
94 144 164
94 144 164
94 144 164
94 144 164
94 144 164
94 144 164
94 144 164
94 144 164
94 144 164
94 144 164
94 144 164
94 144 164
94 144 164
94 144 164
94 144 164
94 144 164
94 144 164
94 144 164
94 144 164
94 144 164
94 144 164
94 144 164
94 144 164
94 144 164
94 144 164
94 144 164
94 144 164
94 144 164
94 144 164
94 144 164
94 144 164
94 144 164
94 144 164
94 144 164
94 144 164
94 144 164
94 144 164
94 144 164
94 144 164
94 144 164
94 144 164
94 144 164
94 144 164
94 144 164
94 144 164
94 144 164
94 144 164
94 144 164
94 144 164
94 144 164
94 144 164
94 144 164
94 144 164
94 144 164
94 144 164
94 144 164
94 144 164
94 144 164
94 144 164
94 144 164
94 144 164
94 144 164
94 144 164
94 144 164
94 144 164
94 144 164
94 144 164
94 144 164
94 144 164
94 144 164
94 144 164
94 144 164
94 144 164
94 144 164
94 144 164
94 144 164
94 144 164
94 144 164
94 144 164
94 144 164
94 144 164
94 144 164
94 144 164
94 144 164
94 144 164
94 144 164
94 144 164
94 144 164
94 144 164
94 144 164
94 144 164
94 144 164
94 144 164
94 144 164
94 144 164
94 144 164
94 144 164
94 144 164
94 144 164
94 144 164
94 144 164
94 144 164
94 144 164
94 144 164
94 144 164
94 144 164
94 144 164
94 144 164
94 144 164
94 144 164
94 144 164
94 144 164
94 144 164
94 144 164
94 144 164
94 144 164
94 144 164
94 144 164
94 144 164
94 144 164
94 144 164
94 144 164
94 144 164
94 144 164
94 144 164
94 144 164
94 144 164
94 144 164
94 144 164
94 144 164
94 144 164
94 144 164
94 144 164
94 144 164
94 144 164
94 144 164
94 144 164
94 144 164
94 144 164
94 144 164
94 144 164
94 144 164
94 144 164
94 144 164
94 144 164
94 144 164
94 144 164
94 144 164
94 144 164
94 144 164
94 144 164
94 144 164
94 144 164
94 144 164
94 144 164
94 144 164
94 144 164
94 144 164
94 144 164
94 144 164
94 144 164
94 144 164
94 144 164
94 144 164
94 144 164
94 144 164
94 144 164
94 144 164
94 144 164
94 144 164
94 144 164
94 144 164
94 144 164
94 144 164
94 144 164
94 144 164
94 144 164
94 144 164
94 144 164
94 144 164
94 144 164
94 144 164
94 144 164
94 144 164
94 144 164
94 144 164
94 144 164
94 144 164
94 144 164
94 144 164
94 144 164
94 144 164
94 144 164
94 144 164
94 144 164
94 144 164
94 144 164
94 144 164
94 144 164
94 144 164
94 144 164
94 144 164
94 144 164
94 144 164
94 144 164
94 144 164
94 144 164
94 144 164
94 144 164
94 144 164
94 144 164
94 144 164
94 144 164
94 144 164
94 144 164
94 144 164
94 144 164
94 144 164
94 144 164
94 144 164
94 144 164
94 144 164
94 144 164
94 144 164
94 144 164
94 144 164
94 144 164
94 144 164
94 144 164
94 144 164
94 144 164
94 144 164
94 144 164
94 144 164
94 144 164
94 144 164
94 144 164
94 144 164
94 144 164
94 144 164
94 144 164
94 144 164
94 144 164
94 144 164
94 144 164
94 144 164
94 144 164
94 144 164
94 144 164
94 144 164
94 144 164
94 144 164
94 144 164
94 144 164
94 144 164
94 144 164
94 144 164
94 144 164
94 144 164
94 144 164
94 144 164
94 144 164
94 144 164
94 144 164
94 144 164
94 144 164
94 144 164
94 144 164
94 144 164
94 144 164
94 144 164
94 144 164
94 144 164
94 144 164
94 144 164
94 144 164
94 144 164
94 144 164
94 144 164
94 144 164
94 144 164
94 144 164
94 144 164
94 144 164
94 144 164
94 144 164
94 144 164
94 144 164
94 144 164
94 144 164
94 144 164
94 144 164
94 144 164
94 144 164
94 144 164
94 144 164
94 144 164
94 144 164
94 144 164
94 144 164
94 144 164
94 144 164
94 144 164
94 144 164
94 144 164
94 144 164
94 144 164
94 144 164
94 144 164
94 144 164
94 144 164
94 144 164
94 144 164
94 144 164
94 144 164
94 144 164
94 144 164
94 144 164
94 144 164
94 144 164
94 144 164
94 144 164
94 144 164
94 144 164
94 144 164
94 144 164
94 144 164
94 144 164
94 144 164
94 144 164
94 144 164
94 144 164
94 144 164
94 144 164
94 144 164
94 144 164
94 144 164
94 144 164
94 144 164
94 144 164
94 144 164
94 144 164
94 144 164
94 144 164
94 144 164
94 144 164
94 144 164
94 144 164
94 144 164
94 144 164
94 144 164
94 144 164
94 144 164
94 144 164
94 144 164
94 144 164
94 144 164
94 144 164
94 144 164
94 144 164
94 144 164
94 144 164
94 144 164
94 144 164
94 144 164
94 144 164
94 144 164
94 144 164
94 144 164
94 144 164
94 144 164
94 144 164
94 144 164
94 144 164
94 144 164
94 144 164
94 144 164
94 144 164
94 144 164
94 144 164
94 144 164
94 144 164
94 144 164
94 144 164
94 144 164
94 144 164
94 144 164
94 144 164
94 144 164
94 144 164
94 144 164
94 144 164
94 144 164
94 144 164
94 144 164
94 144 164
94 144 164
94 144 164
94 144 164
94 144 164
94 144 164
94 144 164
94 144 164
94 144 164
94 144 164
94 144 164
94 144 164
94 144 164
94 144 164
94 144 164
94 144 164
94 144 164
94 144 164
94 144 164
94 144 164
94 144 164
94 144 164
94 144 164
94 144 164
94 144 164
94 144 164
94 144 164
94 144 164
94 144 164
94 144 164
94 144 164
94 144 164
94 144 164
94 144 164
94 144 164
94 144 164
94 144 164
94 144 164
94 144 164
94 144 164
94 144 164
94 144 164
94 144 164
94 144 164
94 144 164
94 144 164
94 144 164
94 144 164
94 144 164
94 144 164
94 144 164
94 144 164
94 144 164
94 144 164
94 144 164
94 144 164
94 144 164
94 144 164
94 144 164
94 144 164
94 144 164
94 144 164
94 144 164
94 144 164
94 144 164
94 144 164
94 144 164
94 144 164
94 144 164
94 144 164
94 144 164
94 144 164
94 144 164
94 144 164
94 144 164
94 144 164
94 144 164
94 144 164
94 144 164
94 144 164
94 144 164
94 144 164
94 144 164
94 144 164
94 144 164
94 144 164
94 144 164
94 144 164
94 144 164
94 144 164
94 144 164
94 144 164
94 144 164
94 144 164
94 144 164
94 144 164
94 144 164
94 144 164
94 144 164
94 144 164
94 144 164
94 144 164
94 144 164
94 144 164
94 144 164
94 144 164
94 144 164
94 144 164
94 144 164
94 144 164
94 144 164
94 144 164
94 144 164
94 144 164
94 144 164
94 144 164
94 144 164
94 144 164
94 144 164
94 144 164
94 144 164
94 144 164
94 144 164
94 144 164
94 144 164
94 144 164
94 144 164
94 144 164
94 144 164
94 144 164
94 144 164
94 144 164
94 144 164
94 144 164
94 144 164
94 144 164
94 144 164
94 144 164
94 144 164
94 144 164
94 144 164
94 144 164
94 144 164
94 144 164
94 144 164
94 144 164
94 144 164
94 144 164
94 144 164
94 144 164
94 144 164
94 144 164
94 144 164
94 144 164
94 144 164
94 144 164
94 144 164
94 144 164
94 144 164
94 144 164
94 144 164
94 144 164
94 144 164
94 144 164
94 144 164
94 144 164
94 144 164
94 144 164
94 144 164
94 144 164
94 144 164
94 144 164
94 144 164
94 144 164
94 144 164
94 144 164
94 144 164
94 144 164
94 144 164
94 144 164
94 144 164
94 144 164
94 144 164
94 144 164
94 144 164
94 144 164
94 144 164
94 144 164
94 144 164
94 144 164
94 144 164
94 144 164
94 144 164
94 144 164
94 144 164
94 144 164
94 144 164
94 144 164
94 144 164
94 144 164
94 144 164
94 144 164
94 144 164
94 144 164
94 144 164
94 144 164
94 144 164
94 144 164
94 144 164
94 144 164
94 144 164
94 144 164
94 144 164
94 144 164
94 144 164
94 144 164
94 144 164
94 144 164
94 144 164
94 144 164
94 144 164
94 144 164
94 144 164
94 144 164
94 144 164
94 144 164
94 144 164
94 144 164
94 144 164
94 144 164
94 144 164
94 144 164
94 144 164
94 144 164
94 144 164
94 144 164
94 144 164
94 144 164
94 144 164
94 144 164
94 144 164
94 144 164
94 144 164
94 144 164
94 144 164
94 144 164
94 144 164
94 144 164
94 144 164
94 144 164
94 144 164
94 144 164
94 144 164
94 144 164
94 144 164
94 144 164
94 144 164
94 144 164
94 144 164
94 144 164
94 144 164
94 144 164
94 144 164
94 144 164
94 144 164
94 144 164
94 144 164
94 144 164
94 144 164
94 144 164
94 144 164
94 144 164
94 144 164
94 144 164
94 144 164
94 144 164
94 144 164
94 144 164
94 144 164
94 144 164
94 144 164
94 144 164
94 144 164
94 144 164
94 144 164
94 144 164
94 144 164
94 144 164
94 144 164
94 144 164
94 144 164
94 144 164
94 144 164
94 144 164
94 144 164
94 144 164
94 144 164
94 144 164
94 144 164
94 144 164
94 144 164
94 144 164
94 144 164
94 144 164
94 144 164
94 144 164
94 144 164
94 144 164
94 144 164
94 144 164
94 144 164
94 144 164
94 144 164
94 144 164
94 144 164
94 144 164
94 144 164
94 144 164
94 144 164
94 144 164
94 144 164
94 144 164
94 144 164
94 144 164
94 144 164
94 144 164
94 144 164
94 144 164
94 144 164
94 144 164
94 144 164
94 144 164
94 144 164
94 144 164
94 144 164
94 144 164
94 144 164
94 144 164
94 144 164
94 144 164
94 144 164
94 144 164
94 144 164
94 144 164
94 144 164
94 144 164
94 144 164
94 144 164
94 144 164
94 144 164
94 144 164
94 144 164
94 144 164
94 144 164
94 144 164
94 144 164
94 144 164
94 144 164
94 144 164
94 144 164
94 144 164
94 144 164
94 144 164
94 144 164
94 144 164
94 144 164
94 144 164
94 144 164
94 144 164
94 144 164
94 144 164
94 144 164
94 144 164
94 144 164
94 144 164
94 144 164
94 144 164
94 144 164
94 144 164
94 144 164
94 144 164
94 144 164
94 144 164
94 144 164
94 144 164
94 144 164
94 144 164
94 144 164
94 144 164
94 144 164
94 144 164
94 144 164
94 144 164
94 144 164
94 144 164
94 144 164
94 144 164
94 144 164
94 144 164
94 144 164
94 144 164
94 144 164
94 144 164
94 144 164
94 144 164
94 144 164
94 144 164
94 144 164
94 144 164
94 144 164
94 144 164
94 144 164
94 144 164
94 144 164
94 144 164
94 144 164
94 144 164
94 144 164
94 144 164
94 144 164
94 144 164
94 144 164
94 144 164
94 144 164
94 144 164
94 144 164
94 144 164
94 144 164
94 144 164
94 144 164
94 144 164
94 144 164
94 144 164
94 144 164
94 144 164
94 144 164
94 144 164
94 144 164
94 144 164
94 144 164
94 144 164
94 144 164
94 144 164
94 144 164
94 144 164
94 144 164
94 144 164
94 144 164
94 144 164
94 144 164
94 144 164
94 144 164
94 144 164
94 144 164
94 144 164
94 144 164
94 144 164
94 144 164
94 144 164
94 144 164
94 144 164
94 144 164
94 144 164
94 144 164
94 144 164
94 144 164
94 144 164
94 144 164
94 144 164
94 144 164
94 144 164
94 144 164
94 144 164
94 144 164
94 144 164
94 144 164
94 144 164
94 144 164
94 144 164
94 144 164
94 144 164
94 144 164
94 144 164
94 144 164
94 144 164
94 144 164
94 144 164
94 144 164
94 144 164
94 144 164
94 144 164
94 144 164
94 144 164
94 144 164
94 144 164
94 144 164
94 144 164
94 144 164
94 144 164
94 144 164
94 144 164
94 144 164
94 144 164
94 144 164
94 144 164
94 144 164
94 144 164
94 144 164
94 144 164
94 144 164
94 144 164
94 144 164
94 144 164
94 144 164
94 144 164
94 144 164
94 144 164
94 144 164
94 144 164
94 144 164
94 144 164
94 144 164
94 144 164
94 144 164
94 144 164
94 144 164
94 144 164
94 144 164
94 144 164
94 144 164
94 144 164
94 144 164
94 144 164
94 144 164
94 144 164
94 144 164
94 144 164
94 144 164
94 144 164
94 144 164
94 144 164
94 144 164
94 144 164
94 144 164
94 144 164
94 144 164
94 144 164
94 144 164
94 144 164
94 144 164
94 144 164
94 144 164
94 144 164
94 144 164
94 144 164
94 144 164
94 144 164
94 144 164
94 144 164
94 144 164
94 144 164
94 144 164
94 144 164
94 144 164
94 144 164
94 144 164
94 144 164
94 144 164
94 144 164
94 144 164
94 144 164
94 144 164
94 144 164
94 144 164
94 144 164
94 144 164
94 144 164
94 144 164
94 144 164
94 144 164
94 144 164
94 144 164
94 144 164
94 144 164
94 144 164
94 144 164
94 144 164
94 144 164
94 144 164
94 144 164
94 144 164
94 144 164
94 144 164
94 144 164
94 144 164
94 144 164
94 144 164
94 144 164
94 144 164
94 144 164
94 144 164
94 144 164
94 144 164
94 144 164
94 144 164
94 144 164
94 144 164
94 144 164
94 144 164
94 144 164
94 144 164
94 144 164
94 144 164
94 144 164
94 144 164
94 144 164
94 144 164
94 144 164
94 144 164
94 144 164
94 144 164
94 144 164
94 144 164
94 144 164
94 144 164
94 144 164
94 144 164
94 144 164
94 144 164
94 144 164
94 144 164
94 144 164
94 144 164
94 144 164
94 144 164
94 144 164
94 144 164
94 144 164
94 144 164
94 144 164
94 144 164
94 144 164
94 144 164
94 144 164
94 144 164
94 144 164
94 144 164
94 144 164
94 144 164
94 144 164
94 144 164
94 144 164
94 144 164
94 144 164
94 144 164
94 144 164
94 144 164
94 144 164
94 144 164
94 144 164
94 144 164
94 144 164
94 144 164
94 144 164
94 144 164
94 144 164
94 144 164
94 144 164
94 144 164
94 144 164
94 144 164
94 144 164
94 144 164
94 144 164
94 144 164
94 144 164
94 144 164
94 144 164
94 144 164
94 144 164
94 144 164
94 144 164
94 144 164
94 144 164
94 144 164
94 144 164
94 144 164
94 144 164
94 144 164
94 144 164
94 144 164
94 144 164
94 144 164
94 144 164
94 144 164
94 144 164
94 144 164
94 144 164
94 144 164
94 144 164
94 144 164
94 144 164
94 144 164
94 144 164
94 144 164
94 144 164
94 144 164
94 144 164
94 144 164
94 144 164
94 144 164
94 144 164
94 144 164
94 144 164
94 144 164
94 144 164
94 144 164
94 144 164
94 144 164
94 144 164
94 144 164
94 144 164
94 144 164
94 144 164
94 144 164
94 144 164
94 144 164
94 144 164
94 144 164
94 144 164
94 144 164
94 144 164
94 144 164
94 144 164
94 144 164
94 144 164
94 144 164
94 144 164
94 144 164
94 144 164
94 144 164
94 144 164
94 144 164
94 144 164
94 144 164
94 144 164
94 144 164
94 144 164
94 144 164
94 144 164
94 144 164
94 144 164
94 144 164
94 144 164
94 144 164
94 144 164
94 144 164
94 144 164
94 144 164
94 144 164
94 144 164
94 144 164
94 144 164
94 144 164
94 144 164
94 144 164
94 144 164
94 144 164
94 144 164
94 144 164
94 144 164
94 144 164
94 144 164
94 144 164
94 144 164
94 144 164
94 144 164
94 144 164
94 144 164
94 144 164
94 144 164
94 144 164
94 144 164
94 144 164
94 144 164
94 144 164
94 144 164
94 144 164
94 144 164
94 144 164
94 144 164
94 144 164
94 144 164
94 144 164
94 144 164
94 144 164
94 144 164
94 144 164
94 144 164
94 144 164
94 144 164
94 144 164
94 144 164
94 144 164
94 144 164
94 144 164
94 144 164
94 144 164
94 144 164
94 144 164
94 144 164
94 144 164
94 144 164
94 144 164
94 144 164
94 144 164
94 144 164
94 144 164
94 144 164
94 144 164
94 144 164
94 144 164
94 144 164
94 144 164
94 144 164
94 144 164
94 144 164
94 144 164
94 144 164
94 144 164
94 144 164
94 144 164
94 144 164
94 144 164
94 144 164
94 144 164
94 144 164
94 144 164
94 144 164
94 144 164
94 144 164
94 144 164
94 144 164
94 144 164
94 144 164
94 144 164
94 144 164
94 144 164
94 144 164
94 144 164
94 144 164
94 144 164
94 144 164
94 144 164
94 144 164
94 144 164
94 144 164
94 144 164
94 144 164
94 144 164
94 144 164
94 144 164
94 144 164
94 144 164
94 144 164
94 144 164
94 144 164
94 144 164
94 144 164
94 144 164
94 144 164
94 144 164
94 144 164
94 144 164
94 144 164
94 144 164
94 144 164
94 144 164
94 144 164
94 144 164
94 144 164
94 144 164
94 144 164
94 144 164
94 144 164
94 144 164
94 144 164
94 144 164
94 144 164
94 144 164
94 144 164
94 144 164
94 144 164
94 144 164
94 144 164
94 144 164
94 144 164
94 144 164
94 144 164
94 144 164
94 144 164
94 144 164
94 144 164
94 144 164
94 144 164
94 144 164
94 144 164
94 144 164
94 144 164
94 144 164
94 144 164
94 144 164
94 144 164
94 144 164
94 144 164
94 144 164
94 144 164
94 144 164
94 144 164
94 144 164
94 144 164
94 144 164
94 144 164
94 144 164
94 144 164
94 144 164
94 144 164
94 144 164
94 144 164
94 144 164
94 144 164
94 144 164
94 144 164
94 144 164
94 144 164
94 144 164
94 144 164
94 144 164
94 144 164
94 144 164
94 144 164
94 144 164
94 144 164
94 144 164
94 144 164
94 144 164
94 144 164
94 144 164
94 144 164
94 144 164
94 144 164
94 144 164
94 144 164
94 144 164
94 144 164
94 144 164
94 144 164
94 144 164
94 144 164
94 144 164
94 144 164
94 144 164
94 144 164
94 144 164
94 144 164
94 144 164
94 144 164
94 144 164
94 144 164
94 144 164
94 144 164
94 144 164
94 144 164
94 144 164
94 144 164
94 144 164
94 144 164
94 144 164
94 144 164
94 144 164
94 144 164
94 144 164
94 144 164
94 144 164
94 144 164
94 144 164
94 144 164
94 144 164
94 144 164
94 144 164
94 144 164
94 144 164
94 144 164
94 144 164
94 144 164
94 144 164
94 144 164
94 144 164
94 144 164
94 144 164
94 144 164
94 144 164
94 144 164
94 144 164
94 144 164
94 144 164
94 144 164
94 144 164
94 144 164
94 144 164
94 144 164
94 144 164
94 144 164
94 144 164
94 144 164
94 144 164
94 144 164
94 144 164
94 144 164
94 144 164
94 144 164
94 144 164
94 144 164
94 144 164
94 144 164
94 144 164
94 144 164
94 144 164
94 144 164
94 144 164
94 144 164
94 144 164
94 144 164
94 144 164
94 144 164
94 144 164
94 144 164
94 144 164
94 144 164
94 144 164
94 144 164
94 144 164
94 144 164
94 144 164
94 144 164
94 144 164
94 144 164
94 144 164
94 144 164
94 144 164
94 144 164
94 144 164
94 144 164
94 144 164
94 144 164
94 144 164
94 144 164
94 144 164
94 144 164
94 144 164
94 144 164
94 144 164
94 144 164
94 144 164
94 144 164
94 144 164
94 144 164
94 144 164
94 144 164
94 144 164
94 144 164
94 144 164
94 144 164
94 144 164
94 144 164
94 144 164
94 144 164
94 144 164
94 144 164
94 144 164
94 144 164
94 144 164
94 144 164
94 144 164
94 144 164
94 144 164
94 144 164
94 144 164
94 144 164
94 144 164
94 144 164
94 144 164
94 144 164
94 144 164
94 144 164
94 144 164
94 144 164
94 144 164
94 144 164
94 144 164
94 144 164
94 144 164
94 144 164
94 144 164
94 144 164
94 144 164
94 144 164
94 144 164
94 144 164
94 144 164
94 144 164
94 144 164
94 144 164
94 144 164
94 144 164
94 144 164
94 144 164
94 144 164
94 144 164
94 144 164
94 144 164
94 144 164
94 144 164
94 144 164
94 144 164
94 144 164
94 144 164
94 144 164
94 144 164
94 144 164
94 144 164
94 144 164
94 144 164
94 144 164
94 144 164
94 144 164
94 144 164
94 144 164
94 144 164
94 144 164
94 144 164
94 144 164
94 144 164
94 144 164
94 144 164
94 144 164
94 144 164
94 144 164
94 144 164
94 144 164
94 144 164
94 144 164
94 144 164
94 144 164
94 144 164
94 144 164
94 144 164
94 144 164
94 144 164
94 144 164
94 144 164
94 144 164
94 144 164
94 144 164
94 144 164
94 144 164
94 144 164
94 144 164
94 144 164
94 144 164
94 144 164
94 144 164
94 144 164
94 144 164
94 144 164
94 144 164
94 144 164
94 144 164
94 144 164
94 144 164
94 144 164
94 144 164
94 144 164
94 144 164
94 144 164
94 144 164
94 144 164
94 144 164
94 144 164
94 144 164
94 144 164
94 144 164
94 144 164
94 144 164
94 144 164
94 144 164
94 144 164
94 144 164
94 144 164
94 144 164
94 144 164
94 144 164
94 144 164
94 144 164
94 144 164
94 144 164
94 144 164
94 144 164
94 144 164
94 144 164
94 144 164
94 144 164
94 144 164
94 144 164
94 144 164
94 144 164
94 144 164
94 144 164
94 144 164
94 144 164
94 144 164
94 144 164
94 144 164
94 144 164
94 144 164
94 144 164
94 144 164
94 144 164
94 144 164
94 144 164
94 144 164
94 144 164
94 144 164
94 144 164
94 144 164
94 144 164
94 144 164
94 144 164
94 144 164
94 144 164
94 144 164
94 144 164
94 144 164
94 144 164
94 144 164
94 144 164
94 144 164
94 144 164
94 144 164
94 144 164
94 144 164
94 144 164
94 144 164
94 144 164
94 144 164
94 144 164
94 144 164
94 144 164
94 144 164
94 144 164
94 144 164
94 144 164
94 144 164
94 144 164
94 144 164
94 144 164
94 144 164
94 144 164
94 144 164
94 144 164
94 144 164
94 144 164
94 144 164
94 144 164
94 144 164
94 144 164
94 144 164
94 144 164
94 144 164
94 144 164
94 144 164
94 144 164
94 144 164
94 144 164
94 144 164
94 144 164
94 144 164
94 144 164
94 144 164
94 144 164
94 144 164
94 144 164
94 144 164
94 144 164
94 144 164
94 144 164
94 144 164
94 144 164
94 144 164
94 144 164
94 144 164
94 144 164
94 144 164
94 144 164
94 144 164
94 144 164
94 144 164
94 144 164
94 144 164
94 144 164
94 144 164
94 144 164
94 144 164
94 144 164
94 144 164
94 144 164
94 144 164
94 144 164
94 144 164
94 144 164
94 144 164
94 144 164
94 144 164
94 144 164
94 144 164
94 144 164
94 144 164
94 144 164
94 144 164
94 144 164
94 144 164
94 144 164
94 144 164
94 144 164
94 144 164
94 144 164
94 144 164
94 144 164
94 144 164
94 144 164
94 144 164
94 144 164
94 144 164
94 144 164
94 144 164
94 144 164
94 144 164
94 144 164
94 144 164
94 144 164
94 144 164
94 144 164
94 144 164
94 144 164
94 144 164
94 144 164
94 144 164
94 144 164
94 144 164
94 144 164
94 144 164
94 144 164
94 144 164
94 144 164
94 144 164
94 144 164
94 144 164
94 144 164
94 144 164
94 144 164
94 144 164
94 144 164
94 144 164
94 144 164
94 144 164
94 144 164
94 144 164
94 144 164
94 144 164
94 144 164
94 144 164
94 144 164
94 144 164
94 144 164
94 144 164
94 144 164
94 144 164
94 144 164
94 144 164
94 144 164
94 144 164
94 144 164
94 144 164
94 144 164
94 144 164
94 144 164
94 144 164
94 144 164
94 144 164
94 144 164
94 144 164
94 144 164
94 144 164
94 144 164
94 144 164
94 144 164
94 144 164
94 144 164
94 144 164
94 144 164
94 144 164
94 144 164
94 144 164
94 144 164
94 144 164
94 144 164
94 144 164
94 144 164
94 144 164
94 144 164
94 144 164
94 144 164
94 144 164
94 144 164
94 144 164
94 144 164
94 144 164
94 144 164
94 144 164
94 144 164
94 144 164
94 144 164
94 144 164
94 144 164
94 144 164
94 144 164
94 144 164
94 144 164
94 144 164
94 144 164
94 144 164
94 144 164
94 144 164
94 144 164
94 144 164
94 144 164
94 144 164
94 144 164
94 144 164
94 144 164
94 144 164
94 144 164
94 144 164
94 144 164
94 144 164
94 144 164
94 144 164
94 144 164
94 144 164
94 144 164
94 144 164
94 144 164
94 144 164
94 144 164
94 144 164
94 144 164
94 144 164
94 144 164
94 144 164
94 144 164
94 144 164
94 144 164
94 144 164
94 144 164
94 144 164
94 144 164
94 144 164
94 144 164
94 144 164
94 144 164
94 144 164
94 144 164
94 144 164
94 144 164
94 144 164
94 144 164
94 144 164
94 144 164
94 144 164
94 144 164
94 144 164
94 144 164
94 144 164
94 144 164
94 144 164
94 144 164
94 144 164
94 144 164
94 144 164
94 144 164
94 144 164
94 144 164
94 144 164
94 144 164
94 144 164
94 144 164
94 144 164
94 144 164
94 144 164
94 144 164
94 144 164
94 144 164
94 144 164
94 144 164
94 144 164
94 144 164
94 144 164
94 144 164
94 144 164
94 144 164
94 144 164
94 144 164
94 144 164
94 144 164
94 144 164
94 144 164
94 144 164
94 144 164
94 144 164
94 144 164
94 144 164
94 144 164
94 144 164
94 144 164
94 144 164
94 144 164
94 144 164
94 144 164
94 144 164
94 144 164
94 144 164
94 144 164
94 144 164
94 144 164
94 144 164
94 144 164
94 144 164
94 144 164
94 144 164
94 144 164
94 144 164
94 144 164
94 144 164
94 144 164
94 144 164
94 144 164
94 144 164
94 144 164
94 144 164
94 144 164
94 144 164
94 144 164
94 144 164
94 144 164
94 144 164
94 144 164
94 144 164
94 144 164
94 144 164
94 144 164
94 144 164
94 144 164
94 144 164
94 144 164
94 144 164
94 144 164
94 144 164
94 144 164
94 144 164
94 144 164
94 144 164
94 144 164
94 144 164
94 144 164
94 144 164
94 144 164
94 144 164
94 144 164
94 144 164
94 144 164
94 144 164
94 144 164
94 144 164
94 144 164
94 144 164
94 144 164
94 144 164
94 144 164
94 144 164
94 144 164
94 144 164
94 144 164
94 144 164
94 144 164
94 144 164
94 144 164
94 144 164
94 144 164
94 144 164
94 144 164
94 144 164
94 144 164
94 144 164
94 144 164
94 144 164
94 144 164
94 144 164
94 144 164
94 144 164
94 144 164
94 144 164
94 144 164
94 144 164
94 144 164
94 144 164
94 144 164
94 144 164
94 144 164
94 144 164
94 144 164
94 144 164
94 144 164
94 144 164
94 144 164
94 144 164
94 144 164
94 144 164
94 144 164
94 144 164
94 144 164
94 144 164
94 144 164
94 144 164
94 144 164
94 144 164
94 144 164
94 144 164
94 144 164
94 144 164
94 144 164
94 144 164
94 144 164
94 144 164
94 144 164
94 144 164
94 144 164
94 144 164
94 144 164
94 144 164
94 144 164
94 144 164
94 144 164
94 144 164
94 144 164
94 144 164
94 144 164
94 144 164
94 144 164
94 144 164
94 144 164
94 144 164
94 144 164
94 144 164
94 144 164
94 144 164
94 144 164
94 144 164
94 144 164
94 144 164
94 144 164
94 144 164
94 144 164
94 144 164
94 144 164
94 144 164
94 144 164
94 144 164
94 144 164
94 144 164
94 144 164
94 144 164
94 144 164
94 144 164
94 144 164
94 144 164
94 144 164
94 144 164
94 144 164
94 144 164
94 144 164
94 144 164
94 144 164
94 144 164
94 144 164
94 144 164
94 144 164
94 144 164
94 144 164
94 144 164
94 144 164
94 144 164
94 144 164
94 144 164
94 144 164
94 144 164
94 144 164
94 144 164
94 144 164
94 144 164
94 144 164
94 144 164
94 144 164
94 144 164
94 144 164
94 144 164
94 144 164
94 144 164
94 144 164
94 144 164
94 144 164
94 144 164
94 144 164
94 144 164
94 144 164
94 144 164
94 144 164
94 144 164
94 144 164
94 144 164
94 144 164
94 144 164
94 144 164
94 144 164
94 144 164
94 144 164
94 144 164
94 144 164
94 144 164
94 144 164
94 144 164
94 144 164
94 144 164
94 144 164
94 144 164
94 144 164
94 144 164
94 144 164
94 144 164
94 144 164
94 144 164
94 144 164
94 144 164
94 144 164
94 144 164
94 144 164
94 144 164
94 144 164
94 144 164
94 144 164
94 144 164
94 144 164
94 144 164
94 144 164
94 144 164
94 144 164
94 144 164
94 144 164
94 144 164
94 144 164
94 144 164
94 144 164
94 144 164
94 144 164
94 144 164
94 144 164
94 144 164
94 144 164
94 144 164
94 144 164
94 144 164
94 144 164
94 144 164
94 144 164
94 144 164
94 144 164
94 144 164
94 144 164
94 144 164
94 144 164
94 144 164
94 144 164
94 144 164
94 144 164
94 144 164
94 144 164
94 144 164
94 144 164
94 144 164
94 144 164
94 144 164
94 144 164
94 144 164
94 144 164
94 144 164
94 144 164
94 144 164
94 144 164
94 144 164
94 144 164
94 144 164
94 144 164
94 144 164
94 144 164
94 144 164
94 144 164
94 144 164
94 144 164
94 144 164
94 144 164
94 144 164
94 144 164
94 144 164
94 144 164
94 144 164
94 144 164
94 144 164
94 144 164
94 144 164
94 144 164
94 144 164
94 144 164
94 144 164
94 144 164
94 144 164
94 144 164
94 144 164
94 144 164
94 144 164
94 144 164
94 144 164
94 144 164
94 144 164
94 144 164
94 144 164
94 144 164
94 144 164
94 144 164
94 144 164
94 144 164
94 144 164
94 144 164
94 144 164
94 144 164
94 144 164
94 144 164
94 144 164
94 144 164
94 144 164
94 144 164
94 144 164
94 144 164
94 144 164
94 144 164
94 144 164
94 144 164
94 144 164
94 144 164
94 144 164
94 144 164
94 144 164
94 144 164
94 144 164
94 144 164
94 144 164
94 144 164
94 144 164
94 144 164
94 144 164
94 144 164
94 144 164
94 144 164
94 144 164
94 144 164
94 144 164
94 144 164
94 144 164
94 144 164
94 144 164
94 144 164
94 144 164
94 144 164
94 144 164
94 144 164
94 144 164
94 144 164
94 144 164
94 144 164
94 144 164
94 144 164
94 144 164
94 144 164
94 144 164
94 144 164
94 144 164
94 144 164
94 144 164
94 144 164
94 144 164
94 144 164
94 144 164
94 144 164
94 144 164
94 144 164
94 144 164
94 144 164
94 144 164
94 144 164
94 144 164
94 144 164
94 144 164
94 144 164
94 144 164
94 144 164
94 144 164
94 144 164
94 144 164
94 144 164
94 144 164
94 144 164
94 144 164
94 144 164
94 144 164
94 144 164
94 144 164
94 144 164
94 144 164
94 144 164
94 144 164
94 144 164
94 144 164
94 144 164
94 144 164
94 144 164
94 144 164
94 144 164
94 144 164
94 144 164
94 144 164
94 144 164
94 144 164
94 144 164
94 144 164
94 144 164
94 144 164
94 144 164
94 144 164
94 144 164
94 144 164
94 144 164
94 144 164
94 144 164
94 144 164
94 144 164
94 144 164
94 144 164
94 144 164
94 144 164
94 144 164
94 144 164
94 144 164
94 144 164
94 144 164
94 144 164
94 144 164
94 144 164
94 144 164
94 144 164
94 144 164
94 144 164
94 144 164
94 144 164
94 144 164
94 144 164
94 144 164
94 144 164
94 144 164
94 144 164
94 144 164
94 144 164
94 144 164
94 144 164
94 144 164
94 144 164
94 144 164
94 144 164
94 144 164
94 144 164
94 144 164
94 144 164
94 144 164
94 144 164
94 144 164
94 144 164
94 144 164
94 144 164
94 144 164
94 144 164
94 144 164
94 144 164
94 144 164
94 144 164
94 144 164
94 144 164
94 144 164
94 144 164
94 144 164
94 144 164
94 144 164
94 144 164
94 144 164
94 144 164
94 144 164
94 144 164
94 144 164
94 144 164
94 144 164
94 144 164
94 144 164
94 144 164
94 144 164
94 144 164
94 144 164
94 144 164
94 144 164
94 144 164
94 144 164
94 144 164
94 144 164
94 144 164
94 144 164
94 144 164
94 144 164
94 144 164
94 144 164
94 144 164
94 144 164
94 144 164
94 144 164
94 144 164
94 144 164
94 144 164
94 144 164
94 144 164
94 144 164
94 144 164
94 144 164
94 144 164
94 144 164
94 144 164
94 144 164
94 144 164
94 144 164
94 144 164
94 144 164
94 144 164
94 144 164
94 144 164
94 144 164
94 144 164
94 144 164
94 144 164
94 144 164
94 144 164
94 144 164
94 144 164
94 144 164
94 144 164
94 144 164
94 144 164
94 144 164
94 144 164
94 144 164
94 144 164
94 144 164
94 144 164
94 144 164
94 144 164
94 144 164
94 144 164
94 144 164
94 144 164
94 144 164
94 144 164
94 144 164
94 144 164
94 144 164
94 144 164
94 144 164
94 144 164
94 144 164
94 144 164
94 144 164
94 144 164
94 144 164
94 144 164
94 144 164
94 144 164
94 144 164
94 144 164
94 144 164
94 144 164
94 144 164
94 144 164
94 144 164
94 144 164
94 144 164
94 144 164
94 144 164
94 144 164
94 144 164
94 144 164
94 144 164
94 144 164
94 144 164
94 144 164
94 144 164
94 144 164
94 144 164
94 144 164
94 144 164
94 144 164
94 144 164
94 144 164
94 144 164
94 144 164
94 144 164
94 144 164
94 144 164
94 144 164
94 144 164
94 144 164
94 144 164
94 144 164
94 144 164
94 144 164
94 144 164
94 144 164
94 144 164
94 144 164
94 144 164
94 144 164
94 144 164
94 144 164
94 144 164
94 144 164
94 144 164
94 144 164
94 144 164
94 144 164
94 144 164
94 144 164
94 144 164
94 144 164
94 144 164
94 144 164
94 144 164
94 144 164
94 144 164
94 144 164
94 144 164
94 144 164
94 144 164
94 144 164
94 144 164
94 144 164
94 144 164
94 144 164
94 144 164
94 144 164
94 144 164
94 144 164
94 144 164
94 144 164
94 144 164
94 144 164
94 144 164
94 144 164
94 144 164
94 144 164
94 144 164
94 144 164
94 144 164
195 131 159
195 131 159
195 131 159
195 131 159
195 131 159
195 131 159
195 131 159
168 127 152
94 144 164
94 144 164
94 144 164
94 144 164
94 144 164
94 144 164
94 144 164
94 144 164
94 144 164
94 144 164
94 144 164
94 144 164
94 144 164
94 144 164
94 144 164
94 144 164
94 144 164
94 144 164
94 144 164
94 144 164
94 144 164
94 144 164
94 144 164
94 144 164
94 144 164
94 144 164
94 144 164
94 144 164
94 144 164
94 144 164
94 144 164
94 144 164
94 144 164
94 144 164
94 144 164
94 144 164
94 144 164
94 144 164
94 144 164
94 144 164
94 144 164
94 144 164
94 144 164
94 144 164
94 144 164
94 144 164
94 144 164
94 144 164
94 144 164
94 144 164
94 144 164
94 144 164
94 144 164
94 144 164
94 144 164
94 144 164
94 144 164
94 144 164
94 144 164
94 144 164
94 144 164
94 144 164
94 144 164
94 144 164
94 144 164
94 144 164
94 144 164
94 144 164
94 144 164
94 144 164
94 144 164
94 144 164
94 144 164
94 144 164
94 144 164
94 144 164
94 144 164
94 144 164
94 144 164
94 144 164
94 144 164
94 144 164
94 144 164
94 144 164
94 144 164
94 144 164
94 144 164
94 144 164
94 144 164
94 144 164
94 144 164
94 144 164
94 144 164
94 144 164
94 144 164
94 144 164
94 144 164
94 144 164
94 144 164
94 144 164
94 144 164
94 144 164
94 144 164
94 144 164
94 144 164
94 144 164
94 144 164
94 144 164
94 144 164
94 144 164
94 144 164
94 144 164
94 144 164
94 144 164
94 144 164
94 144 164
94 144 164
94 144 164
94 144 164
94 144 164
94 144 164
94 144 164
94 144 164
94 144 164
94 144 164
94 144 164
94 144 164
94 144 164
94 144 164
94 144 164
94 144 164
94 144 164
94 144 164
94 144 164
94 144 164
94 144 164
94 144 164
94 144 164
94 144 164
94 144 164
94 144 164
94 144 164
94 144 164
94 144 164
94 144 164
94 144 164
94 144 164
94 144 164
94 144 164
94 144 164
94 144 164
94 144 164
94 144 164
94 144 164
94 144 164
94 144 164
94 144 164
94 144 164
94 144 164
94 144 164
94 144 164
94 144 164
94 144 164
94 144 164
94 144 164
94 144 164
94 144 164
94 144 164
94 144 164
94 144 164
94 144 164
94 144 164
94 144 164
94 144 164
94 144 164
94 144 164
94 144 164
94 144 164
94 144 164
94 144 164
94 144 164
94 144 164
94 144 164
94 144 164
94 144 164
94 144 164
94 144 164
94 144 164
94 144 164
94 144 164
94 144 164
94 144 164
94 144 164
94 144 164
94 144 164
94 144 164
94 144 164
94 144 164
94 144 164
94 144 164
94 144 164
94 144 164
94 144 164
94 144 164
94 144 164
94 144 164
94 144 164
94 144 164
94 144 164
94 144 164
94 144 164
94 144 164
94 144 164
94 144 164
94 144 164
94 144 164
94 144 164
94 144 164
94 144 164
94 144 164
94 144 164
94 144 164
94 144 164
94 144 164
94 144 164
94 144 164
94 144 164
94 144 164
94 144 164
94 144 164
94 144 164
94 144 164
94 144 164
94 144 164
94 144 164
94 144 164
94 144 164
94 144 164
94 144 164
94 144 164
94 144 164
94 144 164
94 144 164
94 144 164
94 144 164
94 144 164
94 144 164
94 144 164
94 144 164
94 144 164
94 144 164
94 144 164
94 144 164
94 144 164
94 144 164
94 144 164
94 144 164
94 144 164
94 144 164
94 144 164
94 144 164
94 144 164
94 144 164
94 144 164
94 144 164
94 144 164
94 144 164
94 144 164
94 144 164
94 144 164
94 144 164
94 144 164
94 144 164
94 144 164
94 144 164
94 144 164
94 144 164
94 144 164
94 144 164
94 144 164
94 144 164
94 144 164
94 144 164
94 144 164
94 144 164
94 144 164
94 144 164
94 144 164
94 144 164
94 144 164
94 144 164
94 144 164
94 144 164
94 144 164
94 144 164
94 144 164
94 144 164
94 144 164
94 144 164
94 144 164
94 144 164
94 144 164
94 144 164
94 144 164
94 144 164
94 144 164
94 144 164
94 144 164
94 144 164
94 144 164
94 144 164
167 127 152
167 127 152
167 127 152
167 127 152
195 131 159
195 131 159
195 131 159
167 127 152
167 127 152
167 127 152
167 127 152
167 127 152
167 127 152
167 127 152
195 131 159
195 131 159
195 131 159
195 131 159
195 131 159
195 131 159
195 131 159
167 127 152
167 127 152
167 127 152
167 127 152
167 127 152
167 127 152
167 127 152
94 144 164
94 144 164
94 144 164
94 144 164
94 144 164
94 144 164
94 144 164
94 144 164
94 144 164
94 144 164
94 144 164
94 144 164
94 144 164
94 144 164
94 144 164
94 144 164
94 144 164
94 144 164
94 144 164
94 144 164
94 144 164
94 144 164
94 144 164
94 144 164
94 144 164
94 144 164
94 144 164
94 144 164
94 144 164
94 144 164
94 144 164
94 144 164
94 144 164
94 144 164
94 144 164
94 144 164
94 144 164
94 144 164
94 144 164
94 144 164
94 144 164
94 144 164
94 144 164
94 144 164
94 144 164
94 144 164
94 144 164
94 144 164
94 144 164
94 144 164
94 144 164
94 144 164
94 144 164
94 144 164
94 144 164
94 144 164
94 144 164
94 144 164
94 144 164
94 144 164
94 144 164
94 144 164
94 144 164
94 144 164
94 144 164
94 144 164
94 144 164
94 144 164
94 144 164
94 144 164
94 144 164
94 144 164
94 144 164
94 144 164
94 144 164
94 144 164
94 144 164
94 144 164
94 144 164
94 144 164
94 144 164
94 144 164
94 144 164
94 144 164
94 144 164
94 144 164
94 144 164
94 144 164
94 144 164
94 144 164
94 144 164
94 144 164
94 144 164
94 144 164
94 144 164
94 144 164
94 144 164
94 144 164
94 144 164
94 144 164
94 144 164
94 144 164
94 144 164
94 144 164
94 144 164
94 144 164
94 144 164
94 144 164
94 144 164
94 144 164
94 144 164
94 144 164
94 144 164
94 144 164
94 144 164
94 144 164
94 144 164
94 144 164
94 144 164
94 144 164
94 144 164
94 144 164
94 144 164
94 144 164
94 144 164
94 144 164
94 144 164
94 144 164
94 144 164
94 144 164
94 144 164
94 144 164
94 144 164
94 144 164
94 144 164
94 144 164
94 144 164
94 144 164
94 144 164
94 144 164
94 144 164
94 144 164
94 144 164
94 144 164
94 144 164
94 144 164
94 144 164
94 144 164
94 144 164
94 144 164
94 144 164
94 144 164
94 144 164
94 144 164
94 144 164
94 144 164
94 144 164
94 144 164
94 144 164
94 144 164
94 144 164
94 144 164
94 144 164
94 144 164
94 144 164
94 144 164
94 144 164
94 144 164
94 144 164
94 144 164
94 144 164
94 144 164
94 144 164
94 144 164
94 144 164
94 144 164
94 144 164
94 144 164
94 144 164
94 144 164
94 144 164
94 144 164
94 144 164
94 144 164
94 144 164
94 144 164
94 144 164
94 144 164
94 144 164
94 144 164
94 144 164
94 144 164
94 144 164
94 144 164
94 144 164
94 144 164
94 144 164
94 144 164
94 144 164
94 144 164
94 144 164
94 144 164
94 144 164
94 144 164
94 144 164
94 144 164
94 144 164
94 144 164
94 144 164
94 144 164
94 144 164
94 144 164
94 144 164
94 144 164
94 144 164
94 144 164
94 144 164
94 144 164
94 144 164
94 144 164
94 144 164
94 144 164
94 144 164
94 144 164
94 144 164
94 144 164
94 144 164
94 144 164
94 144 164
94 144 164
94 144 164
94 144 164
94 144 164
94 144 164
94 144 164
94 144 164
94 144 164
94 144 164
94 144 164
94 144 164
94 144 164
94 144 164
94 144 164
94 144 164
94 144 164
94 144 164
94 144 164
94 144 164
94 144 164
94 144 164
94 144 164
94 144 164
94 144 164
94 144 164
94 144 164
94 144 164
94 144 164
94 144 164
94 144 164
94 144 164
94 144 164
94 144 164
94 144 164
94 144 164
94 144 164
94 144 164
94 144 164
94 144 164
94 144 164
94 144 164
94 144 164
94 144 164
94 144 164
94 144 164
94 144 164
94 144 164
94 144 164
94 144 164
94 144 164
94 144 164
94 144 164
94 144 164
94 144 164
94 144 164
94 144 164
94 144 164
94 144 164
94 144 164
94 144 164
94 144 164
167 127 151
167 127 151
167 127 151
167 127 151
167 127 151
167 127 151
167 127 151
195 131 159
195 131 159
195 131 159
195 131 159
195 131 159
195 131 159
195 131 159
195 131 159
167 127 151
167 127 151
167 127 151
167 127 151
167 127 151
167 127 151
167 127 151
195 131 159
195 131 159
195 131 159
195 131 159
195 131 159
195 131 159
195 131 159
62 38 45
94 144 164
94 144 164
94 144 164
94 144 164
94 144 164
94 144 164
94 144 164
94 144 164
94 144 164
94 144 164
94 144 164
94 144 164
94 144 164
94 144 164
94 144 164
94 144 164
94 144 164
94 144 164
94 144 164
94 144 164
94 144 164
94 144 164
94 144 164
94 144 164
94 144 164
94 144 164
94 144 164
94 144 164
94 144 164
94 144 164
94 144 164
94 144 164
94 144 164
94 144 164
94 144 164
94 144 164
94 144 164
94 144 164
94 144 164
94 144 164
94 144 164
94 144 164
94 144 164
94 144 164
94 144 164
94 144 164
94 144 164
94 144 164
94 144 164
94 144 164
94 144 164
94 144 164
94 144 164
94 144 164
94 144 164
94 144 164
94 144 164
94 144 164
94 144 164
94 144 164
94 144 164
94 144 164
94 144 164
94 144 164
94 144 164
94 144 164
94 144 164
94 144 164
94 144 164
94 144 164
94 144 164
94 144 164
94 144 164
94 144 164
94 144 164
94 144 164
94 144 164
94 144 164
94 144 164
94 144 164
94 144 164
94 144 164
94 144 164
94 144 164
94 144 164
94 144 164
94 144 164
94 144 164
94 144 164
94 144 164
94 144 164
94 144 164
94 144 164
94 144 164
94 144 164
94 144 164
94 144 164
94 144 164
94 144 164
94 144 164
94 144 164
94 144 164
94 144 164
94 144 164
94 144 164
94 144 164
94 144 164
94 144 164
94 144 164
94 144 164
94 144 164
94 144 164
94 144 164
94 144 164
94 144 164
94 144 164
94 144 164
94 144 164
94 144 164
94 144 164
94 144 164
94 144 164
94 144 164
94 144 164
94 144 164
94 144 164
94 144 164
94 144 164
94 144 164
94 144 164
94 144 164
94 144 164
94 144 164
94 144 164
94 144 164
94 144 164
94 144 164
94 144 164
94 144 164
94 144 164
94 144 164
94 144 164
94 144 164
94 144 164
94 144 164
94 144 164
94 144 164
94 144 164
94 144 164
94 144 164
94 144 164
94 144 164
94 144 164
94 144 164
94 144 164
94 144 164
94 144 164
94 144 164
94 144 164
94 144 164
94 144 164
94 144 164
94 144 164
94 144 164
94 144 164
94 144 164
94 144 164
94 144 164
94 144 164
94 144 164
94 144 164
94 144 164
94 144 164
94 144 164
94 144 164
94 144 164
94 144 164
94 144 164
94 144 164
94 144 164
94 144 164
94 144 164
94 144 164
94 144 164
94 144 164
94 144 164
94 144 164
94 144 164
94 144 164
94 144 164
94 144 164
94 144 164
94 144 164
94 144 164
94 144 164
94 144 164
94 144 164
94 144 164
94 144 164
94 144 164
94 144 164
94 144 164
94 144 164
94 144 164
94 144 164
94 144 164
94 144 164
94 144 164
94 144 164
94 144 164
94 144 164
94 144 164
94 144 164
94 144 164
94 144 164
94 144 164
94 144 164
94 144 164
94 144 164
94 144 164
94 144 164
94 144 164
94 144 164
94 144 164
94 144 164
94 144 164
94 144 164
94 144 164
94 144 164
94 144 164
94 144 164
94 144 164
94 144 164
94 144 164
94 144 164
94 144 164
94 144 164
94 144 164
94 144 164
94 144 164
94 144 164
94 144 164
94 144 164
94 144 164
94 144 164
94 144 164
94 144 164
94 144 164
94 144 164
94 144 164
94 144 164
94 144 164
94 144 164
94 144 164
94 144 164
94 144 164
94 144 164
94 144 164
94 144 164
94 144 164
94 144 164
94 144 164
94 144 164
94 144 164
94 144 164
94 144 164
94 144 164
94 144 164
94 144 164
94 144 164
94 144 164
94 144 164
94 144 164
94 144 164
94 144 164
94 144 164
94 144 164
94 144 164
94 144 164
94 144 164
94 144 164
94 144 164
94 144 164
94 144 164
94 144 164
94 144 164
94 144 164
94 144 164
195 130 159
195 130 159
195 130 159
195 130 159
195 130 159
195 130 159
195 130 159
195 130 159
167 126 151
167 126 151
167 126 151
167 126 151
167 126 151
167 126 151
167 126 151
195 130 159
195 130 159
195 130 159
195 130 159
195 130 159
195 130 159
195 130 159
195 130 159
167 126 151
167 126 151
167 126 151
167 126 151
167 126 151
167 126 151
195 130 159
53 36 42
62 38 45
94 144 164
94 144 164
94 144 164
94 144 164
94 144 164
94 144 164
94 144 164
94 144 164
94 144 164
94 144 164
94 144 164
94 144 164
94 144 164
94 144 164
94 144 164
94 144 164
94 144 164
94 144 164
94 144 164
94 144 164
94 144 164
94 144 164
94 144 164
94 144 164
94 144 164
94 144 164
94 144 164
94 144 164
94 144 164
94 144 164
94 144 164
94 144 164
94 144 164
94 144 164
94 144 164
94 144 164
94 144 164
94 144 164
94 144 164
94 144 164
94 144 164
94 144 164
94 144 164
94 144 164
94 144 164
94 144 164
94 144 164
94 144 164
94 144 164
94 144 164
94 144 164
94 144 164
94 144 164
94 144 164
94 144 164
94 144 164
94 144 164
94 144 164
94 144 164
94 144 164
94 144 164
94 144 164
94 144 164
94 144 164
94 144 164
94 144 164
94 144 164
94 144 164
94 144 164
94 144 164
94 144 164
94 144 164
94 144 164
94 144 164
94 144 164
94 144 164
94 144 164
94 144 164
94 144 164
94 144 164
94 144 164
94 144 164
94 144 164
94 144 164
94 144 164
94 144 164
94 144 164
94 144 164
94 144 164
94 144 164
94 144 164
94 144 164
94 144 164
94 144 164
94 144 164
94 144 164
94 144 164
94 144 164
94 144 164
94 144 164
94 144 164
94 144 164
94 144 164
94 144 164
94 144 164
94 144 164
94 144 164
94 144 164
94 144 164
94 144 164
94 144 164
94 144 164
94 144 164
94 144 164
94 144 164
94 144 164
94 144 164
94 144 164
94 144 164
94 144 164
94 144 164
94 144 164
94 144 164
94 144 164
94 144 164
94 144 164
94 144 164
94 144 164
94 144 164
94 144 164
94 144 164
94 144 164
94 144 164
94 144 164
94 144 164
94 144 164
94 144 164
94 144 164
94 144 164
94 144 164
94 144 164
94 144 164
94 144 164
94 144 164
94 144 164
94 144 164
94 144 164
94 144 164
94 144 164
94 144 164
94 144 164
94 144 164
94 144 164
94 144 164
94 144 164
94 144 164
94 144 164
94 144 164
94 144 164
94 144 164
94 144 164
94 144 164
94 144 164
94 144 164
94 144 164
94 144 164
94 144 164
94 144 164
94 144 164
94 144 164
94 144 164
94 144 164
94 144 164
94 144 164
94 144 164
94 144 164
94 144 164
94 144 164
94 144 164
94 144 164
94 144 164
94 144 164
94 144 164
94 144 164
94 144 164
94 144 164
94 144 164
94 144 164
94 144 164
94 144 164
94 144 164
94 144 164
94 144 164
94 144 164
94 144 164
94 144 164
94 144 164
94 144 164
94 144 164
94 144 164
94 144 164
94 144 164
94 144 164
94 144 164
94 144 164
94 144 164
94 144 164
94 144 164
94 144 164
94 144 164
94 144 164
94 144 164
94 144 164
94 144 164
94 144 164
94 144 164
94 144 164
94 144 164
94 144 164
94 144 164
94 144 164
94 144 164
94 144 164
94 144 164
94 144 164
94 144 164
94 144 164
94 144 164
94 144 164
94 144 164
94 144 164
94 144 164
94 144 164
94 144 164
94 144 164
94 144 164
94 144 164
94 144 164
94 144 164
94 144 164
94 144 164
94 144 164
94 144 164
94 144 164
94 144 164
94 144 164
94 144 164
94 144 164
94 144 164
94 144 164
94 144 164
94 144 164
94 144 164
94 144 164
94 144 164
94 144 164
94 144 164
94 144 164
94 144 164
94 144 164
94 144 164
94 144 164
94 144 164
94 144 164
94 144 164
94 144 164
94 144 164
94 144 164
94 144 164
94 144 164
94 144 164
94 144 164
94 144 164
94 144 164
94 144 164
94 144 164
94 144 164
94 144 164
94 144 164
94 144 164
94 144 164
94 144 164
94 144 164
94 144 164
94 144 164
94 144 164
94 144 164
167 126 151
167 126 151
167 126 151
167 126 151
167 126 151
167 126 151
167 126 151
167 126 151
195 130 158
195 130 158
195 130 158
195 130 158
195 130 158
195 130 158
195 130 158
167 126 151
167 126 151
167 126 151
167 126 151
167 126 151
167 126 151
195 130 158
195 130 158
167 126 151
167 126 151
167 126 151
167 126 151
167 126 151
167 126 151
167 126 151
170 86 104
53 36 42
62 38 45
94 144 164
94 144 164
94 144 164
94 144 164
94 144 164
94 144 164
94 144 164
94 144 164
94 144 164
94 144 164
94 144 164
94 144 164
94 144 164
94 144 164
94 144 164
94 144 164
94 144 164
94 144 164
94 144 164
94 144 164
94 144 164
94 144 164
94 144 164
94 144 164
94 144 164
94 144 164
94 144 164
94 144 164
94 144 164
94 144 164
94 144 164
94 144 164
94 144 164
94 144 164
94 144 164
94 144 164
94 144 164
94 144 164
94 144 164
94 144 164
94 144 164
94 144 164
94 144 164
94 144 164
94 144 164
94 144 164
94 144 164
94 144 164
94 144 164
94 144 164
94 144 164
94 144 164
94 144 164
94 144 164
94 144 164
94 144 164
94 144 164
94 144 164
94 144 164
94 144 164
94 144 164
94 144 164
94 144 164
94 144 164
94 144 164
94 144 164
94 144 164
94 144 164
94 144 164
94 144 164
94 144 164
94 144 164
94 144 164
94 144 164
94 144 164
94 144 164
94 144 164
94 144 164
94 144 164
94 144 164
94 144 164
94 144 164
94 144 164
94 144 164
94 144 164
94 144 164
94 144 164
94 144 164
94 144 164
94 144 164
94 144 164
94 144 164
94 144 164
94 144 164
94 144 164
94 144 164
94 144 164
94 144 164
94 144 164
94 144 164
94 144 164
94 144 164
94 144 164
94 144 164
94 144 164
94 144 164
94 144 164
94 144 164
94 144 164
94 144 164
94 144 164
94 144 164
94 144 164
94 144 164
94 144 164
94 144 164
94 144 164
94 144 164
94 144 164
94 144 164
94 144 164
94 144 164
94 144 164
94 144 164
94 144 164
94 144 164
94 144 164
94 144 164
94 144 164
94 144 164
94 144 164
94 144 164
94 144 164
94 144 164
94 144 164
94 144 164
94 144 164
94 144 164
94 144 164
94 144 164
94 144 164
94 144 164
94 144 164
94 144 164
94 144 164
94 144 164
94 144 164
94 144 164
94 144 164
94 144 164
94 144 164
94 144 164
94 144 164
94 144 164
94 144 164
94 144 164
94 144 164
94 144 164
94 144 164
94 144 164
94 144 164
94 144 164
94 144 164
94 144 164
94 144 164
94 144 164
94 144 164
94 144 164
94 144 164
94 144 164
94 144 164
94 144 164
94 144 164
94 144 164
94 144 164
94 144 164
94 144 164
94 144 164
94 144 164
94 144 164
94 144 164
94 144 164
94 144 164
94 144 164
94 144 164
94 144 164
94 144 164
94 144 164
94 144 164
94 144 164
94 144 164
94 144 164
94 144 164
94 144 164
94 144 164
94 144 164
94 144 164
94 144 164
94 144 164
94 144 164
94 144 164
94 144 164
94 144 164
94 144 164
94 144 164
94 144 164
94 144 164
94 144 164
94 144 164
94 144 164
94 144 164
94 144 164
94 144 164
94 144 164
94 144 164
94 144 164
94 144 164
94 144 164
94 144 164
94 144 164
94 144 164
94 144 164
94 144 164
94 144 164
94 144 164
94 144 164
94 144 164
94 144 164
94 144 164
94 144 164
94 144 164
94 144 164
94 144 164
94 144 164
94 144 164
94 144 164
94 144 164
94 144 164
94 144 164
94 144 164
94 144 164
94 144 164
94 144 164
94 144 164
94 144 164
94 144 164
94 144 164
94 144 164
94 144 164
94 144 164
94 144 164
94 144 164
94 144 164
94 144 164
94 144 164
94 144 164
94 144 164
94 144 164
94 144 164
94 144 164
94 144 164
94 144 164
94 144 164
94 144 164
94 144 164
94 144 164
94 144 164
94 144 164
94 144 164
94 144 164
94 144 164
94 144 164
94 144 164
94 144 164
94 144 164
94 144 164
94 144 164
94 144 164
94 144 164
94 144 164
94 144 164
94 144 164
94 144 164
94 144 164
94 144 164
94 144 164
60 36 42
60 36 42
60 36 42
60 36 42
60 36 42
52 35 40
60 36 42
52 35 40
52 34 40
142 82 96
142 82 96
142 81 96
195 130 158
195 130 158
195 130 158
167 126 150
167 126 150
167 126 150
167 126 150
167 126 150
167 126 150
167 126 150
167 126 150
195 130 158
195 130 158
195 130 158
195 130 158
195 130 158
195 130 158
195 130 158
195 130 158
61 36 43
53 36 42
62 38 45
94 144 164
94 144 164
94 144 164
94 144 164
94 144 164
94 144 164
94 144 164
94 144 164
94 144 164
94 144 164
94 144 164
94 144 164
94 144 164
94 144 164
94 144 164
94 144 164
94 144 164
94 144 164
94 144 164
94 144 164
94 144 164
94 144 164
94 144 164
94 144 164
94 144 164
94 144 164
94 144 164
94 144 164
94 144 164
94 144 164
94 144 164
94 144 164
94 144 164
94 144 164
94 144 164
94 144 164
94 144 164
94 144 164
94 144 164
94 144 164
94 144 164
94 144 164
94 144 164
94 144 164
94 144 164
94 144 164
94 144 164
94 144 164
94 144 164
94 144 164
94 144 164
94 144 164
94 144 164
94 144 164
94 144 164
94 144 164
94 144 164
94 144 164
94 144 164
94 144 164
94 144 164
94 144 164
94 144 164
94 144 164
94 144 164
94 144 164
94 144 164
94 144 164
94 144 164
94 144 164
94 144 164
94 144 164
94 144 164
94 144 164
94 144 164
94 144 164
94 144 164
94 144 164
94 144 164
94 144 164
94 144 164
94 144 164
94 144 164
94 144 164
94 144 164
94 144 164
94 144 164
94 144 164
94 144 164
94 144 164
94 144 164
94 144 164
94 144 164
94 144 164
94 144 164
94 144 164
94 144 164
94 144 164
94 144 164
94 144 164
94 144 164
94 144 164
94 144 164
94 144 164
94 144 164
94 144 164
94 144 164
94 144 164
94 144 164
94 144 164
94 144 164
94 144 164
94 144 164
94 144 164
94 144 164
94 144 164
94 144 164
94 144 164
94 144 164
94 144 164
94 144 164
94 144 164
94 144 164
94 144 164
94 144 164
94 144 164
94 144 164
94 144 164
94 144 164
94 144 164
94 144 164
94 144 164
94 144 164
94 144 164
94 144 164
94 144 164
94 144 164
94 144 164
94 144 164
94 144 164
94 144 164
94 144 164
94 144 164
94 144 164
94 144 164
94 144 164
94 144 164
94 144 164
94 144 164
94 144 164
94 144 164
94 144 164
94 144 164
94 144 164
94 144 164
94 144 164
94 144 164
94 144 164
94 144 164
94 144 164
94 144 164
94 144 164
94 144 164
94 144 164
94 144 164
94 144 164
94 144 164
94 144 164
94 144 164
94 144 164
94 144 164
94 144 164
94 144 164
94 144 164
94 144 164
94 144 164
94 144 164
94 144 164
94 144 164
94 144 164
94 144 164
94 144 164
94 144 164
94 144 164
94 144 164
94 144 164
94 144 164
94 144 164
94 144 164
94 144 164
94 144 164
94 144 164
94 144 164
94 144 164
94 144 164
94 144 164
94 144 164
94 144 164
94 144 164
94 144 164
94 144 164
94 144 164
94 144 164
94 144 164
94 144 164
94 144 164
94 144 164
94 144 164
94 144 164
94 144 164
94 144 164
94 144 164
94 144 164
94 144 164
94 144 164
94 144 164
94 144 164
94 144 164
94 144 164
94 144 164
94 144 164
94 144 164
94 144 164
94 144 164
94 144 164
94 144 164
94 144 164
94 144 164
94 144 164
94 144 164
94 144 164
94 144 164
94 144 164
94 144 164
94 144 164
94 144 164
94 144 164
94 144 164
94 144 164
94 144 164
94 144 164
94 144 164
94 144 164
94 144 164
94 144 164
94 144 164
94 144 164
94 144 164
94 144 164
94 144 164
94 144 164
94 144 164
94 144 164
94 144 164
94 144 164
94 144 164
94 144 164
94 144 164
94 144 164
94 144 164
94 144 164
94 144 164
94 144 164
94 144 164
94 144 164
94 144 164
94 144 164
94 144 164
94 144 164
94 144 164
94 144 164
94 144 164
94 144 164
94 144 164
94 144 164
94 144 164
94 144 164
94 144 164
94 144 164
94 144 164
94 144 164
94 144 164
94 144 164
94 144 164
94 144 164
94 144 164
60 36 42
60 36 42
60 36 42
60 36 42
60 36 42
52 35 40
60 36 42
52 35 40
52 35 40
52 34 40
52 34 40
52 34 40
52 34 40
51 34 40
51 34 40
51 34 40
60 35 42
60 35 42
60 35 42
51 34 40
60 35 42
60 35 42
51 34 39
51 34 39
51 34 39
60 35 42
51 34 39
51 34 39
60 35 42
51 34 39
52 34 40
61 36 43
53 36 42
62 38 45
94 144 164
94 144 164
94 144 164
94 144 164
94 144 164
94 144 164
94 144 164
94 144 164
94 144 164
94 144 164
94 144 164
94 144 164
94 144 164
94 144 164
94 144 164
94 144 164
94 144 164
94 144 164
94 144 164
94 144 164
94 144 164
94 144 164
94 144 164
94 144 164
94 144 164
94 144 164
94 144 164
94 144 164
94 144 164
94 144 164
94 144 164
94 144 164
94 144 164
94 144 164
94 144 164
94 144 164
94 144 164
94 144 164
94 144 164
94 144 164
94 144 164
94 144 164
94 144 164
94 144 164
94 144 164
94 144 164
94 144 164
94 144 164
94 144 164
94 144 164
94 144 164
94 144 164
94 144 164
94 144 164
94 144 164
94 144 164
94 144 164
94 144 164
94 144 164
94 144 164
94 144 164
94 144 164
94 144 164
94 144 164
94 144 164
94 144 164
94 144 164
94 144 164
94 144 164
94 144 164
94 144 164
94 144 164
94 144 164
94 144 164
94 144 164
94 144 164
94 144 164
94 144 164
94 144 164
94 144 164
94 144 164
94 144 164
94 144 164
94 144 164
94 144 164
94 144 164
94 144 164
94 144 164
94 144 164
94 144 164
94 144 164
94 144 164
94 144 164
94 144 164
94 144 164
94 144 164
94 144 164
94 144 164
94 144 164
94 144 164
94 144 164
94 144 164
94 144 164
94 144 164
94 144 164
94 144 164
94 144 164
94 144 164
94 144 164
94 144 164
94 144 164
94 144 164
94 144 164
94 144 164
94 144 164
94 144 164
94 144 164
94 144 164
94 144 164
94 144 164
94 144 164
94 144 164
94 144 164
94 144 164
94 144 164
94 144 164
94 144 164
94 144 164
94 144 164
94 144 164
94 144 164
94 144 164
94 144 164
94 144 164
94 144 164
94 144 164
94 144 164
94 144 164
94 144 164
94 144 164
94 144 164
94 144 164
94 144 164
94 144 164
94 144 164
94 144 164
94 144 164
94 144 164
94 144 164
94 144 164
94 144 164
94 144 164
94 144 164
94 144 164
94 144 164
94 144 164
94 144 164
94 144 164
94 144 164
94 144 164
94 144 164
94 144 164
94 144 164
94 144 164
94 144 164
94 144 164
94 144 164
94 144 164
94 144 164
94 144 164
94 144 164
94 144 164
94 144 164
94 144 164
94 144 164
94 144 164
94 144 164
94 144 164
94 144 164
94 144 164
94 144 164
94 144 164
94 144 164
94 144 164
94 144 164
94 144 164
94 144 164
94 144 164
94 144 164
94 144 164
94 144 164
94 144 164
94 144 164
94 144 164
94 144 164
94 144 164
94 144 164
94 144 164
94 144 164
94 144 164
94 144 164
94 144 164
94 144 164
94 144 164
94 144 164
94 144 164
94 144 164
94 144 164
94 144 164
94 144 164
94 144 164
94 144 164
94 144 164
94 144 164
94 144 164
94 144 164
94 144 164
94 144 164
94 144 164
94 144 164
94 144 164
94 144 164
94 144 164
94 144 164
94 144 164
94 144 164
94 144 164
94 144 164
94 144 164
94 144 164
94 144 164
94 144 164
94 144 164
94 144 164
94 144 164
94 144 164
94 144 164
94 144 164
94 144 164
94 144 164
94 144 164
94 144 164
94 144 164
94 144 164
94 144 164
94 144 164
94 144 164
94 144 164
94 144 164
94 144 164
94 144 164
94 144 164
94 144 164
94 144 164
94 144 164
94 144 164
94 144 164
94 144 164
94 144 164
94 144 164
94 144 164
94 144 164
94 144 164
94 144 164
94 144 164
94 144 164
94 144 164
94 144 164
94 144 164
94 144 164
94 144 164
94 144 164
94 144 164
94 144 164
94 144 164
94 144 164
94 144 164
94 144 164
94 144 164
94 144 164
94 144 164
94 144 164
94 144 164
94 144 164
94 144 164
94 144 164
60 36 42
60 36 42
60 36 42
60 36 42
52 35 40
60 36 42
60 36 42
52 35 40
52 35 40
52 34 40
52 34 40
52 34 40
60 36 42
51 34 40
51 34 40
60 35 42
60 35 42
60 35 42
60 35 42
60 35 42
60 35 42
60 35 42
51 34 39
51 34 39
51 34 39
51 34 39
51 34 39
51 34 39
51 34 39
51 34 39
52 34 40
61 36 43
53 36 42
62 38 45
94 144 164
94 144 164
94 144 164
94 144 164
94 144 164
94 144 164
94 144 164
94 144 164
94 144 164
94 144 164
94 144 164
94 144 164
94 144 164
94 144 164
94 144 164
94 144 164
94 144 164
94 144 164
94 144 164
94 144 164
94 144 164
94 144 164
94 144 164
94 144 164
94 144 164
94 144 164
94 144 164
94 144 164
94 144 164
94 144 164
94 144 164
94 144 164
94 144 164
94 144 164
94 144 164
94 144 164
94 144 164
94 144 164
94 144 164
94 144 164
94 144 164
94 144 164
94 144 164
94 144 164
94 144 164
94 144 164
94 144 164
94 144 164
94 144 164
94 144 164
94 144 164
94 144 164
94 144 164
94 144 164
94 144 164
94 144 164
94 144 164
94 144 164
94 144 164
94 144 164
94 144 164
94 144 164
94 144 164
94 144 164
94 144 164
94 144 164
94 144 164
94 144 164
94 144 164
94 144 164
94 144 164
94 144 164
94 144 164
94 144 164
94 144 164
94 144 164
94 144 164
94 144 164
94 144 164
94 144 164
94 144 164
94 144 164
94 144 164
94 144 164
94 144 164
94 144 164
94 144 164
94 144 164
94 144 164
94 144 164
94 144 164
94 144 164
94 144 164
94 144 164
94 144 164
94 144 164
94 144 164
94 144 164
94 144 164
94 144 164
94 144 164
94 144 164
94 144 164
94 144 164
94 144 164
94 144 164
94 144 164
94 144 164
94 144 164
94 144 164
94 144 164
94 144 164
94 144 164
94 144 164
94 144 164
94 144 164
94 144 164
94 144 164
94 144 164
94 144 164
94 144 164
94 144 164
94 144 164
94 144 164
94 144 164
94 144 164
94 144 164
94 144 164
94 144 164
94 144 164
94 144 164
94 144 164
94 144 164
94 144 164
94 144 164
94 144 164
94 144 164
94 144 164
94 144 164
94 144 164
94 144 164
94 144 164
94 144 164
94 144 164
94 144 164
94 144 164
94 144 164
94 144 164
94 144 164
94 144 164
94 144 164
94 144 164
94 144 164
94 144 164
94 144 164
94 144 164
94 144 164
94 144 164
94 144 164
94 144 164
94 144 164
94 144 164
94 144 164
94 144 164
94 144 164
94 144 164
94 144 164
94 144 164
94 144 164
94 144 164
94 144 164
94 144 164
94 144 164
94 144 164
94 144 164
94 144 164
94 144 164
94 144 164
94 144 164
94 144 164
94 144 164
94 144 164
94 144 164
94 144 164
94 144 164
94 144 164
94 144 164
94 144 164
94 144 164
94 144 164
94 144 164
94 144 164
94 144 164
94 144 164
94 144 164
94 144 164
94 144 164
94 144 164
94 144 164
94 144 164
94 144 164
94 144 164
94 144 164
94 144 164
94 144 164
94 144 164
94 144 164
94 144 164
94 144 164
94 144 164
94 144 164
94 144 164
94 144 164
94 144 164
94 144 164
94 144 164
94 144 164
94 144 164
94 144 164
94 144 164
94 144 164
94 144 164
94 144 164
94 144 164
94 144 164
94 144 164
94 144 164
94 144 164
94 144 164
94 144 164
94 144 164
94 144 164
94 144 164
94 144 164
94 144 164
94 144 164
94 144 164
94 144 164
94 144 164
94 144 164
94 144 164
94 144 164
94 144 164
94 144 164
94 144 164
94 144 164
94 144 164
94 144 164
94 144 164
94 144 164
94 144 164
94 144 164
94 144 164
94 144 164
94 144 164
94 144 164
94 144 164
94 144 164
94 144 164
94 144 164
94 144 164
94 144 164
94 144 164
94 144 164
94 144 164
94 144 164
94 144 164
94 144 164
94 144 164
94 144 164
94 144 164
94 144 164
94 144 164
94 144 164
94 144 164
94 144 164
94 144 164
94 144 164
94 144 164
94 144 164
94 144 164
94 144 164
94 144 164
94 144 164
94 144 164
94 144 164
60 36 43
52 35 40
60 36 42
52 35 40
60 36 42
60 36 42
52 35 40
52 35 40
52 35 40
52 35 40
52 34 40
52 34 40
52 34 40
52 34 40
60 36 42
60 36 42
60 35 42
60 35 42
60 35 42
60 35 42
60 35 42
60 35 42
51 34 39
51 34 39
60 35 42
51 34 39
51 34 39
51 34 39
51 34 39
51 34 39
52 34 40
61 37 43
53 36 42
62 38 45
94 144 164
94 144 164
94 144 164
94 144 164
94 144 164
94 144 164
94 144 164
94 144 164
94 144 164
94 144 164
94 144 164
94 144 164
94 144 164
94 144 164
94 144 164
94 144 164
94 144 164
94 144 164
94 144 164
94 144 164
94 144 164
94 144 164
94 144 164
94 144 164
94 144 164
94 144 164
94 144 164
94 144 164
94 144 164
94 144 164
94 144 164
94 144 164
94 144 164
94 144 164
94 144 164
94 144 164
94 144 164
94 144 164
94 144 164
94 144 164
94 144 164
94 144 164
94 144 164
94 144 164
94 144 164
94 144 164
94 144 164
94 144 164
94 144 164
94 144 164
94 144 164
94 144 164
94 144 164
94 144 164
94 144 164
94 144 164
94 144 164
94 144 164
94 144 164
94 144 164
94 144 164
94 144 164
94 144 164
94 144 164
94 144 164
94 144 164
94 144 164
94 144 164
94 144 164
94 144 164
94 144 164
94 144 164
94 144 164
94 144 164
94 144 164
94 144 164
94 144 164
94 144 164
94 144 164
94 144 164
94 144 164
94 144 164
94 144 164
94 144 164
94 144 164
94 144 164
94 144 164
94 144 164
94 144 164
94 144 164
94 144 164
94 144 164
94 144 164
94 144 164
94 144 164
94 144 164
94 144 164
94 144 164
94 144 164
94 144 164
94 144 164
94 144 164
94 144 164
94 144 164
94 144 164
94 144 164
94 144 164
94 144 164
94 144 164
94 144 164
94 144 164
94 144 164
94 144 164
94 144 164
94 144 164
94 144 164
94 144 164
94 144 164
94 144 164
94 144 164
94 144 164
94 144 164
94 144 164
94 144 164
94 144 164
94 144 164
94 144 164
94 144 164
94 144 164
94 144 164
94 144 164
94 144 164
94 144 164
94 144 164
94 144 164
94 144 164
94 144 164
94 144 164
94 144 164
94 144 164
94 144 164
94 144 164
94 144 164
94 144 164
94 144 164
94 144 164
94 144 164
94 144 164
94 144 164
94 144 164
94 144 164
94 144 164
94 144 164
94 144 164
94 144 164
94 144 164
94 144 164
94 144 164
94 144 164
94 144 164
94 144 164
94 144 164
94 144 164
94 144 164
94 144 164
94 144 164
94 144 164
94 144 164
94 144 164
94 144 164
94 144 164
94 144 164
94 144 164
94 144 164
94 144 164
94 144 164
94 144 164
94 144 164
94 144 164
94 144 164
94 144 164
94 144 164
94 144 164
94 144 164
94 144 164
94 144 164
94 144 164
94 144 164
94 144 164
94 144 164
94 144 164
94 144 164
94 144 164
94 144 164
94 144 164
94 144 164
94 144 164
94 144 164
94 144 164
94 144 164
94 144 164
94 144 164
94 144 164
94 144 164
94 144 164
94 144 164
94 144 164
94 144 164
94 144 164
94 144 164
94 144 164
94 144 164
94 144 164
94 144 164
94 144 164
94 144 164
94 144 164
94 144 164
94 144 164
94 144 164
94 144 164
94 144 164
94 144 164
94 144 164
94 144 164
94 144 164
94 144 164
94 144 164
94 144 164
94 144 164
94 144 164
94 144 164
94 144 164
94 144 164
94 144 164
94 144 164
94 144 164
94 144 164
94 144 164
94 144 164
94 144 164
94 144 164
94 144 164
94 144 164
94 144 164
94 144 164
94 144 164
94 144 164
94 144 164
94 144 164
94 144 164
94 144 164
94 144 164
94 144 164
94 144 164
94 144 164
94 144 164
94 144 164
94 144 164
94 144 164
94 144 164
94 144 164
94 144 164
94 144 164
94 144 164
94 144 164
94 144 164
94 144 164
94 144 164
94 144 164
94 144 164
94 144 164
94 144 164
94 144 164
94 144 164
94 144 164
94 144 164
94 144 164
94 144 164
94 144 164
94 144 164
94 144 164
94 144 164
94 144 164
94 144 164
94 144 164
60 36 43
60 36 43
60 36 42
52 35 40
60 36 42
52 35 40
60 36 42
52 35 40
52 35 40
52 35 40
52 35 40
52 34 40
52 34 40
52 34 40
52 34 40
60 36 42
60 36 42
60 35 42
60 35 42
60 35 42
60 35 42
51 34 40
51 34 40
60 35 42
51 34 39
51 34 39
60 35 42
60 35 42
51 34 39
51 34 39
52 35 40
61 37 43
53 36 42
54 37 43
94 144 164
94 144 164
94 144 164
94 144 164
94 144 164
94 144 164
94 144 164
94 144 164
94 144 164
94 144 164
94 144 164
94 144 164
94 144 164
94 144 164
94 144 164
94 144 164
94 144 164
94 144 164
94 144 164
94 144 164
94 144 164
94 144 164
94 144 164
94 144 164
94 144 164
94 144 164
94 144 164
94 144 164
94 144 164
94 144 164
94 144 164
94 144 164
94 144 164
94 144 164
94 144 164
94 144 164
94 144 164
94 144 164
94 144 164
94 144 164
94 144 164
94 144 164
94 144 164
94 144 164
94 144 164
94 144 164
94 144 164
94 144 164
94 144 164
94 144 164
94 144 164
94 144 164
94 144 164
94 144 164
94 144 164
94 144 164
94 144 164
94 144 164
94 144 164
94 144 164
94 144 164
94 144 164
94 144 164
94 144 164
94 144 164
94 144 164
94 144 164
94 144 164
94 144 164
94 144 164
94 144 164
94 144 164
94 144 164
94 144 164
94 144 164
94 144 164
94 144 164
94 144 164
94 144 164
94 144 164
94 144 164
94 144 164
94 144 164
94 144 164
94 144 164
94 144 164
94 144 164
94 144 164
94 144 164
94 144 164
94 144 164
94 144 164
94 144 164
94 144 164
94 144 164
94 144 164
94 144 164
94 144 164
94 144 164
94 144 164
94 144 164
94 144 164
94 144 164
94 144 164
94 144 164
94 144 164
94 144 164
94 144 164
94 144 164
94 144 164
94 144 164
94 144 164
94 144 164
94 144 164
94 144 164
94 144 164
94 144 164
94 144 164
94 144 164
94 144 164
94 144 164
94 144 164
94 144 164
94 144 164
94 144 164
94 144 164
94 144 164
94 144 164
94 144 164
94 144 164
94 144 164
94 144 164
94 144 164
94 144 164
94 144 164
94 144 164
94 144 164
94 144 164
94 144 164
94 144 164
94 144 164
94 144 164
94 144 164
94 144 164
94 144 164
94 144 164
94 144 164
94 144 164
94 144 164
94 144 164
94 144 164
94 144 164
94 144 164
94 144 164
94 144 164
94 144 164
94 144 164
94 144 164
94 144 164
94 144 164
94 144 164
94 144 164
94 144 164
94 144 164
94 144 164
94 144 164
94 144 164
94 144 164
94 144 164
94 144 164
94 144 164
94 144 164
94 144 164
94 144 164
94 144 164
94 144 164
94 144 164
94 144 164
94 144 164
94 144 164
94 144 164
94 144 164
94 144 164
94 144 164
94 144 164
94 144 164
94 144 164
94 144 164
94 144 164
94 144 164
94 144 164
94 144 164
94 144 164
94 144 164
94 144 164
94 144 164
94 144 164
94 144 164
94 144 164
94 144 164
94 144 164
94 144 164
94 144 164
94 144 164
94 144 164
94 144 164
94 144 164
94 144 164
94 144 164
94 144 164
94 144 164
94 144 164
94 144 164
94 144 164
94 144 164
94 144 164
94 144 164
94 144 164
94 144 164
94 144 164
94 144 164
94 144 164
94 144 164
94 144 164
94 144 164
94 144 164
94 144 164
94 144 164
94 144 164
94 144 164
94 144 164
94 144 164
94 144 164
94 144 164
94 144 164
94 144 164
94 144 164
94 144 164
94 144 164
94 144 164
94 144 164
94 144 164
94 144 164
94 144 164
94 144 164
94 144 164
94 144 164
94 144 164
94 144 164
94 144 164
94 144 164
94 144 164
94 144 164
94 144 164
94 144 164
94 144 164
94 144 164
94 144 164
94 144 164
94 144 164
94 144 164
94 144 164
94 144 164
94 144 164
94 144 164
94 144 164
94 144 164
94 144 164
94 144 164
94 144 164
94 144 164
94 144 164
94 144 164
94 144 164
94 144 164
94 144 164
94 144 164
94 144 164
94 144 164
94 144 164
94 144 164
94 144 164
94 144 164
94 144 164
94 144 164
94 144 164
60 36 43
60 36 43
52 35 40
52 35 40
60 36 42
52 35 40
60 36 42
52 35 40
60 36 42
52 35 40
52 35 40
60 36 42
60 36 42
52 34 40
60 36 42
60 36 42
51 34 40
60 36 42
51 34 40
60 35 42
51 34 40
51 34 40
51 34 40
51 34 40
51 34 39
51 34 39
51 34 39
51 34 39
60 35 42
51 34 39
52 35 40
61 37 43
61 38 44
54 37 43
94 144 164
94 144 164
94 144 164
94 144 164
94 144 164
94 144 164
94 144 164
94 144 164
94 144 164
94 144 164
94 144 164
94 144 164
94 144 164
94 144 164
94 144 164
94 144 164
94 144 164
94 144 164
94 144 164
94 144 164
94 144 164
94 144 164
94 144 164
94 144 164
94 144 164
94 144 164
94 144 164
94 144 164
94 144 164
94 144 164
94 144 164
94 144 164
94 144 164
94 144 164
94 144 164
94 144 164
94 144 164
94 144 164
94 144 164
94 144 164
94 144 164
94 144 164
94 144 164
94 144 164
94 144 164
94 144 164
94 144 164
94 144 164
94 144 164
94 144 164
94 144 164
94 144 164
94 144 164
94 144 164
94 144 164
94 144 164
94 144 164
94 144 164
94 144 164
94 144 164
94 144 164
94 144 164
94 144 164
94 144 164
94 144 164
94 144 164
94 144 164
94 144 164
94 144 164
94 144 164
94 144 164
94 144 164
94 144 164
94 144 164
94 144 164
94 144 164
94 144 164
94 144 164
94 144 164
94 144 164
94 144 164
94 144 164
94 144 164
94 144 164
94 144 164
94 144 164
94 144 164
94 144 164
94 144 164
94 144 164
94 144 164
94 144 164
94 144 164
94 144 164
94 144 164
94 144 164
94 144 164
94 144 164
94 144 164
94 144 164
94 144 164
94 144 164
94 144 164
94 144 164
94 144 164
94 144 164
94 144 164
94 144 164
94 144 164
94 144 164
94 144 164
94 144 164
94 144 164
94 144 164
94 144 164
94 144 164
94 144 164
94 144 164
94 144 164
94 144 164
94 144 164
94 144 164
94 144 164
94 144 164
94 144 164
94 144 164
94 144 164
94 144 164
94 144 164
94 144 164
94 144 164
94 144 164
94 144 164
94 144 164
94 144 164
94 144 164
94 144 164
94 144 164
94 144 164
94 144 164
94 144 164
94 144 164
94 144 164
94 144 164
94 144 164
94 144 164
94 144 164
94 144 164
94 144 164
94 144 164
94 144 164
94 144 164
94 144 164
94 144 164
94 144 164
94 144 164
94 144 164
94 144 164
94 144 164
94 144 164
94 144 164
94 144 164
94 144 164
94 144 164
94 144 164
94 144 164
94 144 164
94 144 164
94 144 164
94 144 164
94 144 164
94 144 164
94 144 164
94 144 164
94 144 164
94 144 164
94 144 164
94 144 164
94 144 164
94 144 164
94 144 164
94 144 164
94 144 164
94 144 164
94 144 164
94 144 164
94 144 164
94 144 164
94 144 164
94 144 164
94 144 164
94 144 164
94 144 164
94 144 164
94 144 164
94 144 164
94 144 164
94 144 164
94 144 164
94 144 164
94 144 164
94 144 164
94 144 164
94 144 164
94 144 164
94 144 164
94 144 164
94 144 164
94 144 164
94 144 164
94 144 164
94 144 164
94 144 164
94 144 164
94 144 164
94 144 164
94 144 164
94 144 164
94 144 164
94 144 164
94 144 164
94 144 164
94 144 164
94 144 164
94 144 164
94 144 164
94 144 164
94 144 164
94 144 164
94 144 164
94 144 164
94 144 164
94 144 164
94 144 164
94 144 164
94 144 164
94 144 164
94 144 164
94 144 164
94 144 164
94 144 164
94 144 164
94 144 164
94 144 164
94 144 164
94 144 164
94 144 164
94 144 164
94 144 164
94 144 164
94 144 164
94 144 164
94 144 164
94 144 164
94 144 164
94 144 164
94 144 164
94 144 164
94 144 164
94 144 164
94 144 164
94 144 164
94 144 164
94 144 164
94 144 164
94 144 164
94 144 164
94 144 164
94 144 164
94 144 164
94 144 164
94 144 164
94 144 164
94 144 164
94 144 164
94 144 164
94 144 164
94 144 164
94 144 164
94 144 164
94 144 164
94 144 164
94 144 164
94 144 164
94 144 164
94 144 164
52 35 40
60 36 43
60 36 43
60 36 42
60 36 42
60 36 42
52 35 40
60 36 42
52 35 40
52 35 40
52 35 40
60 36 42
52 34 40
52 34 40
52 34 40
60 36 42
60 36 42
60 36 42
51 34 40
60 35 42
60 35 42
60 35 42
51 34 40
51 34 40
51 34 40
51 34 39
60 35 42
51 34 39
51 34 39
51 34 39
52 35 40
61 37 43
61 38 44
54 37 43
94 144 164
94 144 164
94 144 164
94 144 164
94 144 164
94 144 164
94 144 164
94 144 164
94 144 164
94 144 164
94 144 164
94 144 164
94 144 164
94 144 164
94 144 164
94 144 164
94 144 164
94 144 164
94 144 164
94 144 164
94 144 164
94 144 164
94 144 164
94 144 164
94 144 164
94 144 164
94 144 164
94 144 164
94 144 164
94 144 164
94 144 164
94 144 164
94 144 164
94 144 164
94 144 164
94 144 164
94 144 164
94 144 164
94 144 164
94 144 164
94 144 164
94 144 164
94 144 164
94 144 164
94 144 164
94 144 164
94 144 164
94 144 164
94 144 164
94 144 164
94 144 164
94 144 164
94 144 164
94 144 164
94 144 164
94 144 164
94 144 164
94 144 164
94 144 164
94 144 164
94 144 164
94 144 164
94 144 164
94 144 164
94 144 164
94 144 164
94 144 164
94 144 164
94 144 164
94 144 164
94 144 164
94 144 164
94 144 164
94 144 164
94 144 164
94 144 164
94 144 164
94 144 164
94 144 164
94 144 164
94 144 164
94 144 164
94 144 164
94 144 164
94 144 164
94 144 164
94 144 164
94 144 164
94 144 164
94 144 164
94 144 164
94 144 164
94 144 164
94 144 164
94 144 164
94 144 164
94 144 164
94 144 164
94 144 164
94 144 164
94 144 164
94 144 164
94 144 164
94 144 164
94 144 164
94 144 164
94 144 164
94 144 164
94 144 164
94 144 164
94 144 164
94 144 164
94 144 164
94 144 164
94 144 164
94 144 164
94 144 164
94 144 164
94 144 164
94 144 164
94 144 164
94 144 164
94 144 164
94 144 164
94 144 164
94 144 164
94 144 164
94 144 164
94 144 164
94 144 164
94 144 164
94 144 164
94 144 164
94 144 164
94 144 164
94 144 164
94 144 164
94 144 164
94 144 164
94 144 164
94 144 164
94 144 164
94 144 164
94 144 164
94 144 164
94 144 164
94 144 164
94 144 164
94 144 164
94 144 164
94 144 164
94 144 164
94 144 164
94 144 164
94 144 164
94 144 164
94 144 164
94 144 164
94 144 164
94 144 164
94 144 164
94 144 164
94 144 164
94 144 164
94 144 164
94 144 164
94 144 164
94 144 164
94 144 164
94 144 164
94 144 164
94 144 164
94 144 164
94 144 164
94 144 164
94 144 164
94 144 164
94 144 164
94 144 164
94 144 164
94 144 164
94 144 164
94 144 164
94 144 164
94 144 164
94 144 164
94 144 164
94 144 164
94 144 164
94 144 164
94 144 164
94 144 164
94 144 164
94 144 164
94 144 164
94 144 164
94 144 164
94 144 164
94 144 164
94 144 164
94 144 164
94 144 164
94 144 164
94 144 164
94 144 164
94 144 164
94 144 164
94 144 164
94 144 164
94 144 164
94 144 164
94 144 164
94 144 164
94 144 164
94 144 164
129 196 164
129 196 164
94 144 164
94 144 164
94 144 164
94 144 164
94 144 164
94 144 164
94 144 164
94 144 164
94 144 164
94 144 164
94 144 164
94 144 164
94 144 164
94 144 164
94 144 164
94 144 164
94 144 164
94 144 164
94 144 164
94 144 164
94 144 164
94 144 164
94 144 164
94 144 164
94 144 164
94 144 164
94 144 164
94 144 164
94 144 164
94 144 164
94 144 164
94 144 164
94 144 164
94 144 164
94 144 164
94 144 164
94 144 164
94 144 164
94 144 164
94 144 164
94 144 164
94 144 164
94 144 164
94 144 164
94 144 164
94 144 164
94 144 164
94 144 164
94 144 164
94 144 164
94 144 164
94 144 164
94 144 164
94 144 164
94 144 164
94 144 164
94 144 164
94 144 164
94 144 164
94 144 164
94 144 164
94 144 164
94 144 164
94 144 164
94 144 164
94 144 164
94 144 164
94 144 164
94 144 164
60 36 43
60 36 43
60 36 43
60 36 43
60 36 42
60 36 42
60 36 42
60 36 42
60 36 42
52 35 40
60 36 42
52 35 40
52 35 40
52 34 40
60 36 42
60 36 42
60 36 42
51 34 40
60 36 42
60 36 42
60 35 42
60 35 42
60 35 42
60 35 42
51 34 40
51 34 40
51 34 39
51 34 39
60 35 42
51 34 39
52 35 40
52 36 41
61 38 44
54 38 43
94 144 164
94 144 164
94 144 164
94 144 164
94 144 164
94 144 164
94 144 164
94 144 164
94 144 164
94 144 164
94 144 164
94 144 164
94 144 164
94 144 164
94 144 164
94 144 164
94 144 164
94 144 164
94 144 164
94 144 164
94 144 164
94 144 164
94 144 164
94 144 164
94 144 164
94 144 164
94 144 164
94 144 164
94 144 164
94 144 164
94 144 164
94 144 164
94 144 164
94 144 164
94 144 164
94 144 164
94 144 164
94 144 164
94 144 164
94 144 164
94 144 164
94 144 164
94 144 164
94 144 164
94 144 164
94 144 164
94 144 164
94 144 164
94 144 164
94 144 164
94 144 164
94 144 164
94 144 164
94 144 164
94 144 164
94 144 164
94 144 164
94 144 164
94 144 164
94 144 164
94 144 164
94 144 164
94 144 164
94 144 164
94 144 164
94 144 164
94 144 164
94 144 164
94 144 164
94 144 164
94 144 164
94 144 164
94 144 164
94 144 164
94 144 164
94 144 164
94 144 164
94 144 164
94 144 164
94 144 164
94 144 164
94 144 164
94 144 164
94 144 164
94 144 164
94 144 164
94 144 164
94 144 164
94 144 164
94 144 164
94 144 164
94 144 164
94 144 164
94 144 164
94 144 164
94 144 164
94 144 164
94 144 164
94 144 164
94 144 164
94 144 164
94 144 164
94 144 164
94 144 164
94 144 164
94 144 164
94 144 164
94 144 164
94 144 164
94 144 164
94 144 164
94 144 164
94 144 164
94 144 164
94 144 164
94 144 164
94 144 164
94 144 164
94 144 164
94 144 164
94 144 164
94 144 164
94 144 164
94 144 164
94 144 164
94 144 164
94 144 164
94 144 164
94 144 164
94 144 164
94 144 164
94 144 164
94 144 164
94 144 164
94 144 164
94 144 164
94 144 164
94 144 164
94 144 164
94 144 164
94 144 164
94 144 164
94 144 164
94 144 164
94 144 164
94 144 164
94 144 164
94 144 164
94 144 164
94 144 164
94 144 164
94 144 164
94 144 164
94 144 164
94 144 164
94 144 164
94 144 164
94 144 164
94 144 164
94 144 164
94 144 164
94 144 164
94 144 164
94 144 164
94 144 164
94 144 164
94 144 164
94 144 164
94 144 164
94 144 164
94 144 164
94 144 164
94 144 164
94 144 164
94 144 164
94 144 164
94 144 164
94 144 164
94 144 164
94 144 164
94 144 164
94 144 164
94 144 164
94 144 164
94 144 164
94 144 164
94 144 164
94 144 164
94 144 164
94 144 164
94 144 164
94 144 164
94 144 164
94 144 164
94 144 164
94 144 164
94 144 164
94 144 164
94 144 164
94 144 164
94 144 164
94 144 164
94 144 164
94 144 164
94 144 164
94 144 164
94 144 164
94 144 164
94 144 164
94 144 164
94 144 164
94 144 164
94 144 164
128 196 164
122 181 160
122 181 160
68 88 79
66 83 79
67 84 79
94 144 164
94 144 164
94 144 164
94 144 164
94 144 164
94 144 164
94 144 164
94 144 164
94 144 164
94 144 164
94 144 164
94 144 164
94 144 164
94 144 164
94 144 164
94 144 164
94 144 164
94 144 164
94 144 164
94 144 164
94 144 164
94 144 164
94 144 164
94 144 164
94 144 164
94 144 164
121 180 159
127 196 163
121 180 159
121 180 159
127 196 163
121 180 159
121 180 159
127 196 163
127 196 163
121 180 158
127 196 162
127 196 162
127 196 162
127 196 162
121 180 158
121 180 158
121 180 158
121 180 158
129 196 164
94 144 164
94 144 164
94 144 164
94 144 164
94 144 164
94 144 164
94 144 164
94 144 164
94 144 164
94 144 164
94 144 164
94 144 164
94 144 164
94 144 164
94 144 164
94 144 164
94 144 164
94 144 164
94 144 164
94 144 164
94 144 164
94 144 164
60 36 43
52 35 40
52 35 40
52 35 40
52 35 40
52 35 40
52 35 40
52 35 40
52 35 40
52 35 40
60 36 42
52 35 40
60 36 42
60 36 42
60 36 42
52 34 40
52 34 40
60 36 42
60 36 42
51 34 40
60 36 42
60 35 42
60 35 42
51 34 40
51 34 40
51 34 40
51 34 40
51 34 39
51 34 39
51 34 39
60 36 42
52 36 41
62 38 44
54 38 43
94 144 164
94 144 164
94 144 164
94 144 164
94 144 164
94 144 164
94 144 164
94 144 164
94 144 164
94 144 164
94 144 164
94 144 164
94 144 164
94 144 164
94 144 164
94 144 164
94 144 164
94 144 164
94 144 164
94 144 164
94 144 164
94 144 164
94 144 164
94 144 164
94 144 164
94 144 164
94 144 164
94 144 164
94 144 164
94 144 164
94 144 164
94 144 164
94 144 164
94 144 164
94 144 164
94 144 164
94 144 164
94 144 164
94 144 164
94 144 164
94 144 164
94 144 164
94 144 164
94 144 164
94 144 164
94 144 164
94 144 164
94 144 164
94 144 164
94 144 164
94 144 164
94 144 164
94 144 164
94 144 164
94 144 164
94 144 164
94 144 164
94 144 164
94 144 164
94 144 164
94 144 164
94 144 164
94 144 164
94 144 164
94 144 164
94 144 164
94 144 164
94 144 164
94 144 164
94 144 164
94 144 164
94 144 164
94 144 164
94 144 164
94 144 164
94 144 164
94 144 164
94 144 164
94 144 164
94 144 164
94 144 164
94 144 164
94 144 164
94 144 164
94 144 164
94 144 164
94 144 164
94 144 164
94 144 164
94 144 164
94 144 164
94 144 164
94 144 164
94 144 164
94 144 164
94 144 164
94 144 164
94 144 164
94 144 164
94 144 164
94 144 164
94 144 164
94 144 164
94 144 164
94 144 164
94 144 164
94 144 164
94 144 164
94 144 164
94 144 164
94 144 164
94 144 164
94 144 164
94 144 164
94 144 164
94 144 164
94 144 164
94 144 164
94 144 164
94 144 164
94 144 164
94 144 164
94 144 164
94 144 164
94 144 164
94 144 164
94 144 164
94 144 164
94 144 164
94 144 164
94 144 164
94 144 164
94 144 164
94 144 164
94 144 164
94 144 164
94 144 164
94 144 164
94 144 164
94 144 164
94 144 164
94 144 164
94 144 164
94 144 164
94 144 164
94 144 164
94 144 164
94 144 164
94 144 164
94 144 164
94 144 164
94 144 164
94 144 164
94 144 164
94 144 164
94 144 164
94 144 164
94 144 164
94 144 164
94 144 164
94 144 164
94 144 164
94 144 164
94 144 164
94 144 164
94 144 164
94 144 164
94 144 164
94 144 164
94 144 164
94 144 164
94 144 164
94 144 164
94 144 164
94 144 164
94 144 164
94 144 164
94 144 164
94 144 164
94 144 164
94 144 164
94 144 164
94 144 164
94 144 164
94 144 164
94 144 164
94 144 164
94 144 164
94 144 164
94 144 164
94 144 164
94 144 164
94 144 164
94 144 164
94 144 164
94 144 164
94 144 164
94 144 164
94 144 164
94 144 164
94 144 164
94 144 164
94 144 164
94 144 164
94 144 164
94 144 164
94 144 164
94 144 164
94 144 164
94 144 164
128 196 164
128 196 164
122 180 159
128 196 163
122 180 159
122 180 159
122 180 159
66 86 78
67 84 79
94 144 164
94 144 164
94 144 164
94 144 164
94 144 164
94 144 164
94 144 164
94 144 164
94 144 164
94 144 164
94 144 164
94 144 164
94 144 164
94 144 164
94 144 164
94 144 164
94 144 164
94 144 164
94 144 164
94 144 164
121 180 158
94 144 164
94 144 164
94 144 164
121 180 158
121 180 158
121 180 158
121 180 158
127 196 162
127 196 162
127 196 162
120 180 158
120 180 158
120 180 158
120 180 158
126 196 162
126 196 162
126 196 162
120 180 158
126 196 162
126 196 162
126 196 162
120 180 158
120 180 158
120 180 158
106 161 118
94 144 164
94 144 164
94 144 164
94 144 164
94 144 164
94 144 164
94 144 164
94 144 164
94 144 164
94 144 164
94 144 164
94 144 164
94 144 164
94 144 164
94 144 164
94 144 164
94 144 164
94 144 164
94 144 164
94 144 164
94 144 164
60 36 43
52 35 40
52 35 40
52 35 40
52 35 40
52 35 40
52 35 40
52 35 40
60 36 42
60 36 42
60 36 42
60 36 42
52 35 40
52 35 40
60 36 42
52 34 40
52 34 40
60 36 42
52 34 40
51 34 40
51 34 40
51 34 40
60 35 42
51 34 40
60 35 42
60 35 42
60 35 42
60 35 42
60 35 42
51 34 39
60 36 42
52 36 41
62 38 44
54 38 43
94 144 164
94 144 164
94 144 164
94 144 164
94 144 164
94 144 164
94 144 164
94 144 164
94 144 164
94 144 164
94 144 164
94 144 164
94 144 164
94 144 164
94 144 164
94 144 164
94 144 164
94 144 164
94 144 164
94 144 164
94 144 164
94 144 164
94 144 164
94 144 164
94 144 164
94 144 164
94 144 164
94 144 164
94 144 164
94 144 164
94 144 164
94 144 164
94 144 164
94 144 164
94 144 164
94 144 164
94 144 164
94 144 164
94 144 164
94 144 164
94 144 164
94 144 164
94 144 164
94 144 164
94 144 164
94 144 164
94 144 164
94 144 164
94 144 164
94 144 164
94 144 164
94 144 164
94 144 164
94 144 164
94 144 164
94 144 164
94 144 164
94 144 164
94 144 164
94 144 164
94 144 164
94 144 164
94 144 164
94 144 164
94 144 164
94 144 164
94 144 164
94 144 164
94 144 164
94 144 164
94 144 164
94 144 164
94 144 164
94 144 164
94 144 164
94 144 164
94 144 164
94 144 164
94 144 164
94 144 164
94 144 164
94 144 164
94 144 164
94 144 164
94 144 164
94 144 164
94 144 164
94 144 164
94 144 164
94 144 164
94 144 164
94 144 164
94 144 164
94 144 164
94 144 164
94 144 164
94 144 164
94 144 164
94 144 164
94 144 164
94 144 164
94 144 164
94 144 164
94 144 164
94 144 164
94 144 164
94 144 164
94 144 164
94 144 164
94 144 164
94 144 164
94 144 164
94 144 164
94 144 164
94 144 164
94 144 164
94 144 164
94 144 164
94 144 164
94 144 164
94 144 164
94 144 164
94 144 164
94 144 164
94 144 164
94 144 164
94 144 164
94 144 164
94 144 164
94 144 164
94 144 164
94 144 164
94 144 164
94 144 164
94 144 164
94 144 164
94 144 164
94 144 164
94 144 164
94 144 164
94 144 164
94 144 164
94 144 164
94 144 164
94 144 164
94 144 164
94 144 164
94 144 164
94 144 164
94 144 164
94 144 164
94 144 164
94 144 164
94 144 164
94 144 164
94 144 164
94 144 164
94 144 164
94 144 164
94 144 164
94 144 164
94 144 164
94 144 164
94 144 164
94 144 164
94 144 164
94 144 164
94 144 164
94 144 164
94 144 164
94 144 164
94 144 164
94 144 164
94 144 164
94 144 164
94 144 164
94 144 164
94 144 164
94 144 164
94 144 164
94 144 164
94 144 164
94 144 164
94 144 164
94 144 164
94 144 164
94 144 164
94 144 164
94 144 164
94 144 164
94 144 164
94 144 164
94 144 164
94 144 164
94 144 164
94 144 164
94 144 164
94 144 164
94 144 164
94 144 164
94 144 164
94 144 164
94 144 164
94 144 164
94 144 164
94 144 164
94 144 164
128 196 163
127 196 163
121 180 159
121 180 159
127 196 163
127 196 163
121 180 159
121 180 159
64 81 76
66 86 78
66 86 78
67 84 79
123 181 161
123 181 161
94 144 164
94 144 164
94 144 164
94 144 164
94 144 164
94 144 164
94 144 164
94 144 164
94 144 164
94 144 164
94 144 164
94 144 164
120 180 158
120 180 158
120 180 158
120 180 158
126 196 162
126 196 162
126 196 162
120 180 158
126 196 162
120 180 158
126 196 162
120 180 158
126 196 162
120 180 158
120 180 158
126 196 162
126 196 162
126 196 162
126 196 162
126 196 161
120 180 157
120 180 157
126 196 161
126 196 161
126 196 161
126 196 161
120 180 157
126 196 161
126 196 161
126 196 161
120 180 157
120 180 157
119 180 157
105 160 117
94 144 164
94 144 164
94 144 164
94 144 164
94 144 164
94 144 164
94 144 164
94 144 164
94 144 164
94 144 164
94 144 164
94 144 164
94 144 164
94 144 164
94 144 164
94 144 164
94 144 164
94 144 164
94 144 164
142 82 96
52 35 40
52 35 40
60 36 43
60 36 43
52 35 40
52 35 40
52 35 40
52 35 40
60 36 42
60 36 42
60 36 42
60 36 42
52 35 40
60 36 42
52 35 40
52 34 40
52 34 40
52 34 40
60 36 42
51 34 40
51 34 40
60 36 42
60 35 42
60 35 42
60 35 42
60 35 42
51 34 40
60 35 42
60 35 42
60 36 42
53 36 41
62 38 44
54 38 43
94 144 164
94 144 164
94 144 164
94 144 164
94 144 164
94 144 164
94 144 164
94 144 164
94 144 164
94 144 164
94 144 164
94 144 164
94 144 164
94 144 164
94 144 164
94 144 164
94 144 164
94 144 164
94 144 164
94 144 164
94 144 164
94 144 164
94 144 164
94 144 164
94 144 164
94 144 164
94 144 164
94 144 164
94 144 164
94 144 164
94 144 164
94 144 164
94 144 164
94 144 164
94 144 164
94 144 164
94 144 164
94 144 164
94 144 164
94 144 164
94 144 164
94 144 164
94 144 164
94 144 164
94 144 164
94 144 164
94 144 164
94 144 164
94 144 164
94 144 164
94 144 164
94 144 164
94 144 164
94 144 164
94 144 164
94 144 164
94 144 164
94 144 164
94 144 164
94 144 164
94 144 164
94 144 164
94 144 164
94 144 164
94 144 164
94 144 164
94 144 164
94 144 164
94 144 164
94 144 164
94 144 164
94 144 164
94 144 164
94 144 164
94 144 164
94 144 164
94 144 164
94 144 164
94 144 164
94 144 164
94 144 164
94 144 164
94 144 164
94 144 164
94 144 164
94 144 164
94 144 164
94 144 164
94 144 164
94 144 164
94 144 164
94 144 164
94 144 164
94 144 164
94 144 164
94 144 164
94 144 164
94 144 164
94 144 164
94 144 164
94 144 164
94 144 164
94 144 164
94 144 164
94 144 164
94 144 164
94 144 164
94 144 164
94 144 164
94 144 164
94 144 164
94 144 164
94 144 164
94 144 164
94 144 164
94 144 164
94 144 164
94 144 164
94 144 164
94 144 164
94 144 164
94 144 164
94 144 164
94 144 164
94 144 164
94 144 164
94 144 164
94 144 164
94 144 164
94 144 164
94 144 164
94 144 164
94 144 164
94 144 164
94 144 164
94 144 164
94 144 164
94 144 164
94 144 164
94 144 164
94 144 164
94 144 164
94 144 164
94 144 164
94 144 164
94 144 164
94 144 164
94 144 164
94 144 164
94 144 164
94 144 164
94 144 164
94 144 164
94 144 164
94 144 164
94 144 164
94 144 164
94 144 164
94 144 164
94 144 164
94 144 164
94 144 164
94 144 164
94 144 164
94 144 164
94 144 164
94 144 164
94 144 164
94 144 164
94 144 164
94 144 164
94 144 164
94 144 164
94 144 164
94 144 164
94 144 164
94 144 164
94 144 164
94 144 164
94 144 164
94 144 164
94 144 164
94 144 164
94 144 164
94 144 164
94 144 164
94 144 164
94 144 164
94 144 164
94 144 164
94 144 164
94 144 164
94 144 164
94 144 164
94 144 164
94 144 164
94 144 164
94 144 164
94 144 164
94 144 164
94 144 164
94 144 164
94 144 164
94 144 164
121 180 159
127 196 163
121 180 159
121 180 159
107 161 119
121 180 158
121 180 158
121 180 158
65 85 76
65 85 76
64 81 76
64 81 76
66 86 78
66 86 78
74 98 93
123 181 160
128 196 164
128 196 164
94 144 164
94 144 164
94 144 164
94 144 164
94 144 164
94 144 164
94 144 164
94 144 164
94 144 164
120 180 158
120 180 158
126 196 162
126 196 162
120 180 157
120 180 157
120 180 157
126 196 161
126 196 161
120 180 157
126 196 161
120 180 157
120 180 157
120 180 157
126 196 161
119 180 157
119 180 157
119 180 157
119 180 157
126 196 161
126 196 161
126 196 161
119 180 157
119 180 157
119 180 157
125 196 161
125 196 161
125 196 161
119 179 157
125 196 161
119 179 157
119 179 157
125 196 161
125 196 161
119 179 157
119 179 156
119 179 156
119 179 156
94 144 164
94 144 164
94 144 164
94 144 164
94 144 164
94 144 164
94 144 164
94 144 164
94 144 164
94 144 164
94 144 164
94 144 164
94 144 164
94 144 164
94 144 164
94 144 164
94 144 164
142 82 96
52 35 40
52 35 40
52 35 40
52 35 40
52 35 40
52 35 40
52 35 40
60 36 42
60 36 42
60 36 42
60 36 42
60 36 42
60 36 42
60 36 42
52 35 40
52 35 40
52 34 40
52 34 40
52 34 40
52 34 40
51 34 40
60 36 42
60 36 42
60 35 42
51 34 40
60 35 42
60 35 42
60 35 42
60 35 42
60 36 43
53 36 41
62 38 45
62 39 46
94 144 164
94 144 164
94 144 164
94 144 164
94 144 164
94 144 164
94 144 164
94 144 164
94 144 164
94 144 164
94 144 164
94 144 164
94 144 164
94 144 164
94 144 164
94 144 164
94 144 164
94 144 164
94 144 164
94 144 164
94 144 164
94 144 164
94 144 164
94 144 164
94 144 164
94 144 164
94 144 164
94 144 164
94 144 164
94 144 164
94 144 164
94 144 164
94 144 164
94 144 164
94 144 164
94 144 164
94 144 164
94 144 164
94 144 164
94 144 164
94 144 164
94 144 164
94 144 164
94 144 164
94 144 164
94 144 164
94 144 164
94 144 164
94 144 164
94 144 164
94 144 164
94 144 164
94 144 164
94 144 164
94 144 164
94 144 164
94 144 164
94 144 164
94 144 164
94 144 164
94 144 164
94 144 164
94 144 164
94 144 164
94 144 164
94 144 164
94 144 164
94 144 164
94 144 164
94 144 164
94 144 164
94 144 164
94 144 164
94 144 164
94 144 164
94 144 164
94 144 164
94 144 164
94 144 164
94 144 164
94 144 164
94 144 164
94 144 164
94 144 164
94 144 164
94 144 164
94 144 164
94 144 164
94 144 164
94 144 164
94 144 164
94 144 164
94 144 164
94 144 164
94 144 164
94 144 164
94 144 164
94 144 164
94 144 164
94 144 164
94 144 164
94 144 164
94 144 164
94 144 164
94 144 164
94 144 164
94 144 164
94 144 164
94 144 164
94 144 164
94 144 164
94 144 164
94 144 164
94 144 164
94 144 164
94 144 164
94 144 164
94 144 164
94 144 164
94 144 164
94 144 164
94 144 164
94 144 164
94 144 164
94 144 164
94 144 164
94 144 164
94 144 164
94 144 164
94 144 164
94 144 164
94 144 164
94 144 164
94 144 164
94 144 164
94 144 164
94 144 164
94 144 164
94 144 164
94 144 164
94 144 164
94 144 164
94 144 164
94 144 164
94 144 164
94 144 164
94 144 164
94 144 164
94 144 164
94 144 164
94 144 164
94 144 164
94 144 164
94 144 164
94 144 164
94 144 164
94 144 164
94 144 164
94 144 164
94 144 164
94 144 164
94 144 164
94 144 164
94 144 164
94 144 164
94 144 164
94 144 164
94 144 164
94 144 164
94 144 164
94 144 164
94 144 164
94 144 164
94 144 164
94 144 164
94 144 164
94 144 164
94 144 164
94 144 164
94 144 164
94 144 164
94 144 164
94 144 164
94 144 164
94 144 164
94 144 164
94 144 164
94 144 164
94 144 164
94 144 164
94 144 164
94 144 164
94 144 164
94 144 164
94 144 164
94 144 164
94 144 164
94 144 164
94 144 164
94 144 164
94 144 164
94 144 164
127 196 162
121 180 158
127 196 162
127 196 162
65 84 76
65 85 76
65 85 76
63 80 75
63 80 75
65 85 76
65 85 76
65 85 76
64 81 75
64 81 76
66 86 77
66 86 78
67 87 78
128 196 164
122 180 160
128 196 164
128 196 163
65 82 77
124 181 162
94 144 164
94 144 164
94 144 164
94 144 164
120 180 157
120 180 157
119 180 157
126 196 161
126 196 161
126 196 161
126 196 161
119 180 157
119 180 157
119 180 157
119 180 157
119 180 157
125 196 161
125 196 161
125 196 161
119 179 157
119 179 157
125 196 161
125 196 161
125 196 161
119 179 156
119 179 156
119 179 156
125 196 161
119 179 156
125 196 160
119 179 156
119 179 156
125 196 160
119 179 156
125 196 160
125 196 160
125 196 160
125 196 160
119 179 156
125 196 160
118 179 156
118 179 156
59 75 69
61 81 71
62 82 72
128 196 164
66 83 78
94 144 164
94 144 164
94 144 164
94 144 164
94 144 164
94 144 164
94 144 164
94 144 164
94 144 164
94 144 164
94 144 164
94 144 164
94 144 164
94 144 164
94 144 164
52 35 40
52 35 40
52 35 40
52 35 40
52 35 40
52 35 40
52 35 40
60 36 42
60 36 42
60 36 42
52 35 40
52 35 40
52 35 40
60 36 42
52 35 40
52 35 40
52 35 40
52 34 40
52 34 40
52 34 40
52 34 40
60 36 42
60 36 42
60 36 42
51 34 40
60 35 42
60 35 42
60 35 42
60 35 42
60 36 43
53 36 41
53 37 42
62 39 46
118 179 156
94 144 164
94 144 164
94 144 164
94 144 164
94 144 164
94 144 164
94 144 164
94 144 164
94 144 164
94 144 164
94 144 164
94 144 164
94 144 164
94 144 164
94 144 164
94 144 164
94 144 164
94 144 164
94 144 164
94 144 164
94 144 164
94 144 164
94 144 164
94 144 164
94 144 164
94 144 164
94 144 164
94 144 164
94 144 164
94 144 164
94 144 164
94 144 164
94 144 164
94 144 164
94 144 164
94 144 164
94 144 164
94 144 164
94 144 164
94 144 164
94 144 164
94 144 164
94 144 164
94 144 164
94 144 164
94 144 164
94 144 164
94 144 164
94 144 164
94 144 164
94 144 164
94 144 164
94 144 164
94 144 164
94 144 164
94 144 164
94 144 164
94 144 164
94 144 164
94 144 164
94 144 164
94 144 164
94 144 164
94 144 164
94 144 164
94 144 164
94 144 164
94 144 164
94 144 164
94 144 164
94 144 164
94 144 164
94 144 164
94 144 164
94 144 164
94 144 164
94 144 164
94 144 164
94 144 164
94 144 164
94 144 164
94 144 164
94 144 164
94 144 164
94 144 164
94 144 164
94 144 164
94 144 164
94 144 164
94 144 164
94 144 164
94 144 164
94 144 164
94 144 164
94 144 164
94 144 164
94 144 164
94 144 164
94 144 164
94 144 164
94 144 164
94 144 164
94 144 164
94 144 164
94 144 164
94 144 164
94 144 164
94 144 164
94 144 164
94 144 164
94 144 164
94 144 164
94 144 164
94 144 164
94 144 164
94 144 164
94 144 164
94 144 164
94 144 164
94 144 164
94 144 164
94 144 164
94 144 164
94 144 164
94 144 164
94 144 164
94 144 164
94 144 164
94 144 164
94 144 164
94 144 164
94 144 164
94 144 164
94 144 164
94 144 164
94 144 164
94 144 164
94 144 164
94 144 164
94 144 164
94 144 164
94 144 164
94 144 164
94 144 164
94 144 164
94 144 164
94 144 164
94 144 164
94 144 164
94 144 164
94 144 164
94 144 164
94 144 164
94 144 164
94 144 164
94 144 164
94 144 164
94 144 164
94 144 164
94 144 164
94 144 164
94 144 164
94 144 164
94 144 164
94 144 164
94 144 164
94 144 164
94 144 164
94 144 164
94 144 164
94 144 164
94 144 164
94 144 164
94 144 164
94 144 164
94 144 164
94 144 164
94 144 164
94 144 164
94 144 164
94 144 164
94 144 164
94 144 164
94 144 164
94 144 164
94 144 164
94 144 164
94 144 164
94 144 164
94 144 164
94 144 164
94 144 164
94 144 164
94 144 164
94 144 164
94 144 164
94 144 164
94 144 164
94 144 164
100 145 115
62 79 74
62 79 74
62 79 73
62 79 74
62 79 74
65 84 76
65 85 76
65 85 76
65 85 76
65 85 76
65 85 76
65 85 76
65 85 76
64 81 75
64 81 76
64 81 76
72 97 90
70 92 89
121 180 159
121 180 159
127 196 163
127 196 163
127 196 163
64 81 76
71 91 83
94 144 164
125 181 163
125 181 163
60 77 71
119 179 157
119 179 157
119 179 156
119 179 156
119 179 156
125 196 161
125 196 161
125 196 161
119 179 156
119 179 156
119 179 156
119 179 156
125 196 160
125 196 160
125 196 160
119 179 156
119 179 156
125 196 160
125 196 160
125 196 160
118 179 156
118 179 156
118 179 156
118 179 156
125 196 160
125 196 160
125 196 160
125 196 160
118 179 156
118 179 156
124 196 160
118 179 156
124 196 160
124 196 160
118 179 156
124 196 160
124 196 160
124 196 160
124 196 160
57 74 68
126 196 161
61 78 72
94 144 164
94 144 164
94 144 164
94 144 164
94 144 164
94 144 164
94 144 164
94 144 164
94 144 164
94 144 164
94 144 164
94 144 164
94 144 164
94 144 164
94 144 164
52 35 40
52 35 40
52 35 40
52 35 40
60 36 43
52 35 40
52 35 40
60 36 43
60 36 42
60 36 42
60 36 42
60 36 42
60 36 42
52 35 40
52 35 40
52 35 40
52 35 40
52 35 40
52 34 40
52 34 40
52 34 40
60 36 42
60 36 42
51 34 40
60 36 42
51 34 40
60 35 42
60 35 42
60 35 42
60 36 43
53 36 41
53 37 42
63 39 46
118 179 155
118 179 155
118 179 155
118 179 155
94 144 164
94 144 164
94 144 164
94 144 164
94 144 164
94 144 164
94 144 164
94 144 164
94 144 164
94 144 164
94 144 164
94 144 164
94 144 164
94 144 164
94 144 164
94 144 164
94 144 164
94 144 164
94 144 164
94 144 164
94 144 164
94 144 164
94 144 164
94 144 164
94 144 164
94 144 164
94 144 164
94 144 164
94 144 164
94 144 164
94 144 164
94 144 164
94 144 164
94 144 164
94 144 164
94 144 164
94 144 164
94 144 164
94 144 164
125 196 160
125 196 160
125 196 160
125 196 160
119 179 156
119 179 156
125 196 160
119 179 156
125 196 160
125 196 160
125 196 161
125 196 161
94 144 164
94 144 164
94 144 164
94 144 164
94 144 164
94 144 164
94 144 164
94 144 164
94 144 164
94 144 164
94 144 164
94 144 164
94 144 164
94 144 164
94 144 164
94 144 164
94 144 164
94 144 164
94 144 164
94 144 164
94 144 164
94 144 164
94 144 164
94 144 164
94 144 164
94 144 164
94 144 164
94 144 164
94 144 164
94 144 164
94 144 164
94 144 164
94 144 164
94 144 164
94 144 164
94 144 164
94 144 164
94 144 164
94 144 164
94 144 164
94 144 164
94 144 164
94 144 164
94 144 164
94 144 164
94 144 164
94 144 164
94 144 164
94 144 164
94 144 164
94 144 164
94 144 164
94 144 164
94 144 164
94 144 164
94 144 164
94 144 164
94 144 164
94 144 164
94 144 164
94 144 164
94 144 164
94 144 164
94 144 164
94 144 164
94 144 164
94 144 164
94 144 164
94 144 164
94 144 164
94 144 164
94 144 164
94 144 164
94 144 164
94 144 164
94 144 164
94 144 164
94 144 164
94 144 164
94 144 164
94 144 164
94 144 164
94 144 164
94 144 164
94 144 164
94 144 164
94 144 164
94 144 164
94 144 164
94 144 164
94 144 164
94 144 164
94 144 164
94 144 164
94 144 164
94 144 164
94 144 164
94 144 164
94 144 164
94 144 164
94 144 164
94 144 164
94 144 164
94 144 164
94 144 164
94 144 164
94 144 164
94 144 164
94 144 164
94 144 164
94 144 164
94 144 164
94 144 164
94 144 164
94 144 164
94 144 164
94 144 164
94 144 164
94 144 164
94 144 164
94 144 164
94 144 164
94 144 164
94 144 164
94 144 164
94 144 164
94 144 164
94 144 164
94 144 164
94 144 164
94 144 164
94 144 164
94 144 164
94 144 164
94 144 164
94 144 164
94 144 164
94 144 164
94 144 164
94 144 164
94 144 164
94 144 164
94 144 164
94 144 164
94 144 164
94 144 164
64 84 75
62 79 74
62 79 74
62 79 74
62 79 74
63 80 74
65 85 76
65 85 76
65 85 76
65 85 76
65 85 76
65 85 76
65 85 76
71 96 90
71 96 90
127 196 163
127 196 163
121 180 159
121 180 159
121 180 158
121 180 158
65 85 76
64 80 75
64 81 76
71 91 83
121 180 158
121 180 158
125 196 160
125 196 160
125 196 160
125 196 160
118 179 156
118 179 156
118 179 156
118 179 156
125 196 160
125 196 160
125 196 160
125 196 160
118 179 156
118 179 156
125 196 160
124 196 160
124 196 160
124 196 160
124 196 160
118 179 156
124 196 160
124 196 160
124 196 160
124 196 160
118 179 155
118 179 155
118 179 155
124 196 160
124 196 160
118 179 155
124 196 159
124 196 159
118 179 155
118 179 155
124 196 159
118 179 155
103 159 114
118 179 155
118 179 155
118 179 155
59 79 68
57 74 68
126 196 161
126 196 161
126 196 161
119 180 157
94 144 164
94 144 164
94 144 164
94 144 164
94 144 164
94 144 164
94 144 164
94 144 164
94 144 164
94 144 164
94 144 164
94 144 164
94 144 164
52 35 41
52 35 40
52 35 40
52 35 40
52 35 40
60 36 43
52 35 40
60 36 43
60 36 42
60 36 42
60 36 42
52 35 40
60 36 42
52 35 40
52 35 40
52 35 40
52 35 40
60 36 42
60 36 42
52 34 40
52 34 40
60 36 42
60 36 42
60 36 42
60 36 42
60 36 42
60 35 42
60 35 42
60 35 42
60 36 43
61 37 44
53 37 43
63 39 46
117 179 155
124 196 159
117 179 155
124 196 159
117 179 155
117 179 155
117 179 155
102 159 113
94 144 164
94 144 164
94 144 164
94 144 164
94 144 164
94 144 164
94 144 164
94 144 164
94 144 164
94 144 164
94 144 164
94 144 164
94 144 164
94 144 164
94 144 164
94 144 164
94 144 164
94 144 164
94 144 164
94 144 164
94 144 164
94 144 164
94 144 164
94 144 164
94 144 164
94 144 164
94 144 164
118 179 155
124 196 160
124 196 160
124 196 160
118 179 155
124 196 160
124 196 160
124 196 160
118 179 156
118 179 156
124 196 160
118 179 156
125 196 160
125 196 160
125 196 160
125 196 160
118 179 156
118 179 156
125 196 160
125 196 160
125 196 160
125 196 160
118 179 156
119 179 156
94 144 164
94 144 164
94 144 164
94 144 164
94 144 164
94 144 164
94 144 164
94 144 164
94 144 164
94 144 164
94 144 164
94 144 164
94 144 164
94 144 164
94 144 164
94 144 164
94 144 164
94 144 164
94 144 164
94 144 164
94 144 164
94 144 164
94 144 164
94 144 164
94 144 164
94 144 164
94 144 164
94 144 164
94 144 164
94 144 164
94 144 164
94 144 164
94 144 164
94 144 164
94 144 164
94 144 164
94 144 164
94 144 164
94 144 164
94 144 164
94 144 164
94 144 164
94 144 164
94 144 164
94 144 164
94 144 164
94 144 164
94 144 164
94 144 164
94 144 164
94 144 164
94 144 164
94 144 164
94 144 164
94 144 164
94 144 164
94 144 164
94 144 164
94 144 164
94 144 164
94 144 164
94 144 164
94 144 164
94 144 164
94 144 164
94 144 164
94 144 164
94 144 164
94 144 164
94 144 164
94 144 164
94 144 164
94 144 164
94 144 164
94 144 164
94 144 164
94 144 164
94 144 164
94 144 164
94 144 164
94 144 164
94 144 164
94 144 164
94 144 164
94 144 164
94 144 164
94 144 164
94 144 164
94 144 164
94 144 164
94 144 164
94 144 164
94 144 164
94 144 164
94 144 164
94 144 164
94 144 164
94 144 164
94 144 164
94 144 164
94 144 164
94 144 164
94 144 164
94 144 164
94 144 164
94 144 164
94 144 164
94 144 164
94 144 164
94 144 164
94 144 164
94 144 164
94 144 164
94 144 164
94 144 164
94 144 164
94 144 164
94 144 164
94 144 164
94 144 164
94 144 164
94 144 164
94 144 164
94 144 164
94 144 164
94 144 164
94 144 164
94 144 164
94 144 164
94 144 164
94 144 164
94 144 164
94 144 164
94 144 164
94 144 164
94 144 164
94 144 164
94 144 164
94 144 164
94 144 164
94 144 164
94 144 164
62 79 74
64 84 75
62 79 74
62 79 74
62 79 74
63 80 74
65 85 76
69 91 88
69 91 88
71 95 89
69 90 88
71 95 89
71 95 89
127 196 162
121 180 158
127 196 162
127 196 162
127 196 162
127 196 162
62 79 74
65 85 76
65 85 76
126 196 162
126 196 162
126 196 162
126 196 162
120 180 158
59 75 69
58 75 69
124 196 160
124 196 160
124 196 160
124 196 160
118 179 155
118 179 155
118 179 155
118 179 155
124 196 160
124 196 160
118 179 155
124 196 159
118 179 155
118 179 155
118 179 155
118 179 155
118 179 155
124 196 159
118 179 155
118 179 155
117 179 155
124 196 159
117 179 155
124 196 159
117 179 155
117 179 155
117 179 155
124 196 159
58 78 67
58 78 67
56 73 66
58 78 67
58 78 67
58 78 68
59 79 68
58 78 68
56 73 67
58 78 68
59 79 68
57 74 68
58 75 68
125 196 161
61 81 71
60 77 71
94 144 164
94 144 164
94 144 164
94 144 164
94 144 164
94 144 164
94 144 164
94 144 164
94 144 164
94 144 164
94 144 164
94 144 164
94 144 164
61 36 43
60 36 43
60 36 43
52 35 40
60 36 43
52 35 40
52 35 40
60 36 43
60 36 43
60 36 42
60 36 42
60 36 42
52 35 40
60 36 42
52 35 40
52 35 40
60 36 42
52 35 40
60 36 42
52 35 40
52 34 40
60 36 42
60 36 42
60 36 42
60 36 42
51 34 40
60 36 42
60 36 42
51 34 40
52 35 40
61 37 44
54 37 43
63 39 46
123 196 159
123 196 159
117 179 154
117 179 154
117 179 154
123 196 159
123 196 159
58 78 68
94 144 164
94 144 164
94 144 164
94 144 164
94 144 164
94 144 164
94 144 164
94 144 164
94 144 164
94 144 164
94 144 164
94 144 164
94 144 164
94 144 164
94 144 164
94 144 164
94 144 164
94 144 164
94 144 164
94 144 164
94 144 164
94 144 164
94 144 164
124 196 159
124 196 159
124 196 159
124 196 159
117 179 155
117 179 155
124 196 159
117 179 155
124 196 159
124 196 159
118 179 155
118 179 155
124 196 159
124 196 159
124 196 159
124 196 159
118 179 155
118 179 155
118 179 155
118 179 155
118 179 155
124 196 160
124 196 160
124 196 160
124 196 160
118 179 155
124 196 160
118 179 156
124 196 160
118 179 156
118 179 156
118 179 156
118 179 156
94 144 164
94 144 164
94 144 164
94 144 164
94 144 164
94 144 164
94 144 164
94 144 164
94 144 164
94 144 164
94 144 164
94 144 164
94 144 164
94 144 164
94 144 164
94 144 164
94 144 164
94 144 164
94 144 164
94 144 164
94 144 164
94 144 164
94 144 164
94 144 164
94 144 164
94 144 164
94 144 164
94 144 164
94 144 164
94 144 164
94 144 164
94 144 164
94 144 164
94 144 164
94 144 164
94 144 164
94 144 164
94 144 164
94 144 164
94 144 164
94 144 164
94 144 164
94 144 164
94 144 164
94 144 164
94 144 164
94 144 164
94 144 164
94 144 164
94 144 164
94 144 164
94 144 164
94 144 164
94 144 164
94 144 164
94 144 164
94 144 164
94 144 164
94 144 164
94 144 164
94 144 164
94 144 164
94 144 164
94 144 164
94 144 164
94 144 164
94 144 164
94 144 164
94 144 164
94 144 164
94 144 164
94 144 164
94 144 164
94 144 164
94 144 164
94 144 164
94 144 164
94 144 164
94 144 164
94 144 164
94 144 164
94 144 164
94 144 164
94 144 164
94 144 164
94 144 164
94 144 164
94 144 164
94 144 164
94 144 164
94 144 164
94 144 164
94 144 164
94 144 164
94 144 164
94 144 164
94 144 164
94 144 164
94 144 164
94 144 164
94 144 164
94 144 164
94 144 164
94 144 164
94 144 164
94 144 164
94 144 164
94 144 164
94 144 164
94 144 164
94 144 164
94 144 164
94 144 164
94 144 164
94 144 164
94 144 164
94 144 164
94 144 164
94 144 164
94 144 164
94 144 164
94 144 164
94 144 164
94 144 164
94 144 164
94 144 164
94 144 164
94 144 164
94 144 164
94 144 164
94 144 164
94 144 164
94 144 164
94 144 164
94 144 164
94 144 164
94 144 164
63 79 74
62 79 74
62 79 74
62 79 74
62 79 74
70 95 88
70 95 88
127 196 162
127 196 162
62 79 74
62 79 74
62 79 73
62 79 73
62 79 74
62 79 74
62 79 74
62 79 74
62 79 74
62 79 74
62 79 74
65 85 76
100 144 114
61 78 73
61 78 73
126 196 161
126 196 161
126 196 161
59 75 69
59 75 69
57 74 68
59 79 69
118 179 155
124 196 159
118 179 155
124 196 159
117 179 155
117 179 155
117 179 155
124 196 159
124 196 159
124 196 159
117 179 155
117 179 155
124 196 159
117 179 155
124 196 159
124 196 159
117 179 155
117 179 155
124 196 159
124 196 159
124 196 159
123 196 159
123 196 159
123 196 159
123 196 159
58 77 67
58 78 67
58 78 67
58 78 67
58 78 67
56 73 66
58 78 68
59 79 68
59 78 68
58 78 68
58 78 68
59 79 68
57 74 68
58 75 68
118 179 156
118 179 156
118 179 156
118 179 156
94 144 164
94 144 164
94 144 164
94 144 164
94 144 164
94 144 164
94 144 164
125 196 160
125 196 160
125 196 160
123 196 158
123 196 158
61 36 43
61 36 43
60 36 43
60 36 43
60 36 43
52 35 40
60 36 43
52 35 40
52 35 40
60 36 43
52 35 40
52 35 40
52 35 40
52 35 40
60 36 42
52 35 40
52 35 40
60 36 42
60 36 42
60 36 42
60 36 42
60 36 42
52 34 40
52 34 40
60 36 42
60 36 42
52 34 40
60 36 42
60 36 42
52 35 41
61 37 44
54 37 43
63 39 46
116 179 154
116 179 154
116 179 154
116 179 154
116 179 154
123 196 158
123 196 158
58 78 68
94 144 164
94 144 164
94 144 164
94 144 164
94 144 164
94 144 164
94 144 164
94 144 164
94 144 164
94 144 164
94 144 164
94 144 164
94 144 164
94 144 164
94 144 164
94 144 164
94 144 164
94 144 164
94 144 164
94 144 164
94 144 164
94 144 164
94 144 164
117 179 154
117 179 154
117 179 154
117 179 154
123 196 159
117 179 154
123 196 159
117 179 154
124 196 159
117 179 155
124 196 159
117 179 155
124 196 159
124 196 159
124 196 159
117 179 155
117 179 155
117 179 155
124 196 159
124 196 159
124 196 159
117 179 155
124 196 159
117 179 155
118 179 155
124 196 159
124 196 159
124 196 159
124 196 159
124 196 159
124 196 159
124 196 160
124 196 160
124 196 160
118 179 155
118 179 155
118 179 155
94 144 164
94 144 164
94 144 164
94 144 164
94 144 164
94 144 164
94 144 164
94 144 164
94 144 164
94 144 164
94 144 164
94 144 164
94 144 164
94 144 164
94 144 164
94 144 164
94 144 164
94 144 164
94 144 164
94 144 164
94 144 164
94 144 164
94 144 164
94 144 164
94 144 164
94 144 164
94 144 164
94 144 164
94 144 164
94 144 164
94 144 164
94 144 164
94 144 164
94 144 164
94 144 164
94 144 164
94 144 164
94 144 164
94 144 164
108 151 122
128 196 164
111 166 123
126 196 162
120 180 158
126 196 162
126 196 162
120 180 158
126 196 162
120 180 158
120 180 158
94 144 164
94 144 164
94 144 164
94 144 164
94 144 164
94 144 164
94 144 164
94 144 164
94 144 164
94 144 164
94 144 164
94 144 164
94 144 164
94 144 164
94 144 164
94 144 164
94 144 164
94 144 164
94 144 164
94 144 164
94 144 164
94 144 164
94 144 164
94 144 164
94 144 164
94 144 164
94 144 164
94 144 164
94 144 164
94 144 164
94 144 164
94 144 164
94 144 164
94 144 164
94 144 164
94 144 164
94 144 164
94 144 164
94 144 164
94 144 164
94 144 164
94 144 164
94 144 164
94 144 164
94 144 164
94 144 164
94 144 164
94 144 164
94 144 164
94 144 164
94 144 164
94 144 164
94 144 164
94 144 164
94 144 164
94 144 164
94 144 164
94 144 164
94 144 164
94 144 164
94 144 164
94 144 164
94 144 164
94 144 164
94 144 164
94 144 164
94 144 164
94 144 164
94 144 164
94 144 164
94 144 164
94 144 164
94 144 164
94 144 164
94 144 164
94 144 164
94 144 164
94 144 164
94 144 164
94 144 164
94 144 164
127 196 162
126 196 162
70 94 88
70 94 88
62 79 73
62 79 74
62 79 73
62 79 73
62 79 73
62 79 73
62 79 73
62 79 74
62 79 74
62 79 73
64 84 75
62 79 74
62 79 74
63 79 74
62 79 74
62 79 74
62 79 74
62 79 74
63 80 74
65 85 76
62 78 73
62 82 73
60 77 71
62 82 72
125 196 161
125 196 161
61 80 70
57 74 68
56 73 66
56 73 66
56 73 66
56 73 66
58 78 67
58 78 67
56 72 65
117 179 154
117 179 154
123 196 159
117 179 154
117 179 154
117 179 154
117 179 154
123 196 159
117 179 154
123 196 159
117 179 154
123 196 158
123 196 158
55 72 65
55 72 65
55 72 65
55 71 64
55 71 64
55 72 65
58 77 67
58 78 67
56 73 66
58 78 67
58 78 67
58 78 67
58 78 68
59 79 68
57 73 67
58 78 68
58 78 68
59 79 68
66 90 83
66 90 83
124 196 160
124 196 160
118 179 155
124 196 160
118 179 155
118 179 155
118 179 155
124 196 160
124 196 160
124 196 160
118 179 155
118 179 155
118 179 155
118 179 155
56 76 65
54 71 64
61 36 43
61 36 43
60 36 43
52 35 41
52 35 40
52 35 40
60 36 43
52 35 40
60 36 43
60 36 43
52 35 40
52 35 40
52 35 40
52 35 40
60 36 42
60 36 42
60 36 42
60 36 42
60 36 42
52 35 40
60 36 42
52 35 40
60 36 42
52 34 40
52 34 40
60 36 42
52 34 40
52 34 40
51 34 40
52 35 41
61 37 44
54 37 43
54 38 44
123 196 158
116 178 153
123 196 158
123 196 158
116 178 153
123 196 158
56 76 65
58 78 68
94 144 164
94 144 164
94 144 164
94 144 164
94 144 164
94 144 164
94 144 164
94 144 164
94 144 164
94 144 164
94 144 164
94 144 164
94 144 164
94 144 164
94 144 164
94 144 164
94 144 164
94 144 164
94 144 164
94 144 164
94 144 164
94 144 164
94 144 164
123 196 158
123 196 158
123 196 158
123 196 158
117 179 154
117 179 154
117 179 154
117 179 154
117 179 154
123 196 158
117 179 154
123 196 158
123 196 159
123 196 159
123 196 159
123 196 159
117 179 154
117 179 154
117 179 154
117 179 154
117 179 154
117 179 154
124 196 159
124 196 159
117 179 155
117 179 155
117 179 155
117 179 155
117 179 155
124 196 159
124 196 159
117 179 155
117 179 155
117 179 155
124 196 159
124 196 159
124 196 159
124 196 159
94 144 164
94 144 164
94 144 164
94 144 164
94 144 164
94 144 164
94 144 164
94 144 164
94 144 164
94 144 164
94 144 164
94 144 164
94 144 164
94 144 164
94 144 164
94 144 164
94 144 164
94 144 164
94 144 164
94 144 164
94 144 164
94 144 164
94 144 164
94 144 164
94 144 164
94 144 164
94 144 164
94 144 164
94 144 164
94 144 164
94 144 164
94 144 164
94 144 164
94 144 164
94 144 164
94 144 164
94 144 164
111 166 122
126 196 161
119 180 157
126 196 161
120 180 157
120 180 157
120 180 157
120 180 157
126 196 161
120 180 157
126 196 162
126 196 162
126 196 162
126 196 162
120 180 158
126 196 162
120 180 158
94 144 164
94 144 164
94 144 164
94 144 164
94 144 164
94 144 164
94 144 164
94 144 164
94 144 164
94 144 164
94 144 164
94 144 164
94 144 164
94 144 164
94 144 164
94 144 164
94 144 164
94 144 164
94 144 164
94 144 164
94 144 164
94 144 164
94 144 164
94 144 164
94 144 164
94 144 164
94 144 164
94 144 164
94 144 164
94 144 164
94 144 164
94 144 164
94 144 164
94 144 164
94 144 164
94 144 164
94 144 164
94 144 164
94 144 164
94 144 164
94 144 164
94 144 164
94 144 164
94 144 164
94 144 164
94 144 164
94 144 164
94 144 164
94 144 164
94 144 164
94 144 164
94 144 164
94 144 164
94 144 164
94 144 164
94 144 164
94 144 164
94 144 164
94 144 164
94 144 164
94 144 164
94 144 164
94 144 164
94 144 164
94 144 164
94 144 164
94 144 164
94 144 164
94 144 164
94 144 164
94 144 164
94 144 164
94 144 164
94 144 164
94 144 164
94 144 164
62 79 73
62 79 73
62 79 73
62 78 73
62 79 73
62 79 74
62 79 74
64 84 75
62 79 73
62 79 73
62 79 73
62 79 74
62 79 74
62 79 74
62 79 73
62 79 74
62 79 74
63 80 74
64 84 75
62 79 74
62 79 74
62 79 74
63 80 74
71 95 89
63 83 74
60 77 71
59 76 70
59 76 70
61 81 71
125 196 160
67 92 84
58 74 68
56 73 66
58 78 68
56 73 66
56 73 66
56 73 66
58 78 67
57 77 66
56 76 65
95 141 107
101 158 112
57 77 66
57 77 66
57 77 66
57 77 66
57 77 66
55 71 64
55 71 64
56 76 65
54 71 64
55 71 64
55 72 65
55 72 65
55 72 65
57 77 66
55 71 64
55 72 65
58 77 67
58 78 67
58 78 68
58 78 68
56 73 66
58 78 67
58 78 68
63 85 81
65 90 82
63 85 80
65 90 82
65 90 82
63 84 80
118 179 155
118 179 155
124 196 159
124 196 159
124 196 159
124 196 159
57 73 67
57 73 67
57 73 67
56 73 67
117 179 155
124 196 159
124 196 159
117 179 155
124 196 159
54 71 64
54 71 64
61 36 43
61 36 43
61 36 43
60 36 43
60 36 43
60 36 43
60 36 43
52 35 40
52 35 40
52 35 40
52 35 40
52 35 40
52 35 40
52 35 40
60 36 42
60 36 42
60 36 42
60 36 42
60 36 42
60 36 42
60 36 42
52 35 40
52 35 40
52 35 40
52 34 40
60 36 42
52 34 40
52 34 40
60 36 42
52 35 41
61 37 44
54 37 43
55 38 44
122 196 157
116 178 153
116 178 153
116 178 153
116 178 153
116 178 153
56 76 65
64 89 81
63 84 80
117 179 155
117 179 155
94 144 164
94 144 164
94 144 164
94 144 164
94 144 164
94 144 164
94 144 164
94 144 164
94 144 164
94 144 164
94 144 164
94 144 164
94 144 164
94 144 164
94 144 164
94 144 164
94 144 164
94 144 164
94 144 164
94 144 164
116 178 153
123 196 158
116 178 153
116 178 154
123 196 158
123 196 158
123 196 158
123 196 158
123 196 158
123 196 158
123 196 158
123 196 158
123 196 158
116 179 154
123 196 158
116 179 154
116 179 154
123 196 158
123 196 158
123 196 158
123 196 158
117 179 154
117 179 154
117 179 154
117 179 154
117 179 154
117 179 154
123 196 159
117 179 154
117 179 154
123 196 159
123 196 159
123 196 159
123 196 159
117 179 154
117 179 155
124 196 159
117 179 155
124 196 159
124 196 159
124 196 159
124 196 159
124 196 159
94 144 164
94 144 164
94 144 164
94 144 164
94 144 164
94 144 164
94 144 164
94 144 164
94 144 164
94 144 164
94 144 164
94 144 164
94 144 164
94 144 164
94 144 164
94 144 164
94 144 164
94 144 164
94 144 164
94 144 164
94 144 164
94 144 164
94 144 164
94 144 164
94 144 164
125 196 160
94 144 164
94 144 164
110 166 122
110 165 121
125 196 160
125 196 161
125 196 161
125 196 161
119 179 156
119 179 157
119 179 157
119 179 157
125 196 161
125 196 161
119 180 157
126 196 161
119 180 157
119 180 157
126 196 161
126 196 161
126 196 161
126 196 161
120 180 157
126 196 161
120 180 157
126 196 162
126 196 162
126 196 162
126 196 162
120 180 158
120 180 158
120 180 158
120 180 158
94 144 164
94 144 164
94 144 164
94 144 164
94 144 164
94 144 164
94 144 164
94 144 164
94 144 164
94 144 164
94 144 164
94 144 164
94 144 164
94 144 164
94 144 164
94 144 164
94 144 164
94 144 164
94 144 164
94 144 164
94 144 164
94 144 164
94 144 164
94 144 164
94 144 164
94 144 164
94 144 164
94 144 164
94 144 164
94 144 164
94 144 164
94 144 164
94 144 164
94 144 164
94 144 164
94 144 164
94 144 164
94 144 164
94 144 164
94 144 164
94 144 164
94 144 164
94 144 164
94 144 164
94 144 164
94 144 164
94 144 164
94 144 164
94 144 164
94 144 164
94 144 164
94 144 164
94 144 164
94 144 164
94 144 164
94 144 164
94 144 164
94 144 164
94 144 164
94 144 164
94 144 164
94 144 164
94 144 164
94 144 164
94 144 164
94 144 164
62 79 73
64 84 75
62 79 73
62 78 73
62 79 73
62 79 74
62 79 74
64 84 75
62 79 73
62 79 73
62 79 73
62 79 74
62 79 74
62 79 74
62 79 74
62 79 73
62 79 74
70 95 88
70 95 88
70 95 88
68 90 87
68 90 87
120 180 158
126 196 162
62 79 73
60 77 72
61 81 71
59 76 70
58 75 68
97 142 111
118 179 156
58 74 68
57 74 68
56 73 66
56 73 66
56 73 66
58 78 67
58 78 67
55 71 64
57 77 66
54 71 64
56 76 65
57 77 66
57 77 66
57 77 66
57 77 66
55 72 65
55 71 64
57 77 66
55 71 64
54 71 64
55 71 64
55 72 65
55 72 65
55 72 65
55 72 65
55 72 65
55 72 65
56 72 65
64 89 81
63 84 80
62 84 80
62 84 80
62 84 80
64 89 81
64 89 81
117 179 155
117 179 155
124 196 159
124 196 159
124 196 159
124 196 159
56 73 66
56 73 66
56 73 66
56 73 66
56 73 66
57 73 67
57 73 67
57 73 67
56 72 66
56 72 65
55 72 65
55 72 65
123 196 159
123 196 159
54 71 64
54 71 64
61 36 43
61 36 43
61 36 43
61 36 43
52 35 41
60 36 43
60 36 43
52 35 40
52 35 40
52 35 40
52 35 40
52 35 40
52 35 40
52 35 40
60 36 42
60 36 42
60 36 42
60 36 42
60 36 42
60 36 42
60 36 42
52 35 40
52 35 40
52 35 40
52 35 40
52 34 40
52 34 40
52 34 40
52 34 40
52 35 41
61 37 44
62 38 45
143 84 99
115 178 153
55 75 63
55 75 63
55 74 63
54 74 63
55 75 63
57 77 66
62 83 79
64 88 80
123 196 159
123 196 159
117 179 154
117 179 154
117 179 154
117 179 154
94 144 164
94 144 164
94 144 164
94 144 164
94 144 164
94 144 164
94 144 164
94 144 164
94 144 164
94 144 164
94 144 164
94 144 164
124 196 159
124 196 159
124 196 159
124 196 159
122 196 157
122 196 157
116 178 153
122 196 158
116 178 153
122 196 158
116 178 153
116 178 153
122 196 158
116 178 153
116 178 153
122 196 158
116 178 153
123 196 158
123 196 158
116 178 153
123 196 158
116 178 153
116 178 154
116 178 154
116 178 154
116 178 154
116 178 154
123 196 158
123 196 158
123 196 158
123 196 158
123 196 158
123 196 158
123 196 158
116 179 154
117 179 154
123 196 158
117 179 154
117 179 154
123 196 158
123 196 158
123 196 159
123 196 159
117 179 154
117 179 154
117 179 154
117 179 154
94 144 164
94 144 164
94 144 164
94 144 164
94 144 164
94 144 164
94 144 164
94 144 164
94 144 164
94 144 164
94 144 164
94 144 164
94 144 164
94 144 164
94 144 164
94 144 164
94 144 164
94 144 164
94 144 164
94 144 164
94 144 164
94 144 164
94 144 164
94 144 164
94 144 164
110 165 121
118 179 156
125 196 160
125 196 160
118 179 156
118 179 156
118 179 156
118 179 156
125 196 160
125 196 160
125 196 160
125 196 160
125 196 160
125 196 160
125 196 161
119 179 156
119 179 156
119 179 156
125 196 161
125 196 161
125 196 161
119 179 157
119 179 157
126 196 161
126 196 161
126 196 161
126 196 161
120 180 157
126 196 161
120 180 157
120 180 157
120 180 157
126 196 161
126 196 162
126 196 162
120 180 158
94 144 164
94 144 164
94 144 164
94 144 164
94 144 164
94 144 164
94 144 164
94 144 164
94 144 164
94 144 164
94 144 164
94 144 164
94 144 164
94 144 164
94 144 164
94 144 164
94 144 164
94 144 164
94 144 164
94 144 164
94 144 164
94 144 164
94 144 164
94 144 164
94 144 164
94 144 164
94 144 164
94 144 164
94 144 164
94 144 164
94 144 164
94 144 164
94 144 164
94 144 164
94 144 164
94 144 164
94 144 164
94 144 164
94 144 164
94 144 164
94 144 164
94 144 164
94 144 164
94 144 164
94 144 164
94 144 164
94 144 164
94 144 164
94 144 164
94 144 164
94 144 164
94 144 164
94 144 164
94 144 164
94 144 164
94 144 164
94 144 164
94 144 164
94 144 164
94 144 164
94 144 164
94 144 164
94 144 164
94 144 164
94 144 164
62 79 73
62 79 73
62 79 73
62 79 73
62 79 73
62 79 74
62 79 74
62 79 73
62 79 73
62 79 73
68 90 87
70 94 88
68 89 86
70 94 88
68 89 86
120 180 158
120 180 158
120 180 158
126 196 162
126 196 162
120 180 158
126 196 162
126 196 162
126 196 162
61 77 72
60 77 71
59 76 70
58 75 69
124 196 160
118 179 155
124 196 160
65 90 82
56 73 66
56 73 66
56 73 66
58 78 67
58 78 67
57 77 66
57 77 66
55 71 64
56 76 65
57 77 66
57 77 66
57 77 66
57 77 66
57 77 66
57 77 66
55 71 64
55 71 64
55 71 64
55 71 64
55 72 65
57 77 66
55 72 65
55 72 65
55 72 65
55 72 65
64 89 80
64 89 80
123 196 159
123 196 159
55 72 65
55 72 65
57 77 66
123 196 159
55 72 65
56 72 66
58 78 67
56 72 66
56 72 65
56 72 65
56 73 66
56 73 66
58 78 67
56 73 66
56 73 66
57 73 67
57 74 67
57 73 67
56 72 66
58 78 67
56 72 65
55 71 64
95 141 107
123 196 158
54 71 64
54 71 64
52 35 41
61 36 43
61 36 43
61 36 43
61 36 43
60 36 43
60 36 43
52 35 40
52 35 40
52 35 40
60 36 43
52 35 40
52 35 40
52 35 40
60 36 43
60 36 42
60 36 42
60 36 42
52 35 40
60 36 42
60 36 42
52 35 40
52 35 40
52 35 40
52 35 40
52 35 40
60 36 42
52 34 40
52 34 40
52 35 41
53 36 42
62 39 45
54 74 62
54 74 62
55 75 63
55 75 63
55 75 63
55 75 63
55 75 63
61 83 78
61 83 78
117 179 154
117 179 154
123 196 158
117 179 154
123 196 158
123 196 158
123 196 158
117 179 154
117 179 154
117 179 154
123 196 158
123 196 158
123 196 158
94 144 164
94 144 164
117 179 154
123 196 159
123 196 159
123 196 159
117 179 154
117 179 154
117 179 154
117 179 154
52 69 61
52 69 61
54 74 63
54 74 63
122 196 157
122 196 157
115 178 153
115 178 153
115 178 153
122 196 157
122 196 157
122 196 157
116 178 153
116 178 153
116 178 153
116 178 153
116 178 153
116 178 153
122 196 158
122 196 158
122 196 158
122 196 158
116 178 153
116 178 153
116 178 153
116 178 153
123 196 158
116 178 153
116 178 153
116 178 153
116 178 154
123 196 158
123 196 158
123 196 158
123 196 158
116 179 154
123 196 158
116 179 154
116 179 154
116 179 154
123 196 158
123 196 158
123 196 158
123 196 158
94 144 164
94 144 164
94 144 164
94 144 164
94 144 164
94 144 164
94 144 164
94 144 164
94 144 164
94 144 164
94 144 164
94 144 164
94 144 164
94 144 164
94 144 164
94 144 164
94 144 164
94 144 164
94 144 164
94 144 164
94 144 164
126 196 161
124 196 159
118 179 155
109 165 121
103 148 116
118 179 155
124 196 160
118 179 155
118 179 155
118 179 155
124 196 160
124 196 160
118 179 156
125 196 160
125 196 160
118 179 156
118 179 156
118 179 156
125 196 160
125 196 160
125 196 160
125 196 160
119 179 156
125 196 160
119 179 156
125 196 161
125 196 161
119 179 156
119 179 156
119 179 157
125 196 161
119 179 157
125 196 161
125 196 161
126 196 161
126 196 161
119 180 157
119 180 157
120 180 157
120 180 157
120 180 157
126 196 161
126 196 161
126 196 162
94 144 164
94 144 164
94 144 164
94 144 164
94 144 164
94 144 164
94 144 164
94 144 164
94 144 164
94 144 164
94 144 164
94 144 164
94 144 164
94 144 164
94 144 164
94 144 164
94 144 164
94 144 164
94 144 164
94 144 164
94 144 164
94 144 164
94 144 164
94 144 164
94 144 164
94 144 164
94 144 164
94 144 164
94 144 164
94 144 164
94 144 164
94 144 164
94 144 164
94 144 164
94 144 164
94 144 164
94 144 164
94 144 164
94 144 164
94 144 164
94 144 164
94 144 164
94 144 164
94 144 164
94 144 164
94 144 164
94 144 164
94 144 164
94 144 164
94 144 164
94 144 164
94 144 164
94 144 164
94 144 164
94 144 164
94 144 164
94 144 164
94 144 164
94 144 164
94 144 164
62 79 74
62 79 73
62 79 73
62 79 73
70 94 88
68 89 86
70 94 87
68 89 86
69 94 87
120 180 158
120 180 158
63 83 74
63 83 74
63 83 74
63 83 73
63 83 73
61 78 72
61 77 72
126 196 161
126 196 161
120 180 157
126 196 161
119 180 157
126 196 161
126 196 161
66 88 84
61 81 71
58 75 69
59 79 68
57 74 67
57 73 67
124 196 159
64 89 81
64 89 81
64 89 81
62 84 80
62 84 80
57 77 66
57 77 66
57 77 66
56 76 65
57 77 66
57 77 66
57 77 66
57 77 66
57 77 66
57 77 66
55 71 64
55 71 64
55 71 64
55 71 64
63 88 80
63 88 80
63 88 80
63 88 80
55 71 64
55 72 65
55 71 64
55 71 64
55 71 64
55 72 65
55 72 65
55 72 65
55 72 65
55 72 65
55 72 65
56 72 66
56 73 66
56 72 66
56 72 65
56 72 65
56 73 66
56 73 66
56 73 66
56 73 66
56 73 66
57 73 67
59 79 68
57 74 67
56 72 66
56 72 66
56 72 65
57 77 66
55 71 64
116 179 154
123 196 158
62 87 78
52 35 41
61 36 43
61 36 43
61 36 43
61 36 43
61 36 43
60 36 43
60 36 43
52 35 40
52 35 40
52 35 40
60 36 43
52 35 40
52 35 40
60 36 43
60 36 43
52 35 40
60 36 42
60 36 42
52 35 40
60 36 42
52 35 40
52 35 40
52 35 40
52 35 40
60 36 42
60 36 42
52 35 40
52 35 40
52 35 41
53 36 42
62 39 45
54 74 62
52 68 61
55 75 63
55 75 63
55 75 63
55 75 63
55 75 63
62 87 79
62 87 79
123 196 158
123 196 158
116 178 154
123 196 158
123 196 158
116 178 154
54 71 64
56 76 65
56 76 65
56 76 65
56 76 65
101 158 112
123 196 158
123 196 158
116 179 154
116 179 154
116 179 154
116 179 154
116 179 154
123 196 158
123 196 158
123 196 158
123 196 158
52 69 61
52 69 61
52 69 61
52 69 61
106 163 115
122 196 157
115 178 152
122 196 157
122 196 157
115 178 152
115 178 153
115 178 153
115 178 153
122 196 157
122 196 157
122 196 157
122 196 157
122 196 157
122 196 157
115 178 153
115 178 153
115 178 153
122 196 157
122 196 157
116 178 153
122 196 157
116 178 153
122 196 157
122 196 157
122 196 158
122 196 158
116 178 153
122 196 158
116 178 153
116 178 153
116 178 153
123 196 158
123 196 158
123 196 158
123 196 158
116 178 154
116 178 154
116 178 154
123 196 158
123 196 158
94 144 164
94 144 164
94 144 164
94 144 164
94 144 164
94 144 164
94 144 164
94 144 164
94 144 164
94 144 164
94 144 164
94 144 164
94 144 164
94 144 164
94 144 164
94 144 164
94 144 164
119 179 156
119 179 156
119 179 156
119 179 156
102 147 115
124 196 159
117 179 155
124 196 159
124 196 159
124 196 159
124 196 159
124 196 159
124 196 159
124 196 159
118 179 155
118 179 155
118 179 155
118 179 155
118 179 155
124 196 160
124 196 160
118 179 156
124 196 160
124 196 160
118 179 156
125 196 160
125 196 160
118 179 156
118 179 156
118 179 156
125 196 160
119 179 156
119 179 156
125 196 160
119 179 156
119 179 156
119 179 156
119 179 156
119 179 156
119 179 157
119 179 157
119 179 157
125 196 161
125 196 161
126 196 161
119 180 157
126 196 161
126 196 161
126 196 161
120 180 157
94 144 164
94 144 164
94 144 164
94 144 164
94 144 164
94 144 164
94 144 164
94 144 164
94 144 164
94 144 164
94 144 164
94 144 164
94 144 164
94 144 164
94 144 164
94 144 164
94 144 164
94 144 164
94 144 164
94 144 164
94 144 164
94 144 164
94 144 164
94 144 164
94 144 164
94 144 164
94 144 164
94 144 164
94 144 164
94 144 164
94 144 164
94 144 164
94 144 164
94 144 164
94 144 164
94 144 164
94 144 164
94 144 164
94 144 164
94 144 164
94 144 164
94 144 164
94 144 164
94 144 164
94 144 164
94 144 164
94 144 164
94 144 164
94 144 164
94 144 164
94 144 164
94 144 164
94 144 164
94 144 164
126 196 162
126 196 162
126 196 162
126 196 162
120 180 158
67 89 86
120 180 157
120 180 157
63 83 73
63 83 74
63 83 73
63 83 73
63 83 73
63 83 73
63 83 74
63 83 74
63 83 74
63 83 74
63 83 73
61 78 72
61 78 72
61 77 72
62 82 73
60 77 71
62 82 72
62 82 72
60 77 71
60 76 71
125 196 161
67 92 84
58 75 69
57 74 67
57 74 67
56 72 66
58 78 67
56 72 65
123 196 159
123 196 159
123 196 159
123 196 159
61 83 79
61 83 79
55 71 64
57 77 66
61 83 78
61 83 78
117 179 154
61 83 78
63 88 79
63 88 79
63 88 79
61 82 78
63 88 79
55 71 64
54 71 64
54 71 64
54 71 64
54 71 64
55 71 64
55 72 65
55 72 65
57 77 66
55 71 64
55 72 65
55 72 65
57 77 66
55 72 65
57 77 66
55 72 65
56 72 66
56 73 66
56 72 66
56 72 66
56 72 65
56 73 66
56 73 66
56 73 66
56 73 66
56 73 66
63 84 80
65 89 81
63 84 80
58 78 67
56 72 66
56 72 66
55 71 64
55 71 64
54 70 63
54 70 63
53 70 63
52 35 41
61 37 43
61 36 43
61 36 43
61 36 43
61 36 43
61 36 43
52 35 41
52 35 41
52 35 40
52 35 40
52 35 40
52 35 40
52 35 40
52 35 40
60 36 43
60 36 43
60 36 42
60 36 42
60 36 42
60 36 42
52 35 40
52 35 40
52 35 40
52 35 40
52 35 40
52 35 40
60 36 42
52 35 40
61 37 43
53 36 42
62 39 45
54 74 62
52 69 61
53 69 62
55 75 63
55 75 63
55 75 63
60 81 76
60 81 76
60 81 76
116 178 153
116 178 153
55 75 64
55 75 64
55 75 64
55 75 64
56 76 65
56 76 65
56 76 65
56 76 65
54 71 64
54 71 64
54 71 64
54 71 64
116 178 153
116 178 153
123 196 158
123 196 158
123 196 158
116 178 154
116 178 154
116 178 154
116 178 154
52 69 61
52 69 61
52 69 61
52 69 61
51 68 60
53 73 62
51 68 60
53 73 62
51 68 60
121 196 157
121 196 157
122 196 157
122 196 157
122 196 157
115 178 152
115 178 152
122 196 157
115 178 152
122 196 157
122 196 157
122 196 157
115 178 152
115 178 152
122 196 157
122 196 157
122 196 157
122 196 157
115 178 153
115 178 153
115 178 153
115 178 153
115 178 153
122 196 157
122 196 157
122 196 157
122 196 157
116 178 153
116 178 153
116 178 153
116 178 153
116 178 153
101 158 111
116 178 153
116 178 153
116 178 153
124 196 159
94 144 164
94 144 164
94 144 164
94 144 164
94 144 164
94 144 164
94 144 164
94 144 164
94 144 164
94 144 164
94 144 164
94 144 164
94 144 164
94 144 164
94 144 164
104 149 117
103 148 117
125 196 160
125 196 160
102 148 115
102 147 115
108 164 119
123 196 159
123 196 159
117 179 154
124 196 159
124 196 159
117 179 155
117 179 155
117 179 155
117 179 155
124 196 159
124 196 159
124 196 159
124 196 159
124 196 159
118 179 155
118 179 155
118 179 155
124 196 159
118 179 155
124 196 160
118 179 155
118 179 155
118 179 155
124 196 160
124 196 160
125 196 160
118 179 156
118 179 156
118 179 156
125 196 160
125 196 160
118 179 156
125 196 160
125 196 160
125 196 160
125 196 160
125 196 160
119 179 156
125 196 161
125 196 161
125 196 161
119 179 157
119 179 157
119 179 157
125 196 161
94 144 164
94 144 164
94 144 164
94 144 164
94 144 164
94 144 164
94 144 164
94 144 164
94 144 164
94 144 164
94 144 164
94 144 164
94 144 164
94 144 164
94 144 164
94 144 164
94 144 164
94 144 164
94 144 164
94 144 164
94 144 164
94 144 164
94 144 164
94 144 164
94 144 164
94 144 164
94 144 164
94 144 164
94 144 164
94 144 164
94 144 164
94 144 164
94 144 164
94 144 164
94 144 164
94 144 164
94 144 164
94 144 164
94 144 164
94 144 164
94 144 164
94 144 164
94 144 164
94 144 164
94 144 164
94 144 164
94 144 164
94 144 164
94 144 164
94 144 164
94 144 164
120 180 157
120 180 157
126 196 161
120 180 157
63 83 73
63 83 73
61 78 72
63 83 73
63 82 73
62 82 73
63 83 73
63 83 74
63 83 74
63 83 73
61 78 72
63 83 73
63 83 74
63 83 74
63 83 74
63 83 74
63 83 73
61 78 72
61 78 72
61 77 72
62 82 73
62 82 73
62 82 72
62 82 72
60 77 71
59 75 69
59 75 69
58 75 69
66 91 84
66 91 83
57 74 67
58 78 67
117 179 154
117 179 154
117 179 154
117 179 154
117 179 154
123 196 158
117 179 154
116 179 154
116 179 154
63 87 79
63 87 79
123 196 158
123 196 158
54 71 64
54 71 64
54 71 64
54 71 63
54 70 63
54 71 64
55 71 64
55 71 64
54 71 64
54 71 64
54 71 64
55 71 64
55 72 65
57 77 66
55 72 64
55 71 64
55 72 65
55 72 65
55 72 65
55 72 65
57 77 66
55 72 65
56 72 66
62 84 80
64 89 81
58 78 67
56 72 66
64 89 81
64 89 81
117 179 155
64 89 81
62 84 79
62 84 79
117 179 155
117 179 155
124 196 159
64 89 80
64 89 80
55 71 64
55 71 64
56 76 64
54 70 63
54 70 63
52 35 41
52 35 41
52 35 41
61 36 43
61 36 43
52 35 41
52 35 41
61 36 43
60 36 43
60 36 43
60 36 43
60 36 43
60 36 43
60 36 43
52 35 40
52 35 40
60 36 43
60 36 43
52 35 40
60 36 42
60 36 42
52 35 40
60 36 42
52 35 40
52 35 40
52 35 40
52 35 40
52 35 40
52 35 40
52 36 41
53 37 42
54 38 43
52 69 61
54 74 62
59 80 75
59 80 75
59 80 75
59 80 76
61 86 77
61 86 77
122 196 157
122 196 157
55 75 63
55 75 64
55 75 64
55 75 64
55 75 64
56 76 65
54 71 64
56 76 65
56 76 65
56 76 65
56 76 65
54 71 64
54 71 64
53 70 63
53 70 63
53 70 63
53 70 63
122 196 158
116 178 153
122 196 158
122 196 158
122 196 158
52 69 62
54 74 63
52 69 62
52 69 62
52 68 60
52 68 60
52 68 60
52 68 60
54 74 62
51 67 59
51 67 59
51 67 59
53 73 61
53 73 61
121 196 156
121 196 156
115 178 152
115 178 152
121 196 156
121 196 157
121 196 157
121 196 157
121 196 157
115 178 152
122 196 157
115 178 152
115 178 152
115 178 152
122 196 157
122 196 157
122 196 157
122 196 157
115 178 152
115 178 152
115 178 153
115 178 153
115 178 153
52 69 61
100 157 110
122 196 157
115 178 153
55 75 64
55 75 64
53 70 62
53 70 62
124 196 159
124 196 159
117 179 155
117 179 155
117 179 155
124 196 159
94 144 164
94 144 164
94 144 164
94 144 164
94 144 164
94 144 164
94 144 164
94 144 164
109 165 120
124 196 160
124 196 160
124 196 160
124 196 160
118 179 156
102 148 115
102 147 115
108 164 118
55 72 65
55 72 65
55 72 65
57 77 66
57 77 66
108 164 118
123 196 159
117 179 154
123 196 159
123 196 159
117 179 154
117 179 154
117 179 155
117 179 155
124 196 159
117 179 155
117 179 155
117 179 155
117 179 155
124 196 159
117 179 155
124 196 159
124 196 159
118 179 155
118 179 155
118 179 155
118 179 155
118 179 155
118 179 155
124 196 160
124 196 160
124 196 160
124 196 160
118 179 156
118 179 156
118 179 156
125 196 160
125 196 160
118 179 156
119 179 156
119 179 156
119 179 156
119 179 156
119 179 156
125 196 161
94 144 164
94 144 164
94 144 164
94 144 164
94 144 164
94 144 164
94 144 164
94 144 164
94 144 164
94 144 164
94 144 164
94 144 164
94 144 164
94 144 164
94 144 164
94 144 164
94 144 164
94 144 164
94 144 164
94 144 164
94 144 164
94 144 164
94 144 164
94 144 164
94 144 164
94 144 164
94 144 164
94 144 164
94 144 164
94 144 164
94 144 164
94 144 164
94 144 164
94 144 164
94 144 164
94 144 164
94 144 164
94 144 164
94 144 164
94 144 164
94 144 164
94 144 164
94 144 164
94 144 164
94 144 164
94 144 164
94 144 164
94 144 164
94 144 164
94 144 164
94 144 164
63 83 73
63 83 73
62 82 73
62 82 73
63 83 73
63 83 73
63 83 73
63 83 73
63 83 73
62 82 73
63 83 73
63 83 74
61 78 72
63 83 74
61 78 72
63 83 73
63 83 74
63 83 74
63 83 74
63 83 74
63 83 74
61 78 72
61 78 72
61 78 72
61 77 72
62 82 73
62 82 73
62 82 72
60 77 71
59 76 69
118 179 156
125 196 160
118 179 156
124 196 160
101 158 111
116 179 154
116 179 154
116 179 154
123 196 158
123 196 158
123 196 158
123 196 158
123 196 158
54 70 63
54 71 63
54 70 63
54 70 63
54 70 63
54 70 63
54 71 64
54 71 64
54 71 64
54 71 63
54 71 63
54 71 64
55 71 64
57 76 66
54 71 64
56 76 65
54 71 64
55 71 64
57 77 66
55 72 65
55 72 65
57 77 66
55 72 65
64 89 80
64 89 80
64 89 80
62 83 79
55 72 65
64 88 80
123 196 159
123 196 159
117 179 154
117 179 154
117 179 154
123 196 159
123 196 159
123 196 159
117 179 154
123 196 159
123 196 159
123 196 159
123 196 159
117 179 154
123 196 158
63 88 80
61 83 78
54 70 63
54 70 63
54 70 63
61 37 43
52 35 41
61 37 43
52 35 41
52 35 41
61 36 43
52 35 41
61 36 43
61 36 43
60 36 43
52 35 41
60 36 43
60 36 43
60 36 43
52 35 40
60 36 43
52 35 40
60 36 43
60 36 43
60 36 43
52 35 40
60 36 42
52 35 40
60 36 42
60 36 42
60 36 42
60 36 42
60 36 42
60 36 42
52 36 41
62 38 44
54 38 43
58 80 75
60 85 76
60 85 76
122 196 157
122 196 157
115 178 152
52 68 61
52 68 61
52 68 61
52 68 61
55 75 64
56 75 64
55 75 64
55 75 64
53 70 63
56 76 65
56 76 65
54 71 64
56 76 65
54 71 64
54 71 64
54 71 64
54 71 64
55 75 64
53 70 63
55 75 64
53 70 63
54 74 63
54 74 63
52 69 62
52 69 62
54 74 63
61 86 77
52 69 62
52 69 62
52 69 62
52 68 60
52 68 60
54 74 62
52 68 60
52 68 61
51 67 59
51 67 59
51 67 59
53 73 61
51 67 59
121 196 156
121 196 156
121 196 156
121 196 156
121 196 156
114 178 152
114 178 152
114 178 152
114 178 152
121 196 156
121 196 156
121 196 156
121 196 156
121 196 156
115 178 152
115 178 152
121 196 157
115 178 152
115 178 152
53 73 61
99 157 109
115 178 152
115 178 152
54 74 62
52 69 61
52 69 61
54 74 63
55 75 64
55 75 64
53 70 63
55 75 64
123 196 159
117 179 154
123 196 159
123 196 159
124 196 159
124 196 159
124 196 159
124 196 159
117 179 155
117 179 155
117 179 155
124 196 159
124 196 159
124 196 159
124 196 159
118 179 155
124 196 159
124 196 159
124 196 159
124 196 159
102 148 115
108 165 119
108 164 118
57 77 66
55 72 65
55 72 65
55 72 65
55 72 65
108 164 118
56 76 65
55 71 64
57 77 66
55 71 64
95 141 108
117 179 154
117 179 154
123 196 159
117 179 154
117 179 154
117 179 154
123 196 159
117 179 154
124 196 159
124 196 159
117 179 155
117 179 155
124 196 159
117 179 155
124 196 159
124 196 159
124 196 159
118 179 155
124 196 159
124 196 159
118 179 155
118 179 155
118 179 155
124 196 160
118 179 155
118 179 155
118 179 156
118 179 156
124 196 160
125 196 160
118 179 156
125 196 160
125 196 160
118 179 156
94 144 164
94 144 164
94 144 164
94 144 164
94 144 164
94 144 164
94 144 164
94 144 164
94 144 164
94 144 164
94 144 164
94 144 164
94 144 164
94 144 164
94 144 164
94 144 164
94 144 164
94 144 164
94 144 164
94 144 164
94 144 164
94 144 164
123 196 159
123 196 159
117 179 154
123 196 159
117 179 154
55 72 65
94 144 164
94 144 164
94 144 164
94 144 164
94 144 164
94 144 164
94 144 164
94 144 164
94 144 164
94 144 164
94 144 164
94 144 164
94 144 164
94 144 164
94 144 164
94 144 164
94 144 164
94 144 164
94 144 164
94 144 164
94 144 164
94 144 164
94 144 164
63 83 73
63 83 73
62 82 73
62 82 73
63 83 73
63 83 73
63 83 74
63 83 73
63 83 73
63 82 73
63 83 73
63 83 74
63 83 74
63 83 74
63 83 73
61 78 72
67 89 86
67 89 86
67 89 85
67 89 85
69 93 87
69 93 86
69 93 86
122 196 157
115 178 152
121 196 157
115 178 152
115 178 152
115 178 152
121 196 156
118 179 155
118 179 155
124 196 159
124 196 159
56 76 65
56 76 65
54 70 63
116 179 153
116 179 153
116 179 153
116 179 153
55 75 63
53 70 63
54 70 63
54 71 63
54 70 63
54 70 63
54 70 63
54 70 63
54 71 64
54 71 64
54 71 64
54 71 64
56 76 65
54 71 64
55 71 64
55 71 64
55 71 64
54 71 64
54 71 64
55 71 64
63 88 80
61 83 79
63 88 80
63 88 80
55 71 64
55 71 64
95 141 108
123 196 158
55 71 64
55 72 65
55 72 65
55 72 65
57 77 66
57 77 66
57 77 66
57 77 66
57 77 66
55 71 64
55 71 64
56 76 65
54 71 64
56 76 65
56 76 65
54 71 64
116 179 154
116 179 154
123 196 158
123 196 158
54 70 63
54 70 63
54 70 63
52 36 41
61 37 43
52 35 41
52 35 41
61 37 43
52 35 41
52 35 41
61 36 43
61 36 43
52 35 41
61 36 43
52 35 41
52 35 40
60 36 43
52 35 40
52 35 40
52 35 40
52 35 40
52 35 40
52 35 40
60 36 43
60 36 42
52 35 40
60 36 42
60 36 42
60 36 42
60 36 42
60 36 42
60 36 42
53 36 41
62 38 44
62 39 46
121 196 157
51 68 60
51 68 60
51 68 60
51 68 60
52 68 60
52 69 61
52 69 61
52 68 61
52 68 61
55 75 64
56 76 64
56 76 64
56 75 64
56 75 64
61 82 78
61 82 78
61 82 78
61 82 78
63 88 79
63 88 79
54 71 64
54 71 64
53 70 63
55 75 64
53 70 63
53 70 63
53 69 62
53 69 62
53 69 62
53 69 62
53 69 62
115 178 152
122 196 157
122 196 157
60 85 76
54 74 62
54 74 62
52 68 61
54 74 62
52 68 61
51 67 59
51 67 59
51 67 59
51 67 60
54 74 62
50 66 58
50 67 58
50 67 58
50 67 58
50 67 58
121 196 156
121 196 156
121 196 156
121 196 156
121 196 156
114 178 152
114 178 152
114 178 152
114 178 152
52 72 60
99 157 108
121 196 156
114 178 152
114 178 152
51 68 60
53 73 61
53 73 61
53 73 61
54 74 63
54 74 63
54 74 63
54 74 63
53 70 63
55 75 64
55 75 64
55 75 64
61 83 78
123 196 158
123 196 158
117 179 154
117 179 154
117 179 154
117 179 154
57 77 67
57 77 67
57 77 67
57 77 67
58 77 67
117 179 154
117 179 155
117 179 155
124 196 159
117 179 155
124 196 159
117 179 155
117 179 155
117 179 155
102 147 114
108 164 118
55 72 65
55 72 65
57 77 66
55 72 65
59 79 68
108 164 118
55 71 64
57 77 66
55 71 64
57 77 66
57 77 66
107 164 118
123 196 158
123 196 158
123 196 158
123 196 158
123 196 158
117 179 154
117 179 154
117 179 154
117 179 154
117 179 154
123 196 159
123 196 159
117 179 154
123 196 159
124 196 159
117 179 155
117 179 155
124 196 159
117 179 155
124 196 159
117 179 155
124 196 159
117 179 155
124 196 159
118 179 155
124 196 159
124 196 159
124 196 159
124 196 160
118 179 155
118 179 155
118 179 155
118 179 156
94 144 164
94 144 164
94 144 164
94 144 164
94 144 164
94 144 164
94 144 164
94 144 164
94 144 164
94 144 164
94 144 164
94 144 164
94 144 164
94 144 164
94 144 164
94 144 164
94 144 164
94 144 164
94 144 164
117 179 154
117 179 154
117 179 154
117 179 154
117 179 154
56 76 65
55 71 64
55 71 64
55 72 65
55 72 65
94 144 164
94 144 164
94 144 164
94 144 164
94 144 164
94 144 164
94 144 164
94 144 164
94 144 164
94 144 164
94 144 164
94 144 164
94 144 164
94 144 164
94 144 164
94 144 164
94 144 164
94 144 164
94 144 164
94 144 164
94 144 164
94 144 164
63 83 73
63 83 73
61 78 72
62 82 73
63 83 73
63 83 73
63 83 74
63 83 74
63 83 73
63 83 73
67 89 85
122 196 157
122 196 157
122 196 157
122 196 157
122 196 157
115 178 152
115 178 152
115 178 152
115 178 152
115 178 152
121 196 156
115 178 152
115 178 152
114 178 152
114 178 152
121 196 156
121 196 156
121 196 156
121 196 156
121 196 156
114 178 152
114 178 152
114 178 152
114 178 152
98 157 107
52 72 59
122 196 157
116 178 153
93 140 106
55 75 63
55 75 63
53 70 63
54 70 63
54 71 63
54 71 63
54 70 63
54 70 63
54 70 63
54 71 64
54 71 64
54 71 64
54 71 64
54 71 64
54 71 64
63 88 79
63 88 79
63 88 79
63 88 79
54 71 64
56 76 65
56 76 65
54 71 64
56 76 65
54 71 64
55 72 65
55 71 64
57 77 66
55 71 64
55 71 64
55 72 65
55 72 65
55 72 65
55 72 65
57 77 66
57 77 66
57 77 66
57 77 66
55 71 64
55 71 64
56 76 65
54 71 64
56 76 65
56 76 65
116 179 153
116 179 153
123 196 158
116 179 153
116 178 153
116 178 153
62 87 78
62 87 78
61 37 43
52 36 41
52 35 41
52 35 41
61 37 43
52 35 41
52 35 41
52 35 41
61 36 43
61 36 43
61 36 43
61 36 43
60 36 43
60 36 43
52 35 40
60 36 43
52 35 40
60 36 43
52 35 40
52 35 40
52 35 40
60 36 43
60 36 42
52 35 40
60 36 42
52 35 40
60 36 42
60 36 42
60 36 43
53 36 41
62 38 45
62 39 46
51 67 59
51 68 60
51 68 60
51 68 60
51 68 60
52 68 61
52 69 61
52 69 61
52 69 61
52 69 61
62 87 78
60 81 77
60 81 77
60 82 77
60 82 77
62 87 78
62 87 78
123 196 158
116 178 153
123 196 158
123 196 158
116 178 154
123 196 158
53 70 63
53 70 63
53 70 63
53 70 63
53 69 62
55 75 63
53 69 62
55 75 63
99 145 111
115 178 152
115 178 152
115 178 152
115 178 152
122 196 157
60 85 76
58 80 74
60 85 76
55 75 63
51 67 60
51 67 60
53 73 61
51 67 60
105 163 114
50 67 58
50 67 59
50 67 59
50 67 59
54 74 62
51 71 59
49 66 57
49 66 58
49 66 58
49 66 58
98 157 107
114 178 151
114 178 151
114 178 151
114 178 151
52 72 60
52 72 60
52 72 60
50 67 59
53 73 61
53 73 61
51 68 60
53 73 61
54 74 63
54 74 63
54 74 63
54 74 63
55 75 64
55 75 64
55 75 64
55 75 64
60 82 77
116 178 154
116 179 154
116 179 154
54 71 64
54 71 64
56 76 65
57 76 66
57 77 67
58 77 67
58 78 67
57 74 67
101 147 114
117 179 154
117 179 154
117 179 154
117 179 154
123 196 159
117 179 154
123 196 159
124 196 159
124 196 159
55 72 65
55 72 65
55 72 65
55 72 65
57 77 67
59 79 68
108 164 118
55 71 64
55 71 64
55 71 64
55 72 64
55 72 65
101 147 113
107 164 117
100 146 113
116 178 154
123 196 158
116 178 154
116 179 154
116 179 154
116 179 154
123 196 158
123 196 158
123 196 158
117 179 154
123 196 158
123 196 158
123 196 158
123 196 159
123 196 159
117 179 154
123 196 159
117 179 154
117 179 154
117 179 155
117 179 155
124 196 159
124 196 159
117 179 155
117 179 155
117 179 155
117 179 155
117 179 155
124 196 159
124 196 159
124 196 159
94 144 164
94 144 164
94 144 164
94 144 164
94 144 164
94 144 164
94 144 164
94 144 164
94 144 164
94 144 164
94 144 164
94 144 164
94 144 164
94 144 164
94 144 164
94 144 164
123 196 158
123 196 158
123 196 158
116 179 154
116 179 154
101 158 111
56 76 65
56 76 65
56 76 65
55 71 64
55 71 64
55 72 65
55 72 65
94 144 164
94 144 164
94 144 164
94 144 164
94 144 164
94 144 164
94 144 164
94 144 164
94 144 164
94 144 164
94 144 164
94 144 164
94 144 164
94 144 164
94 144 164
94 144 164
94 144 164
94 144 164
94 144 164
94 144 164
94 144 164
94 144 164
120 180 158
67 89 85
67 89 85
63 82 73
67 88 85
67 88 85
120 180 157
67 88 85
62 82 73
121 196 157
115 178 152
115 178 152
115 178 152
115 178 152
115 178 152
114 178 152
114 178 152
114 178 152
114 178 152
121 196 156
121 196 156
121 196 156
121 196 156
121 196 156
114 178 152
121 196 156
114 178 151
114 178 151
114 178 151
121 196 156
121 196 156
114 178 151
121 196 156
114 178 151
114 178 151
114 178 151
121 196 156
115 178 153
52 69 61
52 69 61
55 75 63
55 75 64
53 70 63
54 70 63
54 71 63
54 71 63
54 71 63
54 70 63
54 70 63
63 88 79
63 88 79
63 87 79
63 87 79
63 87 79
62 87 79
60 82 77
60 82 77
62 87 79
54 71 63
54 71 64
54 71 64
54 71 64
56 76 65
56 76 65
54 71 64
57 77 66
55 71 64
55 71 64
55 71 64
55 71 64
55 72 65
55 72 65
55 72 65
55 72 65
57 77 66
57 77 66
55 72 65
57 77 66
55 71 64
55 71 64
55 71 64
54 71 64
54 71 64
56 76 65
55 75 64
53 70 63
55 75 64
55 75 64
116 178 153
116 178 153
116 178 153
116 178 153
52 36 41
61 37 43
52 36 41
52 35 41
52 35 41
52 35 41
52 35 41
52 35 41
52 35 41
61 36 43
61 36 43
52 35 41
61 36 43
60 36 43
52 35 41
52 35 40
52 35 40
60 36 43
52 35 40
52 35 40
52 35 40
60 36 43
60 36 43
60 36 43
60 36 42
60 36 42
52 35 40
60 36 42
60 36 43
53 36 41
53 37 42
62 39 46
51 67 59
51 68 60
51 68 60
51 68 60
51 68 60
52 68 61
52 69 61
54 74 62
52 69 61
52 69 61
61 86 77
61 86 77
122 196 157
122 196 157
116 178 153
116 178 153
122 196 157
122 196 157
122 196 158
116 178 153
116 178 153
122 196 158
122 196 158
122 196 158
60 81 76
62 87 78
62 87 78
53 69 62
53 69 62
53 69 62
53 69 62
53 73 61
53 73 61
53 73 61
53 73 61
53 73 61
121 196 156
115 178 152
121 196 156
121 196 156
115 178 152
60 84 75
51 67 60
51 67 60
51 68 60
105 163 114
50 67 59
50 67 59
50 67 59
50 67 59
105 163 114
49 66 58
49 66 58
49 66 58
49 66 58
49 66 58
51 71 59
51 71 59
49 66 58
51 71 59
51 71 59
52 72 60
52 72 60
52 72 60
52 72 60
53 73 61
53 73 61
53 73 62
53 73 62
54 74 63
52 69 61
54 74 63
54 74 63
59 81 76
59 81 76
60 81 76
60 81 76
53 70 63
55 75 64
56 75 64
56 75 64
56 76 65
57 76 65
57 77 66
57 77 66
58 77 67
58 78 67
58 78 67
57 74 67
57 77 66
55 72 65
57 77 66
55 72 65
57 77 66
101 147 114
117 179 154
117 179 154
123 196 158
117 179 154
123 196 159
63 88 80
62 83 79
64 88 80
64 89 80
59 79 68
107 164 118
55 71 64
55 71 64
55 72 65
55 72 65
55 72 65
107 164 118
101 147 113
100 146 113
55 75 64
55 75 64
53 70 63
55 75 64
55 75 64
101 158 111
123 196 158
123 196 158
123 196 158
123 196 158
123 196 158
116 179 154
123 196 158
116 179 154
116 179 154
123 196 158
123 196 158
123 196 158
123 196 158
123 196 158
117 179 154
117 179 154
117 179 154
117 179 154
117 179 154
124 196 159
124 196 159
124 196 159
124 196 159
117 179 155
124 196 159
94 144 164
94 144 164
94 144 164
94 144 164
94 144 164
94 144 164
94 144 164
94 144 164
94 144 164
94 144 164
94 144 164
94 144 164
94 144 164
94 144 164
123 196 158
123 196 158
123 196 158
116 179 154
116 178 154
116 178 153
123 196 158
123 196 158
116 178 153
116 178 153
55 75 64
55 71 64
55 71 64
55 72 65
55 72 65
124 196 159
124 196 159
124 196 159
56 72 66
94 144 164
94 144 164
94 144 164
94 144 164
94 144 164
94 144 164
94 144 164
94 144 164
94 144 164
94 144 164
94 144 164
94 144 164
94 144 164
94 144 164
94 144 164
94 144 164
120 180 157
120 180 157
120 180 157
120 180 157
115 178 152
115 178 152
115 178 152
60 77 72
62 82 73
114 178 152
114 178 152
114 178 152
114 178 152
114 178 152
121 196 156
121 196 156
114 178 152
121 196 156
121 196 156
121 196 156
114 178 151
114 178 151
114 178 151
114 178 151
121 196 156
121 196 156
121 196 156
114 178 151
121 196 156
114 178 151
114 178 151
121 196 156
121 196 156
121 196 156
114 178 151
114 178 151
114 178 151
114 178 151
114 178 151
50 70 58
51 71 58
122 196 157
122 196 157
51 68 60
55 75 64
54 70 63
62 87 79
62 87 79
62 87 79
62 87 78
62 87 78
60 82 77
123 196 158
116 179 154
55 75 64
101 158 111
116 179 153
116 179 153
116 179 153
55 75 64
54 71 63
54 71 64
54 71 64
54 71 64
54 71 64
56 76 65
54 71 64
55 72 65
57 77 66
55 71 64
55 71 64
55 71 64
55 72 65
64 89 80
64 89 80
64 89 80
57 77 66
57 77 66
57 77 66
57 77 66
55 71 64
57 77 66
55 71 64
57 76 65
56 76 65
56 76 65
53 70 63
55 75 64
55 75 64
52 69 61
52 69 61
54 74 62
54 74 62
115 178 153
61 37 43
52 36 41
52 36 41
61 37 43
52 35 41
52 35 41
61 37 43
52 35 41
61 37 43
52 35 41
61 36 43
61 36 43
61 36 43
61 36 43
52 35 41
52 35 41
52 35 40
52 35 40
52 35 40
52 35 40
60 36 43
60 36 43
52 35 40
60 36 43
60 36 43
60 36 43
60 36 42
60 36 42
60 36 43
53 36 41
53 37 42
63 39 46
51 67 59
51 68 60
51 68 60
51 68 60
51 68 60
61 85 76
61 85 76
61 85 76
59 80 75
61 85 77
52 69 61
61 86 77
122 196 157
122 196 157
115 178 153
115 178 153
115 178 153
122 196 157
122 196 157
122 196 157
122 196 157
122 196 157
122 196 157
115 178 153
115 178 153
115 178 153
116 178 153
61 86 77
61 86 77
61 86 77
61 86 77
53 73 61
53 73 61
51 68 60
53 73 61
53 73 61
99 157 108
114 178 152
121 196 156
121 196 156
121 196 156
114 178 152
121 196 156
57 79 73
57 79 73
50 67 59
50 67 59
52 72 60
50 67 59
50 67 59
104 163 114
49 66 58
49 66 58
49 66 58
49 66 58
49 66 58
51 71 59
51 71 59
51 71 59
51 71 59
52 72 60
52 72 60
52 72 60
52 72 60
52 72 60
51 68 60
53 73 62
53 73 62
53 73 62
59 80 75
59 80 75
59 80 75
59 80 75
52 69 62
55 74 63
55 74 63
55 75 63
55 75 64
56 75 64
56 76 64
56 76 64
55 71 64
55 71 64
57 77 66
58 78 67
58 78 67
58 78 67
58 78 67
57 74 67
57 77 66
57 77 66
55 72 65
57 77 66
57 77 66
101 147 114
56 76 65
56 76 65
56 76 65
56 76 65
56 76 65
116 179 154
117 179 154
123 196 158
117 179 154
123 196 158
57 77 66
57 77 66
55 72 65
57 77 66
55 72 65
59 79 68
107 164 118
101 146 113
100 146 113
55 75 64
55 75 64
55 75 64
55 75 64
56 75 64
55 72 65
100 146 112
122 196 158
116 178 153
122 196 158
116 178 153
116 178 153
116 178 153
116 178 153
123 196 158
123 196 158
123 196 158
116 179 154
116 179 154
116 179 154
123 196 158
123 196 158
123 196 158
123 196 158
117 179 154
117 179 154
117 179 154
117 179 154
123 196 159
123 196 159
123 196 159
94 144 164
94 144 164
94 144 164
94 144 164
94 144 164
94 144 164
94 144 164
94 144 164
94 144 164
94 144 164
94 144 164
116 178 154
116 178 153
116 178 153
123 196 158
116 178 153
122 196 158
122 196 158
122 196 158
122 196 158
122 196 157
55 75 63
55 75 63
55 75 64
55 75 64
101 158 111
55 71 64
55 72 65
55 72 65
123 196 159
123 196 159
56 72 65
56 72 66
94 144 164
94 144 164
94 144 164
118 179 156
118 179 156
94 144 164
94 144 164
94 144 164
94 144 164
94 144 164
94 144 164
94 144 164
94 144 164
115 178 152
126 196 161
126 196 161
126 196 161
126 196 161
114 178 152
114 178 152
121 196 156
114 178 152
114 178 152
121 196 156
121 196 156
121 196 156
121 196 156
121 196 156
114 178 151
121 196 156
114 178 151
121 196 156
114 178 151
121 196 156
121 196 156
121 196 156
121 196 156
114 178 151
121 196 156
121 196 156
121 196 156
121 196 156
120 196 156
114 178 151
120 196 155
114 178 151
114 178 151
113 178 151
120 196 155
120 196 155
120 196 155
120 196 155
120 196 155
113 178 151
120 196 155
113 178 151
113 178 151
113 178 151
97 156 106
121 196 157
121 196 156
121 196 156
116 179 153
123 196 158
123 196 158
123 196 158
116 179 153
116 179 153
116 179 153
55 75 63
55 75 64
55 75 64
55 75 64
55 75 64
55 75 64
55 75 64
54 71 63
54 71 64
55 71 64
54 71 64
54 71 64
54 71 64
55 71 64
63 88 80
63 88 80
63 88 80
63 88 80
61 83 78
63 88 80
63 88 80
63 88 80
117 179 154
61 83 78
61 83 78
61 83 78
63 88 79
63 88 79
63 88 79
63 88 79
63 88 79
61 82 78
61 82 78
61 82 78
55 75 64
55 75 64
54 74 63
52 69 61
54 74 63
115 178 152
115 178 152
61 37 43
61 37 43
52 36 41
52 36 41
52 36 41
61 37 43
52 35 41
61 37 43
52 35 41
61 37 43
61 36 43
61 36 43
61 36 43
61 36 43
61 36 43
52 35 41
52 35 41
52 35 40
52 35 40
52 35 40
52 35 40
60 36 43
60 36 43
60 36 43
60 36 43
60 36 43
52 35 40
60 36 42
60 36 43
61 37 44
54 37 43
63 39 46
51 67 60
60 85 76
60 85 76
60 85 76
60 85 76
51 68 60
60 85 76
122 196 157
122 196 157
52 68 60
52 69 61
52 69 61
52 69 61
52 69 61
54 74 62
54 74 62
54 74 62
54 74 62
52 69 61
54 74 62
52 69 61
52 69 61
54 74 62
54 74 62
54 74 62
54 74 62
100 157 110
122 196 157
122 196 157
115 178 153
122 196 157
51 68 60
53 73 61
53 73 61
53 73 61
53 73 61
50 67 59
50 67 59
52 72 60
52 72 60
52 72 60
121 196 156
114 178 151
114 178 151
114 178 151
121 196 156
59 84 74
59 84 74
59 84 74
59 84 74
49 66 58
49 66 58
49 66 58
49 66 58
49 66 58
51 71 59
49 66 58
51 71 59
51 71 59
52 71 59
52 72 60
52 72 60
52 72 60
52 72 60
58 79 74
58 79 74
58 79 74
58 79 74
58 79 74
52 68 60
54 74 62
52 68 60
54 74 62
55 74 63
55 75 63
55 75 63
55 75 63
56 76 64
56 76 64
56 76 64
56 76 64
55 71 64
57 77 66
57 77 66
62 83 79
62 84 79
64 89 81
62 84 79
101 147 114
57 77 66
57 77 66
55 72 65
57 77 66
57 77 66
101 147 114
54 71 64
56 76 65
56 76 65
56 76 65
56 76 65
101 147 113
116 178 154
116 178 154
116 179 154
116 179 154
116 179 154
123 196 158
123 196 158
63 88 79
63 88 79
63 88 80
107 164 118
100 146 113
100 146 112
55 75 64
55 75 64
55 75 64
56 75 64
56 76 64
55 72 65
100 146 112
55 75 63
55 75 63
55 75 63
55 75 64
55 75 64
55 75 64
55 75 64
53 70 62
53 70 63
101 158 111
101 158 111
116 178 153
116 178 153
116 178 154
116 178 154
116 178 154
116 178 154
123 196 158
123 196 158
116 179 154
123 196 158
117 179 154
117 179 154
123 196 158
94 144 164
94 144 164
94 144 164
94 144 164
94 144 164
94 144 164
94 144 164
94 144 164
123 196 158
122 196 158
122 196 158
122 196 158
122 196 158
116 178 153
122 196 157
122 196 157
122 196 157
122 196 157
93 140 106
52 69 62
53 69 62
53 69 62
55 75 63
55 75 64
55 75 64
55 75 64
55 71 64
61 83 78
63 88 80
123 196 158
123 196 158
95 141 107
54 71 64
55 71 64
118 179 156
118 179 155
118 179 155
118 179 155
103 159 114
59 79 69
59 79 69
94 144 164
94 144 164
94 144 164
114 178 152
114 178 152
121 196 156
114 178 152
114 178 152
121 196 156
121 196 156
121 196 156
121 196 156
121 196 156
114 178 151
114 178 151
114 178 151
114 178 151
114 178 151
121 196 156
121 196 156
114 178 151
114 178 151
114 178 151
121 196 156
121 196 156
120 196 156
120 196 155
120 196 155
114 178 151
114 178 151
113 178 151
113 178 151
113 178 151
120 196 155
113 178 151
120 196 155
120 196 155
120 196 155
120 196 155
113 178 151
120 196 155
113 178 150
113 178 150
113 178 150
113 178 150
113 178 150
113 178 150
113 178 150
113 178 150
49 69 56
49 69 57
121 196 156
50 66 58
50 67 59
116 179 153
116 179 153
122 196 158
122 196 157
122 196 157
52 69 61
53 69 62
55 75 64
55 75 64
55 75 64
55 75 64
53 70 62
53 70 62
55 75 64
54 71 63
54 71 64
63 88 80
63 88 79
63 88 79
63 88 79
61 83 78
63 88 79
63 88 79
63 88 79
117 179 154
117 179 154
117 179 154
116 179 154
56 76 65
56 76 65
56 76 65
56 76 65
56 76 65
54 71 64
54 71 63
54 71 63
56 76 65
54 70 63
56 76 64
56 76 64
116 179 154
55 75 64
55 75 64
54 74 63
54 74 63
119 196 154
119 196 154
119 196 154
61 37 43
61 37 43
61 37 43
61 37 43
61 37 43
61 37 43
61 37 43
52 35 41
61 37 43
52 35 41
52 35 41
52 35 41
52 35 41
52 35 41
61 36 43
61 36 43
61 36 43
52 35 41
52 35 41
52 35 40
52 35 40
52 35 40
60 36 43
60 36 43
60 36 43
60 36 43
52 35 40
52 35 40
60 36 43
61 37 44
54 37 43
63 39 46
51 67 59
59 84 75
121 196 156
121 196 156
121 196 156
53 73 62
51 68 60
51 68 60
51 68 60
52 68 61
52 69 61
52 69 61
52 69 61
52 69 61
54 74 62
52 69 61
54 74 62
54 74 62
52 69 61
52 69 61
54 74 62
52 69 61
54 74 62
54 74 62
52 69 61
52 69 61
54 74 62
115 178 152
115 178 152
115 178 152
115 178 152
53 73 61
53 73 61
53 73 61
53 73 61
53 73 61
52 72 60
52 72 60
52 72 60
52 72 60
98 145 109
51 71 59
51 71 59
51 71 59
51 71 59
98 145 109
114 178 151
121 196 156
114 178 151
121 196 156
49 66 58
49 66 58
49 66 58
49 66 58
49 66 58
51 71 59
49 66 58
52 71 59
50 66 58
52 72 59
59 84 74
57 78 73
57 78 73
57 79 73
59 84 75
59 84 75
59 84 75
121 196 156
121 196 156
54 74 62
52 68 61
54 74 62
52 68 61
53 69 62
55 75 63
55 75 63
55 75 63
56 76 64
56 76 64
54 70 63
61 83 78
61 83 78
61 83 78
61 83 78
61 83 78
61 83 79
117 179 154
117 179 154
101 147 114
57 77 66
57 77 66
57 77 66
57 77 66
57 74 67
101 147 113
56 76 65
56 76 65
56 76 65
55 71 64
57 76 65
107 164 117
56 76 64
56 76 65
54 71 63
56 76 65
56 76 65
107 164 117
116 178 154
116 178 154
116 178 154
116 179 154
116 179 154
100 146 113
53 70 63
55 75 64
55 75 64
56 75 64
56 76 64
56 76 64
55 72 64
100 146 112
55 75 63
55 75 63
55 75 64
55 75 64
55 75 64
53 70 62
55 75 64
53 70 63
53 70 63
53 70 63
53 70 63
100 146 112
122 196 158
122 196 158
122 196 158
116 178 153
123 196 158
123 196 158
54 71 63
54 71 63
54 71 64
54 71 64
56 76 65
56 76 65
94 144 164
94 144 164
94 144 164
94 144 164
94 144 164
122 196 158
122 196 158
116 178 153
122 196 157
122 196 157
122 196 157
115 178 153
115 178 153
115 178 153
115 178 153
115 178 153
54 74 62
54 74 63
52 69 61
52 69 62
53 69 62
53 69 62
55 75 63
55 75 64
55 75 64
55 75 64
61 82 78
116 179 154
123 196 158
116 179 154
123 196 158
123 196 158
123 196 158
123 196 158
124 196 159
124 196 159
56 73 67
59 79 68
59 79 68
59 79 69
59 79 69
121 196 156
121 196 156
121 196 156
114 178 151
121 196 156
121 196 156
121 196 156
114 178 151
114 178 151
121 196 156
114 178 151
114 178 151
114 178 151
114 178 151
114 178 151
114 178 151
121 196 156
120 196 155
120 196 155
120 196 155
120 196 155
114 178 151
113 178 151
113 178 151
113 178 151
113 178 151
120 196 155
113 178 151
120 196 155
120 196 155
120 196 155
113 178 150
113 178 150
120 196 155
120 196 155
120 196 155
120 196 155
113 178 150
113 178 150
120 196 155
113 178 150
113 178 150
120 196 155
120 196 155
120 196 155
120 196 155
120 196 155
120 196 155
113 178 150
113 178 150
120 196 155
113 178 150
48 68 55
114 178 151
121 196 156
49 65 57
115 178 153
115 178 153
54 74 62
52 69 61
53 69 62
55 75 64
55 75 64
55 75 64
55 75 64
55 75 64
55 75 64
55 75 64
61 82 78
61 82 78
63 87 79
63 87 79
62 87 79
60 82 77
60 82 77
116 179 154
116 179 154
56 76 65
56 76 65
56 76 65
56 76 65
56 76 64
56 76 65
56 76 65
56 76 65
56 76 65
56 76 65
54 71 64
54 71 64
54 71 63
54 71 63
56 76 65
56 76 64
119 196 154
119 196 154
119 196 154
119 196 154
119 196 154
112 177 149
112 177 149
112 177 149
112 177 149
61 37 44
61 37 43
61 37 43
52 36 41
61 37 43
52 36 41
52 36 41
52 35 41
61 37 43
52 35 41
52 35 41
61 37 43
52 35 41
61 36 43
61 36 43
52 35 41
61 36 43
52 35 41
60 36 43
60 36 43
60 36 43
52 35 40
52 35 40
52 35 40
52 35 40
60 36 43
60 36 43
52 35 40
52 35 41
61 37 44
54 37 43
114 178 152
51 67 59
53 73 61
51 67 59
51 67 59
51 67 59
51 68 60
53 73 62
51 68 60
51 68 60
52 69 61
52 69 61
52 69 61
52 69 61
52 69 61
52 69 61
54 74 62
54 74 62
54 74 62
52 69 61
52 69 61
52 69 61
52 69 61
54 74 62
54 74 62
54 74 62
54 74 62
52 69 61
53 73 61
53 73 61
53 73 61
53 73 61
115 178 152
58 79 74
58 79 74
58 79 74
58 79 74
52 72 60
52 72 60
52 72 60
52 72 60
98 145 109
51 71 59
49 66 58
51 71 59
51 71 59
97 144 109
114 178 151
114 178 151
114 178 151
114 178 151
114 178 151
114 178 151
56 77 72
56 77 72
58 83 73
56 78 72
56 78 72
56 78 72
56 78 72
56 78 72
58 83 74
58 83 74
114 178 151
114 178 151
114 178 151
121 196 156
121 196 156
121 196 156
121 196 156
121 196 156
54 74 62
54 74 62
54 74 62
55 75 63
55 75 63
55 75 63
53 69 62
60 82 77
60 82 77
56 76 65
60 82 77
60 82 77
116 179 154
116 179 154
116 179 154
63 88 79
63 88 79
123 196 158
123 196 158
117 179 154
117 179 154
61 83 78
61 83 78
63 88 80
101 147 113
56 76 65
56 76 65
56 76 65
57 76 66
56 73 66
101 147 113
56 76 65
56 76 65
56 76 65
56 76 65
54 71 63
100 146 113
100 146 112
122 196 158
116 178 153
116 178 153
116 178 153
116 178 153
55 75 64
55 75 64
56 75 64
56 76 64
54 70 63
55 72 65
100 146 112
100 158 110
55 75 63
53 70 62
55 75 64
55 75 64
55 75 64
55 75 64
53 70 63
53 70 63
53 70 63
53 70 63
55 72 65
107 164 117
106 164 116
53 69 62
53 69 62
53 69 62
53 70 62
53 70 62
53 70 62
54 71 64
54 71 64
54 71 64
56 76 65
54 71 64
94 144 164
94 144 164
94 144 164
116 178 153
116 178 153
115 178 153
115 178 153
115 178 153
54 74 63
54 74 63
54 74 62
54 74 62
54 74 62
54 74 62
54 74 62
54 74 62
54 74 62
54 74 63
52 69 61
52 69 62
53 69 62
53 69 62
55 75 63
55 75 64
55 75 64
55 75 64
116 179 154
123 196 158
123 196 158
116 179 153
123 196 158
94 140 106
53 70 63
53 70 63
117 179 155
124 196 159
56 73 67
57 73 67
59 79 68
121 196 156
121 196 156
121 196 156
121 196 156
121 196 156
114 178 151
114 178 151
114 178 151
114 178 151
114 178 151
114 178 151
114 178 151
120 196 155
114 178 151
114 178 151
114 178 151
113 178 151
113 178 151
113 178 151
113 178 151
113 178 151
120 196 155
120 196 155
120 196 155
113 178 151
113 178 150
120 196 155
120 196 155
120 196 155
120 196 155
120 196 155
113 178 150
113 178 150
113 178 150
113 178 150
113 178 150
113 178 150
120 196 155
120 196 155
120 196 155
113 178 150
120 196 155
113 178 150
113 178 150
113 178 150
113 178 150
113 178 150
120 196 155
113 178 150
113 178 150
113 178 150
113 178 150
96 155 104
48 68 55
48 68 55
121 196 156
49 65 57
49 66 57
115 178 153
115 178 152
115 178 152
52 69 61
53 69 62
55 75 64
55 75 64
60 82 77
55 75 64
55 75 64
55 75 64
60 82 77
60 82 77
116 179 154
116 179 154
55 75 64
56 76 64
55 75 64
55 75 64
55 75 64
55 75 64
56 76 65
54 71 64
56 76 65
54 71 63
56 76 64
56 76 65
57 76 65
56 76 65
56 76 65
54 71 64
119 196 154
112 177 149
112 177 149
119 196 154
119 196 154
112 177 149
112 177 149
112 177 149
119 196 153
119 196 153
119 196 153
111 177 149
111 177 149
111 177 149
111 177 149
61 37 44
61 37 44
61 37 43
61 37 43
61 37 43
61 37 43
61 37 43
52 36 41
52 36 41
61 37 43
52 35 41
52 35 41
52 35 41
52 35 41
61 36 43
52 35 41
61 36 43
61 36 43
61 36 43
52 35 41
52 35 41
52 35 41
52 35 40
52 35 40
60 36 43
52 35 40
52 35 40
52 35 40
52 35 41
61 37 44
54 37 43
52 72 60
51 67 59
51 67 59
53 73 61
53 73 61
51 67 59
51 68 60
51 68 60
51 68 60
51 68 60
52 69 61
52 69 61
52 69 61
52 69 61
54 74 63
54 74 63
54 74 63
54 74 63
54 74 63
52 69 61
52 69 61
52 69 61
54 74 62
54 74 62
54 74 62
52 69 61
54 74 62
99 157 109
53 73 61
53 73 61
51 68 60
53 73 61
92 139 104
114 178 152
114 178 152
114 178 152
114 178 152
52 72 60
52 72 60
52 72 60
52 72 60
51 71 59
49 66 58
51 71 59
51 71 59
49 66 58
97 144 108
51 71 58
51 71 58
51 71 58
51 71 58
51 71 58
120 196 155
113 178 151
113 178 151
114 178 151
114 178 151
114 178 151
114 178 151
114 178 151
114 178 151
121 196 156
121 196 156
58 83 73
121 196 156
121 196 156
50 66 58
50 66 58
52 72 60
50 66 58
50 66 58
54 74 62
52 68 61
52 68 61
61 86 77
55 75 63
55 75 63
59 81 76
60 81 76
62 86 78
60 81 77
60 81 77
62 87 78
62 87 78
123 196 158
123 196 158
116 178 153
116 178 154
123 196 158
116 178 154
116 179 154
116 179 154
123 196 158
123 196 158
123 196 158
116 179 154
61 83 78
57 76 65
57 77 66
57 77 66
56 73 66
101 147 113
56 76 65
56 76 65
56 76 65
56 76 65
56 76 65
100 146 113
100 146 112
55 75 64
55 75 64
55 75 64
55 75 64
55 75 64
100 146 112
116 178 153
62 87 78
60 81 77
60 82 77
60 82 77
100 146 112
55 75 64
55 75 64
55 75 64
53 70 62
55 75 64
55 75 64
53 70 63
53 70 63
53 70 63
53 70 63
54 70 63
57 77 66
107 164 117
100 146 112
53 69 62
55 75 63
53 70 62
53 70 62
53 70 62
54 71 64
54 71 64
54 71 64
56 76 65
56 76 65
56 76 65
122 196 157
115 178 153
115 178 153
115 178 153
115 178 153
54 74 62
54 74 62
54 74 62
54 74 63
54 74 63
54 74 62
54 74 62
54 74 62
54 74 62
54 74 62
54 74 62
54 74 62
54 74 63
52 69 61
52 69 62
53 69 62
53 69 62
53 70 62
55 75 64
60 81 77
60 81 76
116 178 153
116 178 153
116 178 153
116 178 153
122 196 157
122 196 157
122 196 157
122 196 157
52 69 61
124 196 159
55 72 65
114 178 151
114 178 151
114 178 151
114 178 151
114 178 151
120 196 156
114 178 151
120 196 155
120 196 155
120 196 155
120 196 155
113 178 151
113 178 151
113 178 151
113 178 151
120 196 155
113 178 151
113 178 151
113 178 151
113 178 150
113 178 150
120 196 155
120 196 155
120 196 155
120 196 155
120 196 155
120 196 155
113 178 150
113 178 150
113 178 150
113 178 150
120 196 155
120 196 155
120 196 155
113 178 150
120 196 155
120 196 155
113 178 150
113 178 150
120 196 155
120 196 155
120 196 154
113 178 150
113 178 150
113 178 150
112 178 150
112 178 150
112 178 150
119 196 154
119 196 154
119 196 154
119 196 154
119 196 154
45 62 53
48 68 55
48 68 55
48 68 55
120 196 155
120 196 155
120 196 155
114 178 151
48 64 56
115 178 152
52 72 60
53 73 61
60 81 77
60 81 77
60 81 77
60 81 77
60 81 76
62 87 78
62 86 78
123 196 158
123 196 158
53 69 62
55 75 64
56 76 64
56 75 64
55 75 64
55 75 64
55 75 64
56 76 65
56 76 65
56 76 65
56 76 65
54 70 63
56 76 65
57 77 66
55 71 64
56 76 65
119 196 153
119 196 153
111 177 149
111 177 149
118 196 153
118 196 153
111 177 149
118 196 153
111 177 149
118 196 153
111 177 148
118 196 153
118 196 153
118 196 153
111 177 148
111 177 148
61 37 44
61 37 44
61 37 44
61 37 43
61 37 43
61 37 43
52 36 41
61 37 43
61 37 43
52 36 41
52 35 41
52 35 41
52 35 41
52 35 41
61 37 43
61 36 43
61 36 43
61 36 43
61 36 43
61 36 43
61 36 43
52 35 41
60 36 43
52 35 41
52 35 40
52 35 40
52 35 40
60 36 43
52 35 41
61 37 44
50 66 58
52 72 60
51 67 59
51 67 59
51 67 59
51 67 59
51 67 60
52 68 60
54 73 62
51 68 60
51 68 60
60 85 76
60 85 76
60 85 76
60 85 76
58 80 75
58 80 75
58 80 75
58 80 75
58 80 75
61 85 76
61 85 76
61 85 77
61 86 77
59 80 75
59 80 75
59 80 75
54 74 62
53 73 61
51 68 60
53 73 61
53 73 61
53 73 61
52 72 60
50 67 59
52 72 60
50 67 59
98 145 110
114 178 152
57 78 73
57 78 73
57 78 73
51 71 59
49 66 58
51 71 59
51 71 59
52 71 59
51 71 58
51 71 58
51 71 58
49 65 57
51 71 58
97 144 108
113 177 150
120 196 155
120 196 155
113 178 151
113 178 151
120 196 155
120 196 155
120 196 155
120 196 155
120 196 155
51 71 58
49 65 57
49 65 57
49 65 57
50 66 58
50 66 58
50 66 58
52 72 60
54 74 62
54 74 62
54 74 62
59 80 75
59 80 75
59 80 75
59 80 75
59 80 76
61 86 77
61 86 77
122 196 157
61 86 77
53 70 62
53 70 62
55 75 64
53 70 62
53 70 63
55 75 64
53 70 63
55 75 64
101 158 111
116 178 153
116 178 153
123 196 158
116 178 154
116 178 154
116 178 154
116 178 154
61 82 78
61 82 78
61 82 78
100 146 113
54 71 63
56 76 65
54 71 64
56 76 65
56 76 65
100 146 113
53 70 63
55 75 64
55 75 64
55 75 64
55 75 64
55 72 65
100 146 112
100 158 110
55 75 63
55 75 63
100 158 110
116 178 153
116 178 153
55 75 64
55 75 64
55 75 64
55 75 64
55 75 64
53 70 63
55 75 64
53 70 63
53 70 63
54 70 63
54 70 63
57 77 66
107 164 117
53 69 62
53 69 62
53 70 62
53 70 62
53 70 62
53 70 62
54 71 64
54 71 64
56 76 65
56 76 65
56 76 65
56 76 65
122 196 157
122 196 157
93 139 105
52 68 60
52 68 61
54 74 62
54 74 62
54 74 62
54 74 63
54 74 63
54 74 63
54 74 62
54 74 62
54 74 62
54 74 62
54 74 62
54 74 62
54 74 63
54 74 63
52 69 62
53 69 62
53 69 62
61 86 77
61 86 77
122 196 157
122 196 157
122 196 157
116 178 153
115 178 153
122 196 157
122 196 157
122 196 157
52 69 61
52 69 61
52 69 61
117 179 154
51 71 58
48 65 56
50 70 58
98 156 106
120 196 155
120 196 155
120 196 155
120 196 155
120 196 155
120 196 155
113 178 151
113 178 151
120 196 155
120 196 155
113 178 150
120 196 155
120 196 155
120 196 155
120 196 155
120 196 155
120 196 155
113 178 150
113 178 150
113 178 150
113 178 150
113 178 150
120 196 155
120 196 155
113 178 150
113 178 150
113 178 150
120 196 155
120 196 155
120 196 154
120 196 154
120 196 154
119 196 154
112 178 150
112 178 150
112 178 150
112 178 150
112 178 150
119 196 154
119 196 154
119 196 154
119 196 154
119 196 154
119 196 154
112 177 149
112 177 149
112 177 149
119 196 154
112 177 149
119 196 154
45 62 53
48 68 55
48 68 55
48 68 55
113 178 151
113 178 151
120 196 155
120 196 155
113 178 151
50 67 59
52 72 60
53 73 61
61 86 77
123 196 158
122 196 158
52 69 61
52 69 62
52 69 61
52 69 61
54 74 62
52 69 61
53 69 62
55 75 64
56 76 64
56 76 64
54 70 63
55 75 64
55 75 64
56 76 65
56 76 65
56 76 65
56 76 65
56 76 65
61 83 78
61 82 78
61 82 78
111 177 148
111 177 148
118 196 153
118 196 153
118 196 153
118 196 153
118 196 153
118 196 153
118 196 153
118 196 153
118 196 153
118 196 153
111 177 148
111 177 148
111 177 148
118 196 153
111 177 148
61 37 44
61 37 44
61 37 44
53 36 41
61 37 43
61 37 43
61 37 43
61 37 43
52 36 41
52 36 41
61 37 43
52 35 41
61 37 43
52 35 41
61 37 43
61 37 43
61 37 43
61 36 43
52 35 41
61 36 43
52 35 41
52 35 41
52 35 41
52 35 41
60 36 43
52 35 40
52 35 40
52 35 40
52 35 41
61 38 44
50 67 58
52 72 60
51 67 60
51 67 60
51 67 59
51 67 59
60 85 75
60 85 75
60 85 75
60 85 75
60 85 76
58 79 74
58 79 74
58 79 74
58 79 74
53 73 62
53 73 62
51 68 60
53 73 62
51 68 60
51 68 60
122 196 157
122 196 157
122 196 157
115 178 152
115 178 152
115 178 152
58 80 75
51 68 60
51 68 60
53 73 61
53 73 61
53 73 61
52 72 60
50 67 59
50 67 59
52 72 60
98 157 108
52 71 59
52 71 59
49 66 58
98 157 108
52 71 59
52 71 59
52 72 59
52 72 59
52 72 59
51 71 58
51 71 58
51 71 58
51 71 58
51 71 58
97 144 108
48 64 56
50 70 57
50 70 57
48 64 56
48 64 56
48 64 56
48 64 56
50 70 57
50 70 57
48 64 56
49 65 57
51 71 59
49 65 57
51 71 59
50 66 58
52 72 60
50 67 58
50 67 58
58 79 74
58 80 74
58 80 74
60 85 76
60 85 76
60 85 76
60 85 76
60 85 76
52 69 61
52 69 61
52 69 61
52 69 61
52 69 61
53 70 62
55 75 64
53 70 63
53 70 63
55 75 64
55 75 64
55 75 64
53 70 63
53 70 63
56 75 64
54 70 63
54 70 63
54 70 63
56 76 64
54 70 63
56 76 65
56 76 65
54 71 63
100 146 113
60 82 77
60 82 77
62 87 79
61 82 78
56 73 65
100 146 113
55 75 64
53 70 63
55 75 64
55 75 64
56 75 64
57 77 66
100 146 112
55 75 63
55 75 63
55 75 63
55 75 63
53 70 62
55 75 64
100 146 112
116 178 153
116 178 153
59 81 76
59 81 76
60 81 76
62 86 78
60 81 77
62 87 78
62 87 78
62 87 78
55 72 64
106 164 116
53 69 62
55 75 63
53 70 62
53 70 62
53 70 62
53 70 62
56 76 65
54 71 64
56 76 65
56 76 65
56 76 65
56 76 65
51 68 60
51 68 60
51 68 60
52 68 60
52 68 61
54 74 62
54 74 62
54 74 62
54 74 63
54 74 63
54 74 63
54 74 63
54 74 62
54 74 62
54 74 62
54 74 62
54 74 62
54 74 63
54 74 63
61 86 77
61 86 77
61 86 77
122 196 157
122 196 157
115 178 153
122 196 157
115 178 153
115 178 153
115 178 153
122 196 157
122 196 157
122 196 157
122 196 157
122 196 157
115 178 152
115 178 152
51 71 58
51 70 58
113 178 151
113 178 151
120 196 155
113 178 150
120 196 155
120 196 155
120 196 155
120 196 155
120 196 155
120 196 155
120 196 155
113 178 150
113 178 150
120 196 155
113 178 150
120 196 155
120 196 155
113 178 150
113 178 150
113 178 150
113 178 150
120 196 155
120 196 155
113 178 150
120 196 154
120 196 154
119 196 154
112 178 150
112 178 150
112 178 150
112 178 150
112 178 150
119 196 154
112 177 150
112 177 150
119 196 154
119 196 154
119 196 154
112 177 149
112 177 149
119 196 154
119 196 154
119 196 154
112 177 149
112 177 149
112 177 149
112 177 149
112 177 149
112 177 149
119 196 154
119 196 154
119 196 154
112 177 149
112 177 149
44 61 51
48 68 55
113 178 150
120 196 155
113 178 150
120 196 155
120 196 155
120 196 155
47 63 54
53 73 61
116 179 153
116 179 153
52 68 61
52 69 61
52 69 62
52 69 61
52 69 61
52 69 61
52 69 61
53 69 62
55 75 64
56 76 64
56 76 64
54 70 63
56 75 64
55 75 64
63 87 79
111 177 148
111 177 148
111 177 148
118 196 153
118 196 153
118 196 153
118 196 153
118 196 153
118 196 153
118 196 153
111 177 148
118 196 153
118 196 153
118 196 153
118 196 153
118 196 153
118 196 153
111 177 148
118 196 153
111 177 148
111 177 148
118 196 153
111 177 148
118 196 153
61 37 44
61 37 44
53 36 41
61 37 44
61 37 44
53 36 41
53 36 41
53 36 41
61 37 43
52 36 41
52 36 41
61 37 43
52 35 41
52 35 41
52 35 41
61 37 43
61 37 43
52 35 41
61 36 43
52 35 41
61 36 43
52 35 41
52 35 41
52 35 41
52 35 41
52 35 41
52 35 41
52 35 40
52 35 41
50 67 59
50 67 59
50 67 59
59 84 75
59 84 75
59 84 75
59 84 75
57 79 73
57 79 73
57 79 73
57 79 74
115 178 152
51 67 59
51 67 59
51 67 59
51 67 59
54 73 62
53 73 62
53 73 62
51 68 60
51 68 60
51 68 60
51 68 60
51 68 60
51 68 60
121 196 157
121 196 157
121 196 157
121 196 157
115 178 152
58 79 74
58 79 74
58 79 74
58 79 74
50 67 59
50 67 59
52 72 60
52 72 60
52 72 59
52 72 59
52 72 59
52 72 59
50 66 58
114 178 151
121 196 156
58 83 73
56 77 72
58 83 73
51 71 58
51 71 58
51 71 58
118 196 153
111 177 148
118 196 153
118 196 153
118 196 153
118 196 153
111 177 149
111 177 149
111 177 149
48 64 56
48 65 56
50 70 57
48 65 56
49 66 57
49 66 57
49 66 57
49 66 57
50 67 58
50 67 59
50 67 59
50 67 59
59 84 75
59 84 75
59 84 75
58 79 74
51 68 60
51 68 60
51 68 60
51 68 60
93 139 105
54 74 63
52 69 61
52 69 61
52 69 61
53 70 63
55 75 64
53 70 63
55 75 64
55 75 64
55 75 64
55 75 64
55 75 64
54 70 63
54 70 63
54 70 63
54 70 63
54 70 63
56 76 65
56 76 65
56 76 65
56 76 65
56 76 65
100 146 113
100 146 112
116 178 153
116 178 153
123 196 158
62 87 78
100 146 113
55 75 64
55 75 64
55 75 64
56 75 64
54 70 63
55 72 65
100 146 112
55 75 63
55 75 63
53 70 62
53 70 62
55 75 64
57 77 65
100 146 112
54 74 63
52 69 61
54 74 63
54 74 63
54 74 63
100 158 110
122 196 157
116 178 153
122 196 157
122 196 158
122 196 158
106 164 116
53 70 62
53 70 62
53 70 62
53 70 62
53 70 62
62 87 78
62 87 79
62 87 79
62 87 79
61 82 78
61 82 78
61 82 78
51 68 60
51 68 60
51 68 60
52 68 60
52 68 61
52 68 61
54 74 62
54 74 62
54 74 63
54 74 63
54 74 63
54 74 63
54 74 62
54 74 62
54 74 62
54 74 62
54 74 62
59 80 75
59 80 75
115 178 153
115 178 153
115 178 153
122 196 157
122 196 157
122 196 157
115 178 152
122 196 157
51 68 60
51 68 60
93 139 104
122 196 157
122 196 157
115 178 152
115 178 152
115 178 152
115 178 152
120 196 155
120 196 155
113 178 150
113 178 150
113 178 150
120 196 155
120 196 155
120 196 155
120 196 155
120 196 155
120 196 155
113 178 150
113 178 150
120 196 155
113 178 150
113 178 150
120 196 155
113 178 150
120 196 154
120 196 154
119 196 154
119 196 154
119 196 154
112 177 150
112 177 150
119 196 154
112 177 150
119 196 154
119 196 154
112 177 150
112 177 149
112 177 149
112 177 149
119 196 154
112 177 149
119 196 154
119 196 154
119 196 154
112 177 149
112 177 149
119 196 154
112 177 149
119 196 154
112 177 149
119 196 154
119 196 154
119 196 154
119 196 154
112 177 149
112 177 149
112 177 149
112 177 149
112 177 149
112 177 149
112 177 149
44 60 51
44 61 51
44 61 52
54 75 69
113 178 150
120 196 155
113 178 150
113 178 150
46 63 54
47 63 54
49 65 57
115 179 153
53 73 62
52 69 61
52 69 61
53 69 62
54 74 63
52 69 61
52 69 61
52 69 61
53 69 62
55 75 64
60 82 77
60 82 77
60 82 77
60 82 77
62 87 78
118 196 153
111 177 148
111 177 148
111 177 148
111 177 148
111 177 148
118 196 153
118 196 153
118 196 153
118 196 153
118 196 153
111 177 148
111 177 148
111 177 148
118 196 153
118 196 153
111 177 148
118 196 153
118 196 153
118 196 153
111 177 148
118 196 153
111 177 148
118 196 153
111 177 148
118 196 153
118 196 152
118 196 152
111 177 148
110 177 148
61 37 44
61 37 44
53 36 41
53 36 41
61 37 43
52 36 41
52 36 41
52 36 41
61 37 43
61 37 43
61 37 43
61 37 43
61 37 43
52 35 41
61 37 43
61 36 43
61 36 43
61 36 43
52 35 41
61 36 43
52 35 41
52 35 41
52 35 41
52 36 41
59 84 74
59 84 74
57 78 73
57 78 73
57 78 73
57 78 73
57 78 73
52 72 60
52 72 60
99 157 108
114 178 152
53 73 61
53 73 61
53 73 61
53 73 61
53 73 61
54 74 62
54 74 62
52 68 60
54 73 62
52 68 60
51 68 60
51 68 60
51 68 60
53 73 62
51 67 59
51 67 59
53 73 61
53 72 61
53 72 61
99 157 108
115 178 152
115 178 152
115 178 152
51 67 59
53 72 60
53 72 60
51 67 59
52 72 59
52 72 59
52 72 59
52 72 59
52 72 59
120 196 155
120 196 155
111 177 148
111 177 148
118 196 153
118 196 153
112 177 150
101 161 109
118 196 153
118 196 153
118 196 153
118 196 153
118 196 153
111 177 148
111 177 148
111 177 148
111 177 148
111 177 148
111 177 148
118 196 153
111 177 148
118 196 153
118 196 153
118 196 153
111 177 149
111 177 149
118 196 153
111 177 149
111 177 149
112 177 149
59 84 74
114 178 152
114 178 152
114 178 152
51 68 60
51 68 60
51 68 60
53 73 61
52 69 61
52 69 61
52 69 61
53 70 63
53 70 63
53 70 63
53 70 63
55 75 64
55 75 64
55 75 64
56 75 64
54 70 63
54 70 63
54 70 63
54 70 63
56 76 65
54 70 63
56 76 65
56 76 65
56 76 65
56 76 65
56 76 65
100 146 113
55 75 64
55 75 64
55 75 64
53 70 63
55 75 64
55 72 65
116 178 153
62 87 78
60 81 77
60 82 77
62 87 78
55 72 64
100 146 112
55 75 63
55 75 64
55 75 64
55 75 64
55 75 64
55 71 64
100 146 112
54 74 63
54 74 63
54 74 63
54 74 63
55 74 63
55 75 63
99 146 112
115 178 153
115 178 153
115 178 153
115 178 153
116 178 153
122 196 157
116 178 153
61 86 77
59 81 76
62 86 78
60 81 76
60 81 77
60 81 77
116 178 153
116 178 153
123 196 158
116 178 154
51 68 60
51 68 60
51 68 60
52 68 60
52 68 61
52 68 61
54 74 62
54 74 62
54 74 63
61 86 77
59 80 75
59 80 75
59 80 75
59 80 75
60 85 76
60 85 76
60 85 76
115 178 152
115 178 152
115 178 152
122 196 157
115 178 152
122 196 157
122 196 157
122 196 157
51 67 60
51 68 60
51 68 60
51 68 60
51 68 60
121 196 156
121 196 156
121 196 156
120 196 155
120 196 155
120 196 155
113 178 150
120 196 155
120 196 155
113 178 150
113 178 150
113 178 150
120 196 155
113 178 150
113 177 150
120 196 154
120 196 154
120 196 154
119 196 154
112 177 150
112 177 150
112 177 150
119 196 154
119 196 154
119 196 154
119 196 154
112 177 150
119 196 154
112 177 149
112 177 149
112 177 149
119 196 154
119 196 154
119 196 154
119 196 154
119 196 154
119 196 154
112 177 149
112 177 149
112 177 149
112 177 149
112 177 149
112 177 149
112 177 149
119 196 154
119 196 154
119 196 154
119 196 154
119 196 154
119 196 154
112 177 149
119 196 154
119 196 154
119 196 154
112 177 149
112 177 149
112 177 149
112 177 149
112 177 149
46 66 52
46 66 52
44 60 51
44 61 51
45 61 52
53 75 69
120 196 155
113 178 150
48 68 55
48 68 55
46 63 54
47 63 54
47 63 55
115 179 153
115 179 152
115 179 152
115 179 152
53 69 62
53 69 62
52 69 62
52 69 61
52 69 61
62 87 78
62 87 78
62 87 78
123 196 158
123 196 158
53 69 62
118 196 153
118 196 153
118 196 153
118 196 153
118 196 153
118 196 153
111 177 148
111 177 148
111 177 148
111 177 148
111 177 148
118 196 153
118 196 153
118 196 153
111 177 148
111 177 148
111 177 148
118 196 152
118 196 152
118 196 152
110 177 148
118 196 152
118 196 152
118 196 152
118 196 152
118 196 152
110 177 148
110 177 148
118 196 152
118 196 152
117 196 152
117 196 152
117 196 152
117 196 152
110 177 147
110 177 147
110 177 147
117 196 152
117 196 152
117 196 152
110 177 147
110 177 147
110 177 147
110 177 147
110 177 147
52 35 41
52 35 41
52 35 41
52 35 41
52 35 41
61 36 43
52 35 41
52 35 41
52 35 41
110 177 147
110 177 147
56 78 72
98 157 107
114 178 151
114 178 151
114 178 151
52 72 59
52 72 60
50 67 59
50 67 58
52 72 60
53 73 61
53 73 61
53 73 61
53 73 61
53 73 61
54 74 62
54 74 62
54 74 62
52 68 60
52 68 60
52 68 60
52 68 60
52 68 60
52 68 60
51 67 59
51 67 59
51 67 59
51 67 59
51 67 59
51 67 59
51 67 59
51 67 59
114 178 152
114 178 152
57 78 73
57 78 73
57 79 73
52 72 59
52 72 59
52 72 59
52 72 59
52 72 59
113 177 150
113 177 151
111 177 148
118 196 153
118 196 153
118 196 153
118 196 153
118 196 153
111 177 148
111 177 148
118 196 153
111 177 148
111 177 148
111 177 148
111 177 148
118 196 153
118 196 153
118 196 153
118 196 153
111 177 148
118 196 153
118 196 153
118 196 153
118 196 153
111 177 148
111 177 148
111 177 148
111 177 148
111 177 148
111 177 148
50 67 59
52 72 60
50 67 59
50 67 59
53 73 61
53 73 61
51 68 60
51 68 60
52 69 61
52 69 61
52 69 61
62 87 78
62 87 78
62 87 78
62 87 78
55 75 64
56 75 64
54 70 63
56 76 64
56 76 64
54 70 63
54 70 63
54 70 63
54 71 63
54 71 63
56 76 65
56 76 65
56 76 65
56 76 65
56 73 65
100 146 113
55 75 64
55 75 64
53 70 63
55 75 64
55 75 64
55 72 64
100 146 112
116 178 153
116 178 153
116 178 153
116 178 153
116 178 153
55 75 63
53 70 62
55 75 64
55 75 64
53 70 62
55 75 64
55 71 64
100 146 112
54 74 63
52 69 62
54 74 63
55 74 63
55 75 63
54 71 64
99 146 111
99 146 111
54 74 62
54 74 62
54 74 62
54 74 62
54 74 62
54 71 63
115 178 153
122 196 157
122 196 157
122 196 157
122 196 157
122 196 157
59 81 76
116 178 153
116 178 153
116 178 153
51 68 60
51 68 60
51 68 60
52 68 60
52 68 61
52 68 61
54 74 62
59 80 75
58 80 75
115 178 153
122 196 157
58 80 75
58 80 75
60 85 76
60 85 76
122 196 157
122 196 157
51 68 60
51 68 60
51 68 60
51 68 60
51 68 60
51 67 60
51 67 59
51 67 59
51 67 60
51 68 60
51 68 60
50 67 58
92 139 103
114 178 152
114 178 152
47 63 55
47 63 54
47 63 54
46 63 54
46 63 54
113 177 150
120 196 154
120 196 154
113 177 150
112 177 150
112 177 150
119 196 154
119 196 154
119 196 154
119 196 154
112 177 150
112 177 150
119 196 154
112 177 149
119 196 154
112 177 149
112 177 149
119 196 154
112 177 149
112 177 149
119 196 154
119 196 154
112 177 149
112 177 149
112 177 149
112 177 149
119 196 154
119 196 154
112 177 149
112 177 149
112 177 149
112 177 149
112 177 149
112 177 149
119 196 154
119 196 154
112 177 149
119 196 154
119 196 154
119 196 154
112 177 149
112 177 149
112 177 149
112 177 149
112 177 149
46 65 52
46 66 52
46 65 52
45 65 52
45 65 52
43 60 50
45 65 51
46 66 52
46 66 52
44 60 51
44 61 51
45 61 52
120 196 154
113 178 150
113 178 150
119 196 154
119 196 154
112 178 150
112 178 150
47 63 55
121 196 156
48 64 56
115 178 152
52 72 60
62 87 78
62 86 78
62 86 78
62 86 78
59 81 76
59 81 76
123 197 158
123 197 158
123 197 158
53 69 62
111 177 148
118 196 153
118 196 153
118 196 153
118 196 153
118 196 153
111 177 148
111 177 148
111 177 148
111 177 148
118 196 152
110 177 148
118 196 152
118 196 152
110 177 148
118 196 152
118 196 152
118 196 152
110 177 148
118 196 152
118 196 152
110 177 147
117 196 152
117 196 152
117 196 152
117 196 152
117 196 152
117 196 152
117 196 152
117 196 152
117 196 152
117 196 152
117 196 152
117 196 152
110 177 147
110 177 147
117 196 152
117 196 152
110 177 147
117 196 152
117 196 152
117 196 152
117 196 152
117 196 152
117 196 152
110 177 147
110 177 147
110 177 147
110 176 147
110 176 147
117 196 152
110 176 147
117 196 152
117 196 152
117 196 152
110 176 147
43 63 49
51 71 59
51 71 59
51 71 59
51 71 59
51 71 59
52 72 60
52 72 60
52 72 60
50 67 59
52 72 60
53 73 61
53 73 61
53 73 61
53 73 61
51 67 60
58 80 75
58 80 75
58 80 75
58 80 75
60 85 76
52 68 61
52 68 61
54 74 62
51 67 59
51 67 59
51 67 59
51 67 59
51 67 59
53 73 61
51 67 59
53 73 61
53 73 61
121 196 156
121 196 156
121 196 156
121 196 156
121 196 156
52 72 60
52 72 60
117 196 152
117 196 152
110 177 147
110 177 148
110 177 148
118 196 152
110 177 148
110 177 148
110 177 148
110 177 148
110 177 148
118 196 152
111 177 148
111 177 148
111 177 148
111 177 148
111 177 148
118 196 153
118 196 153
118 196 153
118 196 153
118 196 153
111 177 148
111 177 148
111 177 148
111 177 148
111 177 148
111 177 148
118 196 153
118 196 153
118 196 153
118 196 153
118 196 153
118 196 153
118 196 153
111 177 148
111 177 148
111 177 148
51 68 60
51 68 60
61 86 77
54 74 63
52 69 62
52 69 62
61 86 77
61 86 77
122 196 157
61 86 78
59 81 76
60 81 76
60 81 76
60 81 77
60 81 77
62 87 78
62 87 78
62 87 78
62 87 78
62 87 78
60 82 77
60 82 77
60 82 77
61 82 78
56 72 65
100 146 112
53 70 63
55 75 64
55 75 64
53 70 63
56 75 64
55 72 64
100 146 112
55 75 63
55 75 63
55 75 63
55 75 63
55 75 63
100 146 112
116 178 153
59 81 76
59 81 76
59 81 76
60 81 76
55 71 64
100 158 110
54 74 63
54 74 63
55 75 63
55 75 63
55 75 63
54 71 63
99 146 111
54 74 62
54 74 62
52 69 61
54 74 62
54 74 62
54 74 63
106 163 116
99 146 111
115 178 153
115 178 153
115 178 153
115 178 153
122 196 157
115 178 153
115 178 153
122 196 157
122 196 157
52 68 60
51 68 60
51 68 60
52 68 60
60 85 76
60 85 76
58 80 75
115 178 152
122 196 157
122 196 157
51 68 60
51 68 60
51 68 60
51 68 60
51 67 59
51 67 59
51 67 60
51 68 60
51 68 60
51 68 60
51 68 60
51 68 60
51 68 60
51 67 59
51 67 59
51 67 60
51 68 60
51 68 60
50 67 59
50 66 58
50 66 58
121 196 156
114 178 151
47 63 55
47 63 54
119 196 154
119 196 154
119 196 154
119 196 154
119 196 154
112 177 150
112 177 150
112 177 149
112 177 149
112 177 149
112 177 149
119 196 154
119 196 154
119 196 154
119 196 154
119 196 154
112 177 149
119 196 154
119 196 154
119 196 154
119 196 154
119 196 154
119 196 154
112 177 149
112 177 149
112 177 149
112 177 149
119 196 154
119 196 154
112 177 149
112 177 149
119 196 154
119 196 154
112 177 149
119 196 154
112 177 149
112 177 149
112 177 149
112 177 149
111 177 149
45 65 52
94 155 102
111 177 149
111 177 149
111 177 149
94 154 102
45 65 51
46 65 52
46 66 52
43 60 50
46 65 52
45 65 52
45 65 51
45 65 51
46 66 52
46 66 52
44 60 51
44 61 51
45 61 52
112 178 150
112 178 150
112 178 150
119 196 154
112 178 150
112 178 149
47 67 53
47 63 55
120 197 155
120 197 155
115 178 152
115 178 152
115 178 152
115 178 152
52 72 59
116 179 153
119 196 154
119 196 154
119 196 154
119 196 154
119 196 154
111 177 148
111 177 148
118 196 153
111 177 148
111 177 148
118 196 152
118 196 152
118 196 152
118 196 152
118 196 152
118 196 152
110 177 148
110 177 147
110 177 147
118 196 152
110 177 147
117 196 152
110 177 147
110 177 147
117 196 152
117 196 152
110 177 147
110 177 147
117 196 152
117 196 152
117 196 152
117 196 152
117 196 152
110 177 147
110 177 147
110 177 147
110 177 147
117 196 152
110 177 147
117 196 152
110 177 147
117 196 152
117 196 152
117 196 152
117 196 152
110 177 147
117 196 152
117 196 152
117 196 152
117 196 152
110 176 147
110 176 147
110 176 147
117 196 152
110 176 147
110 176 147
117 196 152
110 176 147
110 176 147
110 176 147
117 196 152
117 196 152
44 64 49
51 71 59
51 71 59
51 71 59
49 66 58
51 71 59
52 72 60
52 72 60
52 72 60
52 72 60
52 72 60
58 79 74
58 79 74
58 79 74
58 79 74
53 73 61
58 79 74
58 79 74
115 178 152
122 196 157
60 85 76
60 85 76
60 85 76
60 85 76
51 67 59
51 67 59
51 67 59
51 67 59
51 67 59
53 73 61
53 73 61
53 73 61
53 73 61
121 196 156
117 196 152
117 196 152
117 196 152
117 196 152
110 176 147
111 177 149
117 196 152
117 196 152
117 196 152
117 196 152
117 196 152
117 196 152
117 196 152
110 176 147
110 176 147
110 177 147
110 177 147
117 196 152
117 196 152
117 196 152
118 196 152
118 196 152
118 196 152
110 177 148
110 177 148
118 196 152
118 196 152
111 177 148
111 177 148
118 196 153
118 196 153
118 196 153
111 177 148
111 177 148
118 196 153
118 196 153
118 196 153
111 177 148
118 196 153
118 196 153
111 177 148
111 177 148
111 177 148
111 177 148
111 177 148
118 196 153
60 85 76
60 85 76
61 85 76
61 85 77
53 69 62
53 69 62
53 69 62
55 75 63
53 69 62
55 75 63
55 75 63
55 75 63
53 70 62
55 75 63
53 70 62
94 140 106
122 196 158
122 196 158
116 178 153
116 178 153
116 178 153
116 178 153
60 82 77
100 146 112
55 75 64
55 75 64
55 75 64
56 75 64
56 76 64
107 164 117
53 69 62
55 75 63
55 75 63
55 75 63
55 75 64
55 75 64
100 146 112
99 146 111
122 196 157
115 178 153
122 196 157
115 178 153
116 178 153
52 69 62
55 74 63
55 75 63
55 75 63
53 69 62
55 75 63
54 71 63
99 146 111
54 74 62
52 69 61
54 74 62
54 74 62
54 74 63
54 74 63
99 146 111
99 146 111
99 145 111
122 196 157
115 178 152
122 196 157
122 196 157
115 178 152
115 178 153
122 196 157
122 196 157
60 85 76
60 85 76
51 68 60
60 85 76
122 196 157
122 196 157
122 196 157
51 67 60
51 68 60
51 68 60
51 68 60
51 68 60
51 68 60
51 68 60
51 67 60
51 67 59
51 67 60
51 68 60
51 68 60
51 68 60
51 68 60
51 68 60
51 68 60
51 67 60
51 67 59
51 67 60
51 68 60
51 68 60
51 68 60
121 196 156
114 178 151
121 196 156
121 196 156
46 62 53
89 137 99
119 196 154
119 196 154
119 196 154
112 177 149
119 196 154
112 177 149
112 177 149
112 177 149
112 177 149
112 177 149
119 196 154
119 196 154
119 196 154
119 196 154
119 196 154
119 196 154
119 196 154
112 177 149
112 177 149
112 177 149
112 177 149
112 177 149
112 177 149
119 196 154
119 196 154
119 196 154
119 196 154
119 196 154
112 177 149
119 196 153
112 177 149
119 196 153
111 177 149
111 177 149
111 177 149
111 177 149
111 177 149
111 177 149
45 65 51
45 65 51
45 65 52
45 65 52
45 65 51
45 65 51
45 65 51
45 65 51
45 65 51
46 65 52
46 66 52
46 66 52
43 60 50
45 65 52
45 65 52
45 65 51
46 66 52
46 66 52
44 60 51
44 61 51
54 80 69
119 197 154
119 197 154
119 197 154
119 197 154
112 178 149
119 197 154
112 178 149
112 178 149
119 197 154
112 178 149
120 197 155
113 178 150
113 178 150
113 178 150
113 178 150
119 196 154
112 178 149
112 178 149
119 196 154
119 196 154
43 63 49
43 63 49
110 177 148
110 177 148
110 177 148
118 196 152
118 196 152
118 196 152
118 196 152
118 196 152
117 196 152
110 177 147
117 196 152
110 177 147
110 177 147
110 177 147
117 196 152
117 196 152
117 196 152
117 196 152
117 196 152
117 196 152
117 196 152
117 196 152
110 177 147
110 177 147
110 177 147
110 177 147
110 177 147
117 196 152
117 196 152
117 196 152
110 177 147
117 196 152
117 196 152
117 196 152
117 196 152
117 196 152
117 196 152
117 196 152
110 176 147
110 176 147
110 176 147
110 176 147
110 176 147
110 176 147
117 196 152
117 196 152
117 196 152
117 196 152
117 196 152
117 196 152
110 176 147
110 176 147
110 176 147
110 176 147
110 176 147
40 57 47
44 64 49
111 177 148
51 71 59
51 71 59
51 71 59
51 71 59
52 72 60
57 79 73
52 72 60
52 72 60
52 72 60
57 79 73
57 79 73
57 79 73
57 79 73
59 84 75
59 84 75
59 84 75
121 196 156
121 196 156
115 178 152
121 196 156
115 178 152
115 178 152
121 196 156
59 84 75
59 84 75
59 84 75
59 84 75
53 73 61
53 73 61
53 73 61
53 73 61
49 66 57
117 196 152
117 196 152
117 196 152
110 176 147
117 196 152
117 196 152
117 196 152
110 176 147
110 176 147
110 176 147
110 176 147
110 176 147
110 176 147
117 196 152
117 196 152
110 176 147
117 196 152
110 176 147
117 196 152
117 196 152
117 196 152
117 196 152
117 196 152
110 176 147
110 177 147
110 177 147
117 196 152
110 177 147
110 177 148
118 196 152
110 177 148
110 177 148
118 196 152
118 196 152
110 177 148
111 177 148
111 177 148
111 177 148
111 177 148
118 196 153
111 177 148
118 196 153
118 196 153
118 196 153
111 177 148
118 196 153
52 68 60
54 74 62
52 68 61
52 68 61
52 68 61
53 69 62
53 69 62
55 75 63
55 75 63
55 75 63
55 75 63
55 75 63
55 75 64
55 75 64
53 70 62
53 70 62
53 70 62
53 70 62
107 164 117
122 196 157
122 196 157
122 196 158
122 196 158
122 196 158
116 178 153
60 81 77
60 81 77
60 82 77
60 82 77
107 164 117
55 75 63
55 75 63
53 70 62
55 75 64
55 75 64
55 71 64
100 146 112
106 163 116
106 163 116
122 196 157
122 196 157
122 196 157
122 196 157
122 196 157
122 196 157
59 80 76
59 81 76
59 81 76
59 81 76
54 71 63
99 146 111
52 69 61
54 74 62
54 74 62
54 74 63
54 74 63
54 71 63
99 146 111
99 146 111
106 163 115
105 163 115
121 196 157
121 196 157
121 196 157
122 196 157
122 196 157
122 196 157
52 69 61
51 68 60
51 68 60
51 68 60
51 68 60
51 68 60
51 68 60
51 67 60
51 67 60
51 68 60
51 68 60
51 68 60
51 68 60
51 68 60
51 68 60
51 68 60
51 67 60
51 67 60
51 68 60
51 68 60
51 68 60
51 68 60
51 68 60
51 68 60
51 68 60
51 67 60
51 67 60
51 68 60
51 68 60
60 85 76
49 65 57
49 65 57
49 65 57
120 196 155
46 62 53
46 62 53
45 62 53
119 196 154
112 177 149
119 196 154
119 196 154
119 196 154
119 196 154
119 196 154
112 177 149
112 177 149
112 177 149
112 177 149
119 196 154
112 177 149
112 177 149
112 177 149
112 177 149
112 177 149
112 177 149
119 196 153
112 177 149
119 196 153
119 196 153
119 196 153
119 196 153
111 177 149
119 196 153
111 177 149
111 177 149
111 177 149
118 196 153
118 196 153
118 196 153
118 196 153
111 177 148
118 196 153
87 135 97
45 65 51
45 65 51
45 65 51
46 65 52
45 65 52
45 65 51
45 65 51
45 65 51
45 65 51
45 65 51
46 65 52
46 66 52
46 66 52
44 60 50
46 66 52
45 65 52
45 65 52
46 66 52
46 66 52
46 66 52
54 79 68
54 79 68
119 197 154
119 197 154
119 197 154
112 178 149
112 178 149
119 197 154
112 178 149
112 178 149
112 178 149
112 178 149
119 197 154
119 197 154
119 197 154
119 197 154
112 178 149
112 178 149
112 178 149
112 178 149
112 178 149
112 178 149
43 63 49
43 63 49
43 63 49
43 63 49
110 177 147
110 177 147
110 177 147
110 177 147
117 196 152
110 177 147
117 196 152
110 177 147
117 196 152
117 196 152
117 196 152
117 196 152
117 196 152
110 177 147
117 196 152
117 196 152
117 196 152
117 196 152
110 177 147
110 177 147
110 177 147
110 177 147
110 177 147
110 177 147
117 196 152
117 196 152
117 196 152
117 196 152
117 196 152
117 196 152
110 177 147
110 177 147
110 177 147
110 176 147
109 176 147
117 196 151
117 196 151
117 196 151
117 196 151
109 176 147
117 196 151
117 196 151
117 196 151
109 176 147
117 196 151
117 196 151
117 196 151
109 176 146
109 176 146
109 176 146
109 176 146
109 176 146
109 176 146
40 57 47
44 64 49
45 65 51
119 196 154
52 71 59
51 71 59
51 71 59
56 78 73
56 78 73
56 78 73
57 78 73
57 78 73
52 72 60
52 72 60
52 72 60
52 72 60
50 67 59
50 67 59
50 67 59
50 67 59
50 67 59
50 67 59
114 178 152
114 178 152
114 178 152
121 196 156
121 196 156
121 196 156
59 84 75
59 84 75
57 79 73
57 79 73
57 79 73
57 79 73
49 66 57
110 176 147
110 176 147
110 176 147
110 176 147
110 176 147
110 176 147
117 196 152
110 176 147
110 176 147
110 176 147
110 176 147
110 176 147
117 196 152
117 196 152
117 196 152
117 196 152
117 196 152
110 176 147
117 196 152
110 176 147
110 176 147
110 176 147
110 176 147
110 176 147
117 196 152
117 196 152
110 176 147
117 196 152
110 176 147
110 176 147
110 176 147
110 176 147
110 176 147
117 196 152
117 196 152
110 177 147
117 196 152
118 196 152
110 177 148
118 196 152
110 177 148
118 196 152
118 196 152
118 196 152
111 177 148
118 196 153
118 196 153
111 177 148
118 196 153
111 177 148
111 177 148
111 177 148
111 177 148
53 69 62
55 75 63
53 70 62
55 75 63
53 70 62
55 75 64
53 70 62
53 70 62
53 70 62
53 70 62
53 70 63
100 146 112
106 164 116
54 74 63
52 69 62
53 69 62
122 196 157
122 196 157
116 178 153
116 178 153
116 178 153
116 178 153
100 146 112
55 75 63
53 70 62
55 75 64
55 75 64
55 75 64
55 71 64
100 146 112
106 163 116
106 163 115
53 73 62
51 68 60
52 68 60
52 68 60
54 74 62
93 140 105
115 178 153
115 178 153
115 178 153
115 178 153
115 178 153
54 74 62
54 74 62
54 74 62
54 74 63
54 74 63
52 69 61
54 71 63
99 146 111
99 146 111
99 145 111
99 145 110
105 163 115
114 178 152
115 178 152
115 178 152
120 196 155
120 196 155
120 196 155
51 68 60
51 68 60
51 68 60
51 68 60
51 68 60
51 68 60
51 67 60
51 67 60
51 68 60
51 68 60
51 68 60
51 68 60
51 68 60
51 68 60
51 68 60
51 68 60
51 67 60
51 68 60
51 68 60
51 68 60
51 68 60
60 85 76
51 68 60
51 68 60
51 68 60
51 68 60
60 85 76
60 85 75
58 79 74
49 65 57
120 196 155
113 178 151
113 178 151
120 196 155
119 196 154
119 196 154
119 196 154
119 196 154
112 177 149
119 196 154
112 177 149
112 177 149
112 177 149
112 177 149
119 196 154
112 177 149
119 196 153
119 196 153
119 196 153
119 196 153
111 177 149
119 196 153
111 177 149
111 177 149
111 177 149
118 196 153
111 177 149
118 196 153
111 177 149
111 177 148
111 177 148
111 177 148
111 177 148
111 177 148
118 196 153
118 196 153
118 196 153
111 177 148
118 196 153
118 196 153
42 59 49
43 59 49
45 65 51
45 65 51
45 65 51
46 66 52
45 65 52
45 65 52
45 65 51
45 65 51
45 65 51
45 65 51
46 66 52
46 66 52
46 66 52
46 66 52
46 66 52
46 65 52
43 60 50
46 66 52
52 73 67
52 73 67
54 79 68
112 178 149
119 197 154
112 178 149
112 178 149
119 197 154
119 197 154
119 197 154
119 197 154
43 60 50
43 60 50
112 178 149
119 197 154
112 178 149
119 197 154
119 197 154
112 178 149
112 178 149
112 178 149
112 178 149
119 197 153
111 178 149
43 63 49
43 63 49
43 63 49
110 177 147
117 196 152
110 177 147
110 177 147
110 177 147
110 177 147
110 177 147
117 196 152
117 196 152
117 196 152
110 177 147
117 196 152
117 196 152
110 177 147
110 177 147
110 177 147
110 177 147
110 177 147
117 196 152
117 196 152
110 177 147
117 196 152
110 177 147
117 196 152
110 177 147
110 177 147
117 196 152
117 196 151
117 196 151
117 196 151
109 177 147
109 177 147
109 176 147
109 176 146
109 176 146
109 176 146
117 196 151
117 196 151
117 196 151
117 196 151
117 196 151
117 196 151
109 176 146
109 176 146
109 176 146
109 176 146
109 176 146
109 176 146
116 196 151
116 196 151
116 196 151
116 196 151
116 196 151
109 176 146
41 57 47
44 64 50
51 77 65
110 177 147
118 196 152
110 177 147
110 177 147
58 83 73
58 83 73
121 196 156
121 196 156
52 72 59
52 72 60
52 72 60
52 72 60
52 72 60
52 72 60
50 67 59
50 67 59
50 67 59
50 67 59
52 72 60
52 72 60
50 67 59
50 67 59
50 67 59
50 67 59
50 67 59
50 67 59
121 196 156
121 196 156
121 196 156
121 196 156
121 196 156
49 66 57
109 176 146
109 176 147
109 176 147
109 176 147
109 176 147
109 176 147
117 196 151
117 196 151
117 196 151
110 176 147
117 196 151
117 196 152
117 196 152
110 176 147
117 196 152
110 176 147
110 176 147
117 196 152
110 176 147
110 176 147
110 176 147
110 176 147
110 176 147
110 176 147
117 196 152
117 196 152
117 196 152
117 196 152
117 196 152
117 196 152
110 176 147
110 176 147
110 176 147
110 176 147
110 176 147
117 196 152
110 176 147
117 196 152
117 196 152
110 176 147
117 196 152
117 196 152
110 177 147
110 177 147
110 177 148
110 177 148
118 196 152
110 177 148
110 177 148
111 177 148
111 177 148
111 177 148
111 177 148
55 75 63
55 75 63
55 75 64
55 75 64
55 75 64
55 75 64
53 70 62
53 70 62
53 70 63
53 70 63
55 75 64
106 164 116
52 69 62
52 69 62
53 69 62
53 69 62
53 69 62
54 71 64
122 196 157
122 196 157
122 196 157
122 196 157
122 196 157
116 178 153
59 81 76
59 81 76
59 81 76
60 81 76
55 71 64
100 146 112
106 163 116
106 163 115
54 73 62
52 68 60
52 68 61
54 74 62
52 68 61
56 76 64
106 163 115
122 196 157
122 196 157
122 196 157
122 196 157
122 196 157
115 178 153
59 80 75
59 80 75
59 80 75
59 80 75
54 71 63
99 146 111
106 163 115
106 163 115
105 163 115
98 145 110
98 145 110
98 145 110
104 162 112
103 162 112
103 162 112
113 177 150
51 68 60
51 68 60
51 68 60
51 68 60
51 68 60
51 68 60
51 68 60
51 67 60
51 68 60
51 68 60
51 68 60
51 68 60
51 68 60
51 68 60
51 68 60
51 68 60
51 67 60
51 68 60
60 85 76
60 85 76
60 85 76
60 85 75
60 85 75
60 85 75
57 79 74
57 79 74
121 196 157
115 178 152
121 196 156
48 64 56
48 64 56
47 64 55
47 64 55
120 196 155
45 61 52
47 66 53
44 61 51
44 61 51
44 60 51
44 60 51
46 66 52
95 155 103
111 177 149
119 196 153
119 196 153
119 196 153
118 196 153
118 196 153
111 177 149
111 177 149
111 177 148
111 177 148
111 177 148
111 177 148
118 196 153
111 177 148
118 196 153
118 196 153
118 196 153
118 196 153
118 196 153
118 196 153
42 59 49
42 59 49
42 59 49
42 59 49
42 59 49
44 64 50
42 58 49
42 59 49
42 59 49
43 59 49
45 65 51
45 65 51
45 65 52
46 66 52
46 66 52
45 65 52
45 65 52
45 65 51
45 65 51
45 65 51
46 66 52
52 73 67
52 73 67
52 73 67
54 79 68
51 73 66
51 73 66
51 73 66
51 73 66
51 73 66
112 178 149
112 178 149
119 197 154
119 197 154
112 178 149
112 178 149
119 197 154
119 197 154
43 59 50
43 60 50
43 60 50
43 60 50
43 59 50
43 59 50
119 197 153
119 197 153
119 197 153
119 197 153
119 197 153
111 178 149
111 178 149
111 178 149
43 63 49
43 63 49
117 197 152
117 197 152
117 197 152
117 197 152
117 196 152
117 196 152
117 196 152
110 177 147
117 196 152
117 196 152
110 177 147
110 177 147
110 177 147
110 177 147
110 177 147
110 177 147
110 177 147
110 177 147
117 196 152
117 196 152
117 196 152
117 196 152
117 196 151
117 196 151
109 177 147
109 177 147
117 196 151
109 177 146
109 177 146
117 196 151
117 196 151
117 196 151
117 196 151
117 196 151
117 196 151
117 196 151
109 176 146
116 196 151
109 176 146
109 176 146
116 196 151
116 196 151
109 176 146
116 196 151
116 196 151
109 176 146
109 176 146
109 176 146
109 176 146
116 196 151
109 176 146
116 196 151
116 196 151
116 196 151
42 62 47
41 57 47
49 71 64
51 76 65
49 71 64
110 177 147
110 177 147
110 177 147
118 196 153
121 196 156
121 196 156
121 196 156
52 72 60
52 72 60
50 67 59
52 72 60
52 72 60
50 67 59
50 67 59
50 67 59
50 67 59
52 72 60
52 72 60
52 72 60
52 72 60
52 72 60
50 67 59
50 67 59
50 67 59
50 67 59
121 196 156
121 196 156
121 196 156
121 196 156
121 196 156
51 71 59
116 196 151
116 196 151
116 196 151
116 196 151
117 196 151
109 176 146
117 196 151
109 176 146
117 196 151
117 196 151
117 196 151
117 196 151
117 196 151
109 176 147
109 176 147
109 176 147
109 176 147
117 196 151
109 176 147
117 196 151
117 196 152
117 196 152
117 196 152
117 196 152
110 176 147
110 176 147
110 176 147
110 176 147
117 196 152
117 196 152
117 196 152
117 196 152
117 196 152
117 196 152
117 196 152
110 176 147
117 196 152
110 176 147
117 196 152
110 176 147
117 196 152
117 196 152
110 176 147
110 176 147
110 176 147
110 176 147
110 176 147
110 177 147
117 196 152
117 196 152
117 196 152
118 196 152
118 196 152
118 196 152
59 81 76
60 81 76
60 81 76
60 81 76
55 75 64
53 70 63
55 75 64
53 70 63
53 70 63
55 72 64
106 164 116
53 69 62
53 69 62
53 69 62
53 69 62
53 69 62
56 76 65
106 163 116
52 69 61
52 69 61
54 74 62
100 157 110
122 196 157
115 178 153
115 178 153
115 178 153
116 178 153
59 81 76
106 164 116
106 163 116
106 163 115
52 68 60
54 74 62
52 68 61
54 74 62
52 68 61
55 75 64
106 163 115
105 163 115
115 178 152
115 178 152
115 178 152
122 196 157
122 196 157
115 178 152
115 178 152
115 178 152
115 178 152
60 85 76
99 146 111
98 145 109
114 178 151
114 178 151
103 162 111
119 196 154
119 196 154
120 196 154
120 196 155
120 196 155
120 196 155
51 68 60
51 68 60
51 68 60
52 68 60
51 68 60
51 68 60
51 68 60
51 68 60
51 68 60
51 68 60
51 68 60
60 85 76
60 85 76
60 85 76
60 85 76
60 85 76
58 79 74
58 79 74
57 79 74
115 178 152
121 196 157
121 196 156
115 178 152
115 178 152
115 178 152
115 178 152
114 178 152
121 196 156
121 196 156
59 84 74
48 64 56
120 196 155
120 196 155
56 81 71
45 61 52
47 67 53
44 61 52
44 61 51
46 66 53
44 60 51
44 60 51
44 60 51
111 177 148
111 177 148
111 177 148
111 177 148
111 177 148
111 177 148
94 154 102
45 65 51
45 65 51
43 59 49
45 65 51
111 177 148
118 196 153
118 196 153
118 196 153
111 177 148
118 196 153
118 196 153
87 135 96
42 59 49
42 59 49
43 59 49
42 59 49
42 59 49
44 64 50
42 59 49
42 58 49
42 59 49
42 59 49
43 59 49
45 65 51
45 65 51
45 65 52
46 66 52
46 66 52
46 65 52
45 65 52
45 65 52
45 65 51
45 65 51
51 73 66
53 79 68
53 79 68
51 73 66
51 73 66
53 79 68
53 78 67
53 78 67
119 197 154
119 197 154
119 197 154
43 59 50
43 59 50
43 59 50
43 59 50
43 59 49
43 59 49
43 59 49
43 59 50
43 60 50
43 60 50
43 60 50
119 197 153
119 197 153
119 197 153
119 197 153
119 197 153
118 197 153
111 178 148
111 178 148
118 197 153
111 178 148
44 63 49
117 197 152
117 197 152
117 197 152
117 197 152
117 197 152
117 197 152
117 197 152
110 177 147
110 177 147
110 177 147
110 177 147
117 196 152
117 196 152
117 196 152
117 196 152
117 196 152
110 177 147
117 196 152
109 177 147
109 177 147
109 177 147
117 196 151
109 177 146
117 196 151
109 177 146
109 177 146
109 177 146
109 177 146
109 177 146
109 177 146
117 196 151
116 196 151
116 196 151
116 196 151
116 196 151
116 196 151
109 176 146
116 196 151
116 196 151
109 176 146
109 176 146
109 176 146
116 196 151
109 176 146
116 196 151
116 196 151
109 176 146
116 196 151
116 196 151
109 176 146
109 176 146
116 196 151
116 196 151
116 196 151
116 196 151
42 62 47
41 57 47
51 76 65
51 76 65
51 76 65
117 196 152
117 196 152
110 176 147
117 196 152
110 176 147
110 176 147
49 65 57
52 72 60
52 72 60
52 72 60
52 72 60
52 72 60
50 67 59
50 67 59
50 67 59
50 67 59
52 72 60
50 67 59
52 72 60
52 72 60
52 72 60
50 67 59
50 67 59
50 67 59
50 67 59
117 196 152
117 196 152
117 196 152
117 196 152
110 176 147
117 196 152
116 196 151
116 196 151
116 196 151
116 196 151
116 196 151
116 196 151
109 176 146
109 176 146
109 176 146
109 176 146
109 176 146
109 176 146
109 176 146
116 196 151
116 196 151
117 196 151
117 196 151
109 176 146
117 196 151
117 196 151
117 196 151
117 196 151
117 196 151
109 176 147
109 176 147
109 176 147
109 176 147
109 176 147
110 176 147
117 196 152
117 196 152
110 176 147
117 196 152
110 176 147
117 196 152
117 196 152
110 176 147
110 176 147
110 176 147
110 176 147
110 176 147
110 176 147
110 176 147
117 196 152
117 196 152
117 196 152
117 196 152
110 176 147
110 176 147
110 176 147
110 176 147
110 176 147
117 196 152
117 196 152
117 196 152
59 81 76
59 81 76
59 81 76
59 81 76
61 86 77
61 86 78
61 86 78
62 86 78
62 86 78
106 164 116
55 75 63
55 75 63
53 69 62
53 69 62
53 69 62
56 76 65
106 163 116
52 69 61
52 69 61
52 69 61
52 69 61
52 69 61
106 163 116
122 196 157
122 196 157
122 196 157
122 196 157
122 196 157
106 163 116
52 68 61
52 68 61
52 68 61
52 68 61
52 68 61
52 68 61
55 75 64
106 163 115
99 145 110
98 145 110
115 178 152
115 178 152
115 178 152
115 178 152
115 178 152
115 178 152
97 144 108
113 178 151
113 178 151
119 196 154
114 178 151
114 178 151
103 162 111
103 162 111
103 162 111
119 196 154
119 196 154
119 196 154
119 196 154
119 196 154
51 68 60
51 68 60
51 68 60
58 80 75
60 85 76
60 85 76
51 68 60
51 68 60
51 68 60
60 85 76
60 85 75
122 196 157
60 85 75
59 84 75
57 79 74
57 79 74
57 79 74
121 196 156
115 178 152
121 196 156
121 196 156
121 196 156
121 196 156
121 196 156
121 196 156
114 178 152
114 178 152
114 178 152
114 178 152
114 178 151
46 63 54
46 63 54
48 68 55
120 196 155
113 178 150
47 67 53
44 61 52
44 61 51
44 61 51
46 66 53
111 177 148
111 177 148
111 177 148
111 177 148
111 177 148
111 177 148
111 177 148
45 65 51
45 65 51
45 65 51
45 65 51
45 65 51
45 65 51
45 65 51
42 59 49
42 59 49
42 59 49
42 58 49
44 64 50
44 64 50
42 58 49
42 59 49
42 59 49
43 59 49
43 59 49
42 59 49
42 59 49
44 64 50
42 59 49
42 59 49
42 59 49
43 59 49
43 59 50
45 65 51
45 65 52
51 73 66
51 73 66
53 79 68
51 73 66
53 79 68
53 78 67
53 78 67
53 78 67
119 197 154
119 197 154
119 197 154
87 135 97
119 197 154
112 178 149
112 178 149
119 197 154
112 178 149
43 59 49
43 59 50
43 59 50
45 65 51
43 59 50
43 59 49
43 59 49
43 59 49
43 59 50
43 60 50
43 60 50
43 60 50
42 59 49
42 58 49
42 58 49
42 58 48
42 58 48
118 197 153
118 197 153
118 197 153
118 197 153
118 197 153
44 64 49
39 56 45
39 56 45
39 55 45
39 55 45
39 55 45
110 177 147
117 197 152
117 197 152
110 177 147
110 177 147
110 177 147
110 177 147
117 197 152
117 196 152
117 196 151
117 196 151
117 196 151
109 177 147
117 196 151
109 177 146
109 177 146
117 196 151
109 177 146
109 177 146
117 196 151
117 196 151
117 196 151
109 177 146
116 196 151
116 196 151
109 177 146
109 176 146
109 176 146
109 176 146
109 176 146
116 196 151
116 196 151
109 176 146
109 176 146
116 196 151
109 176 146
109 176 146
116 196 151
116 196 151
116 196 151
116 196 151
116 196 151
116 196 151
109 176 146
109 176 146
116 196 151
109 176 146
109 176 146
116 196 151
39 55 45
42 62 47
48 70 63
50 76 64
48 70 63
117 196 152
117 196 152
117 196 152
117 196 152
110 176 147
110 176 147
110 176 147
110 176 147
117 196 152
59 84 75
57 79 73
57 79 73
59 84 75
59 84 75
59 84 75
59 84 75
59 84 75
57 79 73
52 72 60
52 72 60
52 72 60
52 72 60
52 72 60
52 72 60
50 67 59
50 67 59
117 196 152
117 196 152
117 196 152
110 176 147
117 196 152
110 176 147
109 176 146
109 176 146
109 176 146
116 196 151
109 176 146
116 196 151
109 176 146
109 176 146
109 176 146
109 176 146
109 176 146
109 176 146
116 196 151
116 196 151
116 196 151
116 196 151
116 196 151
109 176 146
109 176 146
109 176 146
109 176 146
116 196 151
116 196 151
109 176 146
109 176 146
109 176 146
117 196 151
117 196 151
117 196 151
117 196 151
117 196 151
117 196 151
117 196 151
117 196 151
117 196 151
110 176 147
117 196 152
110 176 147
110 176 147
110 176 147
110 176 147
110 176 147
110 176 147
110 176 147
110 176 147
117 196 152
117 196 152
117 196 152
117 196 152
117 196 152
110 176 147
117 196 152
110 176 147
110 176 147
110 176 147
110 176 147
117 196 152
117 196 152
110 176 147
117 196 152
117 196 152
115 178 153
116 178 153
116 178 153
106 164 116
53 69 62
53 69 62
53 69 62
55 75 63
53 70 62
106 164 116
52 69 61
52 69 61
52 69 61
52 69 61
52 69 61
52 69 61
106 163 116
106 163 115
115 178 152
115 178 152
122 196 157
122 196 157
122 196 157
52 68 61
52 68 61
52 68 61
52 68 61
54 74 62
56 76 64
55 75 64
105 163 115
99 145 110
98 145 110
105 163 114
121 196 156
114 178 152
121 196 156
121 196 156
121 196 156
97 144 108
97 144 108
113 177 151
102 162 110
119 196 154
119 196 154
119 196 154
119 196 154
119 196 154
119 196 154
119 196 154
112 177 149
119 196 154
112 177 150
51 68 60
58 80 75
58 80 74
60 85 76
60 85 76
60 85 75
58 79 74
57 79 74
57 79 74
121 196 157
115 178 152
115 178 152
52 72 60
52 72 60
52 72 60
52 72 60
99 157 108
121 196 156
121 196 156
121 196 156
121 196 156
121 196 156
121 196 156
114 178 151
114 178 151
114 178 151
114 178 151
114 178 151
121 196 156
121 196 156
49 69 56
46 63 54
46 63 54
119 196 154
55 80 70
45 61 52
45 61 52
44 61 52
44 61 51
46 66 53
45 65 51
45 65 51
45 65 51
45 65 51
45 64 50
45 64 50
45 65 51
45 65 51
45 65 51
45 65 51
45 65 51
45 65 51
45 65 51
45 65 51
42 59 49
42 59 49
42 59 49
44 64 50
42 58 49
42 58 49
42 58 49
42 59 49
42 59 49
43 59 49
45 65 51
45 65 51
42 59 49
44 64 50
42 59 49
42 59 49
42 59 49
43 59 49
43 59 50
51 73 66
51 73 66
51 73 66
119 197 154
112 178 149
51 73 66
53 78 67
53 78 67
53 78 67
119 197 154
119 197 154
119 197 154
43 59 49
43 59 49
43 59 49
43 59 49
42 59 49
42 59 49
42 59 49
43 59 49
43 59 50
43 59 50
43 59 50
43 59 50
43 59 50
43 59 49
43 59 49
43 59 50
43 60 50
46 66 52
43 60 50
42 59 49
42 59 49
42 58 49
42 58 49
118 197 153
111 178 148
111 178 148
118 197 153
118 197 153
118 197 153
118 197 153
39 56 45
39 56 45
39 56 45
39 55 45
117 197 152
117 197 152
117 197 152
117 197 152
117 197 152
117 197 152
110 177 147
109 177 147
109 177 147
109 177 147
117 197 151
109 177 146
109 177 146
117 196 151
117 196 151
109 177 146
109 177 146
109 177 146
109 177 146
116 196 151
116 196 151
116 196 151
116 196 151
116 196 151
116 196 151
109 177 146
116 196 151
109 176 146
109 176 146
109 176 146
109 176 146
109 176 146
109 176 146
116 196 151
116 196 151
116 196 151
116 196 151
109 176 146
109 176 146
109 176 146
116 196 151
116 196 151
109 176 146
91 153 98
91 153 98
109 176 146
109 176 146
109 176 146
109 176 146
116 196 151
39 55 45
42 62 47
50 75 64
48 69 62
48 69 62
110 176 147
110 176 147
110 176 147
117 196 152
117 196 152
117 196 152
110 176 147
110 176 147
93 154 100
118 196 153
56 78 73
56 78 73
56 78 73
121 196 156
121 196 156
59 84 74
59 84 74
57 78 73
57 78 73
57 78 73
117 196 152
110 176 147
110 176 147
117 196 152
117 196 152
110 176 147
110 176 147
110 176 147
110 176 147
110 176 147
110 176 147
117 196 152
109 176 146
109 176 146
109 176 146
116 196 151
109 176 146
109 176 146
116 196 151
116 196 151
109 176 146
109 176 146
116 196 151
116 196 151
109 176 146
116 196 151
109 176 146
109 176 146
116 196 151
116 196 151
109 176 146
109 176 146
116 196 151
109 176 146
109 176 146
116 196 151
109 176 146
116 196 151
116 196 151
116 196 151
116 196 151
116 196 151
116 196 151
109 176 146
109 176 146
109 176 146
109 176 146
109 176 146
109 176 146
117 196 151
117 196 151
117 196 151
109 176 147
109 176 147
110 176 147
110 176 147
110 176 147
117 196 152
117 196 152
117 196 152
117 196 152
110 176 147
110 176 147
117 196 152
110 176 147
110 176 147
117 196 152
117 196 152
110 176 147
117 196 152
117 196 152
117 196 152
117 196 152
110 176 147
115 178 153
115 178 153
115 178 153
122 196 157
115 178 153
61 86 77
61 86 77
61 86 77
106 164 116
52 69 61
52 69 61
52 69 61
52 69 61
52 69 61
54 71 63
106 163 115
99 145 111
99 145 110
115 178 152
115 178 152
115 178 152
115 178 152
115 178 152
122 196 157
60 85 76
60 85 76
60 85 76
60 85 76
55 75 64
105 163 115
99 145 110
98 145 110
105 163 114
105 163 114
103 162 112
113 177 150
113 177 150
119 196 153
112 177 149
119 196 153
112 177 149
112 177 149
102 161 110
119 196 154
119 196 154
112 177 149
119 196 154
119 196 154
119 196 154
119 196 154
112 177 149
112 177 149
58 79 74
58 79 74
59 84 75
57 79 74
115 178 152
115 178 152
115 178 152
115 178 152
114 178 152
121 196 156
52 72 60
52 72 60
52 72 60
52 72 60
52 72 60
52 72 60
52 72 60
50 66 58
50 66 58
50 66 58
49 66 58
49 66 58
51 71 59
51 71 59
51 71 58
51 71 58
49 65 57
121 196 156
121 196 156
121 196 156
90 137 100
119 196 154
119 196 154
112 177 150
119 196 154
45 61 52
45 61 52
45 61 52
44 61 52
44 61 51
45 65 51
45 65 51
45 65 51
45 65 51
42 59 49
45 64 50
45 65 51
45 65 51
45 65 51
45 65 51
45 65 51
45 65 51
45 65 51
45 65 51
45 65 51
45 65 51
42 59 49
44 64 50
44 64 50
42 58 49
42 58 49
42 59 49
42 59 49
43 59 49
43 59 49
43 59 49
45 65 51
42 59 49
42 59 49
42 59 49
42 59 49
43 59 49
53 78 67
53 78 67
119 197 154
119 197 154
112 178 149
87 135 97
42 59 49
42 59 49
42 59 49
42 59 49
87 135 96
42 58 49
42 59 49
43 59 49
43 59 50
43 59 49
43 59 49
43 59 49
42 59 49
42 59 49
43 59 49
43 59 50
43 60 50
43 59 50
45 65 51
43 59 50
45 65 51
43 59 49
43 59 50
43 60 50
52 74 67
54 79 68
42 59 49
42 59 49
42 59 49
41 57 47
41 57 47
86 134 95
118 197 153
118 197 153
111 178 148
118 197 153
111 178 148
39 56 45
39 56 45
39 56 45
117 197 152
117 197 152
110 177 147
117 197 152
117 197 152
117 197 152
109 177 147
109 177 147
117 197 151
109 177 146
109 177 146
109 177 146
109 177 146
117 197 151
109 177 146
117 197 151
117 196 151
117 196 151
116 196 151
109 177 146
109 177 146
109 177 146
109 177 146
109 177 146
109 177 146
116 196 151
109 177 146
116 196 151
116 196 151
109 176 146
109 176 146
116 196 151
116 196 151
116 196 151
116 196 151
116 196 151
109 176 146
116 196 151
109 176 146
109 176 146
108 176 146
108 176 146
108 176 146
108 176 146
40 60 45
40 60 45
40 60 45
40 60 45
40 60 45
40 60 45
40 60 45
39 55 45
42 62 47
47 69 62
47 69 62
109 176 147
117 196 151
109 176 147
109 176 147
109 176 147
117 196 151
117 196 151
109 176 147
117 196 151
109 176 147
109 176 147
109 176 147
109 176 147
117 196 151
109 176 147
117 196 151
117 196 151
117 196 151
117 196 151
121 196 156
121 196 156
117 196 151
117 196 151
117 196 151
117 196 151
117 196 151
110 176 147
117 196 151
110 176 147
110 176 147
110 176 147
110 176 147
92 141 101
116 196 150
108 176 146
108 176 146
108 176 146
108 176 146
109 176 146
116 196 151
116 196 151
109 176 146
116 196 151
116 196 151
109 176 146
109 176 146
109 176 146
109 176 146
109 176 146
109 176 146
109 176 146
109 176 146
116 196 151
109 176 146
109 176 146
116 196 151
116 196 151
116 196 151
116 196 151
116 196 151
109 176 146
109 176 146
116 196 151
116 196 151
116 196 151
109 176 146
109 176 146
109 176 146
116 196 151
109 176 146
116 196 151
116 196 151
117 196 151
117 196 151
117 196 151
117 196 151
117 196 151
109 176 147
109 176 147
109 176 147
109 176 147
117 196 151
117 196 151
117 196 152
110 176 147
117 196 152
110 176 147
110 176 147
117 196 152
110 176 147
110 176 147
110 176 147
117 196 152
117 196 152
117 196 152
117 196 152
54 74 62
54 74 62
54 74 62
115 178 153
115 178 153
115 178 153
122 196 157
122 196 157
52 69 61
52 69 61
52 69 61
52 69 61
54 74 63
56 76 64
106 163 115
99 145 111
99 145 110
51 67 59
53 73 61
53 73 61
53 73 61
99 157 109
115 178 152
121 196 157
122 196 157
122 196 157
122 196 157
104 163 113
104 163 113
96 143 106
112 177 150
112 177 150
112 177 150
96 144 107
103 162 112
102 161 110
101 161 109
118 196 153
111 177 149
118 196 153
118 196 153
111 177 149
119 196 153
112 177 149
112 177 149
112 177 149
119 196 154
119 196 154
112 177 149
112 177 149
119 196 154
57 79 74
57 79 73
52 72 60
52 72 60
52 72 60
50 67 59
52 72 60
52 72 60
52 72 60
52 72 60
52 72 60
52 72 60
52 72 60
53 72 60
52 72 60
52 72 60
52 72 60
52 72 60
50 66 58
50 66 58
49 66 58
49 66 58
51 71 59
51 71 59
51 71 59
51 71 58
49 65 57
48 65 57
48 65 56
120 196 155
57 82 72
45 62 53
45 62 53
47 67 54
45 61 52
52 74 67
54 79 69
54 79 69
54 79 69
44 61 52
46 66 53
45 65 51
45 65 51
45 65 51
45 65 51
45 65 51
45 65 51
45 65 51
45 65 51
45 65 51
45 65 51
45 65 51
45 65 51
45 65 51
45 65 51
43 59 49
42 59 49
42 59 49
42 59 49
44 64 50
42 58 49
42 59 49
42 59 49
43 59 49
53 78 67
51 72 66
53 78 67
42 59 49
42 59 49
42 59 49
53 78 67
53 78 67
53 78 67
119 197 153
112 178 149
119 197 153
42 59 49
42 59 49
43 59 49
42 59 49
42 59 49
42 59 49
42 59 49
42 58 49
42 59 49
43 59 49
43 59 50
43 59 50
43 59 49
43 59 49
43 59 49
42 59 49
43 59 49
43 59 50
43 60 50
43 60 50
43 59 50
43 59 50
43 59 50
43 59 50
43 59 50
54 79 68
54 79 68
52 73 67
54 79 68
42 59 49
42 59 49
41 57 47
41 57 47
41 57 47
41 57 47
118 197 153
118 197 153
118 197 153
111 178 148
40 56 45
39 56 45
39 56 45
38 55 44
40 60 45
38 54 44
40 60 45
40 60 45
117 197 151
117 197 151
109 177 146
117 197 151
117 197 151
117 197 151
117 197 151
109 177 146
117 197 151
109 177 146
116 197 151
116 197 151
109 177 146
109 177 146
109 177 146
116 196 151
116 196 151
109 177 146
109 177 146
116 196 151
109 177 146
109 177 146
116 196 151
116 196 151
116 196 151
116 196 151
116 196 151
116 196 151
116 196 151
116 196 151
108 176 146
108 176 146
40 60 44
40 60 44
40 60 44
91 153 97
108 176 145
108 176 145
40 60 44
40 60 45
40 60 45
40 60 45
40 60 45
40 60 45
40 60 45
40 60 45
39 55 45
49 75 63
49 75 63
49 75 63
117 196 151
117 196 151
117 196 151
109 176 146
117 196 151
117 196 151
117 196 151
117 196 151
109 176 146
109 176 146
109 176 146
109 176 146
109 176 146
109 176 146
117 196 151
109 176 146
109 176 146
117 196 151
117 196 151
117 196 151
117 196 151
109 176 146
109 176 146
109 176 146
117 196 151
109 176 146
109 176 146
117 196 151
117 196 151
117 196 151
117 196 151
117 196 151
99 160 106
116 196 150
116 196 150
116 196 150
108 176 145
116 196 150
116 196 150
108 176 145
108 176 145
108 176 145
108 176 146
116 196 150
108 176 146
116 196 150
108 176 146
108 176 146
109 176 146
109 176 146
109 176 146
116 196 151
116 196 151
116 196 151
116 196 151
116 196 151
109 176 146
109 176 146
109 176 146
109 176 146
109 176 146
116 196 151
116 196 151
116 196 151
109 176 146
116 196 151
116 196 151
116 196 151
116 196 151
116 196 151
116 196 151
109 176 146
109 176 146
109 176 146
116 196 151
116 196 151
116 196 151
109 176 146
109 176 146
109 176 146
109 176 146
109 176 146
109 176 146
117 196 151
117 196 151
109 176 147
117 196 151
109 176 147
117 196 151
117 196 152
110 176 147
110 176 147
117 196 152
110 176 147
110 176 147
110 176 147
52 69 61
54 74 62
54 70 63
115 178 152
115 178 152
115 178 152
115 178 152
115 178 152
122 196 157
122 196 157
61 85 77
61 86 77
61 86 77
56 76 64
106 163 115
99 145 111
99 145 110
53 73 61
53 73 61
53 73 61
53 73 61
53 73 61
53 69 61
115 178 152
115 178 152
115 178 152
115 178 152
104 163 113
104 163 113
96 143 106
95 143 106
112 177 149
112 177 150
112 177 150
112 177 150
102 161 110
101 161 109
101 161 109
118 196 153
118 196 153
118 196 153
118 196 153
118 196 153
118 196 153
118 196 153
111 177 149
111 177 149
119 196 153
112 177 149
112 177 149
112 177 149
52 72 60
52 72 60
52 72 60
52 72 60
53 73 61
52 72 60
52 72 60
52 72 60
52 72 60
52 72 60
52 72 60
52 72 60
52 72 60
53 72 61
52 72 60
52 72 60
52 72 60
52 72 60
50 66 58
50 66 58
50 66 58
49 66 58
51 71 59
51 71 59
51 71 59
51 71 58
51 71 58
120 196 155
120 196 155
120 196 155
57 82 72
48 67 54
45 62 53
119 196 154
119 196 154
54 79 68
54 79 68
54 79 68
54 79 68
52 73 67
54 79 68
45 65 51
45 65 51
45 65 51
45 65 51
45 65 51
45 65 51
45 65 51
45 65 51
45 65 51
45 65 51
45 65 51
45 65 51
45 65 51
43 59 49
45 65 51
43 59 49
42 59 49
42 59 49
42 59 49
42 58 49
42 59 49
42 59 49
51 72 65
53 78 67
53 78 67
53 78 67
50 72 65
53 78 67
42 59 49
42 59 49
42 59 49
42 58 49
42 58 49
42 58 48
42 58 49
42 59 49
42 59 49
43 59 49
42 59 49
42 59 49
42 59 49
42 59 49
42 58 49
42 59 49
43 59 49
43 59 50
43 59 50
43 59 50
43 59 49
43 59 49
42 59 49
43 59 49
43 59 50
54 79 68
54 79 68
54 79 68
54 79 68
54 79 68
54 79 68
54 79 68
54 79 68
112 178 149
119 197 154
119 197 154
42 59 49
42 59 49
41 58 48
41 57 47
41 57 47
118 197 153
118 197 153
118 197 153
118 197 153
118 197 153
40 56 46
40 56 45
39 56 45
41 61 46
38 55 44
38 55 44
40 60 45
117 197 151
117 197 151
117 197 151
117 197 151
117 197 151
117 197 151
117 197 151
109 177 146
109 177 146
117 197 151
116 197 151
116 197 151
109 177 146
116 197 151
116 197 151
116 197 151
116 197 151
116 197 151
116 196 151
109 177 146
109 177 146
116 196 151
116 196 151
116 196 151
116 196 151
116 196 151
109 176 146
108 176 146
108 176 146
108 176 145
108 176 145
108 176 145
91 153 97
40 60 45
40 60 44
40 60 44
40 60 44
40 60 44
40 60 44
40 60 44
40 60 45
40 60 45
40 60 45
40 60 45
40 60 45
40 60 45
40 60 45
39 55 45
49 74 63
49 74 63
49 74 63
116 196 151
109 176 146
109 176 146
109 176 146
109 176 146
116 196 151
116 196 151
109 176 146
109 176 146
42 62 47
42 62 47
42 62 47
42 62 47
42 62 47
42 62 47
40 56 46
85 134 94
116 196 151
116 196 151
109 176 146
109 176 146
109 176 146
109 176 146
109 176 146
109 176 146
109 176 146
109 176 146
109 176 146
116 196 151
116 196 151
116 196 151
116 196 151
91 140 100
116 196 150
116 196 150
116 196 150
116 196 150
116 196 150
116 196 150
108 176 145
108 176 145
108 176 145
108 176 145
108 176 145
108 176 145
108 176 145
108 176 145
116 196 150
116 196 150
116 196 150
116 196 150
116 196 150
108 176 146
108 176 146
108 176 146
116 196 150
109 176 146
109 176 146
109 176 146
109 176 146
109 176 146
109 176 146
109 176 146
109 176 146
109 176 146
116 196 151
116 196 151
116 196 151
116 196 151
116 196 151
116 196 151
109 176 146
109 176 146
109 176 146
109 176 146
109 176 146
109 176 146
109 176 146
116 196 151
116 196 151
116 196 151
109 176 146
116 196 151
116 196 151
109 176 146
109 176 146
109 176 146
109 176 146
109 176 146
117 196 151
109 176 147
109 176 147
109 176 147
109 176 147
110 176 147
110 176 147
110 176 147
111 177 148
56 76 64
99 145 111
53 73 61
53 73 61
53 73 61
53 73 61
51 68 60
115 178 152
122 196 157
122 196 157
122 196 157
122 196 157
99 145 111
105 163 115
53 73 61
53 73 61
51 67 60
53 73 61
53 73 61
53 73 61
53 69 61
98 145 110
114 178 152
95 143 105
112 177 149
119 196 154
119 196 154
112 177 149
112 177 149
112 177 149
119 196 154
112 177 149
102 161 110
102 161 110
101 161 109
101 161 109
94 142 104
111 177 148
111 177 148
118 196 153
111 177 148
111 177 148
111 177 148
111 177 148
111 177 148
118 196 153
118 196 153
118 196 153
118 196 153
52 72 60
52 72 60
52 72 60
52 72 60
53 73 61
53 72 61
52 72 60
50 67 59
52 72 60
52 72 60
52 72 60
52 72 60
52 72 60
53 72 61
53 73 61
52 72 60
52 72 60
52 72 60
50 67 58
50 66 58
50 66 58
50 66 58
49 66 58
51 71 59
51 71 59
51 71 59
51 71 58
47 64 55
47 64 55
47 64 55
47 63 55
44 61 51
119 196 154
119 196 154
112 177 149
119 196 154
119 196 154
112 177 149
119 196 154
112 177 149
51 73 66
45 65 51
43 59 50
45 65 51
45 65 51
43 59 49
45 65 51
45 65 51
45 65 51
51 73 66
51 72 66
51 72 66
51 72 66
51 72 66
51 72 66
53 78 67
53 78 67
53 78 67
53 78 67
53 78 67
53 78 67
53 78 67
52 78 67
52 78 67
119 197 153
111 178 149
119 197 153
42 58 48
42 58 49
42 59 49
42 59 49
42 59 49
42 58 49
42 58 49
42 58 48
42 58 49
42 59 49
42 59 49
43 59 49
43 59 49
42 59 49
42 59 49
42 59 49
42 59 49
42 59 49
43 59 49
43 59 50
43 59 50
43 59 50
43 59 50
43 59 49
43 59 49
43 59 49
54 79 68
51 73 66
54 79 68
54 79 68
53 79 68
51 73 66
53 79 68
51 73 66
112 178 149
112 178 149
119 197 154
119 197 154
51 73 66
53 78 67
41 58 48
41 58 48
41 57 47
40 56 46
40 56 46
40 56 46
40 56 46
40 56 46
51 76 64
48 70 63
40 56 45
38 55 44
38 55 44
38 55 44
38 55 44
117 197 151
109 177 146
117 197 151
117 197 151
117 197 151
117 197 151
109 177 146
117 197 151
109 177 146
109 177 146
109 177 146
109 177 146
116 197 151
116 197 151
109 177 146
116 197 151
116 197 151
116 197 151
116 197 151
109 177 146
109 177 146
109 177 146
109 177 146
116 196 151
108 177 146
39 59 44
39 59 44
37 53 42
39 59 44
39 59 44
83 133 92
108 176 145
39 59 44
40 60 45
40 60 45
40 60 45
40 60 44
40 60 44
40 60 44
40 60 45
41 61 46
41 60 45
40 60 45
40 60 45
40 60 45
40 60 45
40 60 45
47 68 61
47 68 61
49 74 62
109 176 146
116 196 151
109 176 146
109 176 146
116 196 151
116 196 151
109 176 146
109 176 146
109 176 146
42 62 47
42 62 47
42 62 47
42 62 47
42 62 47
42 62 47
40 56 46
40 56 46
40 56 46
40 56 46
40 56 46
42 62 47
109 176 146
116 196 151
116 196 151
116 196 151
116 196 151
116 196 151
116 196 151
109 176 146
116 196 151
116 196 151
109 176 146
116 196 151
98 160 105
38 54 43
38 54 43
38 54 43
38 54 43
38 54 43
38 54 43
115 196 150
108 176 145
115 196 150
108 176 145
108 176 145
108 176 145
116 196 150
116 196 150
116 196 150
116 196 150
116 196 150
108 176 145
116 196 150
116 196 150
108 176 145
108 176 145
108 176 145
108 176 145
108 176 145
108 176 145
108 176 146
116 196 150
116 196 150
116 196 150
116 196 151
116 196 151
109 176 146
109 176 146
109 176 146
109 176 146
109 176 146
109 176 146
116 196 151
116 196 151
109 176 146
109 176 146
116 196 151
116 196 151
109 176 146
116 196 151
109 176 146
116 196 151
109 176 146
116 196 151
116 196 151
116 196 151
109 176 146
109 176 146
109 176 146
116 196 151
109 176 146
109 176 146
117 196 151
117 196 151
117 196 151
117 196 151
109 176 147
117 196 151
111 177 148
99 146 111
99 157 109
53 73 61
53 73 61
53 73 62
53 73 62
53 73 62
99 145 110
115 178 152
115 178 152
115 178 152
115 178 152
115 178 152
99 145 110
53 73 61
53 73 61
53 73 61
53 73 61
53 73 61
51 68 60
99 145 110
98 145 110
105 163 114
95 143 105
95 143 105
112 177 149
119 196 154
119 196 154
119 196 154
112 177 149
112 177 149
119 196 154
111 177 148
111 177 148
101 161 109
94 142 104
94 142 104
94 142 104
118 196 153
118 196 153
111 177 148
111 177 148
111 177 148
111 177 148
111 177 148
111 177 148
118 196 153
118 196 153
111 177 148
52 72 60
52 72 60
52 72 60
53 72 60
53 73 61
53 73 61
50 67 59
52 72 60
52 72 60
52 72 60
52 72 60
52 72 60
52 72 60
57 79 74
57 79 74
57 79 74
57 79 73
57 79 73
57 79 73
59 84 75
50 66 58
50 66 58
50 66 58
51 71 59
51 71 59
51 71 59
51 71 59
47 64 55
47 64 55
120 196 155
120 196 155
44 61 51
44 61 51
44 60 51
44 60 51
112 177 149
119 196 154
119 196 154
119 196 153
119 196 153
119 196 153
51 73 66
51 73 66
43 59 50
45 65 51
45 65 51
45 65 51
53 78 67
51 72 65
51 72 65
50 72 65
53 78 67
53 78 67
50 72 65
52 78 67
52 78 67
52 78 67
52 78 66
52 78 66
42 58 48
42 58 49
42 59 49
42 58 49
42 58 49
44 64 50
42 58 48
42 58 48
42 58 48
42 58 49
42 59 49
42 59 49
44 64 50
44 64 50
42 58 49
42 58 49
42 58 49
42 59 49
42 59 49
43 59 49
43 59 49
43 59 49
42 59 49
42 59 49
42 59 49
42 59 49
43 59 49
52 73 66
54 79 68
54 79 68
54 79 68
54 79 68
51 73 66
51 73 66
51 73 66
112 178 149
119 198 154
112 178 149
112 178 149
119 198 154
112 178 149
112 178 149
112 178 149
112 178 149
112 178 149
119 198 154
53 78 67
53 78 67
41 58 48
41 58 48
41 58 48
40 56 46
40 56 46
40 56 46
40 56 46
118 197 153
118 197 153
50 76 64
48 70 62
41 61 46
41 61 46
38 55 44
41 60 45
37 53 43
37 53 43
37 53 43
37 53 42
37 53 42
37 53 42
39 59 44
37 53 42
39 59 44
39 59 44
39 59 43
90 152 96
116 197 151
116 197 151
116 197 151
116 197 151
109 177 146
116 197 151
116 197 151
116 197 151
116 197 151
108 177 146
108 177 146
116 196 150
108 177 145
39 59 44
37 53 42
39 59 44
39 59 44
39 59 44
39 59 44
39 59 44
39 59 44
40 60 45
40 60 45
40 60 45
40 60 45
40 60 45
40 60 44
40 60 45
41 61 46
41 61 46
41 61 46
41 60 45
40 60 45
40 60 45
41 60 45
46 68 60
46 68 60
48 74 62
109 176 146
109 176 146
109 176 146
41 61 46
41 61 46
39 55 45
39 55 45
41 61 46
41 61 46
42 62 47
42 62 47
42 62 47
42 62 47
42 62 47
42 62 47
40 56 46
40 56 46
40 56 46
40 56 46
40 56 46
40 56 46
116 196 151
116 196 151
116 196 151
116 196 151
116 196 151
109 176 146
109 176 146
109 176 146
109 176 146
109 176 146
109 176 146
109 176 146
98 159 104
38 54 43
38 54 43
38 54 43
38 54 43
38 54 43
38 54 43
108 176 145
115 196 150
115 196 150
108 176 145
108 176 145
108 176 145
115 196 150
108 176 145
108 176 145
108 176 145
108 176 145
108 176 145
115 196 150
115 196 150
108 176 145
108 176 145
116 196 150
108 176 145
108 176 145
108 176 145
116 196 150
108 176 145
108 176 145
116 196 150
108 176 145
116 196 150
108 176 145
108 176 145
108 176 146
108 176 146
108 176 146
108 176 146
109 176 146
116 196 151
109 176 146
109 176 146
116 196 151
116 196 151
116 196 151
109 176 146
109 176 146
109 176 146
116 196 151
109 176 146
109 176 146
116 196 151
109 176 146
109 176 146
109 176 146
109 176 146
109 176 146
109 176 146
109 176 146
116 196 151
116 196 151
116 196 151
109 176 146
117 196 151
117 196 151
118 196 152
53 73 61
53 73 62
53 73 62
53 73 62
53 73 62
53 70 62
99 145 110
98 145 110
121 196 156
121 196 156
115 178 152
115 178 152
115 178 152
53 73 61
53 73 61
53 73 61
53 73 61
104 163 113
121 196 156
121 196 156
121 196 156
95 143 106
95 143 105
102 161 110
118 196 153
119 196 153
119 196 153
112 177 149
112 177 149
119 196 154
101 161 108
93 142 103
110 177 148
110 177 148
118 196 152
111 177 148
111 177 148
111 177 148
118 196 153
118 196 153
118 196 153
118 196 153
118 196 153
118 196 153
118 196 153
111 177 148
111 177 148
118 196 153
52 72 60
52 72 60
52 72 60
53 72 60
53 73 61
53 73 61
53 73 61
52 72 60
52 72 60
52 72 60
52 72 60
57 79 73
57 79 73
57 79 73
57 79 73
57 78 73
59 84 74
59 84 74
59 84 74
59 84 74
59 84 74
58 83 74
56 78 72
56 78 72
56 78 72
56 78 72
56 78 72
113 178 150
120 196 155
113 178 150
113 178 150
113 178 150
44 61 51
119 196 153
111 177 149
119 196 153
111 177 149
111 177 149
119 196 153
111 177 149
111 177 149
51 72 66
51 72 65
50 72 65
50 72 65
50 72 65
53 78 67
52 78 67
50 72 65
118 197 153
118 197 153
118 197 153
42 58 49
118 197 153
111 178 148
111 178 148
118 197 153
118 197 153
42 58 48
42 58 48
42 58 49
42 59 49
42 59 49
42 58 49
42 58 48
42 58 48
42 58 48
42 58 48
42 58 49
42 59 49
42 59 49
45 64 50
42 59 49
44 64 50
42 58 49
42 58 49
42 59 49
42 59 49
43 59 49
54 79 68
54 79 68
43 59 49
42 59 49
42 59 49
53 79 68
53 79 68
53 79 68
119 198 154
53 79 67
53 79 67
51 73 66
51 73 66
51 73 66
112 178 149
119 198 154
112 178 149
119 198 154
119 198 154
119 198 154
119 198 154
112 178 149
119 198 154
112 178 149
112 178 149
112 178 149
112 178 149
112 178 149
119 198 154
41 58 48
41 58 48
40 56 46
40 56 46
40 56 46
118 198 153
118 198 153
118 197 153
118 197 153
118 197 153
84 133 93
39 55 44
38 55 44
38 55 44
37 54 43
37 53 43
37 53 43
37 53 43
39 59 44
37 53 42
39 59 44
39 59 44
39 59 44
39 59 44
39 59 44
109 177 146
109 177 146
109 177 146
109 177 146
109 177 146
109 177 146
90 152 96
39 59 43
39 59 43
36 53 42
39 58 43
90 152 96
108 177 145
39 59 43
39 59 44
39 59 44
39 59 44
39 59 44
39 59 44
39 59 44
39 59 44
39 59 44
40 60 45
40 60 45
40 60 45
40 60 45
40 60 45
40 60 45
40 60 45
46 68 60
48 74 62
46 68 60
48 74 62
46 68 60
46 68 60
41 60 45
46 68 60
48 74 62
109 176 146
109 176 146
116 196 151
91 153 98
41 61 46
41 61 46
41 61 46
41 61 46
39 55 45
41 61 46
42 62 47
42 62 47
42 62 47
42 62 47
42 62 47
42 62 47
40 56 46
40 56 46
40 56 46
40 56 46
40 56 46
40 56 46
39 55 45
39 55 45
39 55 45
39 55 45
92 153 98
116 196 151
109 176 146
109 176 146
109 176 146
109 176 146
109 176 146
109 176 146
38 54 43
38 54 43
38 54 43
38 54 43
38 54 43
38 54 43
38 54 43
115 196 150
115 196 150
115 196 150
115 196 150
115 196 150
115 196 150
115 196 150
115 196 150
108 176 145
115 196 150
108 176 145
108 176 145
108 176 145
115 196 150
115 196 150
115 196 150
115 196 150
115 196 150
115 196 150
115 196 150
115 196 150
108 176 145
116 196 150
108 176 145
108 176 145
116 196 150
108 176 145
108 176 145
108 176 145
108 176 145
108 176 145
108 176 145
108 176 145
116 196 150
116 196 150
108 176 146
116 196 150
116 196 150
116 196 151
116 196 151
109 176 146
109 176 146
109 176 146
109 176 146
109 176 146
109 176 146
109 176 146
116 196 151
116 196 151
116 196 151
116 196 151
116 196 151
116 196 151
109 176 146
109 176 146
109 176 146
116 196 151
116 196 151
116 196 151
109 176 146
118 196 152
110 177 148
118 196 152
110 177 148
111 177 148
111 177 148
118 196 153
98 145 110
121 196 156
121 196 156
121 196 156
121 196 156
121 196 156
121 196 156
57 79 74
57 79 74
58 79 74
104 163 113
96 143 106
112 177 150
112 177 150
95 143 106
102 161 110
102 161 110
102 161 109
118 196 153
118 196 153
118 196 153
118 196 153
111 177 149
93 142 103
100 161 108
93 142 103
110 177 147
110 177 148
110 177 148
110 177 148
110 177 148
110 177 148
118 196 152
111 177 148
111 177 148
118 196 153
118 196 153
118 196 153
118 196 153
111 177 148
111 177 148
52 72 60
52 72 60
52 72 60
53 72 60
57 79 74
57 79 74
57 79 73
57 79 73
57 79 73
52 72 60
52 72 60
52 72 60
50 66 58
52 72 59
98 157 108
121 196 156
121 196 156
121 196 156
121 196 156
121 196 156
114 178 151
114 178 151
56 78 72
56 78 72
56 77 72
113 178 150
113 178 150
113 178 150
113 178 150
113 178 150
113 178 150
120 196 155
45 65 51
43 59 50
87 135 97
118 196 153
111 177 148
118 196 153
111 177 148
118 196 153
118 196 153
118 196 153
50 72 65
52 78 66
52 78 66
52 78 66
50 72 65
118 197 153
118 197 153
111 178 148
42 58 48
42 58 49
42 58 49
42 58 49
42 58 48
44 64 50
42 58 48
42 58 48
42 58 48
42 58 48
42 58 49
42 59 49
42 59 49
42 58 49
42 58 49
42 58 48
42 58 48
42 58 48
42 58 49
42 59 49
43 59 49
42 59 49
42 59 49
42 59 49
42 59 49
42 58 49
42 59 49
51 73 66
53 79 68
53 79 68
53 79 68
53 79 67
51 73 66
42 59 49
42 59 49
42 59 49
42 59 49
42 58 49
42 58 49
44 64 50
44 64 50
44 64 50
119 198 154
112 179 149
112 179 149
119 198 154
119 198 154
119 198 154
119 198 154
119 198 154
119 198 154
119 198 154
119 198 154
112 179 149
119 198 154
112 179 149
119 198 154
119 198 154
52 78 66
52 78 66
40 57 46
40 56 46
40 56 46
41 61 46
41 61 46
39 55 45
39 55 45
39 55 44
118 198 152
50 75 63
50 75 63
48 69 62
37 54 43
37 54 43
39 59 44
37 53 43
37 53 43
39 59 44
39 59 44
39 59 44
39 59 44
39 59 44
109 177 146
109 177 146
109 177 146
109 177 146
109 177 146
109 177 146
116 197 151
39 59 43
39 59 43
39 59 43
39 59 43
39 59 43
39 58 43
36 52 41
39 59 43
39 59 44
39 59 44
39 59 44
39 59 44
39 59 44
39 59 44
39 59 44
40 59 44
40 60 45
40 60 45
40 60 45
40 60 45
40 60 45
40 60 45
40 60 45
46 68 60
46 68 60
46 68 60
46 68 60
48 73 61
46 67 60
41 61 46
41 60 45
41 60 45
40 60 45
40 60 45
40 60 45
41 61 46
41 61 46
41 61 46
41 61 46
39 55 45
39 55 45
41 61 46
42 62 47
40 56 46
42 62 47
42 62 47
42 62 47
40 56 46
40 56 46
40 56 46
40 56 46
40 56 46
40 56 46
40 56 46
41 61 46
39 55 45
39 55 45
39 55 45
39 55 45
41 61 46
116 196 151
116 196 151
116 196 151
116 196 151
116 196 151
116 196 151
38 54 43
38 54 43
38 54 43
38 54 43
38 54 43
38 54 43
38 54 43
37 53 42
37 53 42
37 53 42
37 53 42
37 53 42
37 53 42
37 53 42
115 196 150
108 176 145
108 176 145
108 176 145
115 196 150
108 176 145
108 176 145
115 196 150
108 176 145
115 196 150
115 196 150
108 176 145
108 176 145
108 176 145
108 176 145
108 176 145
108 176 145
108 176 145
108 176 145
108 176 145
115 196 150
115 196 150
116 196 150
116 196 150
116 196 150
116 196 150
116 196 150
108 176 145
108 176 145
116 196 150
116 196 150
108 176 145
116 196 150
108 176 146
108 176 146
116 196 150
116 196 150
109 176 146
109 176 146
109 176 146
116 196 151
116 196 151
116 196 151
116 196 151
116 196 151
116 196 151
116 196 151
116 196 151
109 176 146
109 176 146
109 176 146
109 176 146
109 176 146
117 196 152
117 196 152
110 177 147
110 177 147
117 196 152
110 177 148
118 196 152
118 196 152
112 177 149
119 196 154
112 177 149
121 196 156
121 196 156
104 162 112
120 196 155
120 196 155
120 196 155
120 196 155
96 143 106
95 143 106
118 196 153
118 196 153
118 196 153
118 196 153
118 196 153
101 161 109
118 196 153
118 196 153
111 177 148
118 196 153
93 142 103
93 142 103
93 142 103
100 161 107
117 196 152
117 196 152
117 196 152
117 196 152
117 196 152
118 196 152
118 196 152
110 177 148
118 196 152
118 196 152
118 196 152
118 196 153
118 196 153
111 177 148
52 72 60
57 79 73
57 79 73
57 79 73
114 178 152
114 178 152
57 78 73
52 72 60
52 72 60
52 72 60
52 72 60
52 72 60
52 72 60
52 72 60
50 66 58
49 66 58
49 66 58
49 66 58
49 66 57
51 71 59
51 71 58
51 71 58
51 70 58
113 178 150
113 178 150
113 178 150
113 178 150
113 178 150
113 178 150
119 196 154
119 196 154
119 196 154
45 65 51
43 59 50
43 59 50
45 65 51
118 196 153
118 196 153
111 177 148
118 196 153
111 177 148
118 197 153
42 58 49
42 58 48
94 154 101
118 197 153
118 197 153
118 197 153
86 135 96
42 58 48
42 58 48
42 58 49
42 59 49
44 64 50
42 58 49
44 64 50
44 64 50
42 58 48
42 58 48
42 58 49
42 58 49
42 59 49
42 59 49
42 59 49
42 58 49
42 58 49
42 58 48
42 58 49
42 59 49
42 59 49
53 79 68
51 73 66
53 79 68
53 79 68
51 73 66
51 73 66
53 79 67
53 79 67
51 73 66
119 198 154
112 179 149
119 198 154
42 58 49
42 59 49
42 59 49
42 59 49
42 59 49
42 59 49
42 58 49
42 58 49
44 64 50
44 64 50
44 64 50
44 64 50
44 64 49
41 58 48
41 58 48
41 58 48
41 58 48
41 57 47
43 63 49
43 63 49
93 154 100
112 179 149
119 198 154
112 179 149
119 198 154
119 198 154
119 198 154
112 179 149
40 57 46
40 57 46
40 56 46
39 55 45
39 55 45
39 55 45
39 55 45
111 178 148
118 198 152
50 75 63
50 75 63
50 75 63
37 54 43
40 60 44
40 60 44
37 54 43
37 53 43
37 53 43
39 59 44
39 59 44
39 59 44
37 53 42
38 58 42
38 58 42
38 58 42
90 152 96
109 177 146
109 177 146
38 58 43
39 59 43
37 53 42
39 59 43
39 59 43
39 59 43
36 53 42
39 59 43
39 59 43
39 59 44
39 59 44
39 59 44
39 59 44
39 59 44
39 59 44
37 53 42
40 60 44
48 73 61
46 68 60
46 67 60
46 67 60
48 73 61
46 67 60
48 73 61
48 73 61
48 73 61
109 176 146
116 196 151
109 176 146
91 153 97
41 61 46
41 61 46
41 61 46
41 60 45
41 60 45
41 60 45
41 61 46
41 61 47
41 61 47
41 61 46
41 61 46
41 61 46
41 61 46
47 69 62
49 75 63
47 69 62
47 69 62
50 75 63
42 62 47
40 56 46
40 56 46
40 56 46
40 56 46
40 56 46
40 56 46
39 55 45
39 55 45
39 55 45
39 55 45
39 55 45
39 55 45
116 196 150
108 176 145
116 196 150
108 176 145
116 196 150
116 196 150
38 54 43
38 54 43
38 54 43
38 54 43
38 54 43
38 54 43
38 54 43
37 53 42
37 53 42
37 53 42
37 53 42
37 53 42
37 53 42
37 53 42
115 195 150
108 176 145
115 195 150
115 195 150
108 176 145
115 195 150
115 195 150
108 176 145
108 176 145
108 176 145
108 176 145
108 176 145
108 176 145
115 196 150
108 176 145
108 176 145
108 176 145
108 176 145
115 196 150
108 176 145
115 196 150
115 196 150
115 196 150
115 196 150
115 196 150
108 176 145
108 176 145
115 196 150
108 176 145
108 176 145
108 176 145
108 176 145
108 176 145
116 196 150
116 196 150
116 196 150
116 196 150
116 196 150
116 196 150
108 176 146
116 196 150
108 176 146
108 176 146
109 176 146
116 196 151
116 196 151
116 196 151
116 196 151
109 176 146
116 196 151
109 176 146
109 176 146
109 176 146
109 176 146
110 176 147
117 196 152
117 196 152
110 176 147
117 196 152
117 196 152
110 177 147
110 177 147
119 196 153
119 196 153
119 196 154
119 196 154
119 196 154
112 177 149
112 177 149
112 177 149
112 177 149
112 177 149
101 161 109
101 161 108
118 196 153
111 177 148
111 177 148
118 196 153
111 177 148
111 177 148
111 177 148
111 177 148
94 142 104
93 142 103
100 161 108
93 142 103
100 161 107
100 160 107
117 196 152
117 196 152
110 176 147
117 196 152
117 196 152
117 196 152
117 196 152
110 177 147
110 177 148
110 177 148
110 177 148
110 177 148
110 177 148
52 72 60
52 72 60
50 67 59
52 72 60
52 72 60
52 72 59
52 72 60
52 72 60
52 72 60
52 72 60
52 72 60
52 72 60
52 72 60
52 72 60
52 72 60
50 66 58
51 71 59
49 66 58
51 71 59
51 71 59
51 71 58
114 178 151
114 178 151
48 68 55
48 68 54
48 68 54
45 62 53
112 178 150
112 178 150
112 178 150
112 178 150
119 196 154
119 196 154
43 60 50
118 196 153
118 196 153
118 196 153
118 196 153
118 197 153
118 197 153
86 135 96
42 58 48
42 58 49
42 58 49
44 64 50
42 58 48
42 58 48
42 58 48
42 58 48
42 58 48
42 58 48
42 58 49
42 59 49
42 59 49
42 58 49
44 64 50
44 64 50
44 64 50
42 58 48
42 58 49
42 59 49
42 59 49
45 64 50
42 59 49
42 59 49
42 58 49
42 58 49
42 58 49
42 59 49
53 79 67
53 79 67
53 79 67
51 73 66
53 78 67
53 78 67
42 58 49
42 59 49
44 64 50
44 64 50
42 58 48
44 64 50
42 58 48
42 58 49
42 59 49
42 59 49
42 59 49
42 59 49
42 59 49
42 59 49
42 58 49
44 64 50
44 64 50
44 64 50
44 64 50
44 64 50
42 58 48
41 58 48
41 58 48
41 58 48
41 58 48
43 63 49
43 63 49
43 63 49
43 63 49
112 179 149
112 179 149
112 179 149
112 179 149
112 179 149
112 179 149
119 198 154
50 72 64
52 77 66
41 61 46
41 61 46
39 55 45
118 198 153
111 178 148
118 198 152
118 198 152
118 198 152
118 198 152
40 60 44
40 60 44
37 54 43
37 54 43
37 54 43
37 53 43
39 59 44
39 59 44
39 59 44
37 53 42
36 52 41
38 58 43
38 58 42
36 52 41
38 58 42
38 58 42
38 58 43
39 59 43
39 59 43
37 53 42
39 59 43
36 53 42
39 59 43
39 59 43
39 59 43
39 59 44
39 59 44
39 59 44
39 59 44
39 59 44
39 59 44
37 53 42
46 67 60
46 67 60
46 67 59
48 73 61
45 67 59
48 73 61
48 73 61
48 73 61
45 67 59
48 73 61
116 196 151
116 196 150
116 196 150
40 60 45
41 61 46
41 61 46
41 61 46
41 61 46
41 61 46
41 61 46
41 61 46
41 61 47
41 61 47
41 61 47
41 61 47
41 61 47
41 61 46
47 69 61
47 69 61
47 69 61
47 69 61
47 69 61
47 69 61
49 75 63
49 75 63
49 75 63
47 69 61
47 69 61
49 75 63
39 55 45
39 55 45
39 55 45
39 55 45
39 55 45
39 55 45
38 54 44
38 54 44
38 54 44
38 54 44
84 133 93
108 176 145
38 54 44
38 54 44
38 54 44
38 54 44
38 54 44
38 54 44
42 62 47
37 53 42
37 53 42
37 53 42
37 53 42
37 53 42
37 53 42
37 53 42
115 195 149
115 195 149
115 195 149
115 195 149
115 195 149
115 195 150
115 195 150
115 195 150
108 176 145
108 176 145
108 176 145
108 176 145
108 176 145
108 176 145
115 195 150
108 176 145
115 195 150
108 176 145
108 176 145
108 176 145
115 195 150
108 176 145
108 176 145
108 176 145
108 176 145
108 176 145
115 196 150
115 196 150
115 196 150
108 176 145
108 176 145
108 176 145
108 176 145
108 176 145
116 196 150
116 196 150
108 176 145
116 196 150
116 196 150
116 196 150
108 176 145
108 176 145
108 176 145
108 176 145
108 176 145
108 176 146
116 196 150
108 176 146
41 61 46
41 61 46
41 61 46
41 61 46
41 61 46
41 61 46
41 61 46
110 176 147
117 196 152
117 196 152
117 196 152
117 196 152
117 196 152
117 196 152
110 176 147
110 176 147
110 176 147
110 177 147
110 177 147
110 177 147
118 196 152
118 196 152
118 196 152
118 196 152
118 196 152
118 196 152
101 161 108
118 196 153
118 196 153
118 196 153
118 196 153
111 177 148
118 196 153
111 177 148
94 142 103
93 142 103
93 142 103
93 141 103
93 141 103
100 160 107
100 160 107
110 176 147
117 196 152
117 196 152
117 196 152
117 196 152
110 176 147
117 196 152
110 176 147
110 176 147
110 177 147
110 177 147
110 177 147
52 72 60
52 72 60
52 72 60
52 72 60
52 72 60
52 72 60
52 72 60
52 72 60
52 72 60
52 72 60
52 72 60
52 72 60
52 72 60
52 72 60
52 72 60
52 72 60
50 66 58
49 66 58
49 66 58
51 71 59
114 178 151
114 178 151
114 178 151
46 62 53
48 68 55
112 178 150
112 178 149
112 178 149
112 178 149
112 178 149
112 178 149
119 196 154
118 196 153
118 196 153
111 177 148
111 177 148
118 197 153
118 197 153
111 177 148
42 58 48
42 58 48
42 58 48
42 58 49
42 58 49
42 58 49
44 64 50
42 58 48
42 58 48
42 58 48
42 58 48
42 58 48
42 58 49
42 59 49
42 59 49
42 58 49
42 58 49
42 58 48
42 58 48
42 58 48
42 58 49
42 59 49
53 79 67
53 78 67
53 78 67
53 78 67
53 78 67
53 78 67
44 64 50
53 78 67
53 78 67
53 78 67
51 73 66
53 78 67
42 58 48
42 58 48
42 58 49
42 59 49
44 64 50
44 64 50
42 58 48
42 58 48
42 58 48
42 58 49
42 59 49
42 59 49
43 59 49
42 59 49
42 59 49
42 59 49
42 59 49
44 64 50
44 64 50
44 64 50
44 64 50
44 64 50
42 58 48
42 58 48
41 58 48
41 58 48
41 58 48
43 63 49
43 63 49
43 63 49
112 179 149
112 179 149
112 179 149
112 179 149
112 179 149
119 198 154
119 198 154
119 198 154
52 77 66
52 77 66
39 55 45
39 55 45
111 178 148
111 178 148
111 178 148
110 178 148
110 178 148
110 178 147
118 198 152
47 69 61
49 75 63
49 75 63
37 54 43
37 54 43
40 59 44
39 59 44
39 59 44
39 59 44
39 59 44
38 58 43
36 52 41
38 58 43
38 58 42
38 58 42
38 58 42
38 58 43
39 59 43
37 53 42
39 59 43
37 53 42
39 59 43
39 59 43
36 53 42
39 59 43
46 68 60
46 67 60
46 67 60
46 67 59
48 73 61
48 73 61
45 67 59
45 67 59
48 73 61
45 67 59
109 177 146
109 177 146
116 196 151
109 176 146
116 196 150
116 196 150
116 196 150
116 196 150
108 176 145
116 196 150
40 60 45
41 61 46
41 61 46
41 61 46
41 61 46
41 61 46
41 61 46
41 61 46
47 69 61
47 68 61
47 68 61
47 68 61
47 68 61
49 74 62
47 68 61
47 68 61
47 68 61
109 176 146
109 176 146
109 176 146
109 176 146
49 74 63
49 74 63
49 74 63
49 74 63
49 74 63
39 55 45
39 55 45
39 55 45
39 55 45
39 55 45
39 55 45
38 54 44
38 54 44
38 54 44
38 54 44
38 54 44
38 54 44
108 176 145
45 67 59
47 73 61
47 73 61
47 73 61
47 73 61
42 62 47
37 53 42
37 53 42
37 53 42
37 53 42
37 53 42
37 53 42
41 61 46
36 52 41
36 52 41
36 52 41
36 52 41
115 195 149
115 195 149
115 195 149
107 176 144
107 176 144
107 176 144
115 195 149
107 176 144
107 176 145
107 176 145
115 195 150
115 195 150
115 195 150
115 195 150
115 195 150
115 195 150
115 195 150
108 176 145
115 195 150
108 176 145
108 176 145
108 176 145
108 176 145
108 176 145
108 176 145
108 176 145
115 196 150
115 196 150
115 196 150
115 196 150
115 196 150
108 176 145
108 176 145
115 196 150
115 196 150
115 196 150
116 196 150
116 196 150
116 196 150
108 176 145
108 176 145
108 176 145
108 176 145
108 176 145
41 61 46
39 55 45
41 61 46
41 61 46
41 61 46
41 61 46
110 176 147
117 196 152
117 196 152
117 196 152
117 196 152
117 196 152
117 196 152
117 196 152
117 196 152
110 176 147
110 176 147
117 196 152
110 176 147
117 196 152
117 196 152
117 196 152
117 196 152
117 196 152
110 177 148
118 196 152
118 196 152
110 177 148
118 196 152
111 177 148
111 177 148
111 177 148
118 196 153
111 177 148
93 142 103
100 161 108
93 142 103
100 161 108
100 161 107
100 160 107
41 58 48
41 58 48
41 58 48
41 58 48
42 58 48
42 58 48
42 58 48
44 64 50
100 160 107
117 196 152
117 196 152
117 196 152
117 196 152
52 72 60
52 72 60
52 72 60
52 72 60
50 67 59
52 72 60
52 72 60
52 72 60
52 72 60
52 72 60
52 72 60
52 72 60
52 72 60
52 72 60
52 72 60
52 72 60
52 72 59
50 66 58
49 66 58
49 66 58
50 70 57
50 70 57
50 69 57
113 178 151
119 196 154
112 178 149
119 196 154
112 178 149
112 178 149
112 178 149
111 177 148
111 177 148
118 196 153
111 177 148
111 177 148
118 197 153
118 197 153
44 63 49
42 58 48
42 58 48
42 58 48
42 58 48
42 58 49
42 59 49
42 58 49
42 58 49
42 58 48
42 58 48
42 58 48
42 58 48
42 58 48
42 58 49
42 59 49
42 59 49
44 64 50
42 58 49
42 58 49
42 58 48
42 58 48
42 58 49
53 78 67
53 78 67
53 78 67
53 78 67
53 78 67
51 73 66
42 58 48
42 58 49
44 64 50
42 58 48
42 58 48
42 58 48
42 58 48
42 58 48
42 58 48
42 58 49
42 59 49
42 59 49
42 58 49
44 64 50
42 58 48
44 64 50
42 58 49
42 59 49
42 59 49
43 59 49
42 59 49
42 59 49
42 59 49
42 59 49
44 64 50
44 64 50
44 64 50
44 64 50
44 64 50
42 58 48
42 58 48
42 58 48
41 58 48
41 58 48
43 63 49
43 63 49
43 63 49
42 62 48
42 62 47
42 62 47
92 153 99
112 179 149
119 198 154
112 179 149
119 198 154
112 179 149
119 198 154
39 56 45
118 198 153
111 178 148
111 178 148
118 198 153
111 178 148
110 178 148
110 178 148
118 198 152
110 178 147
47 69 61
47 69 61
49 75 62
49 75 62
47 69 61
47 68 61
47 68 61
47 68 60
49 74 62
38 58 43
36 52 41
36 52 41
38 58 43
36 52 41
38 58 42
38 58 43
39 59 43
39 59 43
39 59 43
39 59 43
39 59 43
37 53 42
39 59 43
39 59 43
46 67 59
46 67 59
45 67 59
45 67 59
45 67 59
45 67 59
45 67 59
47 73 61
45 67 59
116 196 151
109 177 146
108 177 146
108 177 146
37 53 42
37 53 42
37 53 42
37 53 42
39 59 44
37 53 42
37 53 42
40 60 45
41 61 46
39 55 44
41 61 46
41 61 46
41 61 46
41 61 46
47 68 61
46 68 61
49 74 62
49 74 62
46 68 61
49 74 62
49 74 62
46 68 61
49 74 62
116 196 151
116 196 151
109 176 146
116 196 151
109 176 146
109 176 146
109 176 146
116 196 151
109 176 146
116 196 151
39 55 45
39 55 45
39 55 45
39 55 45
39 55 45
39 55 45
38 54 44
38 54 44
38 54 44
38 54 44
38 54 44
38 54 44
108 176 145
115 196 150
115 196 150
47 73 60
47 73 60
45 67 59
98 159 104
37 53 43
37 53 43
37 53 43
37 53 43
37 53 43
37 53 43
41 61 46
36 52 41
38 58 43
36 52 41
36 52 41
38 58 43
39 58 43
36 52 41
115 195 149
115 195 149
115 195 149
115 195 149
115 195 149
107 176 144
115 195 149
107 176 144
107 176 144
115 195 149
115 195 149
115 195 149
115 195 149
115 195 150
115 195 150
115 195 150
108 176 145
115 195 150
108 176 145
108 176 145
108 176 145
115 195 150
115 195 150
115 195 150
108 176 145
115 195 150
108 176 145
115 196 150
108 176 145
108 176 145
108 176 145
108 176 145
108 176 145
108 176 145
108 176 145
40 60 45
40 60 45
40 60 45
40 60 45
40 60 45
40 60 45
91 153 98
41 61 46
41 61 46
41 61 46
41 61 46
41 61 46
117 196 152
117 196 152
117 196 152
110 176 147
110 176 147
110 176 147
110 176 147
110 176 147
110 176 147
110 176 147
41 58 48
44 64 49
44 64 49
44 64 49
93 154 101
110 176 147
117 196 152
117 196 152
117 196 152
110 176 147
110 176 147
117 196 152
117 196 152
118 196 152
110 177 148
110 177 148
118 196 152
110 177 148
111 177 148
93 142 103
100 161 108
100 161 108
100 161 107
100 160 107
41 58 48
44 64 49
42 58 48
42 58 48
42 58 48
42 58 48
42 58 48
42 58 48
100 160 107
93 141 102
110 176 147
117 196 152
117 196 152
52 72 60
52 72 60
52 72 60
52 72 60
52 72 60
50 67 59
52 72 60
52 72 60
52 72 60
52 72 60
57 79 74
57 79 74
57 79 73
57 79 73
57 79 73
57 79 73
59 84 74
59 84 74
59 84 74
49 66 58
48 64 56
113 178 151
113 178 150
113 178 150
47 67 53
47 66 53
46 66 53
46 66 53
112 178 149
111 177 148
111 177 148
111 177 148
111 177 148
118 197 153
111 177 148
43 63 49
43 63 49
44 64 49
44 64 49
42 58 48
42 58 48
42 58 48
42 58 49
42 59 49
42 59 49
42 58 49
42 58 48
42 58 48
44 64 50
42 58 48
42 58 48
42 58 49
53 78 67
53 78 67
53 78 67
53 78 67
53 78 67
53 78 67
51 72 65
51 72 65
53 78 67
53 78 67
51 72 65
53 78 67
86 135 96
42 58 48
42 58 48
42 58 49
42 58 49
42 58 48
44 64 50
44 64 50
42 58 48
42 58 48
42 58 48
42 58 49
42 59 49
42 59 49
42 59 49
42 58 49
42 58 49
42 58 48
42 58 49
42 59 49
54 80 69
54 80 69
54 80 69
54 80 69
54 80 69
54 80 68
52 74 67
52 74 67
44 64 50
44 64 50
44 64 50
42 58 48
42 58 48
42 58 48
42 58 48
41 58 48
44 63 49
43 63 49
43 63 49
40 56 46
42 62 48
42 62 47
40 56 46
112 179 149
112 179 149
119 199 154
119 199 154
112 179 149
112 179 149
119 199 154
39 59 44
91 153 97
111 179 148
111 179 148
111 179 148
111 178 148
118 198 153
118 198 152
118 198 152
110 178 147
47 69 61
49 75 62
47 69 61
49 74 62
47 68 60
47 68 60
46 68 60
46 68 60
38 58 43
36 52 41
38 58 43
38 58 43
38 58 43
38 58 43
38 58 43
39 59 43
48 74 61
48 74 61
48 73 61
46 67 59
48 73 61
46 67 59
48 73 61
45 67 59
48 73 61
109 177 146
109 177 146
116 197 151
109 177 146
109 177 146
116 197 151
47 73 60
116 197 151
108 177 146
116 196 150
37 53 42
37 53 42
39 59 44
39 59 44
37 53 42
37 53 42
39 59 44
37 53 42
40 60 45
46 68 61
46 68 61
46 68 60
49 74 62
46 68 60
46 68 60
48 74 62
46 68 60
46 68 60
116 196 151
116 196 151
116 196 151
109 176 146
116 196 151
48 74 62
116 196 151
116 196 151
109 176 146
109 176 146
109 176 146
116 196 151
109 176 146
109 176 146
109 176 146
109 176 146
116 196 151
48 74 62
46 68 60
46 68 60
48 74 62
38 54 44
38 54 44
38 54 44
38 54 44
38 54 44
38 54 44
38 54 44
108 176 145
108 176 145
108 176 145
108 176 145
115 196 150
115 196 150
83 133 92
37 53 43
37 53 43
37 53 43
37 53 43
37 53 43
37 53 43
97 159 103
36 52 41
39 58 43
36 53 41
36 53 41
36 53 42
36 53 42
39 59 43
107 175 144
115 195 149
115 195 149
115 195 149
115 195 149
115 195 149
115 195 149
107 176 144
115 195 149
107 176 144
107 176 144
107 176 144
107 176 144
107 176 144
107 176 144
115 195 149
107 176 144
115 195 149
107 176 145
107 176 145
115 195 150
115 195 150
115 195 150
115 195 150
115 195 150
115 195 150
115 195 150
115 195 150
115 195 150
115 195 150
108 176 145
108 176 145
108 176 145
108 176 145
108 176 145
108 176 145
40 60 45
40 60 45
40 60 45
40 60 45
40 60 45
40 60 45
41 61 46
41 61 46
41 61 46
41 61 47
41 61 47
117 196 151
117 196 151
117 196 151
117 196 151
110 176 147
110 176 147
110 176 147
110 176 147
110 176 147
110 176 147
44 64 49
44 64 49
44 64 50
44 64 50
42 58 48
44 64 50
42 58 48
42 58 48
42 58 48
42 58 48
42 58 48
42 58 49
42 58 49
117 196 152
110 176 147
117 196 152
117 196 152
117 196 152
118 196 152
118 196 152
100 161 108
100 161 108
100 161 107
100 160 107
41 58 48
42 58 48
42 58 48
42 58 48
42 58 48
44 64 50
42 58 48
46 66 52
100 160 107
100 160 107
100 160 107
110 176 147
110 176 147
52 72 60
52 72 60
52 72 60
52 72 60
52 72 60
52 72 60
52 72 60
52 72 60
57 79 73
57 79 73
57 79 73
57 78 73
57 78 73
57 78 73
59 84 74
59 84 74
59 84 74
58 84 74
58 83 74
56 78 72
97 156 105
113 178 150
113 178 150
113 178 150
47 67 53
47 67 53
112 178 149
111 177 148
118 196 153
118 196 153
118 196 153
118 197 153
118 197 153
93 154 100
43 63 49
43 63 49
43 63 49
44 64 49
44 64 49
42 58 48
42 58 48
42 58 49
42 58 49
42 59 49
42 59 49
42 58 49
42 58 49
42 58 48
42 58 48
42 58 48
42 58 49
53 78 67
53 78 67
53 78 67
53 78 67
51 72 65
53 78 67
51 72 65
51 72 65
53 78 67
51 72 65
50 72 65
50 72 65
43 63 49
41 58 48
42 58 48
42 58 48
42 58 49
42 58 49
42 58 49
42 58 48
42 58 48
42 58 48
42 58 48
42 58 48
42 58 49
42 59 49
42 59 49
42 59 49
42 59 49
42 58 49
42 58 49
42 58 49
54 80 68
54 80 68
54 80 68
54 80 68
54 80 68
54 80 68
52 74 67
52 74 67
52 74 67
52 74 67
52 74 67
52 74 67
54 79 68
54 79 68
54 79 68
54 79 68
54 79 68
52 73 66
52 73 66
43 63 49
42 62 48
42 62 48
42 62 48
112 179 149
112 179 149
119 199 154
112 179 149
119 199 154
112 179 149
119 199 154
119 199 154
39 59 44
39 59 44
37 53 43
39 59 44
39 59 44
111 179 148
111 179 148
118 198 153
118 198 152
110 178 147
110 178 147
118 198 152
118 198 152
110 178 147
110 178 147
110 178 147
110 178 147
110 178 147
38 58 43
38 58 43
38 58 43
38 58 43
38 58 43
38 58 43
38 58 43
46 68 60
46 67 59
48 73 61
46 67 59
48 73 61
45 67 59
45 67 59
48 73 61
48 73 60
47 73 60
116 197 151
116 197 151
116 197 151
36 53 42
36 53 42
36 52 41
36 52 41
38 58 43
83 132 91
116 197 150
37 53 42
39 59 44
37 53 42
37 53 42
37 53 42
37 53 42
37 53 42
37 53 43
40 60 45
46 68 60
46 68 60
46 68 60
46 68 60
46 68 60
46 68 60
48 74 62
48 74 62
48 74 62
116 196 151
109 176 146
116 196 151
109 176 146
116 196 151
116 196 151
109 176 146
109 176 146
109 176 146
109 176 146
109 176 146
109 176 146
116 196 151
109 176 146
109 176 146
116 196 151
109 176 146
116 196 151
48 74 62
48 74 62
48 74 62
38 54 44
38 54 44
38 54 44
38 54 44
38 54 44
38 54 44
38 54 44
108 176 145
115 196 150
108 176 145
108 176 145
108 176 145
108 176 145
115 196 150
47 72 60
47 72 60
44 66 58
47 72 60
47 72 60
45 66 59
97 159 103
39 59 43
39 59 43
36 53 42
39 59 43
36 53 42
36 53 42
36 53 42
96 159 102
114 195 149
114 195 149
115 195 149
115 195 149
115 195 149
115 195 149
115 195 149
107 175 144
107 175 144
107 175 144
107 175 144
115 195 149
115 195 149
107 176 144
115 195 149
115 195 149
107 176 144
115 195 149
115 195 149
115 195 149
115 195 149
107 176 144
107 176 144
107 176 145
107 176 145
108 176 145
115 195 150
108 176 145
37 53 42
39 59 44
39 59 44
91 152 97
108 176 145
108 176 145
108 176 145
40 60 45
40 60 45
40 60 45
40 60 45
40 60 45
41 61 46
41 61 46
41 61 47
41 61 47
41 61 47
47 69 62
47 69 62
109 176 146
117 196 151
109 176 146
43 63 48
43 63 48
43 63 48
43 63 48
93 154 100
110 176 147
110 176 147
44 64 50
44 64 50
44 64 50
44 64 50
42 58 48
42 58 48
42 58 48
42 58 48
42 58 49
42 58 49
44 64 50
44 64 50
100 161 107
117 196 152
117 196 152
117 196 152
117 196 152
117 196 152
110 176 147
110 177 147
100 161 107
100 161 107
42 58 48
42 58 48
44 64 50
42 58 48
42 58 48
42 58 48
42 58 48
42 58 48
46 66 52
93 141 102
100 160 107
100 160 107
41 57 47
41 57 47
117 196 152
57 79 74
57 79 73
57 79 73
57 79 73
57 79 73
57 78 73
59 84 74
59 84 74
59 84 74
59 84 74
59 84 74
121 196 156
121 196 156
121 196 156
121 196 156
121 196 156
114 178 152
114 178 151
56 78 72
49 69 56
49 69 56
46 63 54
48 68 55
112 178 149
118 196 153
111 177 148
111 177 148
118 196 153
111 177 148
118 197 153
118 197 153
41 57 47
41 57 47
43 63 49
43 63 49
43 63 49
44 64 49
44 64 49
42 58 48
42 58 48
42 58 49
42 58 49
53 78 67
53 78 67
53 78 67
53 78 67
53 78 67
53 78 67
50 72 65
50 72 65
53 78 67
119 197 154
119 197 154
119 197 154
119 198 154
112 178 149
119 198 154
112 178 149
112 178 149
112 178 149
119 198 154
43 63 49
43 63 49
41 58 48
42 58 48
42 58 48
42 58 49
42 59 49
42 58 49
42 58 49
42 58 48
42 58 48
42 58 48
42 58 48
42 59 49
54 80 68
54 80 68
54 80 68
54 80 68
54 80 68
54 80 68
52 74 67
52 74 67
52 74 67
54 80 68
54 80 68
54 79 68
113 180 150
113 180 150
113 180 150
113 180 150
52 74 67
54 79 68
54 79 68
54 79 68
54 79 68
54 79 68
54 79 68
52 73 66
52 73 66
52 73 66
52 73 66
42 62 48
40 56 46
84 134 94
41 61 46
41 61 46
41 61 46
112 179 149
112 179 149
119 199 154
112 179 149
119 199 154
40 59 44
39 59 44
39 59 44
39 59 44
111 179 148
111 179 148
118 199 153
118 199 153
118 199 153
118 199 152
110 179 147
118 198 152
110 178 147
118 198 152
118 198 152
118 198 152
117 198 152
117 198 152
46 68 60
46 68 60
46 68 60
46 68 60
46 68 60
38 58 43
48 74 61
46 67 59
48 73 61
46 67 59
109 178 146
109 177 146
109 177 146
47 73 60
47 73 60
47 73 60
116 197 151
116 197 151
116 197 151
116 197 151
36 53 42
36 53 42
39 59 43
36 53 42
36 52 41
36 52 41
36 52 41
37 53 42
37 53 43
37 53 42
37 53 42
39 59 44
39 59 44
39 59 44
37 54 43
48 74 61
46 68 60
46 68 60
46 68 60
48 74 61
46 68 60
116 196 151
109 176 146
48 73 61
109 176 146
116 196 151
116 196 151
116 196 151
109 176 146
109 176 146
109 176 146
109 176 146
109 176 146
109 176 146
116 196 151
116 196 151
116 196 151
116 196 150
108 176 146
116 196 150
108 176 146
108 176 146
108 176 146
108 176 146
108 176 146
116 196 150
38 55 44
38 55 44
38 55 44
38 55 44
38 55 44
38 55 44
38 55 44
108 176 145
108 176 145
115 196 150
108 176 145
115 196 150
108 176 145
115 196 150
108 176 145
108 176 145
46 72 60
46 72 60
47 72 60
44 66 58
97 159 103
36 53 42
36 53 42
36 53 42
39 59 43
36 53 42
36 53 42
41 61 45
36 52 41
36 52 41
38 58 42
36 52 41
36 52 41
36 52 41
36 52 41
36 52 41
107 175 144
114 195 149
115 195 149
107 175 144
107 175 144
107 175 144
107 175 144
115 195 149
107 175 144
115 195 149
115 195 149
115 195 149
107 176 144
107 176 144
107 176 144
107 176 144
115 195 149
107 176 144
115 195 149
107 176 144
115 195 149
39 59 44
39 59 44
39 59 44
37 53 42
37 53 42
39 59 44
39 59 44
40 60 45
40 60 45
40 60 45
40 60 45
40 60 45
41 61 47
41 61 47
41 61 47
41 61 47
41 61 47
49 74 63
47 69 61
47 69 61
109 176 146
109 176 146
109 176 146
43 63 48
43 63 48
43 63 48
43 63 48
43 63 48
43 63 48
44 64 50
44 64 50
44 64 50
44 64 50
42 58 48
42 58 48
44 64 50
42 58 49
42 58 49
42 58 49
42 58 49
46 66 52
100 161 107
100 160 107
110 176 147
117 196 152
117 196 152
117 196 152
117 196 152
117 196 152
117 196 152
93 141 102
42 58 48
42 58 48
42 58 48
42 58 48
44 64 50
42 58 48
42 58 48
42 58 48
46 66 52
100 160 107
100 160 107
100 160 107
41 57 47
41 57 47
117 196 152
117 196 152
110 177 147
110 177 147
110 177 147
110 177 147
110 177 147
110 177 147
117 196 151
117 196 151
121 196 156
114 178 152
114 178 151
114 178 151
114 178 151
114 178 151
118 196 153
118 196 153
118 196 152
118 196 152
118 196 152
49 69 56
119 196 154
110 177 148
118 196 152
118 196 152
110 177 148
118 197 152
110 177 148
118 197 152
41 57 47
41 57 47
41 57 47
41 57 47
43 63 49
43 63 49
43 63 49
44 64 49
44 64 49
42 58 48
42 58 48
53 78 67
53 78 67
50 72 65
53 78 67
50 72 65
52 78 66
52 78 66
50 72 65
50 72 65
50 72 65
112 178 149
112 178 149
119 198 154
43 63 49
43 63 49
43 63 49
43 63 49
43 63 49
43 63 49
43 63 49
43 63 49
43 63 49
43 63 49
44 64 49
42 58 48
42 58 48
42 58 49
42 59 49
44 64 50
42 58 49
42 58 49
42 58 48
44 64 50
42 58 49
54 80 68
54 80 68
54 80 68
54 79 68
54 79 68
54 79 68
52 74 67
52 74 67
52 74 67
52 74 67
52 74 67
93 154 101
44 64 50
42 58 48
44 64 49
44 63 49
43 63 49
43 63 49
43 63 49
86 135 95
121 199 155
121 199 155
121 199 155
113 180 150
113 180 150
113 180 150
113 180 150
52 73 66
42 62 48
42 62 48
42 62 48
41 61 46
41 61 46
41 61 46
41 61 46
112 180 149
112 180 149
112 180 149
119 199 154
40 60 44
40 59 44
39 59 44
111 179 148
118 199 153
111 179 148
118 199 153
118 199 153
111 179 148
111 179 148
118 199 153
118 199 152
118 199 152
118 199 152
118 199 152
118 198 152
118 198 152
110 178 147
117 198 152
46 68 60
46 68 60
46 68 60
46 68 59
46 68 59
46 67 59
48 73 61
48 73 61
117 198 151
109 178 146
117 198 151
36 52 41
36 52 41
36 52 41
82 132 91
116 197 151
109 177 146
116 197 151
36 52 41
36 53 42
36 53 42
36 53 42
36 53 42
36 53 42
36 53 42
36 52 41
37 53 42
37 53 43
39 59 44
37 53 43
39 59 44
37 53 42
37 53 42
37 54 43
48 73 61
46 67 60
48 73 61
46 67 60
48 73 61
48 73 61
38 54 43
38 54 43
38 54 43
38 54 43
38 54 43
84 133 92
108 176 146
108 176 146
108 176 146
108 176 146
108 176 145
116 196 150
108 176 145
116 196 150
108 176 145
116 196 150
116 196 150
116 196 150
108 176 145
108 176 145
116 196 150
116 196 150
108 176 145
108 176 145
108 176 145
116 196 150
48 73 61
46 67 60
46 67 60
48 73 61
48 73 61
98 159 104
39 59 43
39 59 43
36 53 42
36 53 42
36 53 42
83 132 91
107 176 145
115 196 150
115 196 150
108 176 145
115 196 150
115 196 150
108 176 145
39 59 43
36 53 42
36 53 42
39 59 43
39 59 43
36 53 42
37 53 42
41 61 45
36 52 41
36 52 41
38 58 42
36 52 41
36 52 41
36 52 41
38 58 42
36 52 41
114 195 149
114 195 149
114 195 149
114 195 149
114 195 149
114 195 149
114 195 149
36 52 41
38 58 42
36 52 41
36 52 41
36 52 41
38 58 42
82 132 91
107 175 144
107 175 144
107 175 144
107 175 144
107 176 144
107 176 144
115 195 149
115 195 149
39 59 44
39 59 44
39 59 44
39 59 44
39 59 44
39 59 44
40 60 45
40 60 45
40 60 45
40 60 45
40 60 45
46 68 61
46 68 61
46 68 61
46 68 61
49 74 62
42 62 47
42 62 47
49 74 62
109 176 146
109 176 146
109 176 146
109 176 146
43 63 48
43 63 48
43 63 48
43 63 48
43 63 48
44 64 50
44 64 50
44 64 50
44 64 50
42 58 48
42 58 49
42 58 49
42 58 49
42 58 49
42 58 49
42 59 49
46 66 52
100 161 107
100 160 107
92 141 102
110 176 147
110 176 147
110 176 147
110 176 147
110 176 147
110 176 147
110 176 147
42 58 48
42 58 48
42 58 48
44 64 50
42 58 48
42 58 48
42 58 48
46 66 52
46 66 52
100 160 107
100 160 107
41 57 47
41 57 48
41 58 48
110 177 147
110 177 147
109 177 147
109 177 147
109 177 147
117 196 151
109 177 147
109 177 147
117 196 151
117 196 151
117 196 151
109 177 146
117 196 151
117 196 151
117 196 151
109 177 146
109 177 146
109 177 146
109 177 146
110 177 148
110 177 148
110 177 148
110 177 148
110 177 148
110 177 148
110 177 147
110 177 147
110 177 147
118 197 152
118 197 152
118 197 152
41 57 47
41 57 47
41 57 47
43 63 49
43 63 49
43 63 49
44 64 49
44 64 50
44 64 50
52 78 66
50 72 65
52 78 66
119 197 153
119 197 154
119 197 154
112 178 149
119 197 154
50 72 65
119 197 154
112 178 149
112 178 149
93 154 100
43 63 49
43 63 49
43 63 49
43 63 49
43 63 49
43 63 49
43 63 49
43 63 49
43 63 49
43 63 49
44 63 49
44 64 49
42 58 48
42 58 48
54 79 68
54 79 68
54 79 68
54 79 68
54 79 68
54 79 68
52 74 67
52 74 67
52 74 67
52 74 67
54 79 68
54 79 68
113 180 150
113 180 150
113 180 151
113 180 151
113 180 151
113 180 151
43 63 49
44 64 49
44 64 50
42 58 48
44 64 49
44 64 49
44 63 49
43 63 49
41 58 48
41 57 47
43 63 49
43 63 49
41 57 47
43 63 48
43 63 48
41 57 47
41 57 47
43 63 48
51 73 66
51 73 66
42 62 48
41 61 46
41 61 46
41 61 46
120 199 154
112 180 149
120 199 154
112 180 149
119 199 154
40 60 44
40 60 44
40 60 44
36 52 41
36 52 41
38 58 43
36 52 41
38 58 43
38 58 43
111 179 148
111 179 148
110 179 148
118 199 152
118 199 152
118 199 152
110 179 147
110 179 147
110 178 147
110 178 147
110 178 147
110 178 147
46 68 59
46 68 59
48 73 61
48 73 61
48 73 61
117 198 151
109 178 146
117 198 151
117 198 151
36 52 41
38 58 42
36 52 41
36 52 41
38 58 42
36 52 41
36 52 41
36 52 41
37 53 42
37 53 42
36 53 42
36 53 42
36 53 42
36 53 42
36 53 42
37 53 42
39 59 44
37 53 43
39 59 44
37 53 43
39 59 44
37 53 42
48 73 61
48 73 61
45 67 59
116 196 151
116 196 151
109 176 146
109 176 146
38 54 43
38 54 43
38 54 43
38 54 43
38 54 43
38 54 43
40 60 45
40 60 45
40 60 45
40 60 45
40 60 45
40 60 45
38 54 43
38 54 43
38 54 43
38 54 43
116 196 150
108 176 145
116 196 150
108 176 145
108 176 145
108 176 145
116 196 150
116 196 150
108 176 145
116 196 150
108 176 145
116 196 150
47 73 61
48 73 61
48 73 61
90 139 99
39 59 43
37 53 42
39 59 43
39 59 43
39 59 43
39 59 43
107 176 144
115 196 149
107 176 144
107 176 144
107 176 144
107 176 144
107 176 144
107 176 144
46 72 59
46 72 59
46 72 59
39 59 43
37 53 42
39 59 43
40 60 45
36 52 41
36 52 41
36 52 41
36 52 41
36 52 41
38 58 42
36 52 41
40 60 44
114 195 149
114 195 149
114 195 149
107 175 144
114 195 149
114 195 149
114 195 149
114 195 149
36 52 41
38 58 42
36 52 41
36 52 41
36 52 41
36 52 41
38 58 43
38 58 43
38 58 43
36 52 41
38 58 43
36 52 41
38 58 43
38 58 43
39 59 44
39 59 44
39 59 44
39 59 44
39 59 44
39 59 44
40 60 45
40 60 45
40 60 45
40 60 45
41 60 45
46 68 60
46 68 60
46 68 60
46 68 60
46 68 60
49 74 62
42 62 47
42 62 47
42 62 47
42 62 47
42 62 47
42 62 47
43 63 48
43 63 48
43 63 48
43 63 49
44 64 50
42 58 48
44 64 50
42 58 48
42 58 49
42 58 49
42 58 49
42 58 49
42 58 49
42 59 49
42 59 49
42 59 49
46 66 52
100 161 107
93 141 102
92 141 102
92 141 102
117 196 152
117 196 152
110 176 147
117 196 152
110 176 147
110 176 147
110 176 147
117 196 152
51 76 65
51 76 65
51 76 65
51 76 65
51 76 65
46 66 52
46 66 51
100 160 107
100 160 107
41 58 48
41 58 48
41 58 48
109 176 147
109 176 147
109 176 146
109 176 146
109 176 146
109 177 146
117 196 151
117 196 151
117 196 151
117 196 151
109 177 146
109 177 146
109 177 146
109 177 146
109 177 146
109 177 146
109 177 146
109 177 146
109 177 146
117 196 151
109 177 146
41 61 46
110 177 147
110 177 147
118 197 152
118 197 152
118 197 152
118 197 152
110 177 147
110 177 147
110 177 147
118 197 152
110 177 147
85 134 94
85 134 94
43 63 49
44 63 49
44 64 49
50 72 65
50 72 65
50 72 65
111 178 149
111 178 149
119 197 153
111 178 149
111 178 149
119 197 153
119 197 154
119 198 154
119 198 154
112 178 149
43 63 49
43 63 49
43 63 49
43 63 49
44 64 49
43 63 49
43 63 49
43 63 49
43 63 49
43 63 49
43 63 49
43 63 49
44 63 49
44 64 49
42 58 48
54 79 68
54 79 68
54 79 68
54 79 68
54 79 68
54 79 68
52 74 67
52 74 67
52 74 67
52 74 67
52 74 67
52 74 67
43 63 49
44 64 49
41 58 48
43 63 49
43 63 49
43 63 49
43 63 49
43 63 49
44 64 49
44 64 50
42 58 48
44 64 50
44 64 49
44 64 49
44 63 49
41 58 48
43 63 49
41 57 47
41 57 47
41 57 47
41 57 47
43 63 48
43 63 48
43 63 48
113 180 151
113 180 151
51 73 66
51 73 66
41 61 46
39 55 45
41 61 46
91 153 98
112 180 149
120 200 154
112 180 149
120 200 154
38 54 43
40 60 44
40 60 44
90 152 96
38 58 43
38 58 43
38 58 43
38 58 43
118 199 153
111 179 148
111 179 148
111 179 148
118 199 153
110 179 147
110 179 147
118 199 152
110 179 147
110 179 147
118 199 152
110 179 147
117 199 152
117 198 152
82 132 90
110 178 147
117 198 152
117 198 152
109 178 146
117 198 151
117 198 151
35 52 40
36 52 41
36 52 41
36 52 41
36 52 41
36 52 41
36 52 41
36 52 41
36 52 41
39 59 43
37 53 42
39 59 43
39 59 43
36 53 42
39 59 43
39 59 43
37 53 42
48 73 61
48 73 61
48 73 61
48 73 61
45 67 59
48 73 61
39 59 44
39 59 44
37 53 42
83 133 92
116 196 151
116 196 151
37 53 43
38 54 44
38 54 43
38 54 43
38 54 43
38 54 43
38 54 43
40 60 45
40 60 45
40 60 45
40 60 45
40 60 45
40 60 45
38 54 43
38 54 43
38 54 43
38 54 43
38 54 43
38 54 43
38 54 43
40 60 45
40 60 45
40 60 45
40 60 45
40 60 45
40 60 45
108 176 145
108 176 145
116 196 150
116 196 150
108 176 145
116 196 150
90 152 96
39 59 43
39 59 43
39 59 43
39 59 43
39 59 43
39 59 43
89 139 98
107 176 144
107 176 144
107 176 144
107 176 144
107 176 144
107 176 144
115 195 149
107 176 144
46 71 59
46 71 59
46 71 59
46 72 59
46 72 59
40 60 45
36 52 41
36 52 41
38 58 42
36 52 41
36 52 41
36 52 41
36 52 41
40 60 44
96 159 102
35 51 40
82 132 90
114 195 149
114 195 149
107 175 144
114 195 149
114 195 149
36 52 41
36 52 41
36 52 41
36 52 41
36 52 41
38 58 43
36 52 41
38 58 43
38 58 43
38 58 43
36 52 41
38 58 43
36 52 41
38 58 43
39 59 44
39 59 44
39 59 44
39 59 44
39 59 44
45 67 60
45 67 60
46 67 60
48 73 61
46 67 60
46 67 60
48 73 61
46 68 60
48 73 61
109 176 146
109 176 146
109 176 146
42 62 47
42 62 47
42 62 47
42 62 47
42 62 47
42 62 47
43 63 48
43 63 49
43 63 49
43 63 49
49 70 64
49 71 64
49 71 64
49 71 64
49 71 64
51 77 65
51 77 65
51 77 65
42 59 49
42 59 49
42 59 49
46 66 52
46 66 52
100 160 107
93 141 102
92 141 102
92 141 102
92 141 102
110 176 147
110 176 147
110 176 147
110 176 147
110 176 147
110 176 147
110 176 147
117 196 152
117 196 152
51 76 65
51 76 65
51 76 65
51 76 65
46 66 51
100 160 107
41 58 48
41 58 48
41 58 48
41 58 48
117 196 151
117 196 151
109 176 146
109 176 146
117 196 151
117 196 151
109 176 146
117 196 151
116 196 151
116 196 151
116 196 151
109 177 146
116 196 151
109 177 146
109 177 146
109 177 146
109 177 146
109 177 146
109 177 146
40 60 45
40 60 45
41 61 46
117 196 152
110 177 147
110 177 147
110 177 147
117 197 152
117 197 152
117 197 152
110 177 147
117 197 152
117 197 152
40 56 46
40 56 46
40 56 46
43 63 49
50 72 65
50 72 65
52 77 66
50 72 64
119 197 153
111 178 149
119 197 153
111 178 149
119 197 153
119 197 153
119 198 153
119 198 153
119 198 153
86 134 95
41 57 47
43 63 49
43 63 49
43 63 49
43 63 49
44 64 49
41 58 48
41 58 48
41 58 48
43 63 49
41 57 47
43 63 49
43 63 49
44 64 49
44 64 49
52 73 66
52 73 66
52 73 66
54 79 68
54 79 68
54 79 68
52 73 66
52 73 66
52 73 66
113 180 150
113 180 150
113 180 151
43 63 49
43 63 49
44 64 49
44 64 49
41 58 48
43 63 49
43 63 49
43 63 49
43 63 49
44 64 49
44 64 50
44 64 50
44 64 50
44 64 50
44 64 49
41 58 48
41 58 48
43 63 49
41 58 48
41 57 47
41 57 47
43 63 49
43 63 49
43 63 48
114 181 151
114 181 151
114 181 151
51 73 66
51 73 66
41 61 47
41 61 46
41 61 46
40 60 45
40 60 45
40 60 45
38 54 43
40 60 45
112 180 149
49 71 63
49 71 63
49 71 63
39 58 43
38 58 43
36 52 41
38 58 43
118 200 153
111 179 148
111 179 148
111 179 148
111 179 148
111 179 148
110 179 148
118 199 152
118 199 152
118 199 152
118 199 152
118 199 152
118 199 152
82 132 90
35 52 40
35 51 40
35 51 40
35 51 40
35 51 40
37 57 42
35 51 40
35 52 40
36 52 41
38 58 43
36 52 41
36 52 41
36 52 41
36 52 41
36 52 41
36 52 41
39 59 43
37 53 42
37 53 42
39 59 43
39 59 43
39 59 43
36 53 42
46 67 59
46 67 59
48 73 61
48 73 61
48 73 61
48 73 61
47 73 61
37 53 43
37 53 43
39 59 44
39 59 44
39 59 44
37 53 42
37 54 43
38 54 44
38 54 44
38 54 44
38 54 44
38 54 43
38 54 43
40 60 45
40 60 45
40 60 45
40 60 45
40 60 45
40 60 45
38 54 43
38 54 43
38 54 43
38 54 43
38 54 43
38 54 43
38 54 43
40 60 45
40 60 45
40 60 45
40 60 45
40 60 45
40 60 45
108 176 145
108 176 145
115 196 150
115 196 150
108 176 145
108 176 145
39 59 43
39 59 43
39 59 43
39 59 43
39 59 43
39 59 43
39 59 43
89 139 97
107 175 144
107 175 144
107 175 144
107 175 144
107 175 144
107 176 144
115 195 149
115 195 149
115 195 149
115 195 149
46 71 59
46 71 59
46 71 59
97 159 103
36 52 41
36 52 41
36 52 41
36 52 41
36 52 41
36 52 41
36 52 41
96 159 102
35 51 40
35 51 40
37 57 41
35 51 40
35 51 40
37 57 41
35 51 40
35 51 40
36 52 41
36 52 41
36 52 41
36 52 41
38 58 43
36 52 41
38 58 43
38 58 43
38 58 43
38 58 43
38 58 43
36 52 41
38 58 43
38 58 43
37 53 43
37 53 43
39 59 44
39 59 44
37 54 43
45 67 59
45 67 59
45 67 59
45 67 59
45 67 59
45 67 60
41 61 46
41 61 46
41 61 46
41 61 46
41 61 46
41 61 46
41 61 46
42 62 47
42 62 47
42 62 47
42 62 47
43 63 49
43 63 49
43 63 49
43 63 49
43 63 49
48 70 63
49 70 63
49 70 63
49 70 63
51 76 65
51 76 65
51 76 65
51 76 65
51 76 65
51 77 65
51 77 65
51 77 65
46 66 52
93 141 102
93 141 102
100 160 107
92 141 102
99 160 106
43 63 48
43 63 48
43 63 48
43 63 48
43 63 49
43 63 49
43 63 49
110 176 147
117 196 152
117 196 152
117 196 152
117 196 152
117 196 152
117 196 152
100 160 107
41 58 48
41 58 48
41 58 48
41 58 48
109 176 146
109 176 146
109 176 146
109 176 146
109 176 146
109 176 146
109 176 146
109 176 146
109 176 146
116 196 151
116 196 151
116 196 151
109 177 146
109 177 146
116 196 151
116 196 151
116 196 151
40 60 45
40 60 45
40 60 45
40 60 45
41 61 46
41 61 46
110 177 147
110 177 147
110 177 147
117 197 152
117 197 152
110 177 147
117 197 152
39 56 45
39 56 45
40 56 46
40 56 46
40 56 46
50 71 64
52 77 66
50 71 64
111 178 148
111 178 148
111 178 148
119 197 153
119 197 153
119 197 153
119 198 153
119 198 153
111 178 149
111 178 149
40 57 47
41 57 47
41 57 47
43 63 49
43 63 49
43 63 49
43 63 49
44 64 49
44 64 49
44 63 49
43 63 49
43 63 49
43 63 49
43 63 49
43 63 49
52 73 66
52 73 66
52 73 66
52 73 66
52 73 66
52 73 66
93 154 100
43 63 49
43 63 49
43 63 49
43 63 49
43 63 49
43 63 49
43 63 49
43 63 49
43 63 49
44 64 49
44 64 49
44 64 49
43 63 49
43 63 49
43 63 49
43 63 49
44 64 49
44 64 50
44 64 50
42 58 48
44 64 50
44 64 50
44 64 49
41 58 48
41 58 48
43 63 49
41 58 48
43 63 49
43 63 49
41 57 47
43 63 49
42 62 47
42 62 47
42 62 47
42 62 47
42 62 47
41 61 47
41 61 47
41 61 47
38 54 44
38 54 44
40 60 45
40 60 45
112 180 150
112 180 150
49 71 63
51 77 64
49 71 63
39 59 43
36 53 42
36 52 41
37 57 42
37 57 42
89 152 95
111 180 148
111 179 148
111 179 148
118 199 153
118 199 153
118 199 153
118 199 152
118 199 152
118 199 152
118 199 152
118 199 152
35 51 40
35 52 40
35 52 40
35 52 40
35 51 40
35 51 40
35 51 40
35 51 40
36 52 41
36 52 41
36 52 41
36 52 41
38 58 43
36 52 41
36 52 41
36 52 41
36 52 41
48 74 61
48 74 61
48 74 61
48 73 61
48 73 61
46 67 59
48 73 61
37 53 42
36 53 42
48 73 61
109 177 146
116 197 151
116 197 151
37 53 42
40 59 44
37 53 43
37 53 43
37 53 43
37 53 43
39 59 44
37 54 43
38 54 44
38 54 44
38 54 44
38 54 44
38 54 44
38 54 44
40 60 45
40 60 45
40 60 45
40 60 45
40 60 45
40 60 45
38 54 43
38 54 43
38 54 43
38 54 43
38 54 43
38 54 43
40 60 45
40 60 45
40 60 45
40 60 45
40 60 45
40 60 45
40 60 45
108 176 145
108 176 145
108 176 145
108 176 145
108 176 145
115 196 150
37 53 42
37 53 42
37 53 42
39 59 43
37 53 42
37 53 42
37 53 42
36 52 41
38 58 42
38 58 42
36 52 41
38 58 42
38 58 42
38 58 42
89 139 97
107 175 144
107 175 144
107 175 144
107 175 144
115 195 149
115 195 149
115 195 149
36 52 41
36 52 41
36 52 41
38 58 42
36 52 41
36 52 41
36 52 41
96 159 102
35 51 40
35 51 40
37 57 41
35 51 40
35 51 40
35 51 40
35 51 40
35 51 40
36 52 41
36 52 41
38 58 43
38 58 43
36 52 41
38 58 43
38 58 43
36 52 41
38 58 43
38 58 43
36 52 41
38 58 43
38 58 43
39 59 44
37 54 43
37 54 43
40 59 44
40 60 44
40 60 44
47 73 60
45 67 59
45 67 59
45 67 59
45 67 59
45 67 59
41 61 46
41 61 46
41 61 46
41 61 46
41 61 46
41 61 46
42 62 47
42 62 47
42 62 47
42 62 47
42 62 47
48 70 62
48 70 63
48 70 63
48 70 63
48 70 63
48 70 63
50 76 64
48 70 63
110 176 147
110 176 147
117 196 152
117 196 152
117 196 152
51 76 65
51 76 65
51 76 65
51 76 65
44 60 50
100 160 107
93 141 102
92 141 102
99 160 107
43 63 48
43 63 48
43 63 48
43 63 48
43 63 49
43 63 49
43 63 49
43 63 49
92 141 102
110 176 147
117 196 152
110 176 147
110 176 147
110 176 147
117 196 152
117 196 152
117 196 152
51 76 64
51 76 65
51 76 65
109 176 146
116 196 151
109 176 146
109 176 146
109 176 146
109 176 146
109 176 146
109 176 146
109 176 146
109 176 146
116 196 151
109 177 146
116 196 151
109 177 146
116 196 151
109 177 146
109 177 146
109 177 146
109 177 146
116 196 151
41 60 45
41 61 46
41 61 46
110 177 147
117 197 152
110 177 147
110 177 147
110 177 147
110 177 147
117 197 152
110 177 147
117 197 152
110 177 147
117 197 152
117 197 152
50 71 64
118 197 153
118 197 153
118 197 153
118 197 153
111 178 148
119 197 153
111 178 148
111 178 148
111 178 148
111 178 149
85 134 95
40 57 46
40 57 47
41 57 47
41 57 47
43 63 49
43 63 49
43 63 49
43 63 49
44 64 49
51 73 66
51 73 66
44 63 49
41 58 48
41 58 48
43 63 49
51 73 66
51 73 66
52 73 66
113 180 150
113 180 150
113 180 150
43 63 49
43 63 49
43 63 49
41 58 48
41 58 48
43 63 49
43 63 49
41 57 47
43 63 49
43 63 49
44 63 49
44 64 49
44 64 49
44 64 49
44 63 49
43 63 49
41 58 48
43 63 49
44 64 49
44 64 50
54 75 68
54 75 68
54 75 68
54 75 68
54 75 68
56 81 70
56 81 70
41 58 48
41 58 48
41 58 48
43 63 49
43 63 49
43 63 49
42 62 47
42 62 47
42 62 47
40 56 46
114 181 151
114 181 151
51 73 66
51 73 66
40 60 45
40 60 45
40 60 45
120 201 155
113 181 150
113 181 150
113 181 150
120 200 155
51 77 64
39 59 43
39 59 43
39 59 43
37 57 42
37 57 42
37 57 42
35 51 40
37 57 41
37 57 41
37 57 41
37 57 41
35 51 40
35 51 40
35 51 40
35 51 39
82 132 90
35 51 40
35 51 40
35 52 40
38 58 42
35 52 40
35 52 40
35 52 40
35 51 40
35 51 40
36 52 41
36 52 41
36 52 41
36 52 41
38 58 43
36 52 41
36 52 41
36 52 41
36 52 41
48 74 61
48 73 61
48 73 61
48 73 61
48 73 61
48 73 61
36 53 42
37 53 42
37 53 42
39 59 43
36 53 42
39 59 43
36 53 42
37 53 42
37 54 43
40 60 44
37 54 43
40 59 44
37 53 43
37 53 43
38 54 43
48 74 62
38 54 44
38 54 44
38 54 44
38 54 44
38 54 44
40 60 45
40 60 45
40 60 45
40 60 45
40 60 45
40 60 45
38 54 43
38 54 43
38 54 43
38 54 43
38 54 43
38 54 43
40 60 45
40 60 45
40 60 45
40 60 45
40 60 45
40 60 45
40 60 45
39 59 44
37 53 42
39 59 44
90 152 97
108 176 145
115 196 150
39 59 44
39 59 44
39 59 44
39 59 44
39 59 44
39 59 44
39 59 44
38 58 42
36 52 41
36 52 41
38 58 42
38 58 42
36 52 41
38 58 42
89 139 97
107 175 144
107 175 144
107 175 144
114 195 149
107 175 144
107 175 144
115 195 149
115 195 149
43 65 57
45 71 58
45 71 58
46 71 58
46 71 58
46 71 59
96 159 102
35 51 40
37 57 41
37 57 41
35 51 40
35 51 40
35 51 40
35 51 40
37 57 41
38 58 43
38 58 43
38 58 43
36 52 41
36 52 41
38 58 43
38 58 43
38 58 43
38 58 43
38 58 43
39 58 43
39 58 43
39 58 43
44 66 58
47 72 60
44 66 58
44 66 58
45 66 58
45 66 59
40 60 44
40 60 44
40 60 44
40 60 44
40 60 45
91 153 97
108 176 145
41 61 46
41 61 46
41 61 46
41 61 46
41 61 46
42 62 47
42 62 47
42 62 47
42 62 47
42 62 47
50 75 64
48 69 62
48 69 62
48 70 62
48 70 62
50 75 64
48 70 63
50 76 64
117 196 152
110 176 147
117 196 152
117 196 152
110 176 147
117 196 152
110 176 147
110 176 147
117 196 152
117 196 152
93 141 102
100 160 107
92 141 102
99 160 107
43 63 48
43 63 48
43 63 49
43 63 49
43 63 49
43 63 49
43 63 49
45 65 51
92 141 102
92 141 102
109 176 147
109 176 147
110 176 147
110 176 147
110 176 147
110 176 147
110 176 147
117 196 152
110 176 147
50 76 64
109 176 146
109 176 146
116 196 151
109 176 146
109 176 146
109 176 146
116 196 151
116 196 151
116 196 151
116 196 151
116 196 151
109 177 146
116 196 151
109 177 146
116 196 151
109 177 146
116 196 151
109 177 146
116 196 151
109 177 146
109 177 146
39 59 44
40 59 44
117 197 152
110 177 147
110 177 147
110 177 147
117 197 152
117 197 152
117 197 152
110 177 147
117 197 152
117 197 152
117 197 152
39 55 44
84 133 93
118 197 153
118 197 153
118 197 153
111 178 148
111 178 148
119 198 153
111 178 148
111 178 148
111 178 148
42 62 48
42 62 48
40 57 46
40 57 47
41 57 47
41 57 47
41 57 47
43 63 49
43 63 49
51 73 66
51 73 66
51 73 66
51 73 66
51 73 66
51 73 66
51 73 66
54 79 67
54 79 67
54 79 67
120 199 155
120 199 155
120 199 155
43 63 48
43 63 49
43 63 49
43 63 49
41 58 48
43 63 49
41 58 48
43 63 49
43 63 49
43 63 49
43 63 49
44 63 49
44 64 49
44 64 50
44 64 49
44 64 49
44 63 49
43 63 49
43 63 49
54 75 68
54 75 68
54 75 68
54 75 68
54 75 68
54 75 68
56 81 70
56 81 70
56 81 70
56 81 70
56 81 70
53 75 68
53 75 68
53 75 68
53 75 68
42 62 47
42 62 47
42 62 47
114 181 151
114 181 151
114 181 151
51 73 66
51 73 66
40 60 45
40 60 45
120 201 155
120 201 155
120 201 155
120 201 155
120 201 155
113 181 150
113 181 150
51 77 64
39 59 43
39 59 43
38 57 42
37 57 42
37 57 42
37 57 42
37 57 41
35 51 40
37 57 41
35 51 40
35 51 40
35 51 40
37 57 41
35 51 40
35 51 39
35 51 40
35 51 40
36 52 41
38 58 42
35 52 40
35 52 40
35 52 40
35 52 40
35 51 40
36 52 41
49 74 62
46 68 60
46 68 60
48 74 61
48 74 61
48 74 61
36 52 41
48 74 61
46 68 59
48 73 61
117 198 151
117 198 151
117 197 151
109 177 146
37 53 42
37 53 42
37 53 42
37 53 42
37 53 42
37 53 42
37 53 42
37 53 42
37 54 43
40 60 44
37 54 43
37 54 43
40 59 44
40 59 44
38 54 43
48 74 62
48 74 62
48 74 62
48 74 61
48 74 61
48 74 61
46 68 60
46 68 60
46 68 60
46 68 60
46 68 60
40 60 45
38 54 44
38 54 44
38 54 44
38 54 44
38 54 44
38 54 43
40 60 45
40 60 45
40 60 45
40 60 45
40 60 45
38 54 43
91 152 97
39 59 44
39 59 44
39 59 44
39 59 44
37 53 42
37 53 42
108 176 145
44 66 58
44 66 58
44 66 58
44 66 58
46 72 60
44 66 58
38 58 42
36 52 41
38 58 42
38 58 42
36 52 41
38 58 42
38 58 42
89 139 97
114 195 149
107 175 144
107 175 144
114 195 149
107 175 144
107 175 144
107 175 144
114 195 149
114 195 149
43 65 57
45 71 58
45 71 58
45 71 58
45 71 58
96 159 102
35 51 40
35 51 40
35 51 40
35 51 40
37 57 42
35 51 40
35 51 40
46 71 59
44 65 57
46 71 59
38 58 43
36 52 41
36 52 41
38 58 43
36 52 41
39 58 43
39 58 43
39 58 43
39 59 43
36 53 42
36 53 42
44 66 58
44 66 58
44 66 58
44 66 58
44 66 58
44 66 58
40 60 44
40 60 45
40 60 45
40 60 45
40 60 45
40 60 45
40 60 45
41 61 46
41 61 46
41 61 46
41 61 46
41 61 46
49 75 63
47 69 61
42 62 47
42 62 47
47 69 62
49 75 63
47 69 62
117 196 151
117 196 151
117 196 151
48 69 62
50 75 64
48 69 62
50 75 64
117 196 152
110 176 147
110 176 147
117 196 152
110 176 147
110 176 147
110 176 147
117 196 152
110 176 147
110 176 147
100 160 107
92 141 102
93 154 100
43 63 49
43 63 49
43 63 49
43 63 49
43 63 49
43 63 49
43 63 49
45 65 51
99 160 107
92 141 102
92 141 101
109 176 146
109 176 146
109 176 147
109 176 147
109 176 147
110 176 147
110 176 147
117 196 152
117 196 152
116 196 151
116 196 151
109 176 146
109 176 146
109 176 146
116 196 151
116 196 151
116 196 151
116 196 151
116 196 151
116 196 151
116 196 151
109 177 146
109 177 146
116 196 151
116 196 151
109 177 146
109 177 146
116 196 151
91 152 97
39 59 44
39 59 44
40 59 44
41 61 46
117 197 152
117 197 152
117 197 152
117 197 152
117 197 152
117 197 152
117 197 152
110 177 147
38 55 44
38 55 44
39 55 44
39 55 44
118 197 153
111 178 148
111 178 148
111 178 148
111 178 148
111 178 148
111 178 148
92 153 99
42 62 47
42 62 48
42 62 48
40 57 46
40 57 47
41 57 47
41 57 47
41 57 47
43 63 49
51 73 66
51 73 66
51 73 66
51 73 66
51 73 66
51 73 66
53 79 67
53 79 67
53 79 67
120 199 155
120 199 155
120 199 155
120 199 155
41 57 47
43 63 48
43 63 49
43 63 49
43 63 49
44 64 49
41 58 48
43 63 49
43 63 49
43 63 49
43 63 49
43 63 49
44 64 49
53 75 68
54 75 68
54 75 68
54 75 68
56 81 70
56 81 70
56 81 70
54 75 68
54 75 68
115 182 152
115 182 152
115 182 152
122 201 157
122 201 157
56 81 70
56 81 70
56 81 70
56 81 70
54 75 68
53 75 68
53 75 68
53 75 68
42 62 47
42 62 47
40 56 46
41 61 46
84 133 93
114 182 151
114 182 151
114 182 151
40 60 45
121 201 155
121 201 155
121 201 155
121 201 155
120 201 155
113 181 150
120 201 155
113 181 150
112 181 149
112 181 149
49 71 63
38 58 42
35 51 40
38 57 42
37 57 42
37 57 42
35 51 40
37 57 41
37 57 41
35 51 40
35 51 40
35 51 40
35 51 40
35 51 40
35 51 40
35 51 40
36 52 41
36 52 41
36 52 41
38 58 42
38 58 42
38 58 42
35 52 40
36 52 41
49 74 62
49 74 61
46 68 60
48 74 61
48 74 61
48 74 61
36 52 41
36 52 41
36 52 41
36 52 41
36 52 41
36 52 41
36 52 41
36 52 41
37 53 42
39 59 44
37 53 42
37 53 42
37 53 42
39 59 43
37 53 42
37 53 42
38 54 43
37 54 43
40 60 44
37 54 43
37 54 43
37 54 43
48 74 61
48 74 61
48 74 61
48 73 61
48 73 61
48 73 61
48 73 61
46 67 60
46 67 60
46 67 60
46 67 60
46 67 60
46 67 60
48 73 61
48 73 61
48 73 61
48 73 61
48 73 61
48 73 61
46 67 60
46 67 60
46 67 60
46 67 60
40 60 45
40 60 45
39 59 44
39 59 44
39 59 44
37 53 42
39 59 44
39 59 44
39 59 44
115 196 150
108 176 145
44 66 58
44 66 58
44 66 58
44 66 58
46 72 59
38 58 43
38 58 43
38 58 43
38 58 43
38 58 43
38 58 43
38 58 43
89 139 97
37 57 41
82 132 90
107 175 144
107 175 144
107 175 144
107 175 144
107 175 144
114 195 149
114 195 149
107 175 144
114 195 149
45 71 58
45 71 58
45 71 58
96 159 102
35 51 40
35 51 40
35 51 40
35 51 40
35 51 40
35 51 40
35 51 40
45 71 58
46 71 58
46 71 58
46 71 59
46 71 59
46 71 59
46 71 59
44 65 57
44 65 57
46 71 59
44 65 57
44 65 57
46 72 59
44 66 58
46 72 59
44 66 58
44 66 58
108 176 145
115 195 150
115 195 150
108 176 145
40 60 45
38 54 43
40 60 45
40 60 45
38 54 43
41 61 46
41 61 46
41 61 46
41 61 46
41 61 46
49 74 62
47 68 61
47 69 61
47 69 61
47 69 61
47 69 61
49 75 63
49 75 63
49 75 63
117 196 151
117 196 151
117 196 151
109 176 146
109 176 146
117 196 151
117 196 151
117 196 151
117 196 151
117 196 152
110 176 147
110 176 147
110 176 147
110 176 147
110 176 147
110 176 147
110 176 147
92 141 102
43 63 49
43 63 49
43 63 49
43 63 49
43 63 49
43 63 49
43 63 49
43 63 49
43 59 49
92 141 102
92 141 101
99 160 106
42 62 48
42 62 48
43 62 48
43 63 48
43 63 48
43 63 48
43 63 48
43 63 48
117 196 151
109 176 146
116 196 151
109 176 146
109 176 146
109 176 146
109 176 146
109 176 146
109 176 146
109 176 146
109 176 146
109 176 146
109 177 146
116 196 151
109 177 146
116 196 151
109 177 146
109 177 146
109 177 146
39 59 44
39 59 44
39 59 44
39 59 44
40 59 44
47 69 61
117 197 152
110 177 147
110 177 147
117 197 152
110 177 147
110 177 147
117 197 152
38 55 44
38 55 44
38 55 44
39 55 44
39 55 45
111 178 148
111 178 148
118 198 153
118 198 153
118 198 153
111 178 148
111 178 148
42 62 47
42 62 47
42 62 48
42 62 48
40 57 46
40 57 47
41 57 47
41 57 47
41 57 47
53 79 67
53 79 67
53 79 67
120 199 155
113 180 150
113 180 150
120 199 155
120 199 155
120 199 155
120 199 155
120 199 155
120 199 155
40 57 46
40 57 47
41 57 47
43 63 48
43 63 49
43 63 49
43 63 49
44 64 49
41 58 48
44 63 49
41 58 48
43 63 49
41 57 47
43 63 49
53 75 68
54 75 68
56 81 70
54 75 68
54 75 68
54 75 68
56 81 70
56 81 70
56 81 70
122 201 157
122 201 157
123 201 157
115 182 152
115 182 152
115 182 152
115 182 153
115 182 153
115 182 153
115 182 153
115 182 153
115 182 153
115 182 153
115 182 153
42 62 48
42 62 47
40 56 46
41 61 46
41 61 46
39 55 44
38 55 44
41 61 46
121 202 155
121 202 155
121 202 155
121 201 155
121 201 155
121 201 155
121 201 155
113 181 150
120 201 154
112 181 149
112 181 149
112 181 149
119 201 154
119 201 154
112 181 149
112 181 149
119 201 154
119 201 153
119 201 153
119 200 153
119 200 153
35 51 40
35 51 40
35 51 40
35 51 40
35 51 40
35 51 40
50 75 62
49 75 62
36 52 41
36 52 41
36 52 41
35 52 40
35 52 40
49 74 62
46 68 60
49 74 61
48 74 61
46 68 60
48 74 61
48 74 61
36 52 41
36 52 41
36 52 41
36 52 41
36 52 41
36 52 41
36 52 41
36 52 41
37 53 42
37 53 42
39 59 44
37 53 42
37 53 42
37 53 42
37 53 42
37 53 43
48 74 62
48 74 61
48 74 61
48 74 61
48 74 61
48 73 61
46 68 60
46 67 60
46 67 60
116 196 151
116 196 151
116 196 151
109 176 146
109 176 146
109 176 146
109 176 146
109 176 146
45 67 59
45 67 59
48 73 61
48 73 61
48 73 61
48 73 61
48 73 61
48 73 61
45 67 59
45 67 59
45 67 59
45 67 59
45 67 59
45 67 59
39 59 44
39 59 44
39 59 44
39 59 44
39 59 44
37 53 42
39 59 44
107 176 144
115 196 149
107 176 144
107 176 144
107 176 144
107 176 144
44 66 58
36 52 41
38 58 43
38 58 43
38 58 43
38 58 43
38 58 43
38 58 43
89 139 97
37 57 41
37 57 41
37 57 41
37 57 41
37 57 41
37 57 41
35 51 40
107 175 144
107 175 144
107 175 144
107 175 144
107 175 144
107 175 144
114 195 149
35 51 40
35 51 40
35 51 40
37 57 42
35 51 40
35 51 40
38 57 42
35 51 40
45 71 58
45 71 58
43 65 57
43 65 57
45 71 58
45 71 58
46 71 58
43 65 57
43 65 57
43 65 57
43 65 57
43 65 57
44 65 57
46 71 59
46 71 59
46 71 59
46 71 59
44 66 58
115 195 149
115 195 149
115 195 149
38 54 43
40 60 45
40 60 45
38 54 43
40 60 45
41 61 46
41 61 46
41 61 46
41 61 46
41 61 46
49 74 62
46 68 61
47 68 61
47 68 61
47 68 61
47 68 61
47 69 61
49 74 63
49 74 63
49 75 63
116 196 151
116 196 151
116 196 151
116 196 151
117 196 151
109 176 146
117 196 151
109 176 146
117 196 151
117 196 151
109 176 147
109 176 147
117 196 152
117 196 152
117 196 152
110 176 147
110 176 147
43 63 49
43 63 49
43 63 49
43 63 49
43 63 49
43 63 49
43 63 49
43 59 49
43 59 49
92 141 102
92 141 101
42 62 48
43 62 48
43 63 48
43 63 48
43 63 48
43 63 48
43 63 48
43 63 48
43 59 49
92 141 101
109 176 146
109 176 146
109 176 146
116 196 151
109 176 146
116 196 151
109 176 146
116 196 151
116 196 151
116 196 151
116 196 151
116 196 151
116 196 151
116 196 151
116 196 151
116 196 151
109 177 146
109 177 146
109 177 146
39 59 44
39 59 44
39 59 44
40 60 44
40 60 44
117 197 152
110 177 147
117 197 152
117 197 152
110 177 147
117 197 152
117 197 152
117 197 152
117 197 152
117 197 152
117 197 152
110 178 147
84 134 93
118 198 153
111 178 148
118 198 153
111 178 148
111 178 148
111 178 148
111 178 148
119 198 153
111 179 148
111 179 148
41 61 46
40 57 47
41 57 47
53 78 67
53 78 67
53 78 67
120 199 155
120 199 155
120 199 155
120 199 155
40 57 47
40 57 47
40 57 47
40 57 46
40 57 46
40 56 46
40 56 46
40 57 46
40 57 47
41 57 47
41 57 47
43 63 49
43 63 49
44 63 49
55 81 69
53 75 68
53 75 68
53 75 68
53 75 68
53 75 68
53 75 68
53 75 68
54 75 68
115 182 152
115 182 152
115 182 152
123 201 157
56 81 70
56 81 70
123 201 157
123 202 157
123 202 157
115 182 153
123 202 157
116 182 153
116 182 153
116 182 153
116 182 153
123 202 158
123 202 158
123 202 158
123 202 158
123 202 158
123 202 158
116 183 153
54 75 68
54 75 68
41 61 46
41 61 46
41 61 46
39 55 44
115 182 152
36 52 41
36 52 41
36 52 41
36 52 41
36 52 41
36 52 41
121 202 155
121 202 155
120 202 154
112 181 149
112 181 149
112 181 149
112 181 149
112 181 149
112 181 149
119 201 154
119 201 154
119 201 154
119 201 154
111 180 148
119 201 153
111 180 148
34 50 38
35 51 40
35 51 40
35 51 40
35 52 40
47 69 61
49 75 62
49 75 62
49 75 62
49 75 62
49 75 62
47 68 60
47 68 60
46 68 60
46 68 60
118 199 152
110 179 147
110 179 147
35 52 40
36 52 41
36 52 41
38 58 43
36 52 41
36 52 41
38 58 43
36 52 41
36 52 41
37 53 42
37 53 42
37 53 42
37 53 42
39 59 44
39 59 44
37 53 42
48 74 61
48 74 61
48 74 61
48 74 61
48 73 61
48 73 61
48 73 61
46 67 59
46 67 59
45 67 59
109 177 146
109 177 146
109 177 146
40 60 44
37 54 43
40 59 44
37 54 43
37 54 43
37 53 43
91 153 97
116 196 150
116 196 150
116 196 150
116 196 150
116 196 150
116 196 150
108 176 145
108 176 145
45 67 59
45 67 59
45 67 59
45 67 59
39 59 44
37 53 42
39 59 44
37 53 42
39 59 44
39 59 44
37 53 42
38 58 43
38 58 43
38 58 43
38 58 43
38 58 43
38 58 43
38 58 43
44 65 57
38 58 43
38 58 43
38 58 43
38 58 43
36 52 41
38 58 43
37 57 42
35 51 40
35 51 40
37 57 42
35 51 40
35 51 40
37 57 42
37 57 42
114 195 149
107 175 144
107 175 144
114 195 149
107 175 144
107 175 144
107 175 144
114 195 149
114 195 149
45 70 58
43 64 56
45 70 58
45 70 58
43 64 56
45 71 58
43 65 56
45 71 58
45 71 58
114 195 149
114 195 149
107 175 144
115 195 149
107 175 144
115 195 149
107 175 144
43 65 57
43 65 57
43 65 57
43 65 57
43 65 57
46 71 59
46 71 59
46 71 59
115 195 149
115 195 149
115 195 149
107 176 144
40 60 45
40 60 45
38 54 43
40 60 45
46 68 60
48 74 62
46 68 60
46 68 60
46 68 60
46 68 60
48 74 62
48 74 62
46 68 61
46 68 61
46 68 61
47 68 61
109 176 146
116 196 151
109 176 146
116 196 151
116 196 151
116 196 151
116 196 151
109 176 146
109 176 146
109 176 146
109 176 146
109 176 146
109 176 146
117 196 151
117 196 151
117 196 151
109 176 147
117 196 151
109 176 147
117 196 152
117 196 152
48 70 63
50 76 64
48 70 63
48 70 63
48 70 63
48 70 63
43 59 49
43 59 49
92 141 102
92 141 101
43 63 48
43 63 48
43 63 48
43 63 48
43 63 48
43 63 48
43 63 48
43 63 48
45 65 50
92 141 101
109 176 146
116 196 151
108 176 146
108 176 146
108 176 146
108 176 146
108 176 146
116 196 150
116 196 150
116 196 150
116 196 150
116 196 151
116 196 151
116 196 151
108 177 146
108 177 146
108 177 146
109 177 146
109 177 146
109 177 146
116 197 151
109 177 146
38 58 43
40 60 44
110 177 147
110 177 147
110 177 147
117 197 152
117 197 152
117 197 152
117 197 152
117 197 152
110 178 147
117 197 152
117 198 152
37 54 43
38 54 43
118 198 153
118 198 153
118 198 153
111 178 148
111 178 148
119 198 153
111 179 148
119 198 153
111 179 148
41 61 46
41 61 46
41 57 47
53 78 67
53 78 67
53 78 67
120 199 155
120 199 155
120 199 155
40 57 46
40 57 47
41 57 47
41 57 47
40 57 47
40 57 47
42 62 48
40 57 46
40 56 46
40 57 46
40 57 47
41 57 47
41 57 47
43 63 49
43 63 49
53 75 68
53 75 68
55 81 69
53 75 68
56 81 69
53 75 68
56 81 70
56 81 70
56 81 70
115 182 152
123 201 157
123 201 157
41 57 47
43 63 48
43 63 48
85 134 95
123 202 158
116 182 153
116 183 153
116 183 153
116 183 153
116 183 153
116 183 153
116 183 153
123 202 158
123 202 158
123 202 158
123 202 158
123 202 158
123 202 158
116 183 153
116 183 153
54 75 68
54 75 68
41 61 46
41 61 46
41 61 46
115 183 152
113 182 150
113 182 150
121 202 155
121 202 155
121 202 155
121 202 155
114 182 151
121 202 156
113 182 150
113 182 150
113 182 150
113 182 150
112 181 149
120 202 154
120 202 154
120 202 154
120 201 154
120 201 154
112 181 149
112 181 149
112 181 149
119 201 154
119 201 153
34 50 38
35 51 40
35 51 40
35 51 40
50 75 63
50 75 62
50 75 62
49 75 62
49 75 62
49 75 62
47 69 60
49 74 62
47 68 60
49 74 61
110 179 148
118 199 152
110 179 147
110 179 147
35 52 40
36 52 41
36 52 41
36 52 41
36 52 41
36 52 41
36 52 41
38 58 43
36 52 41
49 74 62
49 74 62
49 74 62
48 74 62
48 74 61
48 74 61
48 74 61
48 74 61
48 74 61
48 73 61
48 73 61
48 73 61
48 73 61
109 177 146
45 67 59
45 67 59
45 67 59
109 177 146
109 177 146
109 177 146
40 60 44
40 60 44
37 54 43
40 60 44
40 60 44
40 60 44
37 54 43
37 54 43
37 54 43
37 54 43
37 53 43
37 53 43
37 53 43
116 196 150
116 196 150
116 196 150
116 196 150
108 176 145
108 176 145
39 59 44
39 59 44
37 53 43
39 59 44
39 59 44
39 59 44
39 59 44
38 58 43
38 58 43
38 58 43
36 52 41
38 58 43
38 58 43
38 58 43
115 196 149
43 65 57
43 65 57
43 65 57
43 65 57
46 71 59
46 71 59
37 57 42
37 57 42
35 51 40
37 57 42
37 57 42
37 57 42
37 57 42
37 57 42
106 175 143
106 175 143
106 175 144
107 175 144
107 175 144
107 175 144
114 195 149
114 195 149
107 175 144
114 195 149
45 70 57
42 64 56
45 70 57
45 70 58
45 70 58
43 64 56
43 64 56
43 64 56
43 64 56
114 195 149
107 175 144
114 195 149
107 175 144
114 195 149
114 195 149
114 195 149
115 195 149
107 175 144
115 195 149
107 175 144
115 195 149
115 195 149
115 195 149
115 195 149
107 175 144
115 195 149
107 176 144
40 60 45
40 60 45
40 60 45
40 60 45
46 67 60
46 67 60
46 68 60
46 68 60
46 68 60
46 68 60
48 74 62
48 74 62
46 68 60
48 74 62
48 74 62
46 68 61
116 196 151
39 56 45
39 56 45
39 56 45
39 56 45
39 56 45
40 56 45
92 153 99
109 176 146
109 176 146
109 176 146
109 176 146
109 176 146
109 176 146
116 196 151
117 196 151
117 196 151
117 196 151
117 196 151
117 196 151
117 196 151
109 176 147
117 196 151
48 70 62
48 70 62
48 70 63
48 70 63
50 76 64
45 65 51
92 141 102
99 160 106
43 63 48
43 63 48
43 63 48
43 63 48
43 63 48
43 63 48
43 63 48
43 63 48
43 59 49
92 141 101
116 196 150
108 176 145
108 176 145
108 176 145
108 176 145
116 196 150
116 196 150
116 196 150
108 176 145
116 196 150
108 176 145
116 196 150
116 196 150
108 177 145
108 177 145
108 177 145
108 177 145
108 177 145
108 177 146
108 177 146
108 177 146
38 58 43
38 58 43
40 60 44
110 177 147
110 177 147
117 197 152
110 177 147
117 197 152
110 178 147
117 197 152
117 197 152
117 197 152
37 54 43
37 54 43
37 54 43
38 54 43
111 178 148
118 198 153
118 198 153
118 198 153
111 179 148
111 179 148
111 179 148
41 61 46
41 61 46
41 61 46
41 61 46
51 72 65
51 72 65
51 72 65
113 180 150
120 199 155
120 199 155
40 56 46
40 57 46
40 57 47
41 57 47
41 57 47
41 57 47
40 57 47
40 57 47
40 57 46
40 56 46
40 57 46
40 57 47
41 57 47
41 57 47
43 63 49
53 75 68
53 75 68
53 75 68
53 75 68
53 75 68
53 75 68
56 81 69
56 81 70
56 81 70
123 202 157
123 202 157
123 202 157
41 57 47
41 57 47
41 57 47
41 57 47
41 57 47
40 57 47
40 57 46
42 62 48
40 56 46
42 62 48
42 62 48
42 62 47
40 56 46
85 134 94
123 203 158
123 203 158
123 203 158
123 203 158
116 183 153
116 183 153
113 182 150
120 203 155
120 203 155
113 182 150
120 203 155
120 203 155
120 203 155
120 203 155
113 182 150
120 203 155
113 182 150
113 182 150
121 203 155
113 182 150
121 203 155
113 182 150
121 202 155
120 202 155
113 182 150
120 202 155
120 202 155
120 202 155
120 202 154
112 181 149
112 181 149
112 181 149
120 202 154
120 201 154
119 201 154
34 50 38
34 50 38
50 76 63
48 70 61
50 76 63
50 75 63
50 75 63
50 75 62
111 180 148
119 200 153
119 200 153
111 180 148
111 180 148
47 68 60
49 74 61
118 199 153
110 179 147
110 179 147
37 57 41
35 52 40
36 52 41
36 53 42
36 52 41
36 52 41
36 52 41
36 52 41
36 52 41
36 52 41
49 74 62
49 74 62
48 74 61
48 74 61
48 74 61
48 74 61
37 53 42
37 53 42
39 59 44
37 53 42
37 53 42
37 53 42
37 53 42
39 59 43
39 59 43
39 59 43
109 177 146
109 177 146
109 177 146
90 152 96
40 60 44
40 60 44
40 60 44
37 54 43
40 60 44
37 54 43
37 54 43
37 54 43
37 54 43
37 54 43
37 54 43
37 54 43
116 196 150
115 196 150
115 196 150
115 196 150
115 196 150
115 196 150
115 196 150
108 176 145
45 66 59
45 66 59
45 66 59
45 66 59
45 66 59
39 55 44
38 58 43
38 58 43
38 58 43
38 58 43
38 58 43
36 52 41
38 54 43
107 176 144
107 176 144
43 65 57
43 65 57
45 71 58
43 65 57
43 65 57
35 51 40
38 57 42
38 57 42
35 51 40
38 57 42
38 57 42
38 57 42
37 53 42
37 57 41
89 152 94
106 175 143
106 175 143
106 175 143
106 175 143
106 175 143
106 175 143
114 195 149
107 175 144
114 195 149
114 195 149
44 70 57
45 70 57
45 70 57
42 64 56
42 64 56
42 64 56
42 64 56
107 175 144
107 175 144
107 175 144
107 175 144
114 195 149
114 195 149
114 195 149
114 195 149
114 195 149
114 195 149
107 175 144
36 52 41
36 52 41
36 52 41
36 52 41
36 52 41
36 52 41
82 132 91
115 195 149
47 73 61
40 60 45
45 67 59
45 67 59
45 67 60
46 67 60
48 73 61
46 67 60
46 67 60
46 67 60
48 73 61
48 73 61
48 74 62
116 196 151
116 196 151
109 176 146
39 56 45
39 56 45
39 56 45
40 56 45
40 56 46
40 56 46
42 62 47
42 62 47
42 62 47
42 62 47
42 62 47
42 62 47
42 62 47
42 62 47
40 56 46
40 56 46
40 56 46
116 196 151
117 196 151
117 196 151
117 196 151
109 176 146
109 176 147
117 196 151
109 176 147
109 176 147
48 70 62
50 75 64
92 141 102
43 63 48
43 63 48
43 63 48
43 63 48
43 63 48
43 63 48
43 63 48
43 63 48
43 59 49
42 59 49
92 141 101
116 196 150
116 196 150
116 196 150
108 176 145
116 196 150
108 176 145
108 176 145
116 196 150
116 196 150
116 196 150
116 196 150
108 177 145
116 197 150
108 177 145
108 177 145
108 177 145
108 177 145
108 177 145
108 177 145
38 58 42
38 58 43
38 58 43
38 58 43
38 58 43
46 68 60
110 177 147
110 177 147
117 197 152
117 197 152
117 197 152
110 178 147
117 198 152
37 53 43
37 54 43
37 54 43
38 54 43
38 54 43
111 178 148
111 178 148
118 198 153
118 198 153
119 198 153
111 179 148
41 61 46
41 61 46
41 61 46
41 61 46
41 61 46
41 61 47
113 180 150
113 180 150
113 180 150
113 180 150
120 199 155
120 199 155
120 200 155
120 200 155
120 200 155
121 200 155
41 57 47
41 57 47
40 57 47
40 57 47
42 62 48
40 57 46
40 57 47
41 57 47
55 81 69
55 81 69
53 75 68
122 201 157
122 201 157
122 201 157
86 134 95
85 134 95
123 202 157
115 182 153
123 202 157
116 182 153
123 202 158
40 57 47
41 57 47
41 57 47
41 57 47
41 57 47
41 57 47
41 57 47
40 57 47
43 62 48
42 62 48
40 56 46
42 62 48
40 56 46
40 56 46
40 56 46
42 62 47
40 56 46
40 56 46
124 203 158
124 203 158
121 203 155
121 203 155
121 203 155
121 203 155
121 203 155
121 203 155
113 183 150
121 203 155
121 203 155
113 183 150
113 183 150
113 183 150
113 183 150
120 203 155
113 182 150
113 182 150
120 203 155
112 182 149
120 203 154
120 203 154
121 203 155
121 202 155
120 202 155
113 182 150
113 182 150
112 182 149
112 182 149
112 181 149
112 181 149
120 202 154
112 181 149
119 201 154
119 201 154
48 70 61
48 70 61
48 70 61
50 75 63
112 181 149
119 201 154
112 180 149
119 200 153
119 200 153
119 200 153
119 200 153
118 200 153
118 200 153
118 199 153
110 179 147
37 57 41
36 52 41
36 52 41
49 75 62
49 75 62
39 59 43
36 52 41
36 52 41
36 52 41
36 53 41
49 74 62
48 74 61
48 74 61
48 74 61
48 74 61
48 74 61
37 53 42
37 53 42
37 53 42
37 53 42
37 53 42
37 53 42
37 53 42
39 59 44
39 59 44
37 53 42
39 59 43
39 59 43
39 59 43
39 59 44
40 60 45
38 54 43
38 54 43
38 54 43
38 54 43
40 60 44
40 60 44
40 60 44
40 60 44
37 54 43
37 54 43
37 54 43
115 196 150
115 196 150
115 196 150
115 196 150
115 196 150
115 196 150
115 196 150
108 176 145
108 176 145
44 66 58
44 66 58
44 66 58
44 66 58
90 139 98
39 58 43
36 52 41
39 58 43
39 58 43
39 58 43
39 58 43
89 139 98
107 175 144
107 175 144
115 196 149
107 175 144
107 175 144
107 175 144
115 196 149
35 52 40
38 58 42
38 58 42
38 58 42
38 58 42
35 52 40
38 58 42
37 53 42
37 57 41
37 57 41
37 57 41
37 57 41
37 57 41
37 57 41
37 57 41
34 51 39
106 175 143
106 175 143
106 175 143
106 175 143
106 175 143
114 195 149
114 195 149
114 195 149
107 175 144
107 175 144
107 175 144
107 175 144
107 175 144
107 175 144
107 175 144
114 195 149
107 175 144
114 195 149
114 195 149
114 195 149
114 195 149
107 175 144
114 195 149
36 52 41
38 58 42
36 52 41
36 52 41
36 52 41
36 52 41
47 73 60
47 73 60
45 67 59
45 67 59
47 73 61
47 73 61
47 73 61
48 73 61
48 73 61
45 67 60
48 73 61
40 60 45
116 196 150
116 196 150
108 176 146
116 196 150
108 176 146
116 196 151
40 56 45
40 56 46
42 62 47
40 56 46
40 56 46
42 62 47
42 62 47
42 62 47
42 62 47
42 62 47
42 62 47
42 62 47
40 56 46
40 56 46
40 56 46
40 56 46
40 56 46
40 56 46
40 56 46
40 57 46
42 62 48
42 62 48
42 62 48
43 62 48
43 63 48
43 63 48
93 154 100
109 176 147
43 63 48
43 63 48
43 63 48
43 63 48
43 63 48
43 63 48
43 63 49
43 63 49
43 59 49
42 59 49
92 141 101
116 196 150
116 196 150
108 176 145
108 176 145
116 196 150
108 176 145
108 176 145
116 196 150
108 176 145
116 196 150
116 196 150
116 197 150
116 197 150
108 177 145
108 177 145
116 197 150
108 177 145
90 152 96
38 58 42
38 58 42
38 58 43
38 58 43
38 58 43
39 58 43
117 197 152
110 177 147
110 177 147
110 178 147
110 178 147
110 178 147
117 198 152
117 198 152
117 198 152
110 178 147
117 198 152
38 54 43
38 54 43
84 133 93
118 198 153
118 198 153
119 198 153
84 133 93
38 55 44
39 55 44
41 61 46
41 61 46
41 61 46
41 61 46
41 61 47
113 180 150
113 180 150
120 199 155
120 199 155
120 200 155
120 200 155
120 200 155
120 200 155
121 200 155
39 56 45
39 56 45
41 57 47
41 57 47
40 57 47
43 63 48
40 57 47
41 57 47
55 81 69
55 81 69
55 81 69
122 201 157
122 201 157
123 201 157
40 57 46
41 57 47
41 57 47
40 57 47
40 57 47
40 57 46
40 56 46
40 56 46
40 57 47
41 57 47
41 57 47
41 57 47
41 57 47
41 57 47
41 57 47
41 57 47
43 63 48
43 62 48
42 62 48
42 62 48
42 62 48
40 56 46
40 56 46
40 56 46
40 56 46
124 203 159
124 203 159
121 204 156
121 204 156
121 204 156
121 204 156
121 204 156
121 204 156
113 183 150
121 204 156
113 183 150
113 183 150
113 183 150
113 183 150
121 204 155
113 183 150
113 183 150
113 183 150
121 203 155
121 203 155
120 203 155
120 203 155
120 203 155
120 203 155
120 203 155
120 203 154
112 182 149
112 182 149
112 182 149
120 202 154
112 182 149
112 182 149
120 202 154
120 202 154
120 202 154
112 181 149
119 202 154
119 201 154
119 201 154
48 69 61
112 181 149
112 181 149
112 181 149
119 201 154
119 200 153
119 200 153
119 200 153
119 200 153
118 200 153
118 200 153
35 51 39
37 57 41
36 52 41
50 75 62
49 75 62
49 75 62
49 75 62
49 75 62
49 74 62
49 74 62
46 68 60
46 68 60
46 68 60
46 68 60
46 68 60
46 68 60
48 73 61
37 53 42
37 53 42
37 53 42
37 53 42
39 59 44
37 53 42
39 59 44
39 59 44
39 59 44
39 59 44
39 59 44
39 59 44
39 59 43
39 59 44
40 60 45
38 54 43
38 54 43
40 60 45
40 60 45
38 54 43
38 54 43
38 54 43
38 54 43
37 54 43
40 60 44
37 54 43
39 59 43
36 53 42
36 53 42
83 132 91
115 196 150
115 196 150
115 196 150
108 176 145
108 176 145
108 176 145
108 176 145
108 176 145
44 66 58
39 59 43
36 53 42
39 59 43
39 59 43
36 53 42
39 59 43
36 53 42
89 139 97
38 58 42
38 58 42
38 58 42
38 58 42
38 58 42
38 58 42
38 58 42
43 65 56
35 52 40
35 52 40
38 58 42
38 58 42
35 52 40
35 52 40
37 53 42
37 57 41
37 57 41
37 57 41
37 57 41
37 57 41
37 57 41
37 57 41
37 57 41
106 175 143
114 195 148
106 175 143
106 175 143
106 175 143
106 175 143
106 175 143
114 195 148
114 195 148
114 195 149
114 195 149
114 195 149
107 175 144
114 195 149
114 195 149
114 195 149
114 195 149
114 195 149
114 195 149
114 195 149
114 195 149
114 195 149
114 195 149
36 52 41
36 52 41
36 52 41
36 52 41
36 52 41
36 52 41
45 66 59
47 72 60
45 67 59
45 67 59
47 73 60
45 67 59
47 73 61
45 67 59
47 73 61
47 73 61
47 73 61
38 55 44
38 55 44
41 61 46
38 55 44
38 55 44
39 55 44
39 55 44
40 56 46
40 56 46
40 56 46
40 56 46
42 62 47
42 62 47
42 62 47
42 62 47
42 62 47
42 62 47
42 62 47
42 62 48
40 56 46
40 56 46
40 56 46
40 56 46
40 56 46
40 57 46
40 57 46
40 57 46
42 62 48
43 62 48
43 63 48
43 63 48
43 63 48
43 63 48
43 63 48
43 59 49
99 160 106
109 176 147
48 69 62
48 69 62
50 75 64
48 70 62
50 75 64
48 70 63
43 59 49
42 59 49
92 141 101
108 176 145
108 176 145
108 176 145
108 176 145
108 176 145
108 176 145
116 196 150
116 196 150
116 196 150
116 196 150
116 197 150
108 177 145
116 197 150
116 197 150
116 197 150
116 197 150
108 177 145
108 177 145
108 177 145
108 177 145
108 177 145
108 177 145
108 177 145
39 58 43
90 152 96
117 197 152
110 178 147
110 178 147
117 198 152
117 198 152
117 198 152
117 198 152
110 178 147
117 198 152
117 198 152
117 198 152
83 132 91
36 53 42
118 198 153
118 198 153
38 54 44
38 55 44
38 55 44
39 55 44
41 61 46
41 61 46
41 61 46
41 61 46
41 61 47
113 180 150
120 199 155
120 200 155
120 200 155
120 200 155
120 200 155
120 200 155
121 200 155
39 55 45
39 56 45
40 56 45
55 80 69
55 80 69
55 80 69
40 57 47
40 57 47
53 75 68
55 81 69
55 81 69
115 182 152
123 202 157
123 202 157
40 56 46
40 57 47
41 57 47
41 57 47
41 57 47
40 57 47
40 57 47
40 57 46
40 56 46
40 57 47
41 57 47
41 57 47
41 57 47
43 63 49
43 63 49
41 57 47
41 57 47
43 63 48
43 63 48
114 183 151
121 204 156
121 204 156
121 204 156
121 204 156
114 183 151
114 184 151
114 184 151
114 184 151
114 184 151
122 204 156
122 204 156
122 204 156
122 204 156
114 184 151
122 204 156
114 184 151
121 204 156
121 204 156
121 204 156
114 183 151
114 183 151
121 204 156
113 183 150
113 183 150
121 204 155
121 204 155
121 204 155
121 204 155
113 183 150
121 203 155
120 203 155
113 183 150
113 182 149
112 182 149
112 182 149
112 182 149
112 182 149
112 182 149
112 182 149
112 182 149
120 202 154
112 182 149
112 181 149
112 181 149
80 131 88
80 131 88
112 181 149
112 181 149
112 181 149
119 201 154
119 201 154
111 180 148
119 200 153
119 200 153
119 200 153
118 200 153
35 51 39
37 57 42
36 52 41
50 75 62
49 75 62
49 75 62
49 75 62
49 74 62
49 74 62
49 74 62
46 68 60
46 68 60
46 68 60
46 68 60
46 68 60
46 68 59
38 58 43
37 53 42
37 53 42
37 53 42
37 53 42
37 53 42
39 59 44
37 53 42
39 59 44
39 59 44
37 53 42
39 59 44
39 59 44
39 59 44
39 59 44
46 68 60
46 68 60
48 74 61
40 60 45
40 60 45
40 60 45
38 54 43
38 54 43
38 54 43
38 54 43
38 54 43
38 54 43
37 53 42
37 53 42
39 59 43
37 53 42
37 53 42
39 59 43
36 53 42
36 53 42
36 53 42
39 59 43
36 53 42
39 59 43
39 59 43
44 66 58
36 53 42
39 59 43
39 59 43
39 59 43
36 53 42
36 53 42
89 139 97
35 52 40
38 58 42
38 58 42
38 58 42
35 52 40
38 58 42
38 58 42
107 175 144
45 71 58
45 71 58
43 65 56
43 65 56
45 71 58
43 65 56
89 138 97
37 57 41
35 51 39
37 57 41
37 57 41
37 57 41
35 51 39
37 57 41
37 57 41
88 138 96
114 195 148
106 175 143
106 175 143
106 175 143
106 175 143
106 175 143
106 175 143
114 195 148
106 175 143
114 195 148
114 195 148
114 195 148
114 195 148
106 175 143
114 195 149
35 51 40
35 51 40
35 51 40
35 51 40
35 51 40
37 57 41
35 51 40
36 52 41
38 58 43
36 52 41
36 52 41
38 58 43
36 52 41
47 72 60
45 66 58
45 66 59
47 72 60
47 72 60
108 176 145
115 196 150
115 196 150
115 196 150
115 196 150
108 176 145
115 196 150
41 61 46
38 55 44
39 55 44
39 55 44
41 61 46
39 55 44
40 56 46
40 56 46
40 56 46
40 56 46
42 62 47
42 62 47
42 62 47
42 62 47
42 62 47
42 62 48
42 62 48
42 62 48
40 56 46
40 56 46
40 56 46
40 57 46
40 57 46
40 57 46
40 57 46
43 62 48
43 63 48
43 63 48
43 63 48
43 63 48
43 63 48
43 63 48
43 63 48
42 59 49
92 141 101
109 176 146
109 176 146
109 176 146
50 75 63
48 69 62
48 69 62
48 69 62
48 70 62
42 59 49
92 141 101
108 176 145
108 176 145
108 176 145
116 196 150
108 176 145
108 176 145
116 196 150
108 176 145
116 196 150
116 197 150
116 197 150
116 197 150
116 197 150
116 197 150
108 177 145
116 197 150
116 197 150
108 177 145
108 177 145
108 177 145
108 177 145
108 177 145
89 152 95
37 57 41
39 59 43
109 178 147
110 178 147
117 198 152
110 178 147
110 178 147
117 198 152
117 198 152
117 198 152
117 198 152
110 178 147
36 52 41
36 53 42
37 53 42
118 198 153
38 54 44
38 54 44
38 55 44
38 55 44
39 55 44
41 61 46
41 61 46
41 61 46
41 61 46
50 72 65
113 180 150
113 180 150
113 180 150
113 180 150
113 180 150
113 181 150
39 55 45
39 55 45
39 55 45
39 56 45
40 56 46
55 80 69
55 80 69
53 75 67
55 81 69
53 75 68
53 75 68
53 75 68
115 182 152
115 182 152
115 182 153
40 56 46
40 56 46
40 57 47
41 57 47
41 57 47
41 57 47
41 57 47
43 63 48
40 57 47
40 57 46
40 57 47
41 57 47
41 57 47
58 83 72
58 83 72
41 57 47
41 57 47
41 57 47
43 63 48
122 204 156
114 184 151
122 204 156
122 204 156
122 204 156
122 204 156
122 204 156
114 184 151
114 184 151
122 205 156
114 184 151
122 205 156
114 184 151
114 184 151
114 184 151
114 184 151
122 205 156
122 205 156
114 184 151
122 205 156
122 205 156
114 184 151
114 184 151
114 184 151
122 204 156
114 184 151
121 204 156
121 204 156
121 204 156
121 204 155
113 183 150
121 204 155
121 204 155
113 183 150
113 183 150
113 183 150
113 183 150
120 203 155
112 182 149
112 182 149
112 182 149
33 53 36
120 202 155
120 202 154
120 202 154
120 202 154
33 49 37
33 49 37
120 202 154
112 181 149
120 201 154
120 201 154
119 201 154
119 201 154
119 201 154
119 201 153
119 200 153
34 50 39
35 51 39
37 57 42
47 69 61
50 75 62
49 75 62
49 75 62
49 75 62
49 74 62
49 74 62
110 179 147
110 179 147
46 68 60
110 178 147
110 178 147
110 178 147
110 178 147
38 58 43
37 53 42
37 53 43
37 53 43
37 53 42
37 53 42
37 53 42
37 53 42
39 59 44
39 59 44
39 59 44
39 59 44
39 59 44
39 59 44
39 59 44
46 68 60
46 68 60
46 68 60
46 68 60
46 68 60
48 73 61
48 73 61
48 73 61
48 73 61
48 73 61
48 73 61
48 73 61
37 53 42
39 59 43
39 59 43
37 53 42
39 59 43
37 53 42
37 53 42
39 59 43
39 59 43
39 59 43
37 53 42
39 59 43
39 59 43
108 176 145
108 176 145
44 66 58
44 66 58
44 66 58
44 66 58
44 66 58
38 58 42
38 58 42
38 58 42
38 58 42
38 58 42
38 58 42
38 58 42
38 54 43
107 175 144
114 195 149
107 175 144
45 70 58
43 64 56
45 70 58
45 70 58
88 138 97
37 57 41
37 57 41
37 57 41
37 57 41
37 57 41
37 57 41
37 57 41
37 53 41
88 138 96
106 175 143
114 195 148
106 175 143
106 175 143
106 175 143
114 195 148
106 175 143
114 195 148
114 195 148
114 195 148
114 195 148
114 195 148
114 195 148
114 195 148
114 195 148
35 51 40
37 57 41
35 51 40
35 51 40
35 51 40
35 51 40
35 51 40
38 58 43
36 52 41
36 52 41
36 52 41
36 52 41
38 58 43
47 72 60
47 72 60
47 72 60
47 72 60
47 72 60
37 54 43
37 54 43
37 54 43
37 54 43
83 133 92
115 196 150
108 176 145
41 61 46
39 55 44
41 61 46
39 55 44
39 55 44
40 56 46
40 56 46
40 56 46
40 56 46
40 56 46
42 62 47
42 62 47
42 62 47
42 62 48
42 62 48
42 62 48
42 62 48
40 56 46
40 56 46
40 57 46
40 57 46
40 57 46
40 57 46
40 57 47
40 57 47
43 63 48
43 63 48
43 63 48
43 63 48
43 63 48
43 63 48
43 63 48
43 63 48
45 65 50
99 160 106
92 141 101
109 176 146
116 196 151
109 176 146
117 196 151
109 176 146
50 75 63
48 69 62
42 59 49
92 141 101
108 176 145
108 176 145
108 176 145
116 196 150
108 176 145
116 196 150
116 196 150
116 196 150
116 197 150
116 197 150
116 197 150
116 197 150
108 177 145
108 177 145
116 197 150
108 177 145
108 177 145
108 177 145
108 177 145
108 177 145
116 197 150
37 57 41
37 57 41
37 57 41
39 59 43
109 178 147
117 198 152
117 198 152
110 178 147
110 178 147
110 178 147
117 198 152
117 198 152
83 132 91
36 52 41
36 53 41
36 53 42
37 53 42
118 199 153
111 179 148
119 199 153
119 199 153
119 199 153
111 179 149
41 61 46
41 61 46
41 61 46
50 72 65
50 72 65
113 180 150
113 180 150
113 180 150
113 180 150
113 181 150
41 61 46
39 55 45
39 55 45
39 56 45
39 56 45
40 56 46
55 80 69
55 80 69
55 81 69
53 75 67
53 75 68
53 75 68
115 182 152
115 182 153
116 183 153
42 62 47
40 56 46
40 57 46
40 57 47
41 57 47
41 57 47
41 57 47
41 57 47
41 57 47
40 57 47
40 57 47
40 57 47
41 57 47
58 84 72
58 84 72
58 84 72
58 84 72
58 84 72
114 184 151
122 204 156
122 205 156
122 205 156
122 205 156
122 205 156
114 184 151
122 205 157
122 205 157
115 184 152
115 184 152
115 184 152
115 184 152
115 185 152
115 185 152
122 205 157
122 205 157
122 205 157
115 185 152
122 205 157
122 205 157
114 184 151
122 205 157
122 205 157
122 205 156
122 205 156
114 184 151
114 184 151
114 184 151
114 184 151
114 184 151
122 205 156
121 204 156
114 184 150
113 184 150
113 183 150
113 183 150
113 183 150
113 183 150
113 183 150
113 183 150
113 183 149
33 53 36
33 53 36
113 182 150
113 182 150
120 203 155
32 48 37
33 49 37
33 49 38
120 202 155
112 182 149
112 181 149
112 181 149
112 181 149
112 181 149
112 181 149
112 181 149
111 180 148
34 50 39
35 51 39
37 57 42
47 69 61
47 69 61
47 69 61
47 69 61
47 69 60
47 68 60
47 68 60
38 58 42
38 58 42
38 58 42
110 179 147
110 178 147
110 178 147
38 58 42
38 58 43
37 53 42
47 69 61
49 74 62
49 74 62
49 74 62
49 74 62
37 53 42
37 53 42
37 53 42
39 59 44
39 59 44
39 59 44
39 59 44
46 68 60
46 68 60
46 67 60
46 67 60
46 67 60
46 67 59
46 67 59
48 73 61
45 67 59
48 73 61
48 73 61
48 73 61
48 73 61
39 59 43
37 53 42
39 59 43
37 53 42
37 53 42
37 53 42
39 59 43
39 59 43
39 59 43
37 53 42
39 59 43
39 59 43
39 59 43
107 176 144
107 176 144
107 176 144
44 65 57
44 65 57
44 65 57
44 65 57
38 58 42
38 58 42
38 58 42
38 58 42
38 58 42
38 58 42
38 58 42
37 54 42
107 175 144
107 175 144
107 175 144
107 175 144
107 175 144
107 175 144
45 70 57
88 138 97
37 57 41
37 57 41
35 51 39
37 57 41
35 51 39
37 57 41
35 51 40
37 53 41
88 138 96
36 56 40
36 56 40
36 56 40
36 56 40
36 56 40
36 56 40
36 56 40
89 151 94
106 175 143
114 195 148
114 195 148
114 195 148
114 195 148
114 195 148
106 175 143
35 51 40
35 51 40
35 51 40
35 51 40
35 51 40
35 51 40
37 57 41
36 52 41
36 52 41
36 52 41
36 52 41
38 58 43
44 66 58
44 66 58
44 66 58
115 195 150
115 195 150
46 72 60
47 72 60
37 54 43
40 60 44
37 54 43
40 60 44
38 54 43
40 60 45
39 55 44
41 61 46
39 55 44
39 55 44
39 55 44
49 74 63
49 74 63
49 74 63
49 75 63
49 75 63
47 69 62
47 69 62
42 62 48
42 62 48
42 62 48
42 62 48
42 62 48
40 57 46
40 57 46
40 57 46
40 57 46
40 57 47
40 57 47
40 57 47
40 57 47
43 63 48
43 63 48
43 63 48
43 63 48
43 63 48
43 63 48
43 63 48
43 59 49
45 65 50
92 141 101
92 141 101
42 62 47
42 62 47
42 62 47
42 62 48
42 62 48
42 62 48
109 176 146
109 176 146
92 141 101
108 176 145
115 196 150
108 176 145
108 176 145
108 176 145
108 176 145
108 176 145
108 176 145
116 197 150
116 197 150
116 197 150
108 177 145
108 177 145
108 177 145
108 177 145
108 177 145
108 177 145
116 197 150
108 177 145
37 57 41
37 57 41
37 57 41
37 57 41
37 57 41
37 57 42
109 178 147
109 178 147
117 198 152
117 198 152
117 198 152
117 198 152
110 178 147
36 52 41
36 52 41
36 52 41
36 53 42
36 53 42
37 53 42
83 132 92
119 199 153
119 199 153
119 199 153
119 199 153
37 54 43
37 54 43
41 61 46
50 72 64
50 72 64
50 72 64
113 180 150
113 180 150
113 181 150
113 181 150
41 61 46
41 61 46
41 61 46
39 55 45
39 56 45
39 56 45
40 56 46
40 56 46
115 182 152
115 182 152
115 182 152
115 182 152
115 182 153
116 183 153
123 202 158
42 62 47
42 62 47
42 62 48
40 57 46
40 57 47
41 57 47
41 57 47
41 57 47
41 57 47
43 63 48
121 204 156
121 204 156
122 204 156
122 204 156
122 204 156
122 204 156
114 184 151
122 205 156
114 184 151
122 205 157
122 205 157
122 205 157
122 205 157
122 205 157
115 185 152
123 205 157
123 205 157
115 185 152
115 185 152
115 185 152
115 185 152
115 185 152
123 206 157
115 185 152
115 185 152
123 206 157
123 206 157
123 206 157
123 206 157
123 206 157
123 206 157
123 206 157
123 206 157
123 206 157
115 185 152
115 185 152
115 185 151
114 185 151
114 184 151
114 184 151
114 184 151
114 184 151
122 205 156
122 205 156
121 205 156
121 204 156
121 204 156
121 204 155
113 183 150
113 183 150
113 183 150
33 53 36
33 53 37
113 183 150
113 183 150
113 182 150
120 203 155
120 203 155
112 182 149
112 182 149
120 202 154
112 181 149
119 202 154
112 181 149
112 181 149
119 201 154
112 181 149
36 56 40
34 50 39
35 51 40
48 69 61
48 69 61
47 69 61
47 69 61
111 180 148
47 69 60
47 69 60
38 58 42
38 58 42
36 52 41
38 58 42
38 58 42
38 58 42
38 58 42
38 58 42
39 58 43
49 75 62
49 74 62
49 74 62
49 74 62
49 74 62
49 74 62
46 68 60
46 68 60
46 68 60
46 68 60
46 68 60
46 68 60
46 68 60
48 73 61
48 73 61
46 67 59
109 177 146
116 197 151
109 177 146
116 196 151
109 177 146
116 196 151
116 196 151
45 67 59
47 73 61
47 73 61
37 53 42
37 53 42
37 53 42
37 53 42
37 53 42
37 53 42
37 53 42
39 59 43
39 59 43
39 59 43
39 59 43
37 53 42
39 59 43
107 176 144
107 176 144
107 176 144
107 176 144
107 176 144
107 176 144
44 65 57
36 52 41
38 58 42
38 58 42
36 52 41
38 58 42
38 58 42
38 58 42
89 139 97
114 196 149
114 195 149
114 195 149
114 195 149
114 195 149
114 195 149
114 195 149
37 57 41
37 57 41
37 57 41
37 57 41
37 57 41
37 57 41
37 57 41
37 57 41
36 53 41
36 56 40
36 56 40
36 56 40
36 56 40
36 56 40
36 56 40
36 56 40
36 56 40
34 50 39
36 56 40
34 50 39
34 50 39
34 50 39
34 50 39
34 50 39
34 50 39
34 50 39
35 51 40
35 51 40
35 51 40
37 57 42
35 51 40
35 51 40
46 71 59
46 71 59
36 52 41
36 52 41
36 52 41
46 72 59
46 72 59
46 72 59
115 195 150
115 195 150
115 195 150
115 195 150
37 54 43
38 54 43
38 54 43
40 60 45
38 54 43
38 54 43
39 55 44
39 55 44
39 55 45
39 55 45
39 55 45
49 74 62
49 74 62
49 74 62
49 74 63
49 74 63
47 69 61
47 69 61
47 69 61
47 69 61
47 69 62
47 69 62
47 69 62
50 75 63
50 75 63
50 75 63
50 75 63
50 75 64
40 57 47
40 57 47
43 63 48
43 63 48
43 63 48
43 63 48
43 63 48
43 63 48
43 63 48
43 63 49
43 59 49
45 65 50
92 141 101
99 160 106
42 62 47
42 62 48
42 62 48
42 62 48
42 62 48
42 62 48
42 62 48
40 57 46
44 64 50
115 196 150
115 196 150
108 176 145
115 196 150
115 196 150
108 176 145
108 176 145
108 176 145
108 177 145
115 197 150
116 197 150
116 197 150
108 177 145
116 197 150
116 197 150
108 177 145
116 197 150
108 177 145
37 57 41
37 57 41
37 57 41
37 57 41
37 57 41
37 57 42
37 57 42
117 198 151
109 178 147
110 178 147
117 198 152
110 178 147
117 198 152
117 198 152
117 198 152
117 198 152
117 198 152
110 178 147
118 199 152
118 199 152
82 132 90
111 179 148
111 179 148
119 199 153
37 53 43
37 54 43
37 54 43
52 78 66
52 78 66
52 78 66
113 180 150
113 180 150
113 181 150
91 153 98
41 61 46
41 61 46
41 61 46
41 61 46
39 55 45
39 56 45
39 56 45
40 56 46
55 80 69
122 202 157
123 202 157
123 202 157
123 202 157
123 202 158
92 153 99
42 62 47
42 62 47
42 62 47
42 62 48
40 57 46
40 57 47
41 57 47
58 83 72
58 83 72
56 78 70
114 184 151
122 204 156
122 204 156
122 205 156
122 205 156
114 184 151
122 205 157
122 205 157
115 185 152
122 205 157
123 205 157
115 185 152
115 185 152
115 185 152
123 206 157
115 185 152
115 185 152
123 206 157
115 185 152
115 185 152
115 185 152
115 185 152
115 185 152
115 186 152
115 186 152
123 206 158
123 206 158
123 206 158
115 186 152
123 206 158
123 206 158
115 185 152
123 206 157
123 206 157
123 206 157
115 185 152
115 185 152
123 206 157
115 185 152
123 206 157
115 185 152
115 185 152
122 205 157
122 205 156
122 205 156
122 205 156
122 205 156
122 205 156
121 205 156
121 205 156
121 204 156
121 204 155
113 183 150
113 183 150
113 183 150
113 183 149
112 183 149
120 203 154
120 203 155
120 203 155
120 203 155
120 203 154
120 202 154
112 182 149
112 182 149
112 181 149
112 181 149
112 181 149
36 56 40
34 50 39
35 51 40
48 70 61
48 69 61
47 69 61
111 180 148
111 180 148
111 180 148
111 180 148
38 58 42
38 58 42
38 58 42
38 58 42
38 58 42
38 58 42
35 52 40
38 58 42
39 59 43
49 75 62
49 74 62
49 74 62
49 74 62
49 74 62
48 74 62
48 74 61
46 68 60
46 68 60
46 68 60
46 68 60
46 67 60
46 67 59
48 73 61
48 73 61
48 73 61
116 197 151
116 197 151
116 197 151
109 177 146
109 177 146
109 177 146
108 176 146
108 176 146
116 196 150
116 196 150
37 53 42
37 53 42
39 59 44
39 59 44
37 53 42
37 53 42
39 59 44
39 59 44
37 53 42
39 59 44
39 59 44
39 59 44
39 59 44
115 196 149
115 196 149
115 196 149
115 196 149
115 196 149
115 196 149
115 196 149
38 58 42
38 58 42
36 52 41
38 58 42
38 58 42
38 58 42
38 58 42
89 139 97
114 195 148
114 195 148
114 195 149
114 195 149
106 175 143
114 195 149
114 195 149
114 195 149
107 175 144
42 64 56
42 64 56
42 64 56
44 70 57
42 64 56
42 64 56
36 53 41
36 56 40
36 56 40
36 56 40
34 50 39
36 56 40
36 56 40
36 56 40
36 56 40
34 50 39
34 50 39
34 50 39
34 50 39
34 50 39
34 50 39
34 50 39
36 56 40
35 51 40
37 57 42
35 51 40
35 51 40
35 51 40
35 51 40
46 71 58
46 71 59
46 71 59
43 65 57
46 71 59
44 65 57
36 53 42
39 59 43
36 53 42
36 53 42
39 59 43
36 53 42
83 132 91
107 176 145
38 54 43
38 54 43
38 54 43
38 54 43
38 54 43
41 61 46
39 55 45
41 61 46
39 55 45
48 74 62
49 74 62
49 74 62
116 196 151
49 74 62
49 74 62
49 74 62
47 68 61
47 69 61
47 69 61
47 69 61
47 69 61
47 69 61
47 69 61
49 75 63
49 75 63
49 75 63
50 75 63
50 75 63
50 75 63
50 75 63
48 69 62
48 69 62
48 69 62
48 70 62
48 70 62
48 70 63
48 70 63
43 59 49
42 59 49
92 141 101
99 160 106
42 62 48
42 62 48
42 62 48
42 62 48
40 56 46
40 57 46
42 62 48
42 62 48
42 58 48
108 176 145
115 196 150
108 176 145
108 176 145
108 176 145
108 176 145
108 176 145
115 197 150
115 197 150
115 197 150
115 197 150
116 197 150
116 197 150
108 177 145
116 197 150
116 197 150
35 51 39
37 57 41
37 57 41
37 57 41
37 57 41
37 57 41
37 57 41
37 57 42
37 57 42
109 178 146
109 178 147
110 178 147
110 178 147
117 198 152
117 198 152
117 198 152
117 198 152
117 198 152
118 199 152
118 199 152
110 179 147
35 51 40
35 52 40
119 199 153
37 53 42
37 53 42
37 53 43
37 54 43
37 54 43
52 78 66
52 78 66
120 200 155
120 200 155
121 200 155
113 181 150
113 181 150
113 181 151
114 181 151
114 181 151
114 181 151
39 55 45
39 56 45
39 56 45
55 80 69
55 81 69
123 202 157
123 202 157
123 202 158
123 202 158
39 55 45
39 56 45
42 62 47
42 62 47
42 62 47
42 62 48
40 57 46
41 57 47
58 83 72
58 83 72
58 84 72
122 204 156
122 205 156
114 184 151
122 205 157
122 205 157
122 205 157
122 205 157
123 205 157
115 185 152
115 185 152
115 185 152
115 185 152
115 185 152
115 185 152
116 185 152
116 186 153
116 186 153
116 186 153
124 206 158
124 207 158
124 207 158
124 207 158
124 207 158
124 207 158
124 207 158
124 207 158
116 186 153
116 186 153
124 207 158
116 186 153
124 207 158
124 207 158
116 186 153
124 207 158
116 186 153
116 186 153
116 186 153
116 186 152
115 186 152
115 186 152
115 185 152
115 185 152
115 185 152
123 206 157
123 206 157
122 206 157
115 185 151
122 205 157
122 205 156
122 205 156
122 205 156
114 184 151
114 184 151
113 184 150
113 184 150
113 183 150
113 183 150
121 204 155
113 183 149
112 183 149
121 203 155
120 203 155
120 203 155
120 203 154
32 48 36
80 130 87
113 182 150
112 182 149
36 56 39
36 56 40
34 51 39
50 76 63
50 76 63
50 75 63
50 75 62
119 200 154
119 200 153
119 200 153
37 57 41
38 58 42
38 58 42
36 52 41
36 52 41
38 58 42
38 58 42
38 58 42
38 58 42
47 69 61
47 69 61
47 68 60
47 68 60
49 74 62
49 74 62
48 74 61
46 68 60
46 68 60
46 68 60
109 177 146
109 177 146
46 67 59
46 67 59
48 73 61
48 73 61
45 67 59
116 197 151
116 197 151
116 197 151
116 197 151
109 177 146
108 177 146
116 196 150
108 176 145
108 176 145
108 176 145
116 196 150
47 72 60
47 72 60
47 72 60
47 72 60
47 72 60
45 66 59
45 66 59
39 59 44
39 59 44
39 59 44
39 59 44
39 59 44
115 196 149
115 196 149
115 196 149
115 196 149
115 196 149
115 196 149
115 196 149
107 176 144
43 65 57
43 65 57
43 65 57
43 65 57
43 65 57
43 65 57
89 138 97
114 195 148
114 195 148
114 195 148
114 195 148
114 195 148
106 175 143
114 195 148
106 175 143
114 195 148
106 175 143
44 70 57
44 70 57
42 64 55
42 64 55
42 64 56
88 138 96
34 50 39
36 56 40
36 56 40
36 56 40
36 56 40
34 50 39
36 56 40
34 50 39
34 50 39
34 50 39
36 56 40
34 50 39
34 50 39
34 50 39
36 56 40
34 50 39
35 51 40
37 57 42
37 57 42
37 57 42
35 51 40
38 57 42
45 71 58
45 71 58
45 71 58
45 71 58
46 71 58
46 71 58
46 71 59
36 53 42
36 53 42
39 59 43
37 53 42
37 53 42
37 53 42
38 54 43
38 54 43
38 54 43
40 60 45
38 54 43
48 73 61
48 73 61
48 74 62
48 74 62
48 74 62
48 74 62
39 55 45
39 55 45
39 55 45
39 55 45
85 134 94
116 196 151
109 176 146
109 176 146
109 176 146
109 176 146
109 176 146
109 176 146
109 176 146
49 74 63
49 75 63
49 75 63
49 75 63
49 75 63
49 75 63
49 75 63
47 69 62
47 69 62
48 69 62
48 69 62
48 69 62
48 69 62
48 70 62
43 59 49
42 59 49
92 141 101
42 62 48
42 62 48
42 62 48
40 56 46
42 62 48
42 62 48
42 62 48
43 62 48
42 59 48
92 141 101
108 176 145
108 176 145
108 176 145
108 176 145
115 197 150
108 176 145
108 176 145
115 197 150
115 197 150
115 197 150
115 197 150
115 197 150
116 197 150
116 197 150
81 131 89
34 51 39
35 51 39
35 51 39
37 57 41
37 57 41
37 57 41
37 57 41
37 57 41
37 57 42
38 57 42
38 58 42
117 198 152
117 198 152
117 198 152
117 198 152
117 198 152
117 198 152
110 178 147
117 199 152
110 179 147
82 132 90
35 51 40
35 51 40
35 52 40
119 199 153
119 199 153
119 200 154
112 180 149
37 54 43
37 54 43
38 54 43
120 200 155
120 200 155
121 200 155
113 181 150
113 181 150
113 181 151
114 181 151
114 181 151
114 182 151
114 182 151
40 60 45
55 80 69
55 80 69
55 81 69
55 81 69
123 202 158
123 202 158
123 203 158
39 55 45
39 56 45
39 56 45
42 62 47
42 62 47
42 62 47
42 62 48
40 57 47
58 83 72
58 84 72
58 84 72
122 205 156
122 205 157
122 205 157
122 205 157
123 205 157
123 205 157
115 185 152
115 185 152
115 185 152
115 185 152
115 185 152
123 206 158
116 186 153
124 206 158
116 186 153
116 186 153
116 186 153
124 207 158
124 207 158
124 207 158
124 207 158
124 207 158
124 207 158
124 207 159
124 207 159
124 207 159
116 187 153
116 187 153
116 187 153
116 187 153
116 187 153
116 187 153
116 187 153
116 187 153
124 207 158
124 207 158
124 207 158
116 186 153
116 186 153
116 186 153
116 186 153
116 186 153
116 186 153
123 207 158
123 206 157
123 206 157
123 206 157
123 206 157
123 206 157
122 206 157
122 206 157
122 205 156
114 185 151
114 184 151
114 184 151
114 184 151
113 184 150
113 184 150
113 183 150
113 183 150
32 52 35
121 204 155
113 183 150
121 203 155
120 203 155
32 48 36
32 48 36
120 202 155
120 202 155
36 56 39
36 56 40
34 51 39
50 76 63
50 76 63
50 76 63
120 201 154
119 201 154
119 201 154
119 200 153
37 57 41
38 58 42
38 58 42
38 58 42
38 58 42
36 52 41
38 58 42
36 52 41
38 58 42
47 69 61
47 69 60
47 68 60
46 68 60
49 74 62
46 68 60
46 68 60
39 59 43
36 53 42
36 53 42
36 53 42
39 58 43
83 132 91
117 197 151
116 197 151
116 197 151
116 197 151
116 197 151
116 197 151
116 197 151
109 177 146
108 177 146
108 177 145
108 177 145
108 176 145
108 176 145
116 196 150
108 176 145
108 176 145
47 72 60
47 72 60
47 72 60
45 66 58
44 66 58
44 66 58
44 66 58
44 66 58
44 66 58
44 66 58
44 66 58
115 196 149
115 196 149
115 196 149
115 196 149
115 196 149
115 196 149
115 196 149
107 176 144
107 176 144
43 65 57
43 65 57
43 65 57
43 65 57
43 65 57
96 159 102
106 175 143
114 195 148
114 195 148
114 195 148
114 195 148
114 195 148
114 195 148
114 195 148
106 175 143
106 175 143
106 175 143
44 70 57
44 70 57
42 64 55
42 64 55
88 138 96
36 56 40
87 138 95
106 175 143
113 195 148
106 175 143
106 175 143
106 175 143
106 175 143
113 195 148
106 175 143
106 175 143
34 50 39
36 56 40
34 50 39
34 50 39
34 50 39
45 70 58
45 70 58
45 71 58
45 71 58
35 52 40
38 58 42
45 71 58
45 71 58
45 71 58
114 195 149
107 175 144
115 195 149
115 195 149
37 53 42
37 53 42
37 53 42
39 59 43
39 59 43
39 59 43
40 60 45
38 54 43
38 54 43
38 54 43
38 54 43
48 73 61
48 73 61
48 73 61
48 73 61
48 73 61
48 73 61
41 61 46
39 55 45
41 61 46
39 55 45
39 55 45
39 56 45
41 61 47
41 61 47
42 61 47
39 56 45
42 62 47
39 56 45
42 62 47
42 62 47
85 134 94
116 196 151
116 196 151
116 196 151
116 196 151
116 196 151
116 196 151
109 176 146
109 176 146
47 69 62
47 69 62
47 69 62
48 69 62
48 69 62
45 64 50
92 141 101
42 62 48
42 62 48
40 57 46
42 62 48
42 62 48
43 62 48
43 63 48
43 63 48
42 59 48
92 141 101
108 176 145
108 176 145
108 176 145
108 176 145
115 197 150
108 176 145
108 177 145
115 197 150
115 197 150
108 177 145
115 197 150
108 177 145
115 197 150
34 50 39
34 51 39
34 51 39
35 51 39
35 51 39
37 57 41
37 57 41
37 57 41
37 57 41
37 57 41
37 57 42
38 57 42
38 58 42
110 178 147
110 178 147
117 198 152
117 198 152
117 198 152
117 199 152
117 199 152
118 199 152
35 51 40
35 51 40
35 51 40
35 52 40
35 52 40
82 132 91
112 180 149
119 200 154
112 180 149
119 200 154
119 200 154
36 52 41
120 200 155
113 181 150
113 181 150
113 181 150
113 181 151
114 181 151
114 181 151
114 182 151
114 182 151
40 60 45
40 60 45
53 75 67
53 75 67
53 75 67
123 202 158
123 203 158
123 203 158
39 55 45
39 55 45
39 56 45
39 56 45
42 62 47
42 62 47
42 62 48
56 78 70
56 78 70
56 78 70
56 78 71
114 184 151
115 185 152
115 185 152
123 205 157
115 185 152
115 185 152
115 185 152
123 206 158
116 186 153
123 206 158
116 186 153
116 186 153
116 186 153
116 186 153
124 207 158
116 186 153
116 187 153
124 207 159
124 207 159
124 207 159
124 208 159
125 208 159
125 208 159
125 208 159
125 208 159
125 208 159
117 187 154
117 187 154
117 187 154
125 208 159
117 187 154
117 187 154
117 187 154
117 187 154
125 208 159
125 208 159
125 208 159
124 208 159
117 187 153
116 187 153
116 187 153
124 207 158
124 207 158
124 207 158
116 186 153
116 186 153
116 186 153
123 207 158
123 207 158
123 206 157
123 206 157
123 206 157
115 185 152
115 185 152
114 185 151
114 185 151
114 184 151
114 184 151
114 184 151
113 184 150
113 184 150
32 52 35
114 183 151
113 183 150
121 204 155
121 203 155
32 48 36
32 48 36
121 203 155
33 49 37
36 56 40
36 56 40
51 76 63
51 76 63
50 76 63
50 76 63
120 201 154
120 201 154
119 201 154
81 131 90
37 57 41
38 58 42
36 52 41
38 58 42
38 58 42
38 58 42
38 58 42
38 58 42
38 58 42
47 69 61
47 68 60
49 74 62
110 178 147
110 178 147
110 178 147
38 58 43
36 53 42
39 59 43
39 59 43
39 59 43
39 59 43
39 59 43
36 53 42
36 53 42
36 53 41
36 52 41
36 52 41
36 52 41
36 52 41
38 58 43
90 152 96
108 177 145
108 177 145
108 176 145
108 176 145
116 196 150
116 196 150
116 196 150
116 196 150
47 72 60
47 72 60
44 66 58
44 66 58
44 66 58
44 66 58
44 66 58
44 66 58
47 72 60
44 66 58
35 51 40
82 132 90
114 196 149
114 196 149
114 196 149
114 196 149
114 196 149
107 176 144
107 176 144
107 176 144
107 176 144
43 65 56
43 65 56
43 65 56
96 159 102
106 175 143
106 175 143
114 195 148
106 175 143
106 175 143
106 175 143
106 175 143
106 175 143
106 175 143
114 195 148
114 195 148
106 175 143
106 175 143
106 175 143
106 175 143
88 138 96
36 56 40
87 138 95
106 175 142
106 175 143
106 175 143
106 175 143
106 175 143
106 175 143
106 175 143
106 175 143
113 195 148
106 175 143
106 175 143
113 195 148
106 175 143
106 175 143
113 195 148
113 195 148
43 64 56
45 70 58
45 70 58
43 64 56
45 70 58
43 65 56
43 65 56
45 71 58
107 175 144
107 175 144
107 175 144
114 195 149
37 53 42
37 53 42
37 53 42
37 53 42
39 59 44
47 73 61
47 73 61
47 73 61
38 54 43
38 54 43
48 73 61
48 73 61
48 73 61
116 196 150
116 196 150
116 196 150
48 73 61
39 55 45
39 55 45
41 61 47
39 56 45
39 56 45
39 56 45
42 62 47
42 62 47
42 62 47
39 56 45
42 62 47
40 56 46
42 62 47
40 56 46
40 56 46
40 56 46
40 56 46
40 56 46
40 56 46
40 56 46
44 64 49
116 196 151
116 196 151
116 196 151
109 176 146
109 176 146
109 176 146
109 176 146
42 62 48
42 62 48
42 62 48
42 62 48
43 62 48
43 62 48
43 63 48
43 63 48
43 63 48
44 64 50
92 141 101
108 176 145
115 197 150
108 176 145
108 176 145
108 176 145
115 197 150
115 197 150
115 197 150
115 197 150
115 197 150
115 197 150
81 131 89
34 50 39
34 50 39
34 51 39
34 51 39
35 51 39
35 51 39
35 51 40
37 57 41
37 57 41
37 57 41
37 57 42
37 57 42
38 57 42
45 67 59
110 178 147
110 178 147
110 178 147
110 178 147
110 178 147
117 199 152
110 179 147
118 199 152
35 51 40
35 51 40
35 51 40
35 52 40
35 52 40
36 52 41
119 200 154
112 180 149
119 200 154
119 200 154
36 52 41
36 53 41
121 201 155
113 181 150
113 181 150
114 181 151
114 181 151
114 182 151
114 182 151
40 60 44
40 60 44
40 60 45
40 60 45
40 60 45
116 183 153
116 183 153
116 183 153
123 203 158
41 61 46
39 55 45
39 55 45
39 56 45
39 56 45
42 62 47
42 62 47
56 78 70
56 78 70
56 78 71
118 185 155
115 185 152
115 185 152
115 185 152
115 185 152
115 185 152
115 185 152
116 186 153
116 186 153
124 207 158
124 207 158
124 207 158
124 207 158
124 207 158
124 207 159
124 207 159
117 187 154
117 187 154
125 208 159
125 208 159
117 187 154
117 187 154
125 208 159
125 208 159
125 208 159
125 208 159
125 208 160
117 188 154
117 188 154
117 188 154
125 209 160
117 188 154
117 188 154
125 209 160
117 188 154
117 188 154
125 208 159
125 208 159
117 188 154
125 208 159
125 208 159
125 208 159
125 208 159
125 208 159
117 187 154
117 187 154
116 187 153
116 187 153
116 187 153
116 186 153
116 186 153
124 207 158
116 186 152
123 207 158
123 207 157
123 206 157
123 206 157
115 185 152
122 206 157
114 185 151
114 185 151
114 184 151
32 52 35
32 52 35
33 53 36
114 184 151
113 183 150
121 204 155
121 204 155
121 203 155
113 183 150
120 203 154
120 203 154
120 203 154
119 202 154
51 76 63
50 76 63
120 202 155
120 201 154
120 201 154
120 201 154
34 51 39
37 57 41
38 58 42
48 70 62
48 70 61
48 69 61
47 69 61
47 69 61
47 69 61
47 69 61
47 69 60
47 68 60
47 68 60
110 179 147
110 178 147
110 178 147
39 58 43
39 59 43
39 59 43
39 59 43
39 59 43
39 59 43
39 59 43
36 53 42
36 53 42
36 53 42
36 53 42
36 53 42
39 59 43
36 53 41
39 58 43
39 58 43
36 52 41
36 52 41
38 58 43
38 58 43
36 52 41
36 52 41
36 52 41
38 58 43
83 132 91
115 196 150
115 196 150
108 176 145
108 176 145
108 176 145
108 176 145
108 176 145
108 176 145
44 66 58
35 51 40
35 51 40
35 51 40
35 51 40
35 51 40
35 51 40
35 51 40
114 196 149
114 196 149
114 196 149
114 196 149
107 175 144
107 175 144
107 175 144
96 159 102
106 175 143
106 175 143
106 175 143
114 195 148
106 175 143
106 175 143
106 175 143
106 175 143
114 195 148
106 175 143
114 195 148
114 195 148
114 195 148
114 195 148
106 175 143
114 195 148
42 63 55
87 138 95
105 175 142
105 175 142
105 175 142
105 175 142
105 175 142
106 175 142
113 195 148
106 175 143
113 195 148
113 195 148
113 195 148
106 175 143
113 195 148
113 195 148
113 195 148
113 195 148
42 64 56
45 70 57
45 70 57
42 64 56
42 64 56
43 64 56
45 70 58
43 64 56
107 175 144
107 175 144
107 175 144
107 175 144
37 53 42
37 53 42
37 53 42
37 53 42
37 53 42
47 73 60
47 73 60
47 73 60
47 73 60
47 73 61
38 54 44
38 54 44
38 54 44
40 60 45
38 54 44
38 54 44
38 54 44
39 56 45
39 56 45
39 56 45
39 56 45
39 56 45
42 62 47
42 62 47
39 56 45
42 62 47
42 62 47
40 56 46
42 62 47
40 56 46
40 56 46
40 56 46
42 62 47
42 62 47
40 56 46
42 62 47
40 56 46
44 64 49
91 140 101
116 196 151
116 196 151
116 196 151
116 196 151
116 196 151
116 196 151
117 196 151
47 69 62
47 69 62
47 69 62
48 69 62
48 69 62
43 63 48
41 57 47
42 59 49
42 59 48
92 141 101
115 197 150
108 176 145
108 176 145
108 176 145
108 176 145
108 177 145
108 177 145
108 177 145
115 197 150
108 177 145
115 197 150
115 197 150
115 197 150
34 50 39
34 51 39
35 51 39
35 51 39
35 51 39
35 51 40
37 57 41
37 57 41
37 57 41
37 57 42
45 67 59
47 73 60
109 178 147
110 178 147
110 178 147
110 178 147
110 178 147
110 179 147
110 179 147
110 179 147
118 199 152
118 199 152
118 199 152
118 199 152
118 200 153
118 200 153
81 131 89
119 200 154
112 180 149
82 132 91
36 52 41
36 52 41
36 53 42
36 53 42
121 201 155
121 201 156
121 201 156
121 201 156
121 202 156
114 182 151
114 182 151
114 182 151
40 60 45
40 60 45
40 60 45
123 203 158
116 183 153
116 184 153
41 61 46
41 61 46
39 55 45
39 55 45
39 56 45
39 56 45
40 56 46
56 78 70
56 78 70
56 78 71
118 186 156
115 185 152
115 185 152
123 206 157
115 185 152
123 206 158
116 186 153
116 186 153
116 186 153
124 207 158
116 186 153
124 207 159
124 207 159
124 208 159
125 208 159
125 208 159
125 208 159
125 208 159
117 187 154
117 188 154
117 188 154
118 188 155
118 188 155
118 188 155
118 188 155
126 209 160
126 209 160
118 188 155
118 188 155
118 188 155
126 209 160
118 188 155
118 188 155
118 188 155
118 188 155
118 188 155
126 209 160
126 209 160
126 209 160
126 209 160
126 209 160
125 209 160
125 209 160
125 209 160
125 209 159
125 209 159
117 188 154
117 187 154
117 187 154
117 187 154
117 187 153
116 187 153
116 187 153
116 187 153
124 207 158
124 207 158
123 207 158
123 207 157
123 206 157
123 206 157
115 185 152
114 185 151
114 185 151
114 185 151
114 184 151
114 184 150
113 184 150
122 205 156
121 204 156
113 183 150
121 204 155
121 204 155
120 203 155
120 203 155
120 203 154
31 47 35
49 70 62
48 70 62
113 182 150
113 182 150
112 181 149
112 181 149
35 51 39
37 57 42
51 76 63
48 70 62
48 70 62
48 69 61
48 69 61
47 69 61
47 69 61
49 75 62
49 75 62
47 68 60
118 199 153
118 199 152
118 199 152
118 198 152
39 59 43
39 59 43
39 59 43
39 59 43
39 59 43
39 59 43
39 59 43
37 53 42
36 53 42
36 53 42
36 53 42
36 53 42
36 53 42
36 53 42
39 59 43
39 59 43
39 59 43
36 53 42
39 58 43
39 58 43
36 52 41
36 52 41
36 52 41
36 52 41
36 52 41
36 52 41
36 52 41
115 196 150
115 196 150
115 196 150
115 196 150
115 196 150
115 196 150
97 159 103
35 51 40
37 57 42
35 51 40
35 51 40
35 51 40
35 51 40
35 51 40
114 196 149
114 196 149
114 196 149
114 196 149
114 196 149
114 196 149
114 196 149
96 158 101
106 175 143
106 175 143
106 175 143
106 175 143
106 175 143
106 175 143
106 175 143
106 175 143
114 195 148
114 195 148
113 195 147
105 175 142
105 175 142
105 175 142
105 175 142
105 175 142
105 175 142
87 138 95
105 175 142
105 175 142
105 175 142
105 175 142
105 175 142
105 175 142
105 175 142
113 195 148
113 195 148
105 175 142
113 195 148
106 175 143
106 175 143
113 195 148
113 195 148
113 195 148
106 175 143
114 195 149
114 195 149
114 195 149
45 70 57
42 64 56
42 64 56
42 64 56
45 70 58
114 195 149
107 175 144
107 175 144
37 53 42
37 53 42
39 59 44
37 53 42
47 72 60
47 72 60
47 72 60
47 72 60
47 72 60
47 73 60
47 73 60
40 60 45
38 54 44
38 54 44
38 54 44
38 54 44
38 55 44
39 56 45
39 56 45
39 56 45
39 56 45
42 62 47
42 62 47
42 62 47
40 56 46
42 62 47
40 56 46
42 62 47
40 56 46
40 56 46
40 56 46
40 56 46
40 56 46
40 56 46
40 56 46
40 56 46
42 62 48
44 64 49
91 140 101
116 196 151
116 196 151
116 196 151
116 196 151
116 196 151
116 196 151
116 196 151
116 196 151
109 176 146
47 69 62
47 69 62
47 69 62
47 69 62
48 69 62
48 69 62
42 59 48
99 160 106
108 176 145
115 197 150
108 176 145
108 176 145
108 177 145
108 177 145
108 177 145
108 177 145
115 197 150
115 197 150
115 197 150
115 197 150
115 197 150
115 197 150
108 177 145
116 197 150
116 198 150
33 50 38
35 51 40
37 57 41
37 57 41
37 57 41
47 73 60
45 67 59
45 67 59
109 178 147
110 178 147
117 199 152
110 178 147
110 179 147
117 199 152
118 199 152
118 199 152
110 179 147
110 179 147
118 199 152
118 200 153
118 200 153
34 50 39
34 50 39
82 132 91
36 52 41
36 52 41
36 52 41
36 52 41
36 53 42
36 53 42
121 201 156
121 201 156
121 202 156
121 202 156
114 182 151
114 182 151
114 182 151
115 183 152
115 183 152
115 183 152
115 183 152
39 59 43
91 153 98
41 61 46
41 61 46
121 204 156
39 55 45
39 55 45
39 56 45
40 56 46
58 84 72
58 84 72
58 84 72
115 185 152
115 185 152
115 185 152
115 186 152
116 186 153
116 186 153
116 186 153
116 186 153
116 186 153
124 207 159
117 187 154
125 208 159
125 208 159
125 208 159
125 208 159
125 208 159
125 208 160
125 209 160
118 188 155
118 188 155
118 188 155
118 188 155
126 209 160
126 209 160
118 189 155
118 189 155
118 189 155
126 210 161
126 210 161
126 210 161
126 210 161
126 210 161
126 210 161
126 210 161
126 210 161
119 189 155
126 210 161
126 210 161
126 210 161
126 210 161
126 210 160
126 210 160
118 189 155
126 209 160
126 209 160
126 209 160
118 188 155
118 188 155
118 188 154
125 209 159
117 188 154
117 188 154
117 187 154
117 187 154
124 208 159
124 208 158
124 208 158
124 207 158
124 207 158
123 207 158
123 207 157
123 207 157
123 206 157
115 185 152
114 185 151
114 185 151
114 185 151
114 184 151
113 184 150
113 184 150
113 184 150
113 183 150
121 204 155
121 204 155
121 204 155
120 203 155
31 47 35
49 71 62
113 182 150
113 182 150
113 182 150
113 182 150
36 56 40
35 51 39
37 57 42
48 70 62
48 70 62
48 70 62
48 70 61
48 69 61
47 69 61
47 69 61
49 75 62
49 75 62
49 74 62
49 74 62
49 74 61
48 74 61
36 52 41
39 59 43
37 53 42
37 53 42
39 59 43
39 59 43
39 59 43
39 59 43
37 53 42
39 59 43
39 59 43
39 59 43
37 53 42
36 53 42
36 53 42
39 59 43
39 59 43
39 59 43
39 59 43
36 53 42
39 59 43
36 53 42
36 53 42
39 59 43
39 59 43
36 53 41
36 53 41
39 58 43
115 196 150
115 196 150
115 196 150
115 196 150
115 196 150
115 196 150
96 159 102
35 51 40
35 51 40
37 57 42
35 51 40
37 57 42
35 51 40
35 51 40
114 196 149
114 196 149
114 196 149
114 196 149
114 196 149
114 196 149
114 196 149
96 158 101
87 138 95
106 175 143
106 175 143
106 175 143
106 175 143
106 175 143
106 175 143
106 175 143
114 195 148
114 195 148
105 175 142
105 175 142
105 175 142
105 175 142
105 175 142
105 175 142
105 175 142
105 175 142
113 195 147
113 195 147
113 195 147
113 195 147
113 195 147
113 195 147
105 175 142
105 175 142
105 175 142
113 195 147
113 195 148
113 195 148
113 195 148
113 195 148
113 195 148
113 195 148
113 195 148
106 175 143
106 175 143
106 175 144
114 195 149
107 175 144
107 175 144
107 175 144
107 175 144
107 175 144
107 175 144
114 195 149
114 195 149
46 72 60
46 72 60
37 53 42
47 72 60
47 72 60
47 72 60
115 195 150
115 196 150
115 196 150
115 196 150
38 54 44
40 60 45
38 54 44
38 55 44
38 55 44
38 55 44
39 56 45
39 56 45
42 62 47
40 56 45
40 56 46
42 62 47
42 62 47
42 62 47
42 62 47
40 56 46
42 62 47
42 62 47
42 62 47
42 62 47
40 56 46
40 56 46
40 56 46
40 56 46
40 56 46
44 64 50
44 64 49
99 160 106
91 140 101
116 196 151
116 196 151
116 196 151
116 196 151
116 196 151
116 196 151
116 196 151
109 176 146
109 176 146
109 176 146
47 69 62
47 69 62
47 69 62
47 69 62
47 69 62
92 141 101
107 176 144
115 197 150
107 176 145
108 176 145
108 177 145
108 177 145
108 177 145
115 197 150
115 197 150
115 197 150
108 177 145
115 197 150
115 197 150
108 177 145
108 177 145
81 131 89
33 50 38
33 50 38
35 51 40
35 51 40
45 67 58
45 67 58
45 67 58
45 67 59
109 178 146
110 178 147
110 178 147
117 199 152
117 199 152
110 179 147
118 199 152
110 179 147
110 179 147
118 199 152
110 179 147
118 200 153
118 200 153
34 50 39
34 50 39
34 50 39
81 131 90
120 201 154
112 181 149
112 181 149
120 201 154
113 181 150
36 53 42
121 201 156
121 202 156
121 202 156
114 182 151
114 182 151
114 182 151
115 183 152
115 183 152
115 183 152
115 183 152
39 59 43
39 59 44
116 184 153
113 183 150
114 184 151
122 204 156
114 184 151
114 184 151
114 184 151
115 185 152
123 205 157
123 206 157
123 206 157
123 206 157
116 186 152
123 207 158
116 186 153
116 186 153
116 186 153
116 187 153
117 187 154
117 187 154
125 208 159
125 208 159
125 208 159
125 208 160
125 209 160
125 209 160
126 209 160
126 209 160
126 209 160
118 189 155
118 189 155
118 189 155
119 189 155
126 210 161
119 189 156
119 189 156
119 189 156
127 210 161
127 210 161
127 210 161
127 210 161
127 210 161
127 210 161
127 210 161
127 210 161
127 210 161
127 210 161
119 190 156
119 190 156
127 210 161
119 189 156
119 189 156
119 189 156
119 189 156
119 189 156
119 189 155
118 189 155
118 189 155
118 189 155
118 189 155
118 188 155
118 188 155
118 188 155
117 188 154
125 209 159
125 209 159
117 187 154
125 208 159
124 208 159
124 208 158
124 208 158
124 207 158
116 186 152
115 186 152
115 186 152
115 185 152
115 185 152
122 206 157
114 185 151
114 185 151
114 184 151
113 184 150
31 51 34
114 184 150
121 204 155
113 183 150
31 47 35
31 47 35
121 203 155
120 203 155
113 182 150
113 182 150
113 182 150
36 56 40
35 51 39
51 76 64
51 76 63
50 76 63
48 70 62
112 181 149
112 180 149
112 180 149
119 200 153
119 200 153
119 200 153
118 199 153
49 74 62
49 74 61
48 74 61
36 52 41
39 59 43
47 69 61
47 69 61
39 59 44
39 59 44
37 53 42
39 59 43
37 53 42
37 53 42
37 53 42
37 53 42
37 53 42
39 59 43
39 59 43
39 59 43
39 59 43
39 59 43
39 59 43
39 59 43
39 59 43
36 53 42
36 53 42
36 53 42
36 53 42
36 53 42
36 53 42
36 53 42
115 196 150
115 196 150
115 196 150
115 196 150
115 196 150
115 196 150
35 51 40
35 51 40
35 51 40
35 51 40
35 51 40
35 51 40
38 57 42
35 51 40
114 196 149
114 196 149
114 196 149
114 196 149
114 196 149
114 196 149
114 196 149
96 158 101
95 158 100
106 175 143
113 195 148
113 195 148
113 195 148
113 195 148
113 195 148
113 195 148
113 195 148
106 175 143
105 175 142
105 175 142
105 175 142
112 195 146
112 195 146
112 195 146
104 175 141
112 195 146
112 195 146
112 195 146
112 195 146
113 195 147
113 195 147
105 175 142
113 195 147
113 195 147
113 195 147
105 175 142
105 175 142
105 175 142
105 175 142
105 175 142
105 175 142
105 175 142
105 175 142
105 175 142
106 175 143
106 175 143
106 175 143
106 175 143
35 51 40
37 57 41
37 57 41
37 57 41
37 57 41
37 57 41
35 51 40
46 72 59
46 72 59
46 72 59
37 53 42
37 53 42
37 53 42
37 53 42
37 53 43
37 53 43
37 53 43
39 59 44
38 55 44
38 55 44
38 55 44
38 55 44
49 74 62
49 74 62
49 74 62
49 74 63
49 74 63
47 69 61
42 62 47
42 62 47
42 62 47
42 62 47
42 62 47
40 56 46
40 56 46
42 62 47
40 56 46
40 56 46
40 56 46
40 56 46
40 56 46
40 56 46
44 64 50
99 160 106
99 160 106
99 160 105
39 56 45
39 56 45
39 56 45
39 56 45
39 56 45
39 56 45
92 153 99
116 196 151
109 176 146
109 176 146
109 176 146
109 176 146
109 176 146
109 176 146
109 176 146
92 141 101
115 197 149
107 176 144
115 197 150
107 177 144
115 197 150
115 197 150
108 177 145
115 197 150
115 197 150
115 197 150
115 197 150
115 197 150
115 197 150
115 197 150
33 49 38
33 49 38
33 50 38
34 50 38
81 131 89
45 67 58
45 67 58
45 67 58
47 73 60
117 198 151
117 198 152
117 199 152
117 199 152
117 199 152
117 199 152
118 199 152
110 179 147
110 179 147
110 179 147
118 200 152
118 200 153
81 131 89
34 50 39
34 50 39
34 50 39
34 50 39
34 51 39
120 201 154
120 201 154
120 201 154
120 201 155
113 181 150
113 181 150
113 182 150
113 182 150
113 182 150
121 202 156
121 202 156
121 203 156
122 203 156
115 183 152
115 183 152
39 59 43
39 59 43
39 59 44
114 184 150
121 204 156
114 184 151
114 184 151
114 184 151
115 185 151
115 185 152
115 185 152
115 185 152
123 206 157
123 206 158
123 207 158
124 207 158
124 207 158
124 207 158
124 207 159
124 208 159
125 208 159
117 187 154
125 208 159
125 208 160
125 209 160
126 209 160
126 209 160
126 209 160
118 189 155
126 209 160
119 189 155
119 189 156
119 189 156
119 189 156
119 189 156
119 189 156
119 190 156
119 190 156
119 190 156
127 211 162
127 211 162
127 211 162
127 211 162
128 211 162
128 211 162
128 211 162
128 211 162
128 211 162
120 190 157
120 190 157
120 190 157
120 190 157
120 190 157
120 190 156
120 190 156
119 190 156
119 190 156
127 211 161
127 211 161
127 211 161
127 210 161
127 210 161
126 210 161
118 189 155
126 210 160
126 210 160
118 189 155
126 209 160
118 188 154
125 209 160
125 209 159
125 209 159
125 208 159
124 208 159
124 208 158
124 208 158
116 186 153
116 186 152
115 186 152
115 186 152
115 185 152
115 185 151
114 185 151
114 185 151
114 184 151
32 51 34
114 184 151
114 184 151
121 204 156
31 47 35
31 47 35
121 204 155
32 48 36
113 183 150
113 182 150
36 56 40
36 56 40
35 51 40
51 77 64
51 76 64
51 76 63
120 201 154
120 201 154
119 201 154
119 200 154
35 51 40
35 51 40
35 51 40
35 51 40
49 74 62
49 74 61
48 74 61
36 52 41
49 75 63
47 69 61
49 75 62
47 69 61
47 68 60
47 68 60
46 68 60
49 74 62
48 74 62
48 74 61
48 74 61
48 74 61
37 53 42
37 53 42
39 59 43
39 59 43
39 59 43
37 53 42
37 53 42
39 59 43
37 53 42
37 53 42
36 53 42
36 53 42
36 53 42
36 53 42
108 176 145
108 176 145
108 176 145
115 196 150
115 196 150
115 196 149
115 196 149
35 52 40
35 52 40
35 52 40
35 52 40
35 52 40
35 52 40
35 52 40
39 59 44
107 175 144
107 175 144
106 175 144
106 175 144
106 175 144
106 175 144
107 175 144
88 138 96
95 158 100
113 195 148
105 175 142
105 175 142
105 175 142
106 175 143
106 175 143
113 195 148
113 195 148
87 137 95
86 137 94
105 175 142
93 157 98
112 195 146
112 195 146
112 195 146
112 195 146
104 175 141
112 195 146
112 195 146
112 195 146
112 195 146
104 175 141
104 175 141
104 175 141
104 175 141
104 175 141
104 175 141
104 175 141
104 175 141
104 175 141
113 195 147
105 175 142
105 175 142
105 175 142
105 175 142
105 175 142
113 195 148
113 195 148
113 195 148
113 195 148
106 175 143
113 195 148
113 195 148
37 57 41
37 57 41
37 57 41
46 72 59
46 72 59
46 72 59
46 72 59
37 53 43
37 53 43
39 59 44
37 53 43
37 53 43
39 59 44
38 55 44
38 55 44
41 61 46
41 61 46
38 55 44
46 68 61
49 74 62
49 74 62
49 74 62
49 74 62
47 68 61
47 68 61
49 74 63
47 69 61
47 69 61
47 69 61
47 69 61
49 75 63
47 69 62
49 75 63
40 56 46
42 62 48
40 56 46
40 56 46
40 57 46
44 64 49
99 160 106
99 160 106
99 160 105
39 56 45
39 56 45
39 56 45
39 56 45
42 62 47
42 62 47
40 56 45
40 56 46
91 140 101
116 196 151
116 196 151
116 196 151
116 196 151
116 196 151
116 196 151
116 196 151
107 176 144
107 176 144
107 176 144
115 197 150
115 197 150
115 197 150
115 197 150
115 197 150
115 197 150
115 197 150
108 177 145
115 197 150
81 131 88
33 49 38
33 49 38
33 49 38
33 50 38
34 50 38
34 50 38
47 73 60
47 73 60
117 198 151
117 198 151
109 178 146
110 178 147
110 178 147
117 199 152
117 199 152
117 199 152
110 179 147
118 199 152
110 179 147
118 200 152
118 200 152
34 50 38
34 50 39
34 50 39
34 50 39
34 50 39
34 51 39
34 51 39
112 181 149
120 201 154
120 201 155
113 181 150
113 182 150
113 182 150
113 182 150
113 182 150
114 182 151
114 182 151
114 183 151
122 203 156
37 57 41
90 152 96
39 59 43
39 59 43
39 59 43
114 184 151
114 184 151
114 184 151
114 184 151
114 185 151
122 205 157
115 185 152
115 185 152
115 185 152
115 186 152
123 207 158
124 207 158
124 207 158
124 207 158
124 207 159
125 208 159
125 208 159
125 208 159
117 188 154
118 188 154
118 188 155
118 188 155
118 188 155
118 189 155
118 189 155
119 189 156
119 189 156
127 210 161
119 189 156
119 190 156
119 190 156
119 190 156
120 190 157
120 190 157
120 190 157
120 190 157
120 190 157
120 191 157
120 191 157
128 212 162
128 212 162
128 212 162
128 212 162
128 212 163
128 212 163
120 191 157
120 191 157
120 191 157
120 191 157
120 191 157
120 191 157
120 191 157
120 191 157
120 191 157
120 191 157
128 211 162
128 211 162
127 211 162
120 190 156
127 211 162
127 211 161
127 211 161
127 210 161
127 210 161
119 189 155
118 189 155
126 210 160
118 189 155
118 188 155
117 188 154
125 209 159
125 209 159
125 208 159
124 208 159
116 187 153
116 187 153
116 186 153
116 186 152
115 186 152
115 186 152
115 185 152
122 206 157
31 51 34
32 52 34
114 184 151
114 184 151
33 53 36
31 47 35
31 47 35
114 183 151
32 48 36
121 203 156
121 203 156
113 182 150
113 182 150
113 182 150
112 182 149
112 181 149
51 76 63
120 201 155
120 201 154
120 201 154
35 51 40
35 51 40
35 51 40
35 51 40
35 51 40
35 51 40
35 51 40
35 51 40
36 52 41
47 69 61
49 75 62
49 75 62
47 69 61
47 68 60
46 68 60
46 68 60
48 74 62
48 74 61
48 74 61
48 74 61
48 74 61
46 67 59
46 67 59
46 67 59
45 67 59
45 67 59
48 73 61
45 67 59
45 67 59
39 59 43
37 53 42
37 53 42
37 53 42
37 53 42
39 59 43
108 176 145
108 176 145
107 176 144
107 176 144
107 176 144
107 176 144
107 176 144
115 196 149
45 71 58
45 71 58
45 71 58
35 52 40
35 52 40
38 58 42
96 159 102
106 175 143
106 175 143
106 175 143
106 175 143
106 175 143
106 175 143
106 175 143
88 138 96
95 158 100
113 195 148
105 175 142
105 175 142
105 175 142
105 175 142
113 195 147
105 175 142
105 175 142
105 175 142
105 175 142
113 195 147
93 157 98
112 195 146
112 195 146
112 195 146
112 195 146
112 195 146
112 195 146
112 195 146
112 195 146
112 195 146
104 175 141
104 175 141
104 175 141
104 175 141
104 175 141
104 175 141
104 175 141
104 175 141
104 175 141
112 195 147
112 195 147
112 195 147
104 175 141
112 195 147
112 195 147
112 195 147
105 175 141
112 195 147
113 195 148
113 195 148
113 195 148
113 195 148
113 195 148
37 57 41
37 57 41
46 71 59
46 71 59
46 71 59
46 72 59
37 53 43
37 53 43
37 53 43
37 54 43
40 59 44
40 60 44
38 55 44
38 55 44
38 55 44
39 55 44
39 55 44
48 74 62
48 74 62
48 74 62
48 74 62
49 74 62
49 74 62
46 68 61
49 74 62
47 68 61
47 68 61
47 68 61
47 69 61
47 69 61
49 74 63
49 75 63
47 69 61
49 75 63
49 75 63
49 75 63
49 75 63
44 64 49
99 160 106
99 160 106
42 61 47
42 62 47
39 56 45
39 56 45
39 56 45
40 56 45
40 56 46
40 56 46
44 64 49
99 160 105
99 160 105
116 196 151
116 196 151
116 196 151
116 196 151
116 196 151
116 196 151
115 197 149
115 197 149
115 197 149
107 177 144
107 177 144
107 177 144
108 177 145
108 177 145
115 197 150
115 197 150
115 197 150
33 49 37
33 49 38
33 49 38
33 49 38
33 50 38
33 50 38
34 50 38
34 50 38
47 73 60
117 198 151
117 198 151
117 198 151
117 199 152
117 199 152
117 199 152
110 179 147
117 199 152
110 179 147
110 179 147
110 179 147
110 179 147
110 179 147
36 56 40
34 50 38
34 50 39
34 50 39
34 50 39
34 50 39
34 51 39
34 51 39
82 132 90
120 201 155
120 202 155
120 202 155
113 182 150
113 182 150
113 182 150
121 202 156
114 183 151
114 183 151
122 203 156
37 57 41
37 57 41
37 57 41
116 184 153
116 184 153
114 184 151
114 184 151
114 184 151
114 184 151
115 185 152
115 185 152
123 206 157
123 206 157
115 186 152
123 207 158
124 207 158
124 207 158
116 187 153
124 208 159
125 208 159
125 208 159
125 208 159
125 208 160
118 188 155
126 209 160
118 188 155
118 189 155
118 189 155
119 189 156
119 189 156
127 210 161
119 190 156
127 211 161
127 211 162
127 211 162
128 211 162
128 211 162
128 211 162
128 212 162
128 212 162
128 212 163
121 191 157
121 191 158
129 212 163
121 191 158
129 212 163
129 212 163
129 212 163
121 192 158
129 212 163
129 213 163
129 213 163
121 192 158
121 192 158
129 213 163
121 192 158
121 192 158
121 191 158
121 191 158
121 191 158
128 212 163
128 212 163
128 212 163
120 191 157
128 212 162
128 212 162
128 211 162
128 211 162
127 211 162
119 190 156
127 211 161
119 190 156
119 189 156
118 189 155
118 189 155
118 189 155
118 189 155
118 188 154
125 209 159
125 209 159
117 188 154
124 208 159
124 208 158
116 187 153
116 186 153
115 186 152
123 207 157
115 186 152
31 51 34
32 52 34
115 185 152
114 185 151
33 53 36
31 47 35
31 47 35
32 48 36
32 48 36
122 204 156
114 183 151
113 183 150
113 182 150
113 182 150
113 182 150
112 182 149
112 181 149
112 181 149
120 201 154
120 201 154
35 51 40
35 51 40
35 51 40
37 57 42
35 51 40
35 51 40
35 51 40
35 51 40
36 52 41
47 69 61
47 69 61
47 69 61
47 68 60
49 74 62
46 68 60
46 68 60
48 74 61
48 74 61
48 74 61
48 74 61
46 67 59
48 73 61
46 67 59
45 67 59
45 67 59
45 67 59
45 67 59
45 67 59
45 67 59
47 73 60
47 73 60
47 73 60
47 73 60
47 73 60
47 72 60
107 176 145
107 176 144
107 176 144
107 176 144
107 176 144
107 176 144
107 176 144
115 196 149
115 196 149
45 71 58
45 71 58
45 71 58
45 71 58
45 71 58
96 159 102
106 175 143
106 175 143
106 175 143
106 175 143
106 175 143
106 175 143
106 175 143
88 138 96
95 158 100
106 175 143
105 175 142
105 175 142
112 195 146
104 174 141
105 175 142
105 175 142
105 175 142
105 175 142
105 175 142
113 195 147
93 157 98
112 195 146
112 195 146
112 195 146
112 195 146
112 195 146
112 195 146
104 174 141
112 195 146
112 195 146
112 195 146
104 174 141
104 175 141
112 195 146
104 175 141
104 175 141
104 175 141
104 175 141
104 175 141
104 175 141
104 175 141
112 195 146
112 195 146
112 195 146
112 195 147
112 195 147
112 195 147
112 195 147
112 195 147
104 175 141
105 175 141
105 175 141
105 175 141
105 175 142
105 175 142
112 195 147
112 195 147
44 65 57
44 65 57
44 65 57
37 54 43
37 54 43
37 54 43
37 54 43
37 54 43
48 73 61
48 73 61
48 73 61
48 73 61
46 68 60
46 68 60
48 74 62
48 74 62
48 74 62
48 74 62
48 74 62
109 176 146
109 176 146
109 176 146
109 176 146
47 68 61
47 68 61
47 68 61
49 74 62
47 68 61
49 74 63
49 74 63
49 75 63
49 75 63
49 75 63
49 75 63
99 160 106
91 140 101
39 56 45
39 56 45
39 56 45
42 62 47
42 62 47
40 56 46
40 56 46
40 56 46
44 64 49
99 160 105
99 160 105
116 196 151
116 196 151
116 196 151
116 196 151
116 196 151
116 196 151
107 176 144
107 177 144
115 197 149
115 197 149
107 177 144
107 177 144
108 177 144
108 177 145
115 197 150
88 151 93
35 55 39
33 49 38
33 49 38
33 49 38
33 49 38
33 50 38
33 50 38
34 50 38
34 50 38
34 50 38
117 198 151
117 199 151
117 199 151
117 199 152
110 179 147
110 179 147
110 179 147
110 179 147
110 179 147
118 200 152
110 179 147
88 151 94
36 56 40
36 56 40
36 56 40
34 50 39
34 50 39
34 50 39
34 50 39
34 51 39
35 51 39
35 51 39
113 181 150
120 202 155
121 202 155
113 182 150
113 182 150
114 182 151
114 183 151
122 203 156
89 152 94
37 57 41
37 57 41
37 57 41
37 57 41
116 184 153
122 205 156
122 205 156
122 205 156
114 185 151
115 185 152
115 185 152
115 185 152
115 186 152
116 186 153
124 207 158
116 186 153
124 207 158
124 208 159
125 208 159
117 187 154
125 208 159
125 209 160
125 209 160
118 188 155
118 188 155
118 189 155
119 189 155
119 189 156
119 189 156
119 190 156
119 190 156
119 190 156
127 211 162
128 211 162
128 211 162
120 191 157
128 212 162
128 212 163
128 212 163
129 212 163
129 212 163
129 212 163
129 213 163
121 192 158
129 213 163
121 192 158
121 192 158
122 192 158
122 192 159
129 213 164
122 192 159
122 192 159
122 192 159
122 192 159
122 192 159
122 192 159
122 192 159
122 192 158
122 192 158
121 192 158
129 213 163
129 213 163
129 213 163
129 213 163
129 213 163
129 212 163
128 212 163
128 212 163
128 212 162
128 212 162
120 191 157
120 190 157
127 211 162
119 190 156
119 190 156
119 190 156
126 210 161
118 189 155
118 189 155
126 210 160
125 209 160
125 209 159
125 209 159
125 209 159
124 208 159
124 208 158
116 187 153
123 207 158
115 186 152
115 186 152
123 207 157
114 185 151
114 185 151
114 185 151
113 184 150
31 47 35
122 205 156
122 204 156
121 204 156
121 204 155
121 204 155
113 183 150
113 183 150
113 182 150
113 182 150
112 182 149
35 55 39
120 202 155
120 201 154
35 51 40
35 52 40
35 52 40
35 51 40
35 51 40
35 51 40
35 51 40
35 51 40
50 75 63
49 75 62
49 75 62
49 75 62
118 199 153
118 199 152
110 178 147
117 198 152
117 198 152
117 198 152
117 198 152
117 198 152
117 198 151
117 197 151
109 177 146
45 67 59
45 67 59
45 67 59
45 67 59
45 67 59
47 73 60
45 67 59
47 73 60
47 73 60
47 72 60
45 66 58
47 72 60
107 176 144
107 176 144
107 176 144
107 176 144
107 176 144
107 176 144
107 176 144
115 196 149
115 196 149
115 196 149
45 71 58
45 71 58
45 71 58
45 71 58
88 138 96
106 175 143
106 175 143
106 175 143
106 175 143
106 175 143
106 175 143
106 175 143
106 175 143
95 158 100
105 175 142
112 195 147
105 175 142
112 195 146
112 195 146
104 174 141
112 195 146
104 174 141
112 195 146
112 195 146
112 195 146
112 195 146
112 195 146
104 174 141
112 195 146
112 195 146
112 195 146
112 195 146
112 195 146
104 174 141
112 195 146
112 195 146
104 174 141
104 174 141
104 174 141
104 174 141
104 174 141
104 174 141
104 175 141
104 175 141
112 195 146
112 195 146
112 195 146
112 195 146
104 175 141
112 195 146
112 195 146
112 195 146
112 195 146
112 195 147
104 175 141
104 175 141
104 175 141
104 175 141
104 175 141
105 175 141
105 175 141
105 175 142
105 175 142
105 175 142
43 65 57
37 54 43
37 54 43
40 60 44
37 54 43
48 73 61
48 73 61
48 73 61
48 73 61
48 73 61
48 73 61
46 67 60
46 68 60
46 68 60
46 68 60
46 68 60
46 68 60
46 68 60
116 196 151
116 196 151
116 196 151
116 196 151
109 176 146
109 176 146
109 176 146
116 196 151
116 196 151
116 196 151
116 196 151
116 196 151
49 74 63
49 75 63
92 140 101
99 160 105
40 56 45
40 56 46
40 56 46
40 56 46
40 56 46
40 56 46
40 56 46
40 56 46
44 64 49
99 160 105
99 160 105
91 140 100
116 196 151
116 196 151
116 196 151
116 196 151
116 196 151
107 176 144
107 177 144
107 177 144
107 177 144
107 177 144
107 177 144
107 177 144
108 177 145
35 55 39
35 55 39
35 55 39
33 49 38
33 49 38
33 49 38
33 49 38
33 50 38
34 50 38
34 50 38
34 50 38
34 50 38
117 199 151
109 178 146
109 178 146
110 179 147
110 179 147
110 179 147
110 179 147
118 199 152
110 179 147
110 179 147
36 56 40
36 56 40
36 56 40
36 56 40
36 56 40
34 50 39
34 50 39
34 50 39
34 50 39
34 51 39
35 51 39
51 76 63
120 202 155
121 202 155
121 202 155
121 202 155
121 203 156
121 203 155
121 203 155
121 203 155
121 204 156
121 204 156
114 184 151
122 204 156
122 204 157
114 184 151
122 205 156
122 205 156
122 206 157
123 206 157
123 206 157
123 206 157
123 207 158
124 207 158
116 186 153
116 187 153
124 208 159
125 208 159
125 208 159
125 208 159
125 209 160
125 209 160
126 209 160
126 209 160
118 189 155
119 189 155
119 189 156
119 189 156
119 190 156
119 190 156
120 190 157
120 190 157
120 191 157
128 212 162
128 212 163
128 212 163
129 212 163
129 212 163
129 213 163
121 192 158
129 213 164
129 213 164
122 192 159
122 192 159
122 192 159
122 193 159
122 193 159
122 193 159
122 193 159
122 193 159
122 193 159
130 214 164
130 214 165
130 214 165
130 214 165
130 214 165
130 214 164
130 214 164
130 214 164
130 214 164
130 214 164
130 214 164
130 214 164
130 214 164
130 213 164
129 213 164
121 192 158
121 192 158
129 213 163
129 213 163
121 192 158
121 191 157
128 212 162
120 191 157
120 191 157
120 190 157
119 190 156
127 211 161
119 190 156
127 211 161
118 189 155
126 210 160
126 210 160
125 209 160
125 209 159
125 209 159
125 209 159
124 208 158
116 187 153
116 187 153
115 186 152
115 186 152
115 186 152
122 206 157
114 185 151
114 185 151
114 184 150
113 184 150
122 205 156
122 204 156
121 204 156
121 204 155
121 204 155
121 203 155
31 47 35
113 182 150
113 182 150
35 55 39
113 182 150
120 202 155
120 201 154
120 201 154
119 201 154
49 75 62
49 75 62
49 74 61
35 51 40
35 51 40
50 75 63
49 75 62
49 75 62
118 199 153
118 199 153
118 199 152
118 199 152
110 178 147
110 178 147
110 178 147
110 178 147
109 178 147
109 178 146
117 198 151
117 197 151
117 197 151
109 177 146
109 177 146
109 177 146
109 177 146
116 197 151
116 197 151
116 197 150
116 197 150
47 72 60
47 72 60
47 72 60
37 57 41
37 57 41
37 57 41
37 57 41
107 176 144
107 176 144
107 176 144
115 196 149
115 196 149
115 196 149
115 196 149
115 196 149
115 196 149
45 71 58
88 138 96
114 196 148
114 196 148
105 175 142
105 175 142
105 175 142
105 175 142
105 175 142
105 175 142
112 195 147
105 175 142
86 137 93
105 175 142
112 195 146
112 195 146
112 195 146
112 195 146
112 195 146
112 195 146
112 195 146
112 195 146
104 174 141
112 195 146
104 174 141
104 174 141
104 174 141
104 174 141
104 174 141
104 174 141
104 174 141
104 174 141
104 174 141
112 195 146
104 174 141
104 174 141
104 174 141
104 174 141
112 195 146
104 174 141
104 174 141
104 174 141
112 195 146
112 195 146
112 195 146
112 195 146
112 195 146
112 195 146
112 195 146
112 195 146
112 195 146
112 195 146
104 175 141
104 175 141
104 175 141
104 175 141
112 195 147
112 195 147
104 175 141
112 195 147
105 175 141
107 175 144
43 65 57
38 54 43
38 54 43
40 60 45
47 73 61
47 73 61
47 73 61
48 73 61
48 73 61
48 73 61
46 67 60
46 67 60
46 67 60
46 67 60
46 67 60
46 68 60
46 68 60
46 68 60
116 196 151
109 176 146
116 196 151
116 196 151
109 176 146
116 196 151
116 196 151
109 176 146
109 176 146
109 176 146
109 176 146
109 176 146
109 176 146
116 196 151
40 56 46
40 56 46
40 56 46
40 56 46
40 56 46
40 56 46
40 56 46
40 56 46
42 58 48
42 58 48
91 140 101
91 140 100
91 140 100
41 61 46
41 61 46
39 55 45
39 55 45
39 55 45
107 177 144
107 177 144
107 177 144
107 177 144
107 177 144
107 177 144
88 151 93
35 55 39
35 55 39
35 55 39
35 55 39
33 49 38
33 49 38
33 49 38
33 50 38
33 50 38
34 50 38
34 50 38
34 50 38
34 50 38
117 199 151
109 178 146
110 179 147
117 199 152
110 179 147
110 179 147
110 179 147
110 179 147
110 179 147
36 56 39
36 56 40
36 56 40
36 56 40
36 56 40
36 56 40
34 50 39
34 50 39
34 50 39
34 51 39
34 51 39
48 70 62
51 76 63
121 202 155
121 202 155
121 203 155
121 203 156
121 203 155
121 203 155
121 203 156
121 204 156
122 204 156
122 204 156
122 204 156
122 205 156
122 205 156
122 205 156
122 205 157
122 206 157
123 206 157
115 185 152
123 206 158
123 207 158
116 186 153
116 186 153
124 208 159
117 187 154
117 187 154
117 187 154
117 188 154
118 188 155
118 188 155
118 189 155
126 210 160
126 210 161
119 189 156
119 190 156
119 190 156
120 190 156
128 211 162
120 190 157
120 191 157
120 191 157
128 212 163
129 212 163
129 212 163
129 213 163
129 213 164
129 213 164
130 213 164
130 213 164
130 214 164
122 193 159
122 193 159
122 193 159
123 193 159
123 193 160
123 193 160
123 194 160
131 215 165
123 194 160
131 215 165
131 215 165
131 215 165
131 215 165
131 215 165
123 194 160
131 215 165
131 215 165
131 215 165
131 215 165
123 194 160
131 215 165
130 214 165
122 193 159
122 193 159
122 193 159
122 193 159
122 193 159
130 214 164
122 192 158
121 192 158
121 192 158
121 192 158
121 192 158
120 191 157
120 191 157
120 191 157
120 191 157
119 190 156
127 211 161
127 211 161
127 211 161
126 210 160
126 210 160
126 210 160
125 209 160
125 209 159
125 209 159
116 187 153
116 187 153
116 187 153
123 208 158
115 186 152
115 186 152
115 185 151
114 185 151
114 185 151
31 50 33
49 70 61
122 205 156
122 205 156
121 204 156
121 204 155
121 204 155
31 47 35
113 183 150
113 182 150
35 55 39
113 182 150
120 202 155
120 202 155
120 201 154
50 75 62
49 75 62
49 75 62
49 75 62
35 52 40
35 52 40
50 75 62
49 75 62
49 75 62
118 199 153
118 199 153
118 199 152
118 199 152
110 178 147
110 178 147
110 178 147
110 178 147
110 178 147
109 178 146
117 198 151
109 178 146
117 197 151
116 197 151
116 197 151
116 197 151
116 197 151
109 177 146
108 177 146
108 177 145
108 177 145
116 197 150
116 197 150
116 196 150
37 57 41
37 57 41
37 57 41
37 57 41
35 51 40
37 57 41
37 57 41
107 176 144
107 176 144
107 176 144
107 176 144
107 176 144
107 176 144
114 196 149
88 138 96
114 196 148
114 196 148
105 175 141
105 175 141
105 175 141
105 175 141
105 175 141
105 175 141
112 195 147
105 175 141
105 175 141
112 195 147
112 195 146
112 195 146
112 195 146
112 195 146
112 195 146
112 195 146
112 195 146
112 195 146
112 195 146
112 195 146
104 174 141
104 174 141
104 174 141
104 174 141
104 174 141
104 174 141
104 174 141
104 174 141
104 174 141
104 174 141
112 195 146
112 195 146
112 195 146
112 195 146
112 195 146
112 195 146
112 195 146
112 195 146
104 174 141
112 195 146
112 195 146
112 195 146
112 195 146
104 174 141
112 195 146
104 175 141
112 195 146
112 195 146
104 175 141
104 175 141
104 175 141
104 175 141
104 175 141
104 175 141
104 175 141
104 175 141
104 175 141
107 175 144
107 175 144
47 72 60
47 73 60
47 73 60
45 67 59
47 73 61
47 73 61
47 73 61
47 73 61
45 67 59
48 73 61
108 176 145
116 196 150
108 176 145
46 67 60
108 176 145
108 176 145
108 176 146
108 176 146
116 196 150
116 196 151
116 196 151
109 176 146
116 196 151
116 196 151
116 196 151
116 196 151
109 176 146
109 176 146
109 176 146
116 196 151
109 176 146
109 176 146
49 74 63
49 74 63
49 74 63
49 74 63
49 75 63
49 75 63
40 56 46
44 64 49
44 64 49
99 160 105
91 140 100
91 140 100
39 55 45
39 55 45
39 55 45
39 55 45
39 55 45
107 177 144
107 177 144
107 177 144
115 197 149
107 177 144
35 55 39
35 55 39
35 55 39
35 55 39
35 55 39
35 55 39
35 55 39
33 49 38
33 49 38
33 50 38
33 50 38
34 50 38
34 50 38
34 50 38
47 72 59
109 178 146
117 199 152
117 199 152
117 199 152
110 179 147
110 179 147
118 200 152
110 179 147
110 179 147
36 56 39
36 56 40
36 56 40
36 56 40
36 56 40
36 56 40
36 56 40
34 50 39
34 50 39
34 51 39
50 76 63
48 70 62
121 202 155
121 202 155
121 203 155
114 183 151
121 203 155
121 203 155
121 204 156
121 204 156
122 204 156
122 204 156
122 204 156
114 184 151
114 184 151
122 205 156
122 206 157
123 206 157
123 206 157
115 186 152
123 207 158
116 186 153
124 207 158
116 187 153
117 187 153
117 187 154
125 208 159
117 188 154
118 188 154
118 188 155
118 189 155
126 210 160
126 210 161
127 210 161
127 210 161
127 211 161
127 211 162
128 211 162
128 212 162
128 212 162
121 191 157
121 191 158
129 212 163
129 213 163
129 213 164
129 213 164
130 213 164
130 214 164
130 214 164
130 214 165
130 214 165
123 193 160
123 194 160
123 194 160
123 194 160
123 194 160
123 194 160
123 194 160
124 194 160
124 194 160
124 194 161
132 215 166
132 215 166
132 216 166
132 216 166
132 216 166
132 216 166
132 216 166
132 216 166
132 215 166
131 215 166
124 194 160
123 194 160
123 194 160
123 194 160
123 194 160
123 194 160
123 194 160
123 193 159
130 214 165
122 193 159
122 193 159
130 214 164
129 214 164
129 213 164
129 213 163
121 192 158
121 192 158
128 212 163
120 191 157
128 212 162
127 212 162
127 211 161
127 211 161
126 211 161
118 189 155
126 210 160
126 210 160
117 188 154
117 188 154
117 188 154
116 187 153
124 208 158
124 208 158
115 186 152
115 186 152
115 186 151
114 185 151
31 51 33
114 185 151
114 184 151
32 52 35
122 205 156
121 204 156
79 130 86
31 48 35
121 203 155
35 55 38
36 55 39
113 182 150
121 202 155
120 202 155
120 202 154
50 75 62
47 69 60
49 75 62
49 75 62
50 76 63
48 69 61
50 75 62
49 75 62
49 75 62
111 179 148
118 199 153
118 199 153
110 179 147
110 179 147
110 178 147
110 178 147
117 198 152
110 178 147
109 178 146
117 198 151
117 198 151
117 198 151
116 197 151
116 197 151
116 197 151
116 197 151
109 177 146
108 177 145
108 177 145
108 177 145
108 177 145
108 177 145
108 176 145
37 57 41
35 51 40
37 57 41
37 57 41
37 57 41
35 51 40
37 57 41
107 176 144
107 176 144
107 176 144
107 176 144
107 176 144
107 176 144
107 176 144
88 138 96
114 196 148
86 137 93
104 175 141
112 196 146
112 196 146
104 175 141
104 175 141
104 175 141
104 175 141
104 175 141
104 175 141
93 157 97
93 157 97
112 195 146
112 195 146
112 195 146
112 195 146
112 195 146
112 195 146
112 195 146
112 195 146
112 195 146
104 174 141
104 174 141
104 174 141
104 174 141
104 174 141
104 174 141
104 174 141
112 195 146
112 195 146
112 195 146
112 195 146
112 195 146
112 195 146
112 195 146
112 195 146
112 195 146
112 195 146
104 174 141
112 195 146
104 174 141
104 174 141
104 174 141
112 195 146
104 174 141
104 174 141
104 174 141
104 174 141
112 195 146
104 175 141
112 195 146
104 175 141
104 175 141
104 175 141
104 175 141
112 195 146
104 175 141
104 175 141
104 175 141
107 175 144
47 72 60
47 72 60
47 72 60
45 67 59
45 67 59
45 67 59
45 67 59
45 67 59
47 73 61
45 67 59
116 196 150
40 60 45
40 60 45
108 176 145
108 176 145
108 176 145
108 176 145
108 176 145
116 196 150
116 196 150
116 196 150
116 196 150
116 196 151
116 196 151
116 196 151
116 196 151
109 176 146
109 176 146
109 176 146
109 176 146
109 176 146
109 176 146
116 196 151
109 176 146
49 74 62
49 74 63
49 74 63
49 74 63
49 74 63
44 64 49
44 64 49
99 160 105
99 160 105
41 61 46
39 55 45
39 55 45
39 55 45
39 55 45
39 56 45
107 177 144
107 177 144
107 177 144
88 151 93
35 55 39
35 55 39
35 55 39
35 55 39
35 55 39
35 55 39
35 55 39
35 55 39
33 49 38
33 49 38
33 50 38
34 50 38
34 50 38
44 66 58
47 72 59
47 72 59
117 199 151
117 199 152
117 199 152
110 179 147
117 199 152
118 200 152
110 179 147
110 179 147
110 180 147
110 180 147
111 180 148
111 180 148
111 180 148
119 201 153
119 201 153
119 201 153
34 50 39
50 76 63
50 76 63
51 76 63
51 76 63
121 202 155
121 203 155
114 183 151
113 183 150
121 203 155
121 204 156
121 204 156
122 204 156
122 204 156
122 205 156
122 205 156
122 205 156
122 205 156
122 206 157
115 185 152
123 206 157
123 206 157
123 207 158
124 207 158
124 207 158
124 208 159
117 187 154
117 187 154
125 208 159
117 188 154
118 188 155
118 188 155
126 210 160
119 189 155
127 210 161
127 210 161
127 211 162
127 211 162
120 190 157
128 212 162
128 212 163
128 212 163
121 191 158
129 213 163
121 192 158
122 192 159
122 192 159
122 193 159
122 193 159
122 193 159
123 193 160
123 194 160
131 215 165
131 215 165
123 194 160
124 194 160
124 194 161
124 195 161
124 195 161
124 195 161
124 195 161
124 195 161
124 195 161
132 216 167
132 216 167
132 216 167
132 216 167
132 216 167
132 216 167
132 216 167
132 216 167
132 216 167
124 195 161
132 216 166
124 195 161
124 195 161
124 195 161
124 195 161
124 195 161
124 195 161
123 194 160
123 194 160
131 215 165
131 215 165
131 215 165
130 215 165
130 214 164
130 214 164
130 214 164
129 214 164
129 213 163
121 192 158
121 192 158
120 191 157
120 191 157
120 191 157
119 190 156
119 190 156
127 211 161
118 189 155
126 210 160
126 210 160
117 188 154
117 188 154
117 188 154
116 187 153
116 187 153
116 187 153
115 186 152
115 186 152
30 50 33
31 51 33
115 185 152
114 185 151
32 52 35
122 205 156
122 205 156
31 47 35
32 48 36
121 204 156
35 55 39
36 56 39
121 203 155
121 202 155
120 202 155
120 202 155
50 75 62
50 75 62
49 75 62
34 50 38
50 76 63
48 69 61
47 69 61
47 69 61
47 69 61
47 69 60
47 68 60
46 68 60
49 74 61
48 74 61
48 74 61
110 178 147
110 178 147
110 178 147
109 178 146
117 198 151
117 198 151
117 198 151
116 197 151
116 197 151
116 197 151
116 197 151
109 177 146
108 177 145
108 177 145
108 177 145
108 177 145
108 177 145
108 176 145
35 51 40
37 57 41
37 57 41
37 57 41
37 57 41
37 57 41
37 57 41
43 69 56
43 69 56
43 69 56
114 196 148
107 176 144
107 176 144
107 176 144
95 158 101
114 196 148
86 137 93
104 175 141
112 196 146
112 196 146
112 195 146
112 195 146
112 195 146
112 195 146
112 195 146
112 195 146
112 195 146
112 195 146
112 195 146
112 195 146
112 195 146
112 195 146
112 195 146
112 195 146
112 195 146
104 174 141
104 174 141
104 174 141
104 174 141
104 174 141
104 174 141
104 174 141
104 174 141
104 174 141
104 174 141
104 174 141
112 195 146
112 195 146
112 195 146
112 195 146
104 174 141
112 195 146
112 195 146
112 195 146
112 195 146
112 195 146
112 195 146
104 174 141
104 174 141
104 174 141
104 174 141
104 174 141
104 174 141
112 195 146
104 174 141
104 174 141
112 195 146
112 195 146
112 195 146
104 175 141
112 195 146
112 195 146
112 195 146
104 175 141
104 175 141
114 195 149
114 195 149
47 72 60
47 72 60
45 66 59
45 66 59
45 66 59
45 67 59
45 67 59
45 67 59
45 67 59
45 67 59
40 60 45
40 60 45
38 54 44
40 60 45
40 60 45
40 60 45
40 60 45
38 55 44
38 55 44
38 55 44
38 55 44
116 196 150
116 196 150
116 196 150
116 196 151
109 176 146
109 176 146
109 176 146
109 176 146
109 176 146
116 196 151
109 176 146
116 196 151
116 196 151
116 196 151
49 74 62
49 74 62
49 74 62
49 74 63
44 64 49
99 160 105
99 160 105
39 55 45
39 55 45
39 56 45
41 61 47
39 56 45
42 61 47
35 55 39
35 55 39
35 55 38
35 55 38
35 55 39
35 55 39
35 55 39
35 55 39
35 55 39
35 55 39
35 55 39
35 55 39
36 56 39
33 49 38
33 50 38
34 50 38
44 66 57
47 72 59
47 72 59
117 199 151
117 199 152
110 179 147
117 199 152
117 199 152
118 200 152
110 179 147
118 200 152
110 180 147
110 180 147
111 180 148
111 180 148
111 180 148
111 180 148
111 181 148
119 201 153
119 201 154
119 202 154
120 202 154
120 202 154
112 182 149
120 202 155
120 203 155
121 203 155
113 183 150
121 203 155
121 204 156
121 204 156
122 204 156
122 204 156
122 205 157
114 184 151
122 205 156
122 206 157
122 206 157
123 206 157
123 206 157
123 207 158
124 207 158
124 207 158
124 207 158
117 187 153
117 187 154
117 188 154
117 188 154
118 188 155
118 188 155
118 189 155
118 189 155
119 189 156
127 210 161
127 211 161
120 190 157
128 211 162
128 212 162
128 212 163
129 212 163
129 212 163
129 213 163
129 213 164
122 192 159
122 193 159
122 193 159
122 193 159
123 193 160
123 194 160
123 194 160
123 194 160
124 194 160
132 215 166
132 216 166
132 216 166
124 195 161
132 216 167
125 195 161
133 216 167
133 217 167
125 196 162
125 196 162
133 217 167
133 217 167
133 217 167
133 217 167
133 217 167
133 217 167
133 217 167
133 217 167
133 217 167
133 217 167
125 196 162
125 196 162
125 196 162
125 196 162
125 196 162
125 196 162
125 195 161
124 195 161
132 216 166
132 216 166
124 195 161
132 216 166
131 215 166
123 194 160
131 215 165
131 215 165
130 215 165
130 214 164
130 214 164
130 214 164
121 192 158
121 192 158
121 192 158
120 191 157
120 191 157
120 191 157
119 190 156
119 190 156
127 211 161
126 210 160
126 210 160
126 210 160
125 209 159
117 188 154
117 188 153
116 187 153
116 187 153
115 187 152
30 50 33
31 51 33
115 186 152
115 185 152
32 52 35
122 205 157
114 184 151
122 205 156
32 48 36
32 48 36
35 55 39
36 56 39
49 71 62
113 182 150
113 182 150
48 70 61
48 69 61
47 69 61
49 75 62
34 50 38
50 76 63
48 69 61
47 69 61
47 69 61
47 69 61
47 69 60
47 68 60
46 68 60
48 74 61
48 74 61
48 74 61
48 74 61
48 73 61
48 73 60
48 73 60
45 67 59
45 67 59
45 67 58
45 67 58
116 197 151
116 197 151
116 197 151
108 177 146
108 177 145
108 177 145
108 177 145
116 197 150
108 177 145
43 64 56
43 64 56
42 64 56
42 64 56
42 64 56
37 57 41
37 57 41
37 57 41
43 69 55
43 69 55
43 69 55
43 69 55
114 196 148
114 196 148
114 196 148
114 196 148
106 175 143
86 137 93
104 175 141
112 196 146
111 196 146
111 195 146
111 195 146
111 195 146
111 195 146
111 195 146
111 195 146
111 195 146
111 195 146
104 174 140
104 174 140
104 174 140
111 195 146
104 174 140
111 195 146
104 174 140
104 174 141
104 174 141
104 174 141
104 174 141
104 174 141
104 174 141
104 174 141
104 174 141
104 174 141
104 174 141
104 174 141
104 174 141
112 195 146
112 195 146
112 195 146
112 195 146
112 195 146
112 195 146
112 195 146
112 195 146
112 195 146
112 195 146
104 174 141
104 174 141
104 174 141
104 174 141
104 174 141
104 174 141
104 174 141
104 174 141
104 174 141
112 195 146
112 195 146
112 195 146
112 195 146
112 195 146
112 195 146
112 195 146
112 195 146
112 195 146
112 195 146
104 175 141
104 175 141
112 195 146
104 175 141
104 175 141
104 175 141
45 66 58
45 66 59
108 176 145
108 176 145
108 176 145
115 196 150
40 60 45
40 60 45
40 60 45
38 55 44
38 55 44
41 60 45
38 55 44
38 55 44
38 55 44
38 55 44
38 55 44
39 55 44
39 55 44
39 55 44
41 61 46
41 61 46
41 61 46
41 61 46
41 61 46
92 153 98
109 176 146
109 176 146
116 196 151
116 196 151
116 196 151
116 196 151
116 196 151
116 196 151
49 74 62
99 160 105
39 55 45
39 56 45
41 61 47
39 56 45
39 56 45
39 56 45
39 56 45
35 55 39
35 55 39
35 55 39
35 55 38
35 55 39
35 55 39
35 55 39
35 55 39
35 55 39
35 55 39
35 55 39
36 55 39
36 56 39
33 50 38
46 72 59
46 72 59
46 72 59
44 66 57
44 66 57
109 179 146
117 199 152
117 199 152
110 179 147
110 179 147
110 179 147
110 179 147
110 180 147
118 200 152
118 200 153
118 201 153
111 180 148
111 180 148
111 181 148
119 201 153
119 201 154
112 181 149
112 181 149
120 202 154
120 202 154
120 203 155
120 203 155
113 182 150
113 183 150
113 183 150
113 183 150
114 183 151
122 204 156
114 184 151
114 184 151
114 184 151
114 185 151
114 185 151
115 185 152
115 185 152
115 186 152
116 186 152
116 186 153
116 186 153
116 187 153
124 208 159
125 208 159
117 188 154
118 188 154
118 188 155
118 189 155
118 189 155
119 189 156
119 190 156
127 211 161
127 211 162
128 211 162
128 212 162
128 212 163
129 212 163
129 213 163
129 213 163
129 213 164
130 213 164
122 193 159
122 193 159
123 193 160
123 194 160
123 194 160
123 194 160
124 194 160
124 195 161
124 195 161
124 195 161
132 216 167
125 195 161
125 196 162
133 217 167
133 217 167
125 196 162
133 217 168
133 217 168
133 217 168
126 197 163
126 197 163
126 197 163
126 197 163
126 197 163
126 197 163
126 197 163
134 218 168
134 218 168
126 197 163
126 197 163
126 197 163
126 197 163
126 197 163
134 218 168
126 196 162
125 196 162
125 196 162
125 196 162
133 217 167
133 217 167
132 217 167
132 216 166
124 195 161
132 216 166
124 195 161
131 216 166
131 215 165
131 215 165
123 194 159
130 214 164
122 193 159
122 193 158
121 192 158
121 192 158
121 192 157
128 212 162
120 191 157
120 191 156
127 211 161
119 190 156
126 211 161
126 210 160
126 210 160
125 210 160
125 209 159
125 209 159
124 208 158
77 128 83
30 50 33
31 51 33
115 186 152
32 52 34
32 52 35
115 185 152
122 205 157
122 205 156
122 205 156
121 204 156
121 204 155
121 204 155
120 203 155
120 203 154
120 203 154
48 70 61
48 70 61
47 69 61
47 69 60
34 50 39
120 201 154
48 70 61
47 69 61
47 69 61
47 69 61
47 69 60
47 68 60
46 68 60
48 74 61
48 74 61
46 68 59
48 74 61
48 73 61
48 73 60
45 67 59
45 67 59
45 67 58
45 67 58
45 66 58
45 66 58
44 66 58
47 72 59
47 72 59
46 72 59
46 72 59
46 72 59
46 72 59
108 177 145
42 64 56
42 64 56
42 64 56
42 64 56
42 64 56
42 64 56
107 176 144
107 176 144
43 69 55
43 69 55
43 69 55
43 69 55
114 196 148
114 196 148
114 196 148
114 196 148
87 137 94
86 137 93
104 175 141
104 174 140
111 196 146
111 196 146
111 195 146
104 174 140
111 195 146
111 195 146
104 174 140
111 195 146
111 195 146
104 174 140
104 174 140
104 174 140
111 195 146
104 174 140
104 174 140
111 195 146
111 195 146
104 174 140
111 195 146
111 195 146
111 195 146
111 195 146
111 195 146
111 195 146
111 195 146
112 195 146
104 174 141
104 174 141
112 195 146
104 174 141
112 195 146
112 195 146
112 195 146
112 195 146
112 195 146
112 195 146
112 195 146
112 195 146
104 174 141
104 174 141
104 174 141
104 174 141
104 174 141
104 174 141
104 174 141
104 174 141
112 195 146
104 174 141
112 195 146
112 195 146
112 195 146
112 195 146
112 195 146
112 195 146
112 195 146
112 195 146
112 195 146
104 175 141
104 175 141
104 175 141
104 175 141
104 175 141
104 175 141
104 175 141
104 175 141
104 175 141
104 175 141
108 176 145
108 176 145
38 55 44
38 55 44
41 60 45
41 61 46
41 61 46
38 55 44
38 55 44
41 61 46
38 55 44
39 55 44
39 55 44
39 55 44
39 55 44
39 55 44
39 55 44
41 61 46
41 61 46
41 61 46
41 61 46
39 55 45
41 61 46
39 55 45
39 55 45
39 55 45
39 55 45
41 61 46
39 55 45
41 61 47
85 134 94
116 196 151
39 56 45
39 56 45
39 56 45
39 56 45
42 62 47
39 56 45
42 62 47
35 55 39
35 55 39
35 55 39
35 55 39
35 55 39
35 55 39
35 55 39
35 55 39
35 55 39
35 55 39
35 55 39
36 55 39
36 56 39
44 66 57
44 66 57
46 72 59
44 66 57
117 199 151
109 179 146
117 199 152
117 199 152
117 199 152
110 179 147
110 179 147
110 179 147
110 180 147
110 180 147
110 180 147
111 180 148
111 180 148
111 180 148
119 201 153
119 201 153
119 201 154
119 202 154
120 202 154
120 202 154
120 202 154
120 203 155
120 203 155
113 182 150
113 183 150
113 183 150
113 183 150
114 183 151
114 184 151
114 184 151
114 184 151
114 184 151
114 185 151
115 185 151
115 185 152
115 185 152
115 186 152
116 186 153
116 186 153
124 207 158
124 208 159
125 208 159
117 188 154
117 188 154
125 209 160
126 209 160
126 210 160
126 210 161
127 210 161
119 190 156
119 190 156
128 211 162
128 212 162
128 212 163
129 212 163
129 213 163
129 213 163
129 213 164
130 213 164
130 214 164
130 214 165
123 193 160
123 194 160
131 215 165
123 194 160
124 194 161
124 195 161
124 195 161
124 195 161
125 195 162
133 217 167
125 196 162
133 217 167
125 196 162
134 218 168
134 218 168
134 218 168
134 218 168
134 218 168
126 197 163
126 197 163
127 197 163
127 198 164
127 198 164
127 198 164
127 198 164
127 198 164
127 198 164
127 198 164
135 219 169
135 219 169
127 198 164
134 219 169
134 219 169
126 197 163
126 197 163
126 197 163
126 197 163
126 197 163
134 218 168
133 218 168
125 196 162
125 196 162
133 217 167
133 217 167
132 217 166
132 216 166
132 216 166
131 216 166
123 194 160
123 194 160
131 215 165
122 193 159
122 193 159
122 193 158
129 213 163
121 192 158
121 192 157
128 212 162
128 212 162
127 212 162
127 211 161
127 211 161
126 211 160
126 210 160
125 210 160
125 209 159
125 209 159
28 44 31
30 50 33
31 51 33
116 186 153
32 52 34
32 52 35
115 185 152
123 206 157
122 205 157
114 184 151
114 184 151
121 204 156
121 204 155
121 204 155
120 203 155
30 47 34
48 70 61
48 70 61
48 69 61
36 56 39
34 50 39
50 76 63
50 76 63
48 69 61
47 69 61
47 69 61
47 69 60
47 68 60
49 74 61
48 74 61
48 74 61
48 74 61
48 73 61
48 73 60
48 73 60
45 67 59
45 67 59
45 67 58
45 67 58
45 66 58
45 66 58
44 66 58
47 72 59
46 72 59
46 72 59
46 72 59
46 72 59
46 72 59
46 72 59
42 64 56
42 64 56
42 64 55
42 64 55
42 64 55
42 64 55
42 64 55
107 176 144
105 175 142
105 175 142
105 175 142
105 175 142
113 196 147
105 175 142
105 175 142
105 175 142
86 137 94
86 136 93
93 157 97
111 196 146
111 196 146
111 196 146
111 195 146
111 195 146
111 195 146
111 195 146
111 195 146
111 195 146
111 195 146
103 174 140
111 195 146
103 174 140
103 174 140
103 174 140
103 174 140
111 195 146
103 174 140
111 195 146
103 174 140
104 174 140
111 195 146
111 195 146
111 195 146
111 195 146
111 195 146
104 174 140
104 174 140
111 195 146
111 195 146
104 174 141
104 174 141
104 174 141
104 174 141
104 174 141
104 174 141
112 195 146
112 195 146
112 195 146
112 195 146
104 174 141
104 174 141
104 174 141
104 174 141
104 174 141
104 174 141
104 174 141
112 195 146
104 174 141
112 195 146
104 174 141
112 195 146
112 195 146
112 195 146
112 195 146
112 195 146
112 195 146
112 195 146
112 195 146
104 174 141
104 174 141
112 195 146
104 175 141
104 175 141
104 175 141
104 175 141
112 195 146
104 175 141
39 59 44
39 59 44
41 60 45
41 61 46
41 61 46
41 61 46
38 55 44
38 55 44
39 55 44
39 55 44
41 61 46
39 55 44
39 55 44
39 55 44
39 55 44
41 61 46
41 61 46
41 61 46
41 61 46
41 61 46
41 61 46
41 61 46
39 55 45
41 61 46
39 55 45
39 55 45
41 61 46
39 55 45
39 55 45
39 56 45
39 56 45
41 58 47
116 196 151
49 74 62
49 74 62
49 74 62
49 74 62
47 68 61
49 74 63
35 55 39
35 55 39
35 55 39
35 55 39
35 55 39
35 55 39
35 55 39
35 55 39
35 55 39
35 55 39
35 55 39
36 56 39
44 66 57
44 66 57
44 66 57
44 66 57
109 178 146
109 179 146
109 179 146
110 179 146
110 179 147
35 55 39
110 179 147
110 179 147
110 180 147
110 180 147
110 180 147
111 180 148
111 180 148
119 201 153
119 201 153
119 201 153
119 202 154
119 202 154
119 202 154
120 202 154
120 202 154
120 203 154
120 203 155
113 183 150
113 183 150
113 183 150
113 183 150
114 183 151
114 184 151
114 184 151
114 184 151
114 184 151
114 185 151
115 185 151
115 185 152
115 186 152
123 207 158
116 186 153
116 186 153
116 187 153
124 208 159
125 208 159
117 188 154
117 188 154
126 209 160
126 210 160
126 210 161
127 210 161
127 211 161
127 211 161
120 190 157
120 191 157
120 191 157
121 191 157
129 213 163
121 192 158
122 192 158
130 213 164
130 214 164
130 214 165
123 193 160
123 194 160
123 194 160
124 194 160
132 216 166
132 216 166
124 195 161
125 195 162
125 196 162
125 196 162
133 217 168
133 217 168
126 197 163
134 218 168
134 218 168
134 218 169
134 219 169
135 219 169
135 219 169
135 219 169
127 198 164
127 198 164
127 198 164
127 198 164
127 198 164
128 198 164
128 199 164
128 199 164
135 220 170
135 220 170
135 220 170
135 220 170
135 220 170
135 220 170
135 219 169
135 219 169
135 219 169
135 219 169
135 219 169
127 198 163
126 197 163
126 197 163
126 197 163
134 218 168
133 218 168
125 196 162
125 196 162
133 217 167
132 217 167
124 195 161
124 195 161
131 216 166
123 194 160
123 194 160
130 215 165
122 193 159
122 193 159
121 193 158
121 192 158
129 213 163
128 213 162
128 212 162
120 191 156
127 211 161
127 211 161
118 190 155
126 210 160
125 210 160
125 209 159
28 44 31
30 50 33
31 51 33
49 71 62
124 207 158
115 186 152
116 186 153
123 206 157
115 185 152
122 205 157
122 205 156
122 205 156
121 204 156
121 204 155
120 204 155
31 47 34
120 203 155
48 70 61
48 69 61
36 56 39
34 50 39
50 76 63
50 76 63
50 75 63
50 75 62
49 75 62
49 75 62
49 74 62
46 68 60
46 68 60
46 68 59
48 74 61
48 73 61
48 73 60
48 73 60
45 67 59
45 67 58
45 67 58
45 66 58
45 66 58
44 66 58
44 66 58
46 72 59
46 72 59
44 66 57
46 72 59
46 72 59
44 66 57
46 72 59
42 64 55
42 64 55
42 64 55
42 64 55
42 64 55
42 64 55
42 64 55
42 64 55
105 175 142
112 196 146
112 196 146
112 196 146
112 196 146
112 196 146
111 196 146
111 196 146
111 196 146
85 136 93
93 157 97
111 196 146
111 196 146
103 174 140
111 196 146
111 195 146
111 195 146
111 195 146
111 195 146
111 195 146
111 195 146
103 174 140
103 174 140
103 174 140
103 174 140
103 174 140
103 174 140
103 174 140
103 174 140
111 195 146
103 174 140
111 195 146
111 195 146
111 195 146
111 195 146
111 195 146
111 195 146
104 174 140
111 195 146
111 195 146
111 195 146
104 174 140
104 174 140
104 174 140
104 174 141
104 174 141
104 174 141
112 195 146
104 174 141
104 174 141
112 195 146
112 195 146
112 195 146
112 195 146
112 195 146
104 174 141
104 174 141
104 174 141
112 195 146
112 195 146
112 195 146
112 195 146
112 195 146
112 195 146
112 195 146
104 174 141
112 195 146
112 195 146
112 195 146
112 195 146
104 174 141
104 174 141
104 174 141
104 174 141
112 195 146
104 174 141
104 175 141
104 175 141
104 175 141
104 175 141
37 54 43
41 61 46
38 55 44
41 61 46
41 61 46
39 55 44
41 61 46
39 55 44
39 55 44
39 55 44
41 61 46
39 55 45
41 61 46
41 61 46
41 61 46
39 55 45
41 61 46
39 55 45
41 61 46
41 61 46
39 55 45
41 61 46
39 55 45
39 55 45
39 55 45
39 56 45
39 56 45
39 56 45
42 61 47
39 56 45
43 63 49
98 160 105
116 196 151
116 196 151
49 74 62
49 74 62
49 74 62
49 74 62
35 55 39
35 55 39
35 55 39
35 55 39
35 55 39
35 55 39
35 55 39
35 55 39
35 55 39
35 55 39
46 72 58
46 72 58
44 66 57
46 72 58
46 72 59
109 178 146
117 199 151
109 179 146
109 179 146
88 151 93
35 55 39
35 55 39
35 55 39
35 55 39
35 55 38
35 55 38
35 55 38
35 55 38
88 151 93
111 181 148
119 201 153
119 202 153
112 181 149
112 181 149
120 202 154
112 182 149
120 203 154
120 203 155
113 183 150
113 183 150
113 183 150
113 183 150
114 184 151
122 204 156
114 184 151
114 184 151
114 184 151
114 185 151
115 185 151
115 185 152
115 186 152
115 186 152
116 186 153
124 207 158
116 187 153
124 208 159
125 208 159
125 209 159
118 188 154
126 209 160
126 210 160
126 210 161
127 210 161
127 211 161
127 211 162
128 211 162
120 191 157
120 191 157
121 191 158
121 192 158
129 213 164
122 192 159
122 193 159
130 214 165
123 193 160
131 215 165
131 215 165
124 194 161
132 216 166
132 216 166
125 195 161
133 217 167
133 217 167
133 217 167
126 196 162
134 218 168
134 218 168
126 197 163
134 218 169
135 219 169
135 219 169
135 219 169
135 219 169
127 198 164
136 220 170
128 199 165
128 199 165
128 199 165
128 199 165
128 199 165
128 199 165
136 220 170
128 199 165
128 199 165
128 199 165
128 199 165
136 220 170
128 199 165
136 220 170
136 220 170
136 220 170
136 220 170
136 220 170
136 220 170
128 199 164
127 198 164
127 198 164
127 198 164
127 198 164
127 198 163
126 197 163
126 197 163
126 197 163
125 197 162
133 218 167
133 217 167
125 196 161
124 195 161
132 216 166
124 195 160
123 194 160
123 194 160
122 194 159
122 193 159
130 214 164
129 214 163
129 213 163
128 213 163
128 212 162
128 212 162
127 212 161
127 211 161
126 211 161
118 189 155
27 43 30
28 44 31
31 50 33
31 51 33
49 71 62
116 187 153
116 186 153
115 186 152
115 186 152
122 206 157
114 185 151
114 185 151
113 184 150
121 205 156
121 204 155
113 183 150
31 47 34
121 203 155
48 70 61
48 70 61
36 56 39
34 50 39
50 76 63
50 76 63
50 76 63
50 75 62
49 75 62
49 75 62
49 75 62
46 68 60
46 68 60
46 68 59
48 74 61
46 67 59
45 67 59
45 67 59
47 73 60
47 73 60
47 73 60
47 72 60
45 66 58
44 66 58
44 66 58
46 72 59
46 72 59
46 72 59
46 72 59
46 72 59
46 72 59
46 71 59
44 70 57
44 70 57
44 70 57
42 64 55
42 64 55
42 64 55
42 64 55
42 64 55
113 196 147
112 196 146
112 196 146
112 196 146
112 196 146
111 196 146
104 175 140
111 196 146
111 196 146
111 196 146
103 174 140
103 174 140
111 196 146
103 174 140
103 174 140
103 174 140
111 195 146
111 195 146
111 195 145
111 195 145
111 195 145
103 174 140
103 174 140
103 174 140
111 195 145
103 174 140
103 174 140
111 195 146
103 174 140
103 174 140
111 195 146
111 195 146
111 195 146
111 195 146
103 174 140
111 195 146
103 174 140
111 195 146
111 195 146
111 195 146
103 174 140
104 174 140
104 174 140
104 174 140
111 195 146
104 174 140
104 174 140
111 195 146
104 174 141
104 174 141
104 174 141
112 195 146
104 174 141
112 195 146
112 195 146
112 195 146
112 195 146
112 195 146
112 195 146
104 174 141
112 195 146
104 174 141
104 174 141
104 174 141
104 174 141
112 195 146
112 195 146
112 195 146
112 195 146
112 195 146
112 195 146
104 174 141
104 174 141
104 174 141
104 174 141
104 174 141
104 174 141
104 174 141
112 195 146
104 175 141
40 60 44
46 68 60
46 68 60
41 61 46
39 55 44
39 55 44
39 55 44
39 55 44
39 55 45
39 55 45
39 55 45
39 55 45
39 55 45
41 61 46
41 61 46
41 61 46
39 55 45
41 61 46
41 61 46
41 61 46
41 61 46
41 61 47
39 55 45
39 56 45
39 56 45
39 56 45
39 56 45
39 56 45
39 56 45
39 56 45
43 63 49
98 160 105
91 140 100
109 176 146
116 196 151
116 196 151
49 74 62
49 74 62
36 56 39
35 55 39
35 55 39
35 55 39
35 55 39
35 55 39
35 55 39
35 55 39
35 55 39
44 65 57
44 65 57
46 72 58
44 66 57
109 178 146
117 199 151
109 179 146
109 179 146
117 199 151
35 55 38
35 55 39
35 55 39
35 55 39
35 55 39
35 55 39
35 55 39
35 55 38
35 55 38
35 55 38
35 55 38
32 48 36
32 48 36
32 48 36
32 48 36
32 48 36
32 48 36
80 130 87
120 203 155
113 183 150
113 183 150
113 183 150
113 183 150
114 184 151
114 184 151
114 184 151
122 205 156
114 184 151
114 185 151
122 206 157
115 185 152
115 186 152
115 186 152
124 207 158
116 187 153
116 187 153
125 208 159
125 208 159
125 209 159
125 209 160
126 209 160
126 210 160
126 210 161
127 211 161
127 211 161
127 211 162
120 191 157
120 191 157
121 191 158
121 192 158
121 192 158
122 192 159
122 193 159
122 193 159
123 193 160
123 194 160
131 215 165
132 215 166
132 216 166
132 216 166
132 216 167
133 217 167
133 217 167
133 217 168
126 197 163
134 218 168
126 197 163
127 197 163
135 219 169
127 198 164
135 219 169
135 220 170
136 220 170
136 220 170
136 220 170
136 220 170
136 221 171
129 200 165
129 200 166
137 221 171
129 200 166
129 200 166
129 200 166
129 200 166
129 200 166
129 200 166
137 221 171
129 200 166
137 221 171
137 221 171
137 221 171
137 221 171
137 221 171
137 221 171
129 200 166
136 221 171
128 199 165
128 199 165
128 199 165
128 199 165
128 199 164
127 198 164
127 198 164
135 219 169
127 198 163
126 197 163
134 218 168
126 197 162
133 218 167
133 217 167
125 196 161
132 217 166
132 216 166
131 216 166
131 216 165
131 215 165
130 215 164
130 214 164
129 214 164
129 214 163
121 192 158
120 191 157
128 212 162
127 212 162
127 211 161
126 211 161
27 43 30
28 44 31
31 51 33
50 72 63
50 72 62
49 71 62
116 187 153
124 208 158
123 207 157
115 186 152
114 185 151
114 185 151
114 185 151
122 205 156
121 205 156
30 46 34
31 47 35
79 130 87
51 76 63
48 70 61
48 69 61
47 69 60
47 69 60
47 69 60
46 68 60
50 75 62
49 75 62
49 75 62
47 68 60
46 68 60
46 68 60
46 68 59
46 68 59
46 67 59
45 67 59
45 67 59
47 73 60
47 73 60
47 73 60
47 72 60
47 72 59
47 72 59
46 72 59
44 66 57
44 66 57
44 66 57
44 66 57
44 65 57
46 71 59
46 71 58
44 70 57
44 70 57
44 70 57
44 70 57
44 70 57
44 70 56
44 70 56
44 70 56
105 175 142
112 196 146
112 196 146
112 196 146
111 196 146
104 175 140
111 196 146
111 196 146
111 196 146
111 196 146
111 196 146
103 174 140
111 196 146
103 174 140
103 174 140
103 174 140
103 174 140
103 174 140
103 174 140
103 174 140
111 195 145
111 195 145
111 195 145
111 195 145
111 195 145
111 195 145
111 195 145
103 174 140
103 174 140
103 174 140
111 195 145
111 195 145
111 195 145
103 174 140
111 195 146
103 174 140
111 195 146
111 195 146
111 195 146
111 195 146
111 195 146
103 174 140
103 174 140
103 174 140
103 174 140
103 174 140
104 174 140
104 174 140
104 174 140
104 174 140
104 174 140
111 195 146
111 195 146
111 195 146
112 195 146
112 195 146
112 195 146
112 195 146
112 195 146
112 195 146
112 195 146
104 174 141
104 174 141
104 174 141
104 174 141
104 174 141
112 195 146
104 174 141
104 174 141
104 174 141
104 174 141
112 195 146
104 174 141
112 195 146
104 174 141
104 174 141
104 174 141
104 174 141
112 195 146
104 174 141
104 174 141
46 67 60
48 73 61
46 67 60
46 68 60
48 73 61
48 74 62
48 74 62
48 74 62
48 74 62
48 74 62
39 55 45
39 55 45
41 61 46
41 61 46
41 61 46
41 61 46
41 61 46
39 55 45
39 55 45
41 61 47
39 56 45
39 56 45
39 56 45
39 56 45
39 56 45
39 56 45
39 56 45
39 56 45
44 64 49
43 63 49
98 160 105
98 160 105
98 160 105
116 196 151
109 176 146
116 196 151
109 176 146
36 56 39
36 56 39
35 55 39
35 55 39
35 55 39
35 55 39
35 55 39
43 65 56
43 65 57
46 71 58
44 65 57
44 65 57
109 178 146
109 178 146
109 179 146
109 179 146
109 179 146
35 55 38
35 55 39
35 55 39
35 55 39
35 55 39
35 55 39
35 55 39
35 55 39
35 55 39
35 55 38
35 55 38
35 55 38
32 48 37
32 48 36
32 48 36
32 48 36
32 48 36
32 48 36
120 203 155
120 203 155
121 203 155
121 204 155
121 204 156
121 204 156
122 204 156
122 205 156
114 184 151
32 52 35
32 52 35
32 52 35
115 185 152
115 186 152
115 186 152
116 186 153
116 187 153
116 187 153
125 208 159
125 209 159
125 209 160
126 209 160
126 210 160
118 189 155
127 210 161
127 211 161
127 211 162
128 211 162
120 191 157
120 191 157
121 192 158
121 192 158
121 192 158
122 193 159
122 193 159
123 193 159
123 194 160
123 194 160
131 215 166
132 216 166
132 216 166
132 216 167
133 217 167
133 217 167
133 217 168
134 218 168
134 218 168
134 218 169
127 198 164
127 198 164
127 198 164
128 199 164
128 199 165
128 199 165
128 199 165
128 199 165
137 221 171
137 221 171
137 221 171
129 200 166
129 200 166
129 201 166
130 201 166
130 201 167
130 201 167
130 201 167
138 222 172
130 201 167
138 222 172
138 222 172
138 222 172
138 222 172
138 222 172
138 222 172
138 222 172
138 222 172
138 222 172
137 222 172
129 200 166
129 200 166
129 200 166
137 221 171
129 200 165
128 200 165
128 199 165
128 199 165
128 199 164
127 198 164
135 219 169
135 219 169
134 219 168
134 218 168
134 218 168
133 218 167
133 217 167
132 217 167
132 217 166
132 216 166
123 195 160
123 194 160
122 194 159
130 215 164
122 193 158
129 214 163
121 192 158
128 213 162
120 191 157
119 191 156
27 43 30
28 43 31
28 44 31
31 51 33
51 73 63
50 72 63
50 72 62
116 187 153
124 208 158
116 186 153
115 186 152
115 186 152
122 206 157
31 51 33
114 185 151
114 184 151
121 205 156
121 204 155
31 48 35
51 76 63
48 70 61
48 70 61
47 69 60
47 69 60
47 69 60
47 68 60
46 68 59
46 68 59
48 74 60
48 73 60
47 73 60
47 73 60
47 73 59
47 72 59
48 73 60
45 67 59
47 73 60
47 73 60
47 73 60
47 73 60
47 72 59
47 72 59
47 72 59
46 72 59
44 66 57
44 66 57
44 66 57
44 65 57
44 65 57
43 65 57
43 65 57
39 61 52
42 67 53
39 61 52
39 61 52
41 67 53
41 67 53
39 61 52
39 61 51
105 175 142
104 175 141
112 196 146
111 196 146
111 196 146
111 196 146
111 196 146
111 196 146
111 196 146
111 196 146
111 196 146
103 174 140
103 174 140
103 174 140
103 174 140
103 174 140
111 195 145
103 174 140
111 195 145
103 174 140
103 174 140
111 195 145
111 195 145
111 195 145
111 195 145
103 174 140
103 174 140
111 195 145
111 195 145
111 195 145
111 195 145
103 174 140
103 174 140
103 174 140
111 195 145
111 195 145
111 195 145
111 195 145
111 195 145
111 195 146
111 195 146
103 174 140
103 174 140
103 174 140
103 174 140
103 174 140
103 174 140
103 174 140
103 174 140
103 174 140
104 174 140
111 195 146
111 195 146
111 195 146
111 195 146
111 195 146
104 174 141
111 195 146
112 195 146
104 174 141
112 195 146
104 174 141
104 174 141
104 174 141
104 174 141
104 174 141
104 174 141
104 174 141
104 174 141
104 174 141
104 174 141
112 195 146
112 195 146
112 195 146
112 195 146
112 195 146
112 195 146
112 195 146
112 195 146
112 195 146
112 195 146
45 67 59
45 67 60
46 67 60
46 67 60
46 67 60
48 73 61
48 73 61
48 73 61
48 74 62
48 74 62
48 74 62
48 74 62
46 68 60
46 68 60
46 68 60
46 68 61
46 68 61
46 68 61
46 68 61
39 56 45
39 56 45
39 56 45
39 56 45
39 56 45
42 62 47
40 56 45
40 56 46
40 56 46
44 64 49
43 63 49
98 160 105
98 160 105
98 160 105
116 196 150
109 176 146
109 176 146
109 176 146
43 65 56
45 71 58
45 71 58
43 65 56
43 65 56
43 65 56
46 71 58
43 65 56
43 65 56
43 65 57
43 65 57
109 178 146
109 178 146
109 178 146
109 179 146
88 151 93
35 55 38
35 55 38
35 55 39
35 55 39
35 55 39
35 55 39
35 55 39
35 55 39
35 55 39
35 55 39
35 55 39
35 55 38
35 55 38
35 55 38
32 48 37
32 48 36
32 48 36
32 48 36
112 182 149
120 203 155
121 203 155
121 204 155
121 204 156
121 204 156
122 204 156
122 205 156
122 205 157
115 185 152
32 52 35
32 52 35
32 52 35
32 52 35
32 52 35
32 52 34
32 52 34
32 52 34
117 187 154
117 188 154
125 209 160
126 209 160
126 210 160
126 210 161
127 210 161
127 211 161
127 211 162
128 212 162
120 191 157
128 212 163
121 192 158
121 192 158
122 192 159
130 214 164
122 193 159
123 194 160
123 194 160
123 194 160
132 216 166
132 216 166
132 216 167
133 217 167
133 217 167
133 218 168
134 218 168
134 218 168
134 219 169
135 219 169
127 198 164
127 198 164
128 199 165
128 199 165
128 199 165
136 221 171
129 200 166
129 200 166
129 200 166
129 201 166
138 222 172
138 222 172
138 222 172
138 222 172
138 223 172
138 223 173
138 223 173
139 223 173
139 223 173
139 223 173
139 223 173
139 223 173
139 223 173
139 223 173
139 223 173
139 223 173
139 223 173
139 223 173
138 223 173
138 223 173
138 223 172
130 201 167
138 222 172
130 201 167
130 201 166
137 222 172
129 200 166
129 200 166
137 221 171
128 200 165
128 199 165
136 220 170
135 220 170
127 198 164
135 219 169
134 219 168
134 218 168
134 218 168
133 218 167
133 217 167
132 217 167
124 195 161
124 195 160
123 194 160
123 194 160
122 194 159
122 193 159
121 193 158
121 192 158
120 192 157
120 191 157
27 43 30
28 44 31
28 44 31
51 73 64
51 73 63
51 72 63
50 72 62
50 72 62
116 187 153
124 208 158
116 186 152
115 186 152
123 207 157
31 51 33
122 206 157
114 185 151
122 205 156
121 205 155
113 183 150
113 183 150
120 204 154
112 182 149
119 203 154
119 203 153
111 181 148
118 202 153
46 68 59
46 68 59
48 74 60
48 73 60
48 73 60
47 73 60
47 73 59
47 72 59
47 72 59
45 67 59
47 73 60
47 73 60
47 73 60
47 73 60
47 72 59
47 72 59
46 72 59
46 72 59
44 66 57
44 66 57
44 66 57
44 65 57
43 65 57
43 65 57
39 61 52
39 61 52
39 61 52
39 61 52
39 61 52
39 61 52
39 61 51
39 61 51
39 61 51
93 157 97
112 196 146
112 196 146
104 175 140
111 196 146
103 175 140
111 196 146
111 196 146
111 196 146
111 196 145
103 174 140
111 196 145
103 174 140
103 174 140
103 174 140
103 174 140
103 174 140
103 174 140
103 174 140
103 174 140
103 174 140
111 195 145
111 195 145
111 195 145
111 195 145
111 195 145
111 195 145
103 174 140
111 195 145
111 195 145
103 174 140
103 174 140
103 174 140
103 174 140
103 174 140
103 174 140
111 195 145
103 174 140
103 174 140
111 195 145
103 174 140
103 174 140
103 174 140
103 174 140
103 174 140
103 174 140
103 174 140
103 174 140
103 174 140
103 174 140
111 195 146
103 174 140
111 195 146
111 195 146
104 174 140
111 195 146
111 195 146
111 195 146
111 195 146
111 195 146
104 174 141
112 195 146
104 174 141
104 174 141
104 174 141
104 174 141
104 174 141
104 174 141
104 174 141
104 174 141
104 174 141
104 174 141
112 195 146
112 195 146
112 195 146
112 195 146
104 174 141
112 195 146
112 195 146
112 195 146
112 195 146
112 195 146
104 174 141
112 195 146
104 174 141
104 174 141
104 174 141
104 174 141
104 175 141
48 73 61
48 73 61
48 73 61
46 68 60
48 74 62
46 68 60
46 68 60
46 68 60
46 68 60
46 68 60
46 68 61
46 68 61
49 74 62
49 74 62
49 74 62
47 68 61
49 74 62
49 74 63
49 74 63
44 64 49
44 64 49
43 63 49
98 160 105
98 160 105
98 160 105
91 140 100
116 196 150
108 176 146
108 176 146
43 65 56
45 71 58
43 65 56
43 65 56
43 65 56
43 65 56
45 71 58
46 71 58
46 71 58
116 199 151
116 199 151
117 199 151
109 178 146
109 179 146
35 55 38
35 55 38
35 55 38
35 55 38
35 55 39
35 55 39
35 55 39
35 55 39
35 55 39
35 55 39
35 55 39
35 55 39
35 55 39
35 55 39
35 55 38
35 55 38
32 49 37
32 48 37
32 48 36
120 203 155
120 203 155
121 203 155
121 204 155
121 204 155
114 184 151
122 204 156
114 184 151
122 205 157
115 185 152
115 185 152
86 150 91
32 52 35
32 52 35
32 52 35
32 52 35
32 52 35
32 52 34
125 208 159
117 188 154
117 188 154
118 188 155
118 189 155
119 189 155
119 190 156
119 190 156
120 190 156
120 191 157
120 191 157
121 191 158
121 192 158
121 192 158
130 214 164
122 193 159
123 193 159
123 194 160
123 194 160
124 195 161
132 216 166
132 216 167
133 217 167
133 217 167
126 196 162
134 218 168
134 218 168
134 219 169
135 219 169
135 219 169
128 199 164
136 220 170
128 199 165
136 221 171
129 200 166
129 200 166
129 200 166
130 201 166
138 222 172
130 201 167
138 222 172
138 223 173
139 223 173
139 223 173
139 223 173
139 223 173
139 224 173
139 224 174
139 224 174
132 203 168
140 224 174
132 203 169
140 224 174
132 203 169
140 224 174
132 203 168
140 224 174
132 203 168
139 224 174
139 224 174
139 224 173
131 202 168
131 202 168
131 202 168
131 202 167
130 202 167
138 223 172
130 201 167
130 201 167
129 201 166
129 200 166
137 221 171
128 200 165
128 199 165
136 220 170
135 220 170
135 220 169
135 219 169
134 219 168
134 218 168
133 218 168
133 218 167
125 196 161
124 196 161
124 195 161
123 195 160
123 194 160
122 194 159
130 214 164
121 193 158
129 214 163
29 49 31
27 43 30
28 44 31
28 44 31
52 74 64
51 73 64
51 73 63
50 72 63
50 72 62
117 188 154
124 208 159
116 187 153
115 186 152
85 150 89
31 51 34
123 206 157
122 206 157
122 205 156
121 205 156
121 205 155
113 183 150
120 204 155
120 203 154
120 203 154
119 203 154
119 202 153
111 181 148
110 181 147
110 181 147
110 180 147
110 180 147
117 201 151
109 180 146
109 179 146
116 200 151
47 72 59
48 73 60
45 67 58
45 67 58
47 73 60
47 73 59
47 72 59
47 72 59
46 72 59
45 71 57
43 64 56
45 70 57
45 70 57
45 70 57
44 70 57
43 65 57
114 197 148
106 176 143
106 176 143
105 176 142
105 176 142
39 61 51
39 61 51
39 61 51
39 61 51
93 157 97
104 175 140
112 196 146
111 196 146
111 196 146
111 196 146
111 196 146
111 196 146
111 196 145
111 196 145
103 174 140
103 174 140
111 196 145
103 174 140
111 196 145
103 174 140
103 174 140
111 195 145
103 174 140
103 174 140
103 174 140
111 195 145
111 195 145
111 195 145
111 195 145
111 195 145
111 195 145
111 195 145
103 174 140
111 195 145
111 195 145
111 195 145
103 174 140
111 195 145
103 174 140
111 195 145
103 174 140
103 174 140
103 174 140
103 174 140
103 174 140
111 195 145
103 174 140
111 195 145
111 195 145
111 195 145
111 195 145
111 195 145
111 195 146
111 195 146
103 174 140
103 174 140
103 174 140
111 195 146
111 195 146
111 195 146
111 195 146
111 195 146
111 195 146
111 195 146
104 174 140
111 195 146
104 174 141
104 174 141
104 174 141
104 174 141
112 195 146
104 174 141
104 174 141
104 174 141
104 174 141
104 174 141
112 195 146
112 195 146
112 195 146
104 174 141
112 195 146
112 195 146
112 195 146
112 195 146
112 195 146
112 195 146
104 174 141
104 174 141
104 174 141
112 195 146
104 174 141
104 174 141
104 174 141
104 174 141
104 174 141
104 175 141
104 175 141
48 73 61
46 68 60
46 68 60
46 68 60
46 68 60
46 68 60
46 68 60
46 68 60
46 68 61
49 74 62
49 74 62
49 74 62
49 74 62
49 74 62
49 74 62
49 74 63
44 64 49
43 63 49
98 160 105
98 160 105
98 160 105
98 160 105
91 140 100
116 196 150
108 176 145
43 65 56
43 65 56
45 71 58
45 71 58
45 71 58
45 71 58
45 71 58
43 65 56
109 178 146
116 199 151
116 199 151
117 199 151
117 199 151
32 48 37
35 55 38
35 55 38
35 55 38
35 55 39
35 55 39
35 55 39
35 55 39
35 55 39
35 55 39
35 55 39
35 55 39
35 55 39
35 55 39
35 55 39
35 55 39
35 55 38
33 49 37
32 49 37
120 203 154
120 203 155
121 203 155
121 204 155
121 204 155
121 204 156
122 204 156
122 205 156
122 205 156
115 185 152
115 185 152
115 185 152
116 186 152
32 52 35
32 52 35
32 52 35
32 52 35
32 52 35
117 187 154
117 188 154
117 188 154
118 189 155
118 189 155
119 189 155
119 190 156
119 190 156
120 190 157
120 191 157
128 212 163
129 213 163
129 213 163
129 213 164
130 214 164
122 193 159
131 215 165
131 215 165
123 194 160
132 216 166
132 216 166
133 217 167
133 217 167
133 217 168
134 218 168
126 197 163
134 219 169
135 219 169
135 219 169
135 220 170
128 199 165
128 199 165
129 200 165
129 200 166
129 200 166
129 201 166
130 201 167
130 201 167
130 201 167
131 202 167
131 202 168
139 223 173
139 224 173
139 224 174
140 224 174
140 224 174
140 224 174
132 203 169
140 225 174
140 225 174
140 225 175
132 204 169
132 204 169
133 204 169
133 204 169
133 204 169
132 204 169
132 204 169
132 204 169
140 225 174
132 203 169
140 225 174
140 224 174
140 224 174
140 224 174
139 224 174
131 202 168
139 223 173
131 202 168
138 223 173
130 201 167
138 222 172
130 201 166
137 222 171
137 221 171
136 221 171
128 200 165
136 220 170
135 220 170
135 220 169
135 219 169
134 219 168
134 218 168
125 197 162
125 196 162
124 196 161
124 195 161
123 195 160
123 194 160
122 194 159
122 193 159
129 214 164
29 49 31
27 43 30
28 44 31
28 44 31
55 80 66
54 80 66
54 80 65
53 79 65
118 189 155
117 188 154
125 209 159
124 208 158
116 187 153
31 51 33
31 51 34
115 186 152
123 206 157
122 206 156
122 205 156
121 205 156
113 184 150
121 204 155
112 183 149
120 203 154
112 182 149
111 182 148
111 181 148
111 181 148
110 181 147
110 181 147
110 180 147
109 180 146
109 180 146
117 200 151
109 179 146
116 200 151
116 200 150
116 199 150
116 199 150
115 199 150
115 199 150
115 199 149
44 66 58
44 66 57
45 71 57
45 70 57
45 70 57
45 70 57
44 70 57
44 70 57
44 70 57
113 197 147
113 197 147
113 197 147
113 197 147
113 197 148
105 176 142
105 176 142
105 176 142
105 175 142
92 157 97
104 175 140
104 175 140
103 175 140
103 175 140
103 175 140
103 175 140
103 175 140
111 196 145
103 175 140
111 196 145
103 174 140
103 174 140
103 174 140
103 174 140
103 174 140
103 174 140
103 174 140
103 174 140
103 174 140
111 195 145
103 174 140
111 195 145
111 195 145
111 195 145
111 195 145
111 195 145
111 195 145
111 195 145
111 195 145
111 195 145
103 174 140
103 174 140
103 174 140
103 174 140
103 174 140
103 174 140
103 174 140
103 174 140
103 174 140
103 174 140
103 174 140
103 174 140
111 195 145
111 195 145
111 195 145
111 195 145
111 195 145
103 174 140
111 195 145
111 195 145
111 195 145
111 195 146
103 174 140
103 174 140
103 174 140
103 174 140
103 174 140
111 195 146
111 195 146
111 195 146
111 195 146
104 174 140
104 174 140
104 174 140
104 174 140
104 174 141
104 174 141
104 174 141
104 174 141
104 174 141
104 174 141
104 174 141
112 195 146
112 195 146
112 195 146
112 195 146
112 195 146
112 195 146
112 195 146
112 195 146
104 174 141
112 195 146
104 174 141
104 174 141
104 174 141
104 174 141
104 174 141
104 174 141
112 195 146
104 174 141
104 174 141
104 174 141
116 196 150
116 196 150
116 196 150
108 176 146
108 176 146
109 176 146
109 176 146
46 68 60
48 74 62
48 74 62
48 74 62
48 74 62
49 74 62
49 74 62
49 74 62
49 74 62
49 74 62
43 63 49
91 140 100
91 140 100
91 140 100
91 140 100
91 140 100
98 159 104
108 176 145
43 65 56
43 65 56
45 71 57
45 71 58
45 71 58
45 71 58
45 71 58
116 198 151
116 199 151
116 199 151
117 199 151
80 130 88
32 48 37
32 48 37
35 55 38
35 55 38
35 55 38
35 55 39
35 55 39
35 55 39
35 55 39
35 55 39
35 55 39
36 55 39
35 55 39
35 55 39
35 55 39
35 55 39
35 55 39
35 55 39
120 203 154
120 203 154
120 203 155
121 203 155
121 204 155
121 204 155
114 184 150
122 204 156
122 205 156
122 205 156
115 185 152
123 206 157
115 185 152
115 186 152
116 186 153
32 52 35
32 52 35
32 52 35
32 52 35
125 208 159
117 188 154
117 188 154
118 189 155
126 210 160
119 189 155
119 190 156
119 190 156
120 191 157
120 191 157
128 212 163
129 213 163
121 192 158
130 214 164
130 214 164
130 214 165
131 215 165
123 194 160
132 216 166
124 195 161
132 216 167
125 196 162
125 196 162
126 197 163
126 197 163
126 197 163
135 219 169
135 219 169
135 220 170
136 220 170
136 220 170
137 221 171
129 200 166
129 200 166
130 201 167
130 201 167
138 223 172
131 202 167
131 202 168
131 202 168
131 203 168
140 224 174
140 224 174
140 224 174
140 225 174
132 204 169
141 225 175
141 225 175
141 225 175
141 225 175
133 204 170
133 204 170
133 205 170
133 205 170
133 205 170
133 205 170
133 205 170
141 226 175
133 205 170
133 205 170
133 204 170
141 226 175
141 225 175
141 225 175
141 225 175
140 225 175
140 225 174
140 225 174
140 224 174
132 203 168
139 224 173
139 224 173
131 202 167
130 202 167
138 223 172
138 222 172
137 222 171
137 222 171
136 221 171
136 221 170
128 199 165
135 220 169
135 219 169
126 198 163
126 197 163
125 197 162
125 196 162
124 196 161
124 195 161
124 195 160
123 194 160
123 194 159
29 49 31
29 49 32
27 43 30
28 44 31
56 81 67
53 75 65
55 80 66
54 80 66
54 79 65
126 210 160
118 189 154
125 209 159
125 209 159
124 208 158
116 187 153
115 186 152
115 186 152
114 185 151
122 206 156
122 206 156
122 205 156
121 205 155
121 204 155
120 204 155
112 183 149
112 182 149
111 182 148
119 203 153
111 181 148
110 181 147
110 181 147
110 180 147
117 201 152
117 201 151
117 200 151
117 200 151
116 200 151
116 200 150
116 199 150
116 199 150
108 178 145
115 199 150
115 199 149
107 178 144
107 177 144
107 177 144
107 177 143
106 177 143
106 177 143
114 197 148
114 197 148
44 70 56
113 197 147
113 197 147
113 197 147
113 197 147
113 197 147
113 197 147
112 196 147
112 196 147
112 196 147
104 175 141
104 175 140
104 175 140
103 175 140
103 175 140
103 175 140
103 175 140
103 175 140
111 196 145
103 175 140
103 174 140
103 174 140
111 196 145
111 196 145
111 196 145
111 196 145
111 196 145
111 195 145
111 195 145
103 174 140
103 174 140
103 174 140
111 195 145
111 195 145
111 195 145
111 195 145
103 174 140
111 195 145
111 195 145
111 195 145
111 195 145
111 195 145
111 195 145
103 174 140
103 174 140
103 174 140
103 174 140
111 195 145
103 174 140
103 174 140
103 174 140
103 174 140
111 195 145
111 195 145
111 195 145
111 195 145
111 195 145
111 195 145
103 174 140
111 195 145
111 195 145
103 174 140
111 195 145
103 174 140
103 174 140
103 174 140
103 174 140
103 174 140
103 174 140
103 174 140
103 174 140
103 174 140
103 174 140
111 195 146
111 195 146
111 195 146
111 195 146
104 174 140
111 195 146
104 174 141
104 174 141
104 174 141
104 174 141
104 174 141
112 195 146
112 195 146
112 195 146
112 195 146
112 195 146
112 195 146
112 195 146
104 174 141
112 195 146
112 195 146
104 174 141
112 195 146
104 174 141
104 174 141
112 195 146
104 174 141
104 174 141
104 174 141
104 174 141
104 174 141
116 196 150
108 176 145
116 196 150
108 176 145
116 196 150
116 196 150
108 176 146
109 176 146
109 176 146
116 196 151
116 196 151
116 196 151
116 196 151
116 196 151
116 196 151
49 74 62
41 57 47
98 160 105
91 140 100
91 140 100
91 140 100
98 160 105
91 140 99
108 176 145
45 71 57
45 71 57
45 71 57
45 71 57
45 71 57
116 198 150
116 198 151
116 199 151
116 199 151
116 199 151
32 48 36
32 48 36
32 48 37
32 49 37
32 49 37
35 55 38
35 55 38
35 55 39
35 55 39
35 55 39
35 55 39
35 55 39
46 68 59
46 68 60
47 68 60
47 69 60
49 75 62
47 69 60
50 75 62
50 75 62
31 47 35
79 130 87
120 203 155
121 204 155
121 204 155
121 204 156
121 204 156
114 184 151
122 205 156
115 185 151
115 185 152
115 185 152
115 186 152
116 186 153
116 186 153
32 52 35
32 52 35
32 52 35
117 188 154
117 188 154
117 188 154
118 189 155
118 189 155
119 189 156
119 190 156
119 190 156
120 191 157
120 191 157
128 212 163
121 192 158
129 213 164
130 214 164
130 214 164
130 215 165
131 215 165
123 194 160
124 195 161
132 216 166
125 196 162
125 196 162
125 196 162
126 197 163
134 218 168
127 198 164
135 219 169
127 199 164
128 199 165
128 199 165
129 200 165
137 221 171
137 222 171
138 222 172
130 201 167
130 202 167
131 202 168
139 223 173
131 202 168
132 203 168
132 203 169
140 225 174
132 204 169
141 225 175
141 225 175
141 225 175
141 226 175
133 205 170
134 205 170
142 226 176
142 226 176
134 205 171
134 205 171
134 205 171
142 227 176
134 206 171
134 206 171
134 206 171
134 206 171
134 205 171
134 205 171
134 205 171
134 205 171
142 226 176
142 226 176
133 205 170
141 226 175
141 226 175
141 225 175
141 225 175
132 204 169
132 203 169
132 203 169
131 203 168
131 203 168
131 202 168
130 202 167
130 201 167
130 201 166
129 201 166
137 222 171
128 200 165
136 221 170
127 199 164
127 198 164
135 219 169
126 198 163
134 218 168
125 197 162
125 196 161
124 196 161
124 195 160
123 195 160
29 49 31
29 49 32
27 43 30
28 44 31
56 82 67
55 81 67
55 81 66
54 80 66
127 211 161
118 190 155
118 189 155
125 210 160
125 209 159
124 209 159
124 208 158
116 187 152
115 186 152
115 186 152
114 185 151
114 185 151
113 184 150
113 184 150
113 184 149
121 204 155
120 204 155
112 183 149
112 182 149
111 182 148
119 202 153
111 181 148
110 181 147
110 181 147
110 180 147
109 180 146
117 201 151
117 200 151
116 200 151
116 200 151
116 200 150
116 199 150
116 199 150
115 199 150
115 199 149
115 199 149
107 177 144
107 177 144
107 177 144
106 177 143
106 177 143
106 177 143
106 177 143
106 176 143
113 197 147
105 176 142
113 197 147
105 176 142
113 197 147
112 197 147
112 197 147
112 196 147
104 175 141
92 157 96
104 175 140
103 175 140
103 175 140
111 196 146
103 175 140
103 175 140
111 196 145
103 175 140
103 175 140
103 174 140
111 196 145
111 196 145
111 196 145
111 196 145
103 174 140
111 196 145
111 195 145
111 195 145
111 195 145
111 195 145
103 174 140
111 195 145
103 174 140
103 174 140
103 174 140
111 195 145
103 174 140
111 195 145
111 195 145
103 174 140
111 195 145
111 195 145
103 174 140
103 174 140
103 174 140
103 174 140
103 174 140
103 174 140
103 174 140
103 174 140
103 174 140
111 195 145
103 174 140
111 195 145
103 174 140
111 195 145
111 195 145
111 195 145
111 195 145
111 195 145
103 174 140
103 174 140
103 174 140
103 174 140
103 174 140
103 174 140
103 174 140
103 174 140
103 174 140
103 174 140
103 174 140
103 174 140
111 195 146
111 195 146
111 195 146
111 195 146
111 195 146
111 195 146
111 195 146
111 195 146
111 195 146
111 195 146
104 174 141
104 174 141
112 195 146
112 195 146
112 195 146
112 195 146
112 195 146
112 195 146
112 195 146
112 195 146
112 195 146
104 174 141
104 174 141
104 174 141
104 174 141
104 174 141
104 174 141
104 174 141
104 174 141
104 174 141
104 174 141
108 176 145
108 176 145
116 196 150
116 196 150
116 196 150
108 176 145
108 176 145
116 196 150
116 196 150
116 196 150
109 176 146
109 176 146
116 196 151
109 176 146
116 196 151
116 196 151
116 196 151
98 160 105
91 140 100
91 140 100
91 140 100
91 140 100
91 140 99
98 159 104
116 198 150
116 198 150
116 198 150
108 178 145
116 198 150
116 198 150
116 199 151
116 199 151
116 199 151
32 48 36
32 48 36
32 48 36
32 48 37
32 49 37
33 49 37
35 55 38
35 55 39
35 55 39
35 55 39
35 55 39
35 55 39
46 68 59
46 68 59
47 68 60
47 68 60
47 69 60
47 69 60
50 75 62
47 69 60
48 69 61
31 47 35
31 47 35
31 47 35
31 47 35
31 47 35
31 47 35
31 47 35
31 47 35
115 185 151
115 185 152
123 206 157
115 186 152
116 186 153
116 186 153
116 187 153
117 187 154
116 187 153
117 188 154
125 209 159
117 188 154
118 189 155
118 189 155
119 189 156
119 190 156
127 211 162
120 191 157
120 191 157
128 213 163
129 213 163
129 213 164
130 214 164
122 193 159
131 215 165
131 215 165
131 216 166
132 216 166
132 216 167
125 196 162
125 196 162
126 197 163
126 197 163
126 198 163
127 198 164
127 198 164
128 199 165
128 199 165
129 200 165
137 221 171
137 222 171
138 222 172
138 222 172
138 223 173
139 223 173
139 223 173
139 224 174
140 224 174
140 224 174
140 225 175
133 204 170
141 225 175
141 226 175
141 226 176
142 226 176
134 205 171
134 205 171
142 227 176
134 206 171
143 227 177
143 227 177
135 206 172
135 206 172
135 206 172
135 206 172
135 206 172
143 228 177
135 206 172
135 206 172
143 228 177
135 206 172
143 227 177
143 227 177
143 227 177
142 227 177
142 227 176
142 227 176
134 205 171
142 226 176
141 226 176
141 226 175
141 226 175
133 204 169
140 225 174
132 203 169
132 203 168
139 224 173
139 224 173
130 202 167
130 201 167
138 222 172
129 201 166
137 221 171
136 221 170
128 199 165
135 220 169
135 220 169
134 219 168
134 219 168
133 218 167
125 196 162
124 196 161
29 49 31
29 49 31
29 49 32
27 43 31
57 83 68
56 82 68
56 82 67
53 75 65
55 81 66
119 191 156
127 211 161
126 211 161
126 210 160
125 210 160
117 188 154
116 188 153
124 208 158
123 208 158
115 186 152
115 186 151
114 185 151
114 185 151
121 205 155
121 205 155
113 184 150
120 204 155
112 183 149
120 203 154
112 182 148
111 182 148
111 181 148
110 181 147
118 202 152
110 180 147
110 180 146
117 201 151
109 180 146
117 200 151
116 200 151
116 200 150
116 200 150
116 199 150
108 178 144
115 199 149
107 178 144
107 178 144
115 198 149
107 177 144
106 177 143
106 177 143
106 177 143
106 177 143
106 176 143
113 197 147
113 197 147
113 197 147
113 197 147
113 197 147
112 197 147
112 197 147
112 196 147
112 196 147
92 157 96
104 175 140
111 196 146
111 196 146
103 175 140
103 175 140
103 175 140
103 175 140
103 175 140
103 175 140
111 196 145
111 196 145
111 196 145
111 196 145
111 196 145
111 196 145
111 196 145
111 196 145
111 195 145
111 195 145
103 174 140
103 174 140
103 174 140
103 174 140
111 195 145
103 174 140
103 174 140
103 174 140
103 174 140
111 195 145
103 174 140
103 174 140
111 195 145
111 195 145
103 174 140
103 174 140
103 174 140
103 174 140
103 174 140
103 174 140
111 195 145
103 174 140
103 174 140
111 195 145
111 195 145
111 195 145
111 195 145
111 195 145
111 195 145
111 195 145
111 195 145
111 195 145
111 195 145
103 174 140
103 174 140
103 174 140
111 195 145
103 174 140
103 174 140
103 174 140
103 174 140
103 174 140
103 174 140
111 195 146
111 195 146
111 195 146
111 195 146
111 195 146
111 195 146
103 174 140
111 195 146
111 195 146
111 195 146
111 195 146
111 195 146
104 174 141
104 174 141
104 174 141
104 174 141
112 195 146
104 174 141
104 174 141
104 174 141
112 195 146
104 174 141
104 174 141
104 174 141
104 174 141
104 174 141
104 174 141
112 195 146
104 174 141
112 195 146
104 174 141
104 174 141
108 176 145
108 176 145
116 196 150
116 196 150
108 176 145
116 196 150
116 196 150
116 196 150
116 196 150
108 176 146
116 196 150
108 176 146
109 176 146
109 176 146
109 176 146
109 176 146
109 176 146
91 140 100
91 140 100
91 140 100
91 140 100
91 140 99
90 140 99
116 198 150
116 198 150
116 198 150
116 198 150
116 198 150
116 199 151
116 199 151
80 130 87
32 48 36
32 48 36
32 48 36
32 48 37
32 48 37
32 49 37
33 49 37
33 49 37
35 55 39
35 55 39
35 55 39
35 55 39
46 68 59
46 68 59
46 68 60
47 68 60
47 69 60
47 69 60
47 69 60
47 69 60
47 69 61
50 76 62
50 76 62
31 47 35
31 47 35
31 47 35
31 47 35
31 47 35
31 47 35
122 205 157
123 206 157
123 206 157
123 206 157
123 207 158
124 207 158
124 207 158
124 208 159
124 208 159
117 188 154
117 188 154
117 188 154
118 189 155
118 189 155
119 189 156
119 190 156
119 190 156
120 191 157
120 191 157
129 213 163
129 213 163
129 213 164
122 193 159
130 214 164
131 215 165
131 215 165
132 216 166
132 216 166
132 217 167
125 196 162
125 196 162
126 197 163
126 197 163
127 198 164
135 219 169
128 199 164
128 199 165
128 199 165
129 200 166
129 200 166
130 201 166
138 222 172
130 202 167
139 223 173
131 202 168
139 224 174
132 203 169
140 225 174
133 204 169
141 225 175
141 226 175
133 205 170
134 205 171
134 205 171
134 206 171
142 227 177
135 206 172
135 206 172
143 228 177
143 228 177
143 228 178
144 228 178
136 207 173
136 207 173
136 207 173
136 207 173
136 207 173
136 207 173
136 207 173
136 207 173
144 229 178
136 207 173
144 228 178
144 228 178
143 228 178
143 228 177
143 228 177
143 228 177
143 227 177
142 227 177
142 227 176
142 227 176
134 205 171
133 205 170
133 204 170
141 225 175
140 225 174
140 225 174
132 203 168
131 203 168
131 202 168
130 202 167
138 223 172
137 222 172
137 222 171
136 221 171
136 221 170
135 220 170
135 220 169
134 219 169
126 197 163
133 218 167
133 218 167
29 49 31
29 49 31
30 49 32
28 43 31
57 83 69
57 83 68
54 76 66
56 82 67
55 81 67
128 212 162
127 212 161
127 211 161
118 189 155
126 210 160
117 188 154
117 188 154
116 187 153
124 208 158
123 208 157
115 186 152
114 186 151
122 206 156
121 206 156
30 50 32
113 184 150
121 204 155
120 204 155
120 204 154
120 203 154
119 203 153
111 182 148
118 202 153
110 181 147
118 202 152
110 180 147
117 201 152
117 201 151
109 179 146
116 200 151
116 200 150
116 200 150
116 199 150
115 199 150
115 199 150
107 178 144
107 178 144
107 177 144
107 177 144
106 177 143
106 177 143
106 177 143
114 198 148
106 177 143
113 197 147
113 197 147
113 197 147
113 197 147
113 197 147
105 176 141
112 197 147
112 197 147
112 196 146
92 157 96
104 175 140
103 175 140
103 175 140
103 175 140
103 175 140
103 175 140
103 175 140
103 175 140
111 196 145
111 196 145
111 196 145
111 196 145
111 196 145
111 196 145
111 196 145
111 196 145
111 196 145
111 195 145
111 195 145
111 195 145
111 195 145
111 195 145
103 174 140
103 174 140
111 195 145
103 174 140
103 174 140
103 174 140
103 174 140
103 174 140
103 174 140
103 174 140
111 195 145
111 195 145
111 195 145
103 174 140
111 195 145
103 174 140
111 195 145
111 195 145
111 195 145
103 174 140
111 195 145
111 195 145
111 195 145
103 174 140
111 195 145
111 195 145
111 195 145
111 195 145
111 195 145
111 195 145
103 174 140
103 174 140
103 174 140
103 174 140
103 174 140
111 195 145
103 174 140
103 174 140
103 174 140
103 174 140
103 174 140
111 195 145
111 195 146
111 195 146
111 195 146
111 195 146
111 195 146
111 195 146
111 195 146
111 195 146
111 195 146
104 174 140
111 195 146
104 174 140
104 174 140
104 174 141
104 174 141
104 174 141
104 174 141
104 174 141
104 174 141
104 174 141
104 174 141
112 195 146
112 195 146
112 195 146
112 195 146
104 174 141
112 195 146
104 174 141
104 174 141
104 174 141
108 176 145
115 196 150
116 196 150
108 176 145
108 176 145
116 196 150
116 196 150
116 196 150
108 176 145
116 196 150
108 176 145
108 176 146
108 176 146
108 176 146
109 176 146
109 176 146
109 176 146
91 140 100
98 160 105
91 140 100
91 140 100
98 159 104
98 159 104
32 49 37
32 48 37
32 48 36
32 48 36
32 48 36
116 199 151
32 48 36
32 48 36
32 48 36
32 48 36
32 48 36
32 48 37
32 49 37
32 49 37
33 49 37
33 49 37
35 55 39
35 55 39
35 55 39
46 68 59
46 68 59
46 68 59
46 68 60
47 68 60
47 69 60
47 69 60
47 69 60
47 69 60
50 76 62
50 76 62
48 70 61
31 47 35
31 47 35
31 47 35
31 47 35
122 205 156
122 205 156
122 206 157
123 206 157
123 206 157
123 207 158
124 207 158
124 207 158
124 208 159
124 208 158
125 209 159
125 209 159
125 209 160
126 210 160
126 210 160
126 211 161
127 211 161
127 211 162
120 191 157
120 191 157
129 213 163
129 213 163
129 214 164
130 214 164
130 214 165
123 194 160
131 215 165
132 216 166
132 216 166
133 217 167
125 196 162
125 197 162
126 197 163
134 219 169
127 198 164
127 198 164
128 199 165
128 199 165
129 200 165
137 221 171
129 201 166
138 222 172
138 223 172
139 223 173
139 223 173
139 224 174
140 224 174
140 225 174
141 225 175
133 204 170
133 205 170
142 226 176
134 205 171
134 206 171
135 206 171
135 206 172
135 206 172
135 207 172
144 228 178
136 207 173
136 207 173
136 207 173
144 229 178
144 229 179
145 229 179
137 208 174
145 229 179
145 229 179
137 208 174
137 208 174
145 230 179
137 208 174
137 208 174
145 229 179
145 229 179
144 229 179
144 229 178
136 208 173
144 229 178
144 229 178
144 228 178
143 228 177
143 228 177
135 206 172
134 206 171
134 206 171
134 205 171
133 205 170
133 205 170
133 204 170
132 204 169
132 203 169
131 203 168
139 224 173
139 223 173
138 223 172
138 222 172
137 222 171
137 221 171
136 221 170
135 220 170
135 220 169
134 219 169
126 197 163
76 128 82
29 49 31
29 49 31
30 50 32
56 78 68
58 84 69
57 83 69
57 83 68
56 82 68
129 213 163
128 213 162
128 212 162
127 212 161
127 211 161
118 189 155
118 189 154
117 188 154
117 188 153
116 187 153
116 187 152
115 186 152
115 186 152
114 185 151
114 185 151
30 50 32
113 184 150
121 205 155
121 204 155
120 204 154
120 204 154
119 203 154
119 203 153
119 202 153
118 202 153
118 202 152
118 201 152
110 180 146
109 180 146
109 180 146
117 200 151
108 179 145
108 179 145
116 200 150
116 199 150
115 199 149
115 199 149
106 178 143
114 198 148
114 198 148
114 198 148
114 198 148
106 177 143
106 177 143
106 177 143
113 197 147
113 197 147
113 197 147
113 197 147
113 197 147
112 197 147
112 197 147
112 197 147
112 196 146
84 135 90
103 175 140
103 175 140
103 175 140
103 175 140
111 196 145
103 175 140
103 175 140
103 175 140
103 175 140
103 174 140
111 196 145
103 174 140
111 196 145
111 196 145
111 196 145
111 196 145
103 174 140
111 195 145
111 195 145
111 195 145
103 174 140
103 174 140
103 174 140
111 195 145
103 174 140
103 174 140
103 174 140
103 174 140
103 174 140
103 174 140
103 174 140
111 195 145
111 195 145
111 195 145
111 195 145
111 195 145
111 195 145
111 195 145
111 195 145
103 174 140
111 195 145
111 195 145
111 195 145
103 174 140
103 174 140
103 174 140
103 174 140
103 174 140
111 195 145
111 195 145
111 195 145
111 195 145
111 195 145
103 174 140
103 174 140
103 174 140
103 174 140
103 174 140
103 174 140
103 174 140
103 174 140
103 174 140
103 174 140
111 195 145
111 195 145
111 195 145
111 195 145
111 195 146
111 195 146
111 195 146
111 195 146
111 195 146
111 195 146
111 195 146
103 174 140
104 174 140
104 174 140
104 174 140
104 174 140
104 174 140
104 174 141
104 174 141
104 174 141
104 174 141
112 195 146
112 195 146
104 174 141
112 195 146
112 195 146
112 195 146
112 195 146
112 195 146
112 195 146
112 195 146
112 195 146
108 176 145
108 176 145
115 196 150
115 196 150
116 196 150
116 196 150
108 176 145
116 196 150
116 196 150
116 196 150
108 176 145
108 176 145
116 196 150
108 176 146
108 176 146
108 176 146
109 176 146
98 160 105
91 140 100
98 160 104
98 159 104
98 159 104
33 49 37
32 49 37
32 48 37
32 48 36
32 48 36
32 48 36
32 48 36
32 48 36
32 48 36
32 48 36
32 48 37
32 48 37
32 49 37
33 49 37
33 49 37
33 49 37
33 49 37
46 68 59
46 68 59
46 68 59
46 68 59
46 68 59
112 181 149
112 181 149
112 182 149
49 75 62
47 69 60
50 75 62
50 76 62
50 76 62
48 70 61
31 48 35
31 47 35
31 47 35
122 205 156
122 205 156
122 206 157
123 206 157
123 206 157
123 207 158
124 207 158
124 207 158
124 208 159
124 208 158
125 208 159
117 188 154
125 209 160
126 210 160
118 189 155
126 211 161
127 211 161
119 190 156
128 212 162
128 212 162
121 192 158
129 213 163
122 192 158
122 193 159
122 193 159
131 215 165
131 215 165
132 216 166
132 216 166
133 217 167
125 196 162
126 197 162
126 197 163
127 198 163
127 198 164
135 220 170
128 199 165
128 200 165
129 200 166
129 200 166
130 201 167
138 223 172
139 223 173
139 223 173
139 224 174
140 224 174
140 225 174
141 225 175
141 225 175
141 226 176
142 226 176
142 227 176
134 206 171
143 227 177
143 228 177
135 207 172
136 207 173
136 207 173
136 208 173
136 208 173
137 208 173
145 229 179
145 230 179
145 230 179
145 230 179
145 230 180
145 230 180
146 230 180
146 230 180
146 230 180
146 230 180
146 230 180
146 230 180
138 209 174
146 230 180
145 230 180
145 230 179
145 230 179
137 209 174
137 208 174
145 229 179
144 229 179
144 229 178
144 229 178
136 207 172
135 207 172
135 207 172
135 206 171
134 206 171
134 205 171
133 205 170
133 205 170
133 204 169
132 204 169
140 225 174
139 224 173
139 224 173
130 202 167
130 201 167
137 222 171
137 222 171
128 200 165
136 221 170
135 220 169
134 219 169
26 42 29
29 49 31
29 49 31
30 50 32
59 85 70
58 84 70
55 77 68
57 83 69
57 82 68
129 214 163
121 192 158
120 191 157
128 212 162
127 211 161
119 190 155
126 210 160
117 189 154
117 188 154
116 188 153
116 187 153
115 187 152
115 186 152
114 186 151
114 185 151
30 50 33
114 184 151
121 205 155
121 205 155
120 204 155
120 204 154
112 182 149
119 203 153
119 203 153
118 202 153
110 181 147
110 181 147
110 180 147
117 201 151
109 180 146
109 179 146
108 179 145
108 179 145
108 179 145
108 178 145
115 199 149
107 178 144
114 199 149
114 199 148
114 198 148
114 198 148
114 198 148
114 198 148
113 198 148
105 176 142
105 176 142
105 176 142
113 197 147
105 176 142
105 176 142
112 197 147
112 197 147
112 197 147
104 175 141
84 135 90
111 196 146
111 196 146
111 196 146
103 175 140
103 175 140
111 196 145
111 196 145
103 175 140
111 196 145
103 174 140
111 196 145
111 196 145
111 196 145
103 174 140
103 174 140
111 196 145
111 196 145
111 196 145
103 174 140
111 195 145
111 195 145
111 195 145
103 174 140
103 174 140
103 174 140
103 174 140
103 174 140
103 174 140
111 195 145
103 174 140
103 174 140
103 174 140
111 195 145
111 195 145
111 195 145
111 195 145
111 195 145
111 195 145
111 195 145
111 195 145
111 195 145
111 195 145
103 174 140
103 174 140
103 174 140
111 195 145
103 174 140
103 174 140
103 174 140
103 174 140
103 174 140
103 174 140
111 195 145
111 195 145
111 195 145
111 195 145
111 195 145
103 174 140
103 174 140
103 174 140
103 174 140
111 195 145
103 174 140
103 174 140
111 195 145
111 195 145
111 195 145
111 195 145
103 174 140
111 195 145
103 174 140
103 174 140
111 195 146
111 195 146
103 174 140
103 174 140
103 174 140
103 174 140
111 195 146
104 174 140
104 174 140
111 195 146
104 174 140
111 195 146
104 174 141
104 174 141
104 174 141
112 195 146
112 195 146
112 195 146
112 195 146
112 195 146
104 174 141
112 195 146
112 195 146
112 195 146
115 196 150
108 176 145
108 176 145
108 176 145
108 176 145
108 176 145
108 176 145
108 176 145
108 176 145
108 176 145
108 176 145
108 176 145
116 196 150
108 176 145
108 176 145
108 176 146
108 176 146
91 140 100
98 160 104
98 159 104
98 159 104
33 49 37
33 49 37
32 49 37
32 48 37
32 48 36
32 48 36
34 54 38
32 48 36
32 48 36
32 48 36
32 48 37
32 49 37
32 49 37
33 49 37
33 49 37
33 49 37
48 74 60
46 68 59
48 74 60
48 74 61
46 68 59
112 181 149
112 181 149
112 182 149
120 202 154
120 203 155
120 203 155
121 203 155
121 203 155
121 204 156
121 204 156
51 76 63
31 48 35
114 184 151
122 205 156
122 206 157
123 206 157
115 185 152
123 207 158
124 207 158
124 207 158
124 208 159
124 208 158
124 208 159
125 209 159
125 209 159
126 210 160
126 210 160
126 211 161
127 211 161
127 211 161
128 212 162
128 212 162
121 192 158
121 192 158
122 193 158
122 193 159
122 193 159
123 194 160
123 194 160
124 195 161
132 216 166
125 196 162
133 217 167
134 218 168
134 218 168
127 198 163
127 198 164
128 199 164
128 199 165
129 200 165
137 221 171
129 201 166
130 201 167
138 223 173
131 202 168
139 224 173
140 224 174
140 225 174
140 225 175
141 225 175
141 226 176
142 226 176
142 227 176
142 227 177
143 227 177
135 207 172
136 207 172
144 228 178
136 208 173
136 208 173
137 208 174
145 230 179
137 209 174
145 230 180
138 209 175
138 209 175
146 231 180
146 231 180
146 231 180
138 210 175
146 231 181
146 231 181
147 231 181
147 231 181
147 231 181
139 210 175
138 210 175
138 210 175
138 210 175
146 231 180
138 210 175
138 209 175
138 209 175
137 209 174
137 209 174
145 230 179
137 208 174
136 208 173
136 208 173
136 207 173
135 207 172
135 207 172
135 206 171
134 206 171
134 205 171
133 205 170
141 226 175
140 225 175
140 225 174
131 203 168
139 224 173
138 223 173
130 202 167
137 222 172
137 222 171
136 221 170
136 221 170
135 220 169
26 42 29
29 49 31
29 49 31
30 50 32
57 79 69
56 78 69
56 78 68
58 83 69
130 215 164
122 193 159
121 192 158
121 192 157
120 191 157
127 212 162
119 190 156
126 211 161
126 210 160
125 210 159
125 209 159
116 187 153
116 187 153
115 186 152
115 186 152
30 50 32
30 50 33
114 185 151
121 205 156
113 184 150
121 204 155
120 204 154
120 204 154
111 182 148
119 203 153
119 203 153
118 202 153
110 181 147
110 181 147
109 180 146
109 180 146
109 180 146
109 179 145
108 179 145
108 179 145
115 200 149
107 178 144
115 199 149
114 199 149
106 178 143
114 198 148
106 177 143
114 198 148
114 198 148
105 177 142
105 176 142
105 176 142
105 176 142
105 176 142
105 176 142
105 176 142
105 176 141
104 176 141
104 175 141
104 175 141
84 135 90
111 196 146
111 196 146
111 196 146
111 196 145
111 196 145
111 196 145
103 175 140
111 196 145
111 196 145
111 196 145
111 196 145
103 174 140
103 174 140
103 174 140
103 174 140
111 196 145
103 174 140
111 196 145
111 195 145
111 195 145
103 174 140
103 174 140
103 174 140
103 174 140
111 195 145
103 174 140
103 174 140
103 174 140
103 174 140
103 174 140
111 195 145
111 195 145
111 195 145
111 195 145
111 195 145
111 195 145
111 195 145
111 195 145
111 195 145
111 195 145
111 195 145
103 174 140
111 195 145
103 174 140
103 174 140
111 195 145
103 174 140
103 174 140
103 174 140
103 174 140
103 174 140
103 174 140
103 174 140
103 174 140
111 195 145
103 174 140
111 195 145
111 195 145
111 195 145
111 195 145
111 195 145
111 195 145
111 195 145
111 195 145
111 195 145
111 195 145
111 195 145
111 195 145
111 195 145
111 195 145
111 195 145
111 195 145
111 195 145
111 195 146
111 195 146
103 174 140
103 174 140
103 174 140
103 174 140
103 174 140
111 195 146
104 174 140
104 174 140
104 174 140
104 174 140
111 195 146
111 195 146
111 195 146
112 195 146
112 195 146
112 195 146
104 174 141
112 195 146
112 195 146
112 195 146
112 195 146
115 196 150
115 196 150
108 176 145
108 176 145
108 176 145
108 176 145
108 176 145
115 196 150
116 196 150
108 176 145
116 196 150
116 196 150
116 196 150
116 196 150
116 196 150
116 196 150
116 196 150
108 176 146
91 140 100
98 159 104
90 140 99
33 49 37
33 49 37
33 49 37
32 49 37
32 48 37
32 48 36
32 48 36
32 48 36
32 48 36
32 48 36
32 48 37
32 49 37
33 49 37
33 49 37
33 49 37
48 73 60
48 74 60
48 74 60
48 74 60
119 201 154
119 202 154
119 202 154
112 182 149
120 202 154
112 182 149
113 182 150
121 203 155
113 183 150
121 204 156
121 204 156
114 184 151
122 204 156
122 205 156
122 205 156
114 185 151
123 206 157
123 206 157
115 186 152
124 207 158
124 207 158
116 187 153
124 208 158
124 208 159
117 188 154
125 209 159
126 210 160
126 210 160
126 210 161
127 211 161
127 211 161
128 212 162
128 212 162
121 192 157
121 192 158
121 193 158
122 193 159
122 193 159
131 215 165
123 194 160
124 195 161
124 195 161
125 196 162
125 196 162
134 218 168
126 197 163
135 219 169
135 220 169
136 220 170
136 221 170
137 221 171
137 222 171
138 222 172
130 201 167
138 223 173
131 202 168
131 203 168
140 224 174
140 225 175
141 225 175
141 226 175
142 226 176
142 227 176
142 227 177
143 227 177
135 207 172
136 207 173
136 207 173
136 208 173
137 208 174
137 208 174
145 230 179
138 209 174
138 209 175
138 210 175
138 210 175
146 231 181
147 231 181
139 210 176
147 232 181
147 232 181
139 211 176
147 232 181
147 232 182
139 211 176
147 232 182
147 232 182
139 211 176
147 232 182
139 211 176
139 211 176
147 232 181
139 210 176
147 232 181
139 210 175
146 231 180
138 210 175
146 231 180
146 230 180
145 230 179
145 230 179
145 230 179
144 229 178
136 207 173
135 207 172
135 207 172
135 206 171
134 206 171
134 205 170
141 226 175
141 226 175
140 225 174
140 225 174
139 224 173
131 202 167
138 223 172
137 222 172
129 201 166
136 221 170
26 42 29
26 42 29
29 49 31
29 49 32
60 86 72
57 79 70
57 79 69
56 78 68
56 78 68
123 194 160
122 193 159
122 193 158
121 192 158
120 192 157
128 212 162
127 212 161
127 211 161
126 211 160
126 210 160
125 210 159
124 209 159
124 208 158
123 208 158
123 207 157
115 186 151
114 185 151
114 185 150
122 206 156
121 205 155
121 205 155
120 204 155
120 204 154
120 203 154
119 203 153
111 182 148
118 202 153
110 181 147
110 181 147
117 201 152
109 180 146
109 180 146
109 179 146
108 179 145
116 200 150
115 200 149
107 178 144
115 199 149
115 199 149
114 199 149
114 199 148
114 198 148
106 177 143
114 198 148
113 198 148
113 198 147
113 198 147
105 176 142
105 176 142
105 176 142
105 176 142
105 176 141
104 176 141
104 176 141
104 175 141
83 135 90
103 175 140
111 196 146
111 196 145
111 196 145
103 175 140
111 196 145
103 175 140
111 196 145
111 196 145
103 174 140
111 196 145
103 174 140
103 174 140
111 196 145
103 174 140
103 174 140
111 196 145
103 174 140
103 174 140
103 174 140
103 174 140
111 195 145
103 174 140
103 174 140
103 174 140
103 174 140
103 174 140
103 174 140
103 174 140
103 174 140
103 174 140
103 174 140
111 195 145
111 195 145
111 195 145
111 195 145
111 195 145
103 174 140
111 195 145
111 195 145
111 195 145
103 174 140
103 174 140
103 174 140
103 174 140
103 174 140
103 174 140
103 174 140
103 174 140
103 174 140
103 174 140
103 174 140
111 195 145
103 174 140
111 195 145
111 195 145
111 195 145
111 195 145
111 195 145
103 174 140
111 195 145
111 195 145
111 195 145
111 195 145
103 174 140
103 174 140
103 174 140
103 174 140
103 174 140
103 174 140
103 174 140
103 174 140
111 195 145
103 174 140
111 195 145
103 174 140
103 174 140
103 174 140
111 195 146
103 174 140
111 195 146
103 174 140
103 174 140
103 174 140
104 174 140
104 174 140
104 174 140
104 174 140
104 174 141
111 195 146
104 174 141
112 195 146
112 195 146
112 195 146
104 174 141
112 195 146
112 195 146
105 175 142
105 175 142
108 176 145
108 176 145
108 176 145
115 196 150
108 176 145
115 196 150
108 176 145
115 196 150
116 196 150
108 176 145
116 196 150
116 196 150
116 196 150
116 196 150
116 196 150
98 160 104
98 159 104
98 159 104
33 49 37
33 49 37
35 55 38
33 49 37
32 49 37
32 48 37
35 55 38
34 54 38
32 48 36
32 48 37
32 48 37
32 49 37
33 49 37
33 49 37
45 67 58
48 73 60
48 74 60
48 74 60
119 201 153
119 202 154
119 202 154
120 202 154
120 202 154
112 182 149
113 182 150
113 182 150
113 183 150
113 183 150
114 183 151
114 184 151
114 184 151
122 205 156
122 205 156
122 205 156
122 206 157
115 185 152
123 206 157
123 207 158
124 207 158
124 208 158
124 208 158
124 208 159
125 209 159
117 188 154
125 210 160
126 210 160
126 210 161
127 211 161
127 211 161
128 212 162
128 212 162
121 192 157
121 192 158
121 193 158
122 193 159
130 215 165
123 194 160
123 194 160
124 195 161
124 195 161
125 196 162
125 196 162
134 218 168
134 219 168
135 219 169
135 220 169
136 220 170
128 199 165
137 221 171
137 222 171
138 222 172
130 201 167
139 223 173
131 202 168
132 203 169
140 225 174
133 204 169
141 226 175
134 205 170
134 205 171
142 227 177
135 206 172
143 228 177
144 228 178
136 207 173
136 208 173
137 208 174
137 209 174
137 209 174
146 231 180
138 210 175
138 210 175
147 231 181
139 210 176
147 232 181
147 232 182
148 232 182
148 233 182
140 211 177
148 233 182
148 233 182
148 233 182
140 212 177
140 212 177
140 212 177
140 212 177
140 212 177
140 212 177
140 212 177
140 212 177
140 211 177
140 211 177
140 211 176
139 211 176
147 232 181
139 211 176
147 232 181
146 231 181
146 231 180
146 231 180
145 230 180
145 230 179
137 208 173
144 229 178
136 207 173
143 228 177
143 228 177
134 206 171
134 206 171
133 205 170
141 226 175
140 225 174
140 225 174
139 224 173
139 224 173
138 223 172
137 223 172
137 222 171
26 42 29
26 42 29
27 43 30
29 49 32
59 80 71
58 80 70
60 86 71
57 79 69
58 84 70
123 195 160
123 194 159
122 193 159
121 193 158
121 192 158
120 192 157
128 212 162
127 212 161
119 190 155
126 210 160
125 210 160
125 209 159
124 209 158
116 187 153
123 208 157
115 186 152
114 186 151
122 206 156
113 185 150
113 184 150
120 205 155
112 183 149
112 183 148
111 183 148
111 182 148
118 203 153
119 203 153
110 181 147
110 181 147
110 181 147
109 180 146
117 201 151
109 180 146
108 179 145
108 179 145
107 179 144
115 200 149
115 199 149
115 199 149
114 199 149
106 177 143
106 177 143
114 198 148
106 177 143
113 198 148
105 177 142
113 198 147
105 176 142
113 197 147
105 176 142
105 176 142
105 176 141
104 176 141
112 197 147
112 197 146
91 156 95
111 196 146
111 196 146
103 175 140
111 196 145
111 196 145
111 196 145
111 196 145
111 196 145
111 196 145
111 196 145
111 196 145
103 174 140
111 196 145
103 174 140
111 196 145
103 174 140
103 174 140
103 174 140
111 196 145
103 174 140
103 174 140
111 195 145
111 195 145
111 195 145
103 174 139
111 195 145
103 174 139
103 174 139
111 195 145
103 174 139
103 174 139
103 174 140
111 195 145
103 174 140
111 195 145
103 174 140
111 195 145
111 195 145
111 195 145
103 174 140
111 195 145
103 174 140
111 195 145
103 174 140
103 174 140
111 195 145
103 174 140
103 174 140
103 174 140
111 195 145
103 174 140
103 174 140
103 174 140
103 174 140
111 195 145
103 174 140
111 195 145
111 195 145
111 195 145
111 195 145
103 174 140
103 174 140
111 195 145
111 195 145
111 195 145
103 174 140
103 174 140
103 174 140
111 195 145
103 174 140
103 174 140
103 174 140
103 174 140
111 195 145
111 195 145
103 174 140
103 174 140
103 174 140
111 195 145
111 195 146
103 174 140
103 174 140
103 174 140
103 174 140
103 174 140
103 174 140
111 195 146
111 195 146
111 195 146
104 174 140
111 195 146
111 195 146
111 195 146
112 195 146
112 195 146
104 174 141
112 195 146
105 175 141
105 175 142
105 175 142
108 176 145
108 176 145
108 176 145
108 176 145
115 196 150
108 176 145
108 176 145
115 196 150
115 196 150
115 196 150
116 196 150
116 196 150
116 196 150
116 196 150
116 196 150
98 159 104
98 159 104
33 49 37
33 49 37
35 55 39
33 49 37
33 49 37
35 55 38
32 48 37
35 55 38
32 48 36
32 48 37
32 49 37
32 49 37
47 73 60
47 73 60
45 67 58
48 73 60
48 74 60
119 201 153
119 201 154
119 202 154
120 202 154
120 202 154
112 182 149
112 182 149
113 182 150
113 183 150
113 183 150
113 183 150
114 183 151
114 184 151
114 184 151
30 46 34
30 46 34
30 46 34
30 46 34
30 46 34
78 129 85
124 207 158
124 207 158
124 208 158
116 187 153
125 209 159
125 209 159
125 210 160
126 210 160
126 210 160
127 211 161
127 211 161
128 212 162
120 191 157
128 213 163
121 192 158
121 192 158
122 193 159
122 193 159
131 215 165
123 194 160
124 195 161
124 195 161
125 196 162
133 218 167
134 218 168
134 219 168
135 219 169
135 220 169
136 220 170
128 200 165
129 200 166
137 222 172
130 201 167
138 223 173
139 223 173
131 203 168
132 203 169
140 225 175
133 204 170
133 205 170
134 205 171
134 206 171
143 227 177
135 207 172
136 207 172
136 207 173
144 229 179
145 230 179
145 230 179
146 230 180
138 209 175
138 210 175
139 210 175
139 210 176
139 211 176
139 211 176
148 233 182
140 211 177
148 233 182
148 233 183
149 233 183
149 234 183
141 212 178
141 213 178
149 234 183
141 213 178
149 234 183
149 234 183
141 213 178
141 213 178
141 213 178
141 213 178
149 234 183
141 212 178
141 212 177
148 233 183
140 212 177
140 212 177
140 211 177
147 232 182
147 232 181
139 211 176
147 232 181
138 210 175
146 231 180
145 230 180
145 230 179
145 230 179
136 208 173
136 207 172
135 207 172
135 206 171
142 227 176
134 205 170
133 205 170
140 226 175
132 204 169
131 203 168
131 202 168
130 202 167
26 42 29
26 42 29
26 42 29
27 43 30
60 82 72
59 81 71
61 87 72
58 80 70
57 79 69
124 196 161
124 195 161
123 194 160
122 194 159
122 193 159
129 214 163
121 192 157
120 191 157
127 212 162
127 211 161
126 211 160
118 189 155
117 189 154
125 209 159
124 209 158
116 187 152
123 208 157
115 186 151
114 185 151
114 185 150
121 206 155
121 205 155
112 184 149
112 183 149
111 183 148
111 182 148
119 203 153
118 203 152
118 202 152
117 202 152
109 181 146
117 201 151
117 201 151
116 201 150
109 179 145
108 179 145
115 200 150
115 200 149
115 199 149
115 199 149
114 199 149
114 199 148
106 177 143
114 198 148
114 198 148
113 198 148
105 177 142
105 176 142
113 198 147
105 176 142
105 176 142
105 176 142
105 176 141
104 176 141
104 176 141
104 175 141
91 156 95
111 196 146
103 175 140
111 196 145
111 196 145
103 175 140
111 196 145
111 196 145
103 175 140
111 196 145
111 196 145
111 196 145
103 174 140
111 196 145
103 174 140
111 196 145
103 174 140
111 196 145
103 174 140
103 174 140
103 174 139
103 174 139
111 195 145
103 174 139
111 195 145
111 195 145
111 195 145
111 195 145
111 195 145
111 195 145
111 195 145
103 174 139
111 195 145
103 174 139
103 174 139
103 174 139
103 174 139
103 174 139
103 174 139
111 195 145
111 195 145
103 174 140
103 174 140
103 174 140
103 174 140
103 174 140
103 174 140
103 174 140
111 195 145
103 174 140
111 195 145
103 174 140
103 174 140
103 174 140
103 174 140
111 195 145
111 195 145
103 174 140
111 195 145
111 195 145
111 195 145
111 195 145
103 174 140
111 195 145
111 195 145
111 195 145
103 174 140
103 174 140
111 195 145
103 174 140
103 174 140
103 174 140
103 174 140
103 174 140
103 174 140
103 174 140
111 195 145
103 174 140
111 195 145
111 195 145
111 195 145
111 195 145
111 195 145
111 195 146
111 195 146
111 195 146
111 195 146
111 195 146
103 174 140
103 174 140
111 195 146
111 195 146
111 195 146
111 195 146
111 195 146
111 195 146
111 195 146
112 195 146
112 195 146
104 175 141
105 175 141
113 195 147
113 195 147
105 175 142
108 176 145
108 176 145
108 176 145
108 176 145
108 176 145
115 196 150
115 196 150
115 196 150
115 196 150
116 196 150
116 196 150
116 196 150
116 196 150
98 159 104
33 49 37
33 49 37
33 49 37
33 49 37
33 49 37
33 49 37
32 49 37
32 48 37
32 48 36
32 48 37
32 49 37
47 73 59
47 73 60
47 73 60
48 73 60
48 73 60
111 181 148
119 201 153
119 202 154
119 202 154
120 202 154
112 182 149
112 182 149
113 182 150
113 183 150
113 183 150
113 183 150
114 183 151
114 184 151
122 205 156
122 205 157
123 205 157
30 46 34
30 46 34
30 46 34
30 46 34
30 46 34
30 46 33
28 44 31
28 44 31
125 209 159
125 209 159
125 209 160
126 210 160
126 210 160
127 211 161
127 211 161
127 212 162
128 212 162
120 191 157
121 192 158
121 192 158
122 193 159
122 193 159
123 194 160
123 194 160
124 195 161
124 195 161
125 196 162
125 196 162
134 218 168
134 219 168
135 219 169
135 220 169
136 220 170
136 221 171
137 221 171
137 222 172
138 222 172
130 202 167
139 224 173
131 203 168
132 203 169
133 204 169
133 204 170
133 205 170
134 205 171
134 206 171
135 206 172
135 207 172
136 207 173
136 208 173
137 208 174
145 230 179
138 209 174
138 209 175
146 231 181
147 231 181
147 232 181
139 211 176
148 233 182
148 233 182
148 233 182
149 233 183
149 234 183
141 213 178
141 213 178
149 234 184
150 234 184
150 235 184
142 213 179
142 213 179
150 235 184
150 235 184
142 214 179
142 214 179
142 214 179
142 214 179
142 213 179
142 213 179
142 213 178
141 213 178
149 234 183
141 213 178
141 212 178
149 234 183
148 233 182
148 233 182
148 233 182
147 232 181
147 232 181
147 232 181
146 231 180
146 231 180
137 209 174
145 230 179
136 208 173
136 208 173
135 207 172
143 228 177
134 206 171
134 205 170
133 205 170
132 204 169
132 204 169
131 203 168
131 202 168
26 42 29
26 42 29
27 42 29
27 43 30
63 88 74
60 81 72
61 87 73
58 80 70
58 79 70
125 196 162
124 195 161
123 195 160
131 215 165
122 194 159
130 214 164
129 214 163
128 213 163
128 212 162
127 212 161
127 211 161
118 189 155
125 210 160
125 210 159
124 209 159
116 187 153
123 208 157
115 186 152
114 186 151
114 185 151
113 185 150
113 184 150
112 184 149
112 183 149
120 204 154
119 204 153
119 203 153
118 203 153
118 203 152
118 202 152
109 181 146
117 202 151
109 180 146
116 201 151
108 179 145
116 200 150
107 179 144
107 179 144
107 178 144
107 178 144
107 178 143
114 199 148
114 199 148
106 177 143
106 177 143
114 198 148
105 177 142
113 198 147
105 176 142
105 176 142
105 176 142
105 176 142
105 176 141
104 176 141
112 197 147
104 176 141
91 156 95
111 196 146
111 196 146
111 196 145
111 196 145
111 196 145
111 196 145
111 196 145
111 196 145
111 196 145
111 196 145
111 196 145
103 174 140
103 174 140
103 174 140
103 174 140
103 174 140
111 196 145
103 174 139
103 174 139
103 174 139
111 195 145
111 195 145
111 195 145
111 195 145
103 174 139
111 195 145
111 195 145
103 174 139
111 195 145
111 195 145
111 195 145
103 174 139
103 174 139
103 174 139
111 195 145
103 174 139
103 174 139
103 174 139
103 174 139
103 174 139
103 174 139
103 174 139
103 174 139
103 174 140
103 174 140
103 174 140
103 174 140
111 195 145
103 174 140
103 174 140
103 174 140
103 174 140
103 174 140
103 174 140
103 174 140
111 195 145
111 195 145
111 195 145
111 195 145
111 195 145
111 195 145
111 195 145
111 195 145
111 195 145
111 195 145
111 195 145
103 174 140
103 174 140
103 174 140
103 174 140
103 174 140
103 174 140
103 174 140
103 174 140
103 174 140
103 174 140
103 174 140
111 195 145
111 195 145
111 195 145
111 195 145
111 195 145
111 195 145
111 195 145
111 195 146
111 195 146
103 174 140
111 195 146
111 195 146
103 174 140
103 174 140
103 174 140
104 174 140
111 195 146
104 174 140
104 174 140
111 195 146
111 195 146
112 195 146
112 195 147
104 175 141
113 195 147
113 195 147
115 195 150
108 176 145
115 195 150
115 196 150
115 196 150
115 196 150
115 196 150
108 176 145
115 196 150
115 196 150
115 196 150
115 196 150
116 196 150
98 159 104
46 72 58
46 72 58
46 72 59
46 72 59
46 72 59
46 72 59
35 55 38
35 55 38
32 48 37
32 48 37
47 73 59
45 67 58
47 73 60
47 73 60
48 73 60
119 201 153
119 201 153
119 202 154
119 202 154
112 181 149
112 182 149
112 182 149
113 182 149
113 182 150
113 183 150
121 204 155
114 183 150
114 184 151
114 184 151
122 205 156
115 185 152
123 205 157
30 46 34
30 46 34
30 46 34
30 46 34
30 46 34
30 46 34
125 208 159
28 44 31
28 44 31
30 50 33
30 50 33
28 44 31
28 44 31
28 44 31
77 128 84
128 212 162
120 191 157
121 192 158
129 214 163
122 193 159
122 193 159
123 194 160
131 216 165
124 195 161
124 195 161
125 196 162
125 196 162
134 218 168
134 219 168
135 219 169
135 220 170
136 220 170
136 221 171
137 221 171
137 222 172
138 223 172
138 223 173
139 224 173
132 203 168
132 203 169
133 204 169
133 205 170
142 226 176
142 227 176
135 206 172
135 207 172
136 207 173
136 208 173
145 229 179
145 230 179
145 230 180
138 209 175
146 231 181
147 232 181
147 232 181
139 211 176
148 233 182
148 233 182
149 233 183
149 234 183
141 213 178
141 213 178
142 213 178
142 213 179
142 214 179
150 235 184
142 214 179
151 235 185
151 236 185
151 236 185
151 236 185
151 236 185
151 236 185
143 215 180
143 214 180
143 214 180
143 214 180
143 214 179
142 214 179
142 214 179
142 214 179
142 214 179
150 235 184
149 234 184
141 213 178
149 234 183
140 212 177
148 233 182
148 233 182
147 232 182
139 211 176
146 232 181
146 231 180
146 231 180
137 209 174
137 208 173
136 208 173
135 207 172
135 207 172
134 206 171
134 206 171
133 205 170
133 204 169
140 225 174
28 48 30
26 42 29
26 42 29
27 43 29
64 90 75
63 89 74
62 88 74
59 81 71
59 81 71
134 219 168
125 197 162
133 217 167
132 217 166
123 195 160
131 215 165
130 215 164
129 214 164
129 213 163
128 213 162
128 212 162
127 212 161
126 211 161
126 210 160
125 210 159
125 209 159
116 188 153
116 187 152
115 186 152
115 186 151
114 185 151
114 185 150
113 184 150
113 184 149
120 205 154
112 183 149
111 183 148
111 182 148
118 203 153
118 203 152
110 181 147
109 181 146
117 202 151
117 201 151
116 201 151
108 180 145
116 200 150
108 179 144
107 179 144
107 178 144
107 178 144
107 178 143
114 199 149
106 177 143
106 177 143
106 177 143
106 177 142
113 198 148
113 198 147
105 176 142
105 176 142
105 176 142
105 176 142
105 176 141
112 197 147
104 176 141
104 176 141
91 156 94
103 175 140
111 196 146
111 196 145
111 196 145
111 196 145
111 196 145
111 196 145
111 196 145
111 196 145
111 196 145
111 196 145
103 174 140
111 196 145
103 174 140
103 174 140
103 174 139
103 174 139
103 174 139
103 174 139
111 196 145
103 174 139
103 174 139
111 195 145
111 195 145
111 195 145
111 195 145
110 195 145
110 195 145
110 195 145
103 174 139
110 195 145
110 195 145
110 195 145
110 195 145
103 174 139
103 174 139
111 195 145
103 174 139
103 174 139
103 174 139
103 174 139
111 195 145
111 195 145
103 174 139
111 195 145
111 195 145
111 195 145
111 195 145
111 195 145
111 195 145
111 195 145
111 195 145
103 174 140
103 174 140
103 174 140
111 195 145
111 195 145
111 195 145
111 195 145
111 195 145
111 195 145
111 195 145
103 174 140
111 195 145
111 195 145
111 195 145
103 174 140
103 174 140
103 174 140
103 174 140
103 174 140
103 174 140
103 174 140
103 174 140
103 174 140
103 174 140
103 174 140
111 195 145
111 195 145
111 195 145
103 174 140
111 195 145
111 195 145
111 195 145
111 195 145
111 195 145
103 174 140
111 195 146
103 174 140
111 195 146
111 195 146
103 174 140
103 174 140
103 174 140
104 174 140
104 174 140
104 174 140
111 195 146
104 174 140
111 195 146
111 195 146
112 195 146
112 195 146
112 195 146
108 176 145
115 195 150
115 195 150
115 195 150
115 196 150
108 176 145
115 196 150
108 176 145
108 176 145
108 176 145
108 176 145
108 176 145
115 196 150
44 66 57
46 72 58
46 72 58
46 72 59
44 66 57
46 72 59
47 72 59
47 72 59
47 72 59
45 66 58
45 67 58
45 67 58
47 73 60
118 201 153
119 201 153
119 201 153
119 201 153
119 202 154
112 181 149
112 182 149
112 182 149
112 182 149
113 182 150
113 183 150
113 183 150
113 183 150
114 184 151
114 184 151
114 184 151
122 205 157
123 205 157
123 206 157
30 46 34
30 46 34
30 46 34
30 46 34
30 46 34
117 187 154
117 188 154
31 51 33
28 44 31
28 44 31
28 44 31
28 44 31
28 44 31
28 44 31
28 44 31
128 212 162
129 213 163
129 213 163
130 214 164
130 214 164
131 215 165
123 194 160
124 195 160
124 195 161
125 196 162
125 196 162
134 218 168
134 219 168
135 219 169
135 220 169
136 220 170
136 221 171
137 221 171
137 222 172
138 223 172
139 223 173
139 224 173
132 203 169
132 204 169
133 204 170
133 205 170
134 205 171
134 206 171
135 206 172
143 228 178
136 207 173
144 229 179
137 208 174
145 230 179
138 209 175
146 231 180
139 210 176
147 232 181
147 232 182
148 233 182
148 233 182
149 234 183
149 234 183
141 213 178
150 235 184
142 214 179
142 214 179
150 235 185
143 214 180
143 215 180
151 236 185
143 215 180
143 215 180
143 215 180
144 215 180
152 237 186
144 215 181
152 237 186
144 215 181
144 215 180
152 237 186
144 215 180
143 215 180
143 215 180
151 236 185
143 215 180
143 214 180
150 236 185
150 235 184
150 235 184
150 235 184
149 234 183
149 234 183
140 212 177
148 233 182
148 233 182
147 232 181
147 232 181
138 210 175
138 210 175
137 209 174
137 209 174
136 208 173
136 207 172
135 207 172
134 206 171
142 227 176
133 205 170
133 204 169
28 48 30
26 42 29
26 42 29
27 43 29
62 84 74
61 83 73
63 89 74
62 88 73
62 87 73
134 219 169
134 218 168
125 196 162
132 217 167
132 216 166
123 194 160
122 194 159
122 193 159
129 214 163
121 192 157
128 213 162
127 212 161
127 211 161
126 211 160
125 210 160
125 210 159
116 188 153
116 187 153
115 187 152
115 186 152
122 207 156
114 185 151
113 185 150
113 184 150
112 184 149
112 183 149
119 204 154
111 182 148
119 203 153
118 203 152
118 203 152
118 202 152
117 202 151
109 180 146
109 180 145
116 201 150
108 179 145
108 179 145
107 179 144
107 179 144
107 178 144
107 178 143
106 178 143
106 178 143
114 199 148
114 198 148
106 177 142
113 198 148
113 198 147
113 198 147
113 198 147
113 197 147
113 197 147
113 197 147
112 197 147
112 197 147
104 176 141
83 135 89
103 175 140
103 175 140
103 175 140
103 175 140
103 175 140
111 196 145
103 175 140
111 196 145
111 196 145
103 175 140
111 196 145
103 174 140
103 174 140
111 196 145
103 174 139
103 174 139
103 174 139
103 174 139
103 174 139
111 196 145
103 174 139
102 174 139
102 174 139
110 195 145
110 195 145
102 174 139
110 195 145
110 195 145
110 195 145
110 195 145
110 195 145
110 195 145
110 195 145
102 174 139
102 174 139
110 195 145
102 174 139
102 174 139
110 195 145
103 174 139
111 195 145
103 174 139
103 174 139
103 174 139
111 195 145
111 195 145
111 195 145
111 195 145
111 195 145
111 195 145
111 195 145
111 195 145
111 195 145
111 195 145
111 195 145
103 174 140
103 174 140
103 174 140
103 174 140
111 195 145
111 195 145
111 195 145
111 195 145
111 195 145
111 195 145
111 195 145
103 174 140
103 174 140
103 174 140
103 174 140
103 174 140
111 195 145
111 195 145
111 195 145
103 174 140
103 174 140
103 174 140
111 195 145
111 195 145
111 195 145
111 195 145
111 195 145
111 195 145
111 195 145
111 195 145
111 195 145
111 195 145
111 195 145
111 195 145
103 174 140
111 195 146
103 174 140
103 174 140
103 174 140
103 174 140
103 174 140
103 174 140
104 174 140
104 174 140
104 174 140
111 195 146
111 195 146
111 195 146
112 195 146
112 195 146
112 195 146
112 195 146
112 195 146
112 195 146
112 195 146
112 195 146
108 176 145
108 176 145
108 176 145
108 176 145
108 176 145
108 176 145
44 65 57
46 72 58
46 72 58
46 72 59
46 72 59
46 72 59
44 66 57
44 66 57
44 66 58
45 66 58
45 67 58
45 67 58
111 180 148
111 180 148
119 201 153
111 181 148
119 202 153
112 181 149
112 182 149
112 182 149
112 182 149
120 203 155
113 183 150
113 183 150
121 204 155
114 183 150
114 184 151
114 184 151
122 205 157
122 205 157
123 206 157
52 77 64
52 78 64
30 46 34
30 46 34
30 46 34
116 187 153
125 208 159
125 209 159
28 44 32
28 44 32
28 44 31
28 44 31
28 44 31
28 44 31
28 44 31
128 212 162
128 213 163
129 213 163
122 193 158
130 214 164
130 215 165
131 215 165
131 216 166
132 217 166
133 217 167
133 218 167
126 197 163
126 197 163
135 219 169
135 220 169
136 220 170
136 221 171
137 222 171
129 201 166
138 223 172
131 202 167
139 224 173
132 203 169
132 204 169
133 204 170
133 205 170
134 205 171
142 227 177
135 206 172
143 228 178
144 229 178
137 208 173
137 209 174
146 230 180
146 231 180
146 231 181
147 232 181
147 232 182
148 233 182
148 233 182
149 234 183
149 234 183
149 234 184
150 235 184
150 235 184
142 214 179
143 214 180
143 215 180
143 215 180
143 215 180
144 215 181
152 237 186
152 237 186
144 216 181
144 216 181
144 216 181
152 238 187
145 216 181
153 238 187
145 216 181
152 238 187
152 238 187
152 237 187
152 237 186
152 237 186
152 237 186
152 237 186
152 237 186
151 236 185
151 236 185
143 214 180
150 236 185
150 235 184
150 235 184
149 234 183
149 234 183
148 234 183
148 233 182
139 211 176
139 211 176
138 210 175
146 231 180
145 231 180
137 209 174
136 208 173
136 207 172
135 207 172
134 206 171
134 206 171
28 48 30
28 48 30
26 42 29
26 42 29
65 91 77
65 91 76
62 84 74
63 89 75
63 89 74
62 88 73
135 220 169
134 219 168
133 218 168
133 218 167
124 196 161
131 216 166
123 194 160
122 194 159
121 193 158
121 192 158
120 192 157
120 191 156
119 190 156
118 190 155
118 189 155
117 189 154
117 188 154
116 188 153
116 187 152
115 186 152
114 186 151
114 185 151
113 185 150
113 184 150
113 184 149
120 205 154
120 204 154
119 204 153
119 204 153
118 203 153
118 203 152
110 181 147
117 202 151
109 180 146
117 201 151
116 201 150
108 179 145
116 200 150
107 179 144
107 179 144
107 178 144
115 199 149
106 178 143
114 199 148
106 177 143
106 177 143
114 198 148
105 177 142
113 198 147
113 198 147
113 198 147
113 197 147
113 197 147
113 197 147
112 197 147
112 197 147
112 197 146
103 175 140
111 197 146
103 175 140
103 175 140
103 175 140
111 196 145
103 175 140
103 175 140
103 175 140
103 175 140
103 175 140
103 174 140
103 174 140
111 196 145
103 174 139
103 174 139
103 174 139
103 174 139
103 174 139
111 196 145
111 196 145
102 174 139
102 174 139
110 195 145
110 195 145
110 195 145
110 195 145
110 195 145
110 195 145
110 195 145
110 195 145
102 174 139
110 195 145
110 195 145
102 174 139
102 174 139
102 174 139
102 174 139
102 174 139
102 174 139
102 174 139
110 195 145
110 195 145
102 174 139
110 195 145
110 195 145
111 195 145
111 195 145
111 195 145
111 195 145
111 195 145
103 174 139
111 195 145
103 174 139
111 195 145
111 195 145
103 174 140
103 174 140
103 174 140
103 174 140
103 174 140
103 174 140
103 174 140
103 174 140
103 174 140
103 174 140
103 174 140
103 174 140
111 195 145
103 174 140
103 174 140
103 174 140
111 195 145
103 174 140
103 174 140
103 174 140
103 174 140
103 174 140
111 195 145
103 174 140
111 195 145
103 174 140
111 195 145
111 195 145
111 195 145
103 174 140
111 195 145
111 195 145
111 195 145
111 195 145
111 195 145
103 174 140
103 174 140
111 195 146
111 195 146
103 174 140
103 174 140
103 174 140
103 174 140
103 174 140
104 174 140
111 195 146
111 195 146
111 195 146
111 195 146
111 195 146
111 195 146
112 195 146
112 195 146
112 195 146
112 195 146
112 195 146
108 176 145
108 176 145
108 176 145
108 176 145
108 176 145
108 176 145
46 72 58
46 72 58
46 72 58
46 72 58
46 72 59
46 72 59
44 66 57
47 72 59
44 66 57
45 66 58
45 67 58
111 180 147
118 201 153
111 181 148
111 181 148
119 202 153
119 202 154
119 202 154
120 202 154
120 203 154
120 203 154
120 203 155
121 203 155
121 204 155
113 183 150
114 184 151
122 205 156
122 205 156
122 205 157
123 206 157
123 206 157
123 206 158
124 207 158
31 47 34
124 207 158
124 208 158
125 208 159
117 188 154
125 209 160
126 209 160
28 44 32
28 44 32
28 44 31
28 44 31
28 44 31
128 212 162
128 213 163
121 192 158
129 214 164
130 214 164
122 194 159
131 215 165
131 216 166
132 216 166
132 217 167
133 218 167
126 197 162
126 197 163
127 198 164
127 199 164
128 199 165
128 200 165
129 200 166
137 222 172
138 223 172
139 223 173
139 224 173
132 203 169
132 204 169
141 226 175
133 205 170
134 205 171
135 206 171
143 228 177
136 207 172
136 208 173
137 208 174
137 209 174
138 209 175
146 231 180
139 210 176
139 211 176
148 233 182
148 233 182
149 233 183
149 234 183
141 213 178
150 235 184
150 235 184
151 236 185
143 215 180
143 215 180
144 215 180
144 215 181
144 216 181
144 216 181
145 216 181
145 216 182
145 217 182
145 217 182
145 217 182
153 238 187
153 238 187
153 238 188
153 238 188
153 238 188
153 238 187
153 238 187
153 238 187
153 238 187
153 238 187
153 238 187
145 216 181
152 238 186
144 216 181
144 216 181
143 215 180
151 236 185
151 236 185
150 236 185
150 235 184
150 235 184
149 234 183
149 234 183
140 212 177
140 212 177
139 211 176
147 232 181
138 210 175
137 209 174
137 209 174
144 230 178
136 208 172
135 207 172
134 206 171
28 48 30
28 48 30
26 42 29
26 42 29
66 92 77
65 91 76
64 90 76
64 90 75
63 89 74
136 221 170
135 220 169
135 219 169
134 219 168
133 218 167
133 217 167
124 195 161
123 195 160
131 215 165
130 215 164
121 193 158
121 192 157
120 191 157
119 191 156
127 211 161
118 190 155
29 49 31
29 49 31
29 49 31
29 49 31
29 49 31
29 49 31
122 207 156
122 206 156
113 185 150
121 206 155
120 205 154
120 205 154
119 204 154
119 204 153
119 203 153
118 203 152
118 203 152
117 202 152
117 202 151
117 201 151
116 201 151
108 180 145
108 179 145
108 179 144
115 200 149
107 178 144
107 178 144
107 178 143
106 178 143
106 178 143
106 177 143
114 198 148
113 198 148
113 198 147
113 198 147
113 198 147
113 198 147
113 197 147
113 197 147
112 197 147
112 197 147
112 197 146
103 175 140
103 175 140
103 175 140
103 175 140
111 196 145
103 175 140
111 196 145
103 175 140
103 175 140
111 196 145
103 175 140
103 174 140
111 196 145
111 196 145
111 196 145
111 196 145
111 196 145
111 196 145
111 196 145
110 196 145
110 196 145
110 195 145
102 174 139
110 195 145
110 195 145
110 195 145
110 195 145
110 195 145
110 195 145
110 195 145
110 195 145
102 174 139
110 195 145
110 195 145
102 174 139
102 174 139
110 195 145
102 174 139
102 174 139
102 174 139
110 195 145
102 174 139
102 174 139
102 174 139
110 195 145
110 195 145
110 195 145
102 174 139
103 174 139
110 195 145
111 195 145
111 195 145
111 195 145
103 174 139
103 174 139
111 195 145
111 195 145
103 174 139
103 174 140
103 174 140
103 174 140
103 174 140
103 174 140
103 174 140
103 174 140
103 174 140
103 174 140
111 195 145
111 195 145
111 195 145
103 174 140
111 195 145
103 174 140
111 195 145
111 195 145
103 174 140
103 174 140
103 174 140
103 174 140
111 195 145
111 195 145
103 174 140
111 195 145
103 174 140
111 195 145
111 195 145
111 195 145
111 195 145
111 195 145
111 195 145
111 195 145
103 174 140
103 174 140
103 174 140
103 174 140
103 174 140
103 174 140
111 195 146
111 195 146
103 174 140
103 174 140
103 174 140
111 195 146
111 195 146
104 174 140
111 195 146
111 195 146
104 174 141
111 195 146
112 195 146
104 174 141
112 195 146
112 195 146
107 175 144
107 175 144
108 176 145
108 176 145
108 176 145
46 72 58
46 72 58
46 72 58
46 72 58
44 66 57
44 66 57
44 66 57
44 66 57
44 66 57
47 73 59
110 180 147
111 180 148
111 180 148
111 181 148
111 181 148
119 202 153
119 202 154
120 202 154
112 182 149
120 203 154
120 203 155
120 203 155
121 204 155
121 204 155
121 204 156
114 184 151
114 184 151
114 184 151
115 185 152
115 185 152
123 206 158
123 206 158
124 207 158
124 207 158
124 208 158
124 208 159
125 208 159
125 209 159
126 209 160
126 210 160
28 44 32
28 44 32
28 44 32
28 44 32
128 212 162
128 213 162
129 213 163
129 214 163
130 214 164
130 215 164
131 215 165
123 195 160
132 216 166
132 217 167
133 217 167
125 197 162
126 197 163
127 198 163
135 220 169
128 199 165
128 200 165
129 200 166
129 201 166
130 201 167
131 202 167
131 203 168
140 224 174
132 204 169
141 226 175
141 226 176
134 206 171
143 227 177
135 207 172
136 207 173
136 208 173
137 208 174
137 209 174
146 231 180
138 210 175
147 232 181
147 232 182
148 233 182
148 233 183
149 234 183
141 213 178
150 235 184
142 214 179
151 236 185
151 236 185
143 215 180
144 215 180
144 216 181
144 216 181
145 216 181
145 217 182
145 217 182
145 217 182
145 217 182
146 217 183
146 218 183
154 239 188
146 218 183
154 239 188
154 239 188
154 239 188
154 239 188
154 239 188
154 239 188
146 218 183
146 218 183
154 239 188
154 239 188
145 217 182
153 238 187
145 217 182
145 216 181
144 216 181
144 216 181
144 215 180
143 215 180
143 215 180
142 214 179
142 214 179
28 48 30
83 149 87
140 212 177
148 233 182
139 211 176
139 211 176
138 210 175
138 209 174
145 230 179
136 208 173
136 208 172
28 48 29
28 48 30
28 48 30
29 49 30
26 42 29
66 92 78
66 92 77
65 91 76
64 90 75
64 89 75
136 221 171
136 221 170
135 220 169
134 219 169
134 218 168
133 218 167
132 217 166
124 195 160
123 194 160
122 194 159
122 193 158
121 192 158
120 192 157
120 191 156
119 191 156
118 190 155
29 49 31
29 49 31
29 49 31
29 49 31
29 49 31
29 49 31
29 49 31
29 49 31
29 49 31
29 49 31
26 42 29
26 42 29
26 42 29
119 204 153
119 204 153
118 203 152
118 203 152
118 202 152
117 202 151
117 202 151
116 201 151
108 180 145
108 179 145
108 179 144
107 179 144
107 179 144
107 178 144
107 178 143
114 199 149
106 178 143
114 199 148
114 198 148
113 198 148
113 198 148
113 198 147
113 198 147
105 176 142
105 176 142
105 176 141
112 197 147
104 176 141
112 197 146
112 197 146
103 175 140
103 175 140
103 175 140
111 196 145
103 175 140
103 175 140
103 175 140
111 196 145
111 196 145
103 175 140
103 174 140
111 196 145
111 196 145
111 196 145
111 196 145
103 174 139
111 196 145
110 196 145
110 196 145
110 196 145
110 196 145
110 195 145
102 174 139
102 174 139
102 174 139
102 174 139
102 174 139
102 174 139
102 174 139
110 195 145
110 195 145
110 195 145
102 174 139
102 174 139
102 174 139
102 174 139
102 174 139
110 195 145
110 195 145
110 195 145
102 174 139
102 174 139
102 174 139
110 195 145
102 174 139
110 195 145
102 174 139
110 195 145
110 195 145
102 174 139
110 195 145
110 195 145
111 195 145
111 195 145
111 195 145
111 195 145
103 174 139
103 174 139
111 195 145
103 174 139
103 174 140
103 174 140
103 174 140
103 174 140
103 174 140
111 195 145
103 174 140
111 195 145
111 195 145
111 195 145
111 195 145
111 195 145
111 195 145
111 195 145
111 195 145
111 195 145
111 195 145
111 195 145
111 195 145
103 174 140
103 174 140
103 174 140
111 195 145
111 195 145
111 195 145
111 195 145
111 195 145
111 195 145
111 195 145
111 195 145
103 174 140
103 174 140
103 174 140
103 174 140
111 195 145
103 174 140
103 174 140
103 174 140
111 195 146
103 174 140
103 174 140
103 174 140
111 195 146
111 195 146
111 195 146
111 195 146
111 195 146
104 174 140
111 195 146
111 195 146
104 174 141
112 195 146
112 195 146
104 175 141
105 175 141
107 175 144
107 175 144
117 199 151
117 199 151
46 72 58
44 66 57
44 66 57
44 66 57
44 66 57
47 72 59
110 180 147
110 180 147
110 180 147
111 180 148
111 181 148
119 201 153
119 202 153
111 181 148
112 182 149
120 202 154
112 182 149
120 203 154
120 203 155
113 183 150
121 204 155
113 183 150
114 184 151
114 184 151
114 184 151
115 185 152
115 185 152
115 185 152
123 206 158
124 207 158
124 207 158
124 208 158
124 208 159
125 208 159
125 209 159
125 209 160
126 210 160
126 210 161
77 129 84
28 44 32
28 44 32
128 212 162
128 213 162
129 213 163
129 214 163
130 214 164
122 193 159
131 215 165
131 216 165
132 216 166
132 217 166
133 217 167
133 218 168
126 197 163
126 198 163
127 198 164
128 199 164
128 200 165
129 200 166
129 201 166
130 201 167
130 202 167
131 203 168
140 224 174
132 204 169
141 226 175
141 226 176
142 227 176
135 206 171
143 228 177
144 229 178
144 229 179
137 208 174
145 230 180
146 231 180
139 210 175
147 232 181
148 233 182
140 212 177
141 212 177
149 234 183
150 235 184
150 235 184
150 235 185
151 236 185
143 215 180
144 215 181
144 216 181
144 216 181
153 238 187
145 217 182
145 217 182
146 217 182
146 218 183
146 218 183
154 239 188
146 218 183
147 218 183
155 240 189
155 240 189
147 219 184
155 240 189
155 240 189
155 240 189
155 240 189
155 240 189
155 240 189
155 240 189
146 218 183
146 218 183
154 239 188
146 218 183
146 217 182
145 217 182
145 217 182
145 217 181
144 216 181
144 216 181
152 237 186
143 215 180
83 149 87
28 48 30
28 48 30
28 48 30
28 48 30
28 48 29
28 48 29
28 48 29
25 41 28
83 149 87
145 230 179
136 208 173
28 48 29
28 48 30
28 48 30
29 49 31
68 93 79
67 93 78
64 86 76
65 91 77
65 91 76
130 201 166
137 222 171
136 221 170
127 199 164
135 220 169
134 219 168
125 197 162
125 196 161
124 195 161
123 195 160
131 215 165
122 193 159
121 193 158
121 192 157
120 191 157
119 191 156
29 49 31
29 49 31
29 49 31
29 49 31
29 49 31
29 49 31
29 49 31
29 49 31
29 49 31
29 49 31
29 49 31
27 43 29
27 43 29
27 42 29
27 42 29
26 42 29
26 42 29
26 42 29
26 42 29
26 42 29
76 128 82
117 201 151
108 180 145
108 179 145
108 179 145
107 179 144
107 179 144
107 178 144
107 178 143
106 178 143
106 178 143
106 177 143
114 199 148
114 198 148
113 198 148
105 177 142
113 198 147
105 176 142
113 197 147
113 197 147
104 176 141
104 176 141
112 197 146
103 175 140
103 175 140
103 175 140
103 175 140
103 175 140
111 196 145
103 175 140
111 196 145
103 175 140
103 175 140
103 175 140
103 174 140
111 196 145
111 196 145
111 196 145
103 174 139
111 196 145
110 196 145
110 196 145
110 196 145
102 174 139
110 196 145
110 195 145
102 174 139
102 174 139
102 174 139
110 195 144
102 174 139
102 174 139
102 174 139
110 195 144
102 174 139
102 174 139
102 174 139
102 174 139
110 195 144
110 195 144
110 195 144
102 174 139
102 174 139
102 174 139
102 174 139
102 174 139
102 174 139
102 174 139
110 195 145
110 195 145
102 174 139
110 195 145
110 195 145
110 195 145
102 174 139
110 195 145
110 195 145
110 195 145
110 195 145
110 195 145
103 174 139
103 174 139
103 174 139
103 174 139
103 174 139
103 174 139
111 195 145
103 174 140
103 174 140
103 174 140
103 174 140
103 174 140
103 174 140
111 195 145
111 195 145
111 195 145
111 195 145
111 195 145
103 174 140
103 174 140
111 195 145
111 195 145
111 195 145
103 174 140
103 174 140
103 174 140
103 174 140
103 174 140
111 195 145
103 174 140
103 174 140
103 174 140
103 174 140
103 174 140
111 195 145
103 174 140
103 174 140
103 174 140
103 174 140
111 195 145
103 174 140
103 174 140
103 174 140
103 174 140
103 174 140
103 174 140
111 195 146
111 195 146
111 195 146
111 195 146
111 195 146
111 195 146
111 195 146
111 195 146
111 195 146
111 195 146
111 195 146
112 195 147
104 175 141
107 175 144
107 175 144
117 199 151
117 199 151
109 179 146
109 179 146
117 200 152
110 179 147
110 180 147
110 180 147
110 180 147
110 180 147
118 201 153
111 181 148
119 201 153
119 202 153
119 202 153
119 202 154
119 202 154
120 203 154
120 203 154
120 203 155
120 203 155
121 204 155
121 204 155
121 204 156
122 205 156
114 184 151
122 205 157
115 185 152
115 185 152
115 186 152
124 207 158
116 186 153
29 45 33
29 45 33
29 45 33
29 45 32
78 129 85
126 209 160
126 210 160
119 189 156
127 211 161
29 45 32
127 212 162
128 212 162
128 213 163
129 213 163
121 193 158
130 214 164
130 215 165
131 216 165
132 216 166
132 217 166
133 217 167
125 197 162
134 218 168
134 219 168
127 198 164
135 220 170
136 221 170
129 200 165
129 201 166
130 201 167
130 202 167
131 202 168
132 203 168
140 225 174
141 226 175
133 205 170
142 227 176
143 227 177
143 228 177
144 229 178
144 229 179
145 230 179
146 230 180
146 231 180
139 210 175
139 211 176
140 211 177
148 233 182
141 212 178
141 213 178
142 213 179
142 214 179
143 214 180
151 236 185
152 237 186
152 237 186
144 216 181
145 217 182
145 217 182
146 217 182
154 239 188
146 218 183
146 218 183
147 218 183
147 219 184
147 219 184
147 219 184
155 241 190
156 241 190
156 241 190
156 241 190
156 241 190
148 220 185
156 241 190
156 241 190
156 241 190
156 241 190
155 241 190
147 219 184
147 219 184
147 219 184
147 218 183
146 218 183
146 218 183
146 218 183
145 217 182
145 217 182
145 217 181
152 238 186
152 237 186
28 48 29
28 48 30
26 41 28
28 48 30
28 48 30
28 48 30
28 48 30
28 48 29
28 48 29
28 48 29
28 48 29
25 41 28
28 48 30
28 48 30
28 48 30
29 49 31
68 94 79
67 93 78
64 86 76
63 85 75
63 85 75
138 223 172
137 222 172
137 222 171
136 221 170
135 220 169
134 219 169
134 219 168
125 197 162
124 196 161
124 195 160
131 216 165
122 194 159
122 193 158
129 214 163
120 192 157
120 191 156
29 49 31
29 49 31
29 49 31
29 49 31
29 49 31
29 49 31
29 49 31
29 49 31
29 49 31
29 49 31
29 49 31
27 43 29
27 43 29
27 43 29
27 43 29
27 43 29
27 43 29
27 42 29
27 42 29
27 42 29
26 42 29
117 202 151
116 201 151
116 201 150
116 201 150
115 200 150
115 200 149
115 200 149
107 178 144
114 199 149
106 178 143
106 177 143
114 199 148
114 198 148
113 198 148
113 198 147
113 198 147
113 198 147
113 198 147
105 176 141
104 176 141
112 197 147
112 197 146
103 175 140
103 175 140
103 175 140
103 175 140
103 175 140
103 175 140
103 175 140
103 175 140
103 175 140
103 175 140
103 175 140
103 174 139
111 196 145
103 174 139
111 196 145
111 196 145
110 196 145
110 196 145
110 196 145
110 196 145
110 196 145
110 196 145
110 195 145
102 174 139
102 174 139
110 195 144
102 174 139
102 174 139
102 174 139
102 174 139
102 174 139
102 174 139
102 174 139
102 174 139
102 174 139
110 195 144
110 195 144
110 195 144
102 174 139
110 195 144
110 195 144
110 195 144
110 195 144
110 195 144
102 174 139
102 174 139
102 174 139
110 195 145
110 195 145
110 195 145
102 174 139
110 195 145
110 195 145
110 195 145
110 195 145
110 195 145
110 195 145
110 195 145
103 174 139
110 195 145
111 195 145
103 174 139
111 195 145
111 195 145
103 174 139
103 174 139
103 174 139
103 174 140
111 195 145
111 195 145
111 195 145
103 174 140
111 195 145
111 195 145
111 195 145
111 195 145
111 195 145
111 195 145
111 195 145
111 195 145
111 195 145
111 195 145
103 174 140
103 174 140
103 174 140
103 174 140
103 174 140
111 195 145
103 174 140
103 174 140
111 195 145
103 174 140
111 195 145
111 195 145
111 195 145
111 195 145
111 195 145
111 195 145
103 174 140
103 174 140
103 174 140
103 174 140
103 174 140
103 174 140
111 195 146
111 195 146
111 195 146
111 195 146
111 195 146
111 195 146
104 174 140
111 195 146
111 195 146
111 195 146
111 195 146
104 175 141
112 195 147
113 195 147
32 48 36
109 179 146
117 200 151
109 179 146
110 179 147
110 179 147
110 180 147
110 180 147
110 180 147
110 180 147
111 180 148
119 201 153
119 201 153
119 202 153
119 202 154
112 182 149
112 182 149
120 203 154
120 203 154
120 203 155
121 204 155
113 183 150
121 204 156
114 184 151
114 184 151
114 184 151
115 185 152
115 185 152
115 185 152
123 206 158
116 186 153
124 207 158
124 208 159
29 45 33
29 45 33
29 45 33
31 51 34
29 45 32
29 45 32
29 45 32
29 45 32
119 191 156
128 212 162
120 192 157
129 213 163
121 193 158
130 214 164
130 215 164
131 215 165
131 216 166
132 217 166
124 196 161
133 218 167
126 197 162
134 219 168
127 198 164
127 199 164
128 199 165
129 200 165
129 201 166
130 201 167
130 202 167
131 202 168
132 203 168
140 225 174
141 226 175
141 226 176
142 227 176
143 227 177
143 228 177
144 229 178
144 229 179
145 230 179
138 209 174
146 231 180
139 210 176
139 211 176
140 211 177
140 212 177
141 213 178
141 213 178
142 214 179
150 236 185
143 215 180
143 215 180
144 216 181
144 216 181
153 238 187
145 217 182
154 239 188
154 239 188
146 218 183
147 218 183
147 219 184
147 219 184
147 219 184
148 219 184
148 220 185
148 220 185
156 241 190
148 220 185
148 220 185
156 242 191
157 242 191
157 242 191
148 220 185
156 242 191
156 242 191
156 242 190
148 220 185
156 241 190
148 220 185
156 241 190
155 241 190
147 219 184
147 219 184
146 218 183
146 218 183
146 218 183
145 217 182
145 217 182
83 149 87
28 48 30
28 48 30
28 48 30
26 41 28
28 48 30
28 48 30
25 41 28
28 48 30
28 48 30
28 48 29
25 41 28
28 48 29
28 48 30
28 48 30
28 48 30
69 95 80
69 94 80
68 94 79
65 87 77
64 86 76
63 85 75
139 223 173
138 223 172
137 222 171
136 221 171
128 199 164
127 198 164
126 198 163
125 197 162
125 196 162
132 217 166
123 195 160
123 194 159
122 193 159
129 214 163
120 192 157
120 191 157
29 49 31
29 49 31
29 49 31
29 49 31
29 49 31
29 49 31
29 49 31
29 49 31
29 49 31
29 49 31
29 49 31
27 43 30
27 43 30
27 43 30
27 43 30
27 43 29
27 43 29
27 43 29
27 43 29
27 43 29
27 43 29
109 180 146
108 180 145
108 180 145
116 201 150
108 179 144
115 200 149
115 200 149
115 200 149
114 199 149
114 199 148
114 199 148
106 177 143
106 177 142
105 177 142
113 198 147
113 198 147
113 198 147
113 198 147
113 197 147
112 197 147
112 197 147
104 176 141
103 175 140
103 175 140
103 175 140
103 175 140
111 196 145
111 196 145
103 175 140
103 175 140
111 196 145
103 175 140
103 175 140
103 174 139
103 174 139
111 196 145
111 196 145
110 196 145
102 174 139
102 174 139
110 196 145
102 174 139
110 196 145
110 196 144
110 195 144
102 174 139
102 174 139
102 174 139
102 174 139
102 174 139
102 174 139
110 195 144
102 174 139
102 174 139
102 174 139
102 174 139
102 174 139
102 174 139
110 195 144
110 195 144
110 195 144
110 195 144
110 195 144
110 195 144
110 195 144
110 195 144
102 174 139
110 195 144
102 174 139
102 174 139
102 174 139
102 174 139
102 174 139
110 195 145
110 195 145
110 195 145
110 195 145
110 195 145
110 195 145
110 195 145
102 174 139
102 174 139
102 174 139
103 174 139
103 174 139
111 195 145
103 174 139
111 195 145
111 195 145
103 174 139
103 174 139
111 195 145
103 174 140
111 195 145
111 195 145
111 195 145
103 174 140
111 195 145
103 174 140
111 195 145
103 174 140
111 195 145
111 195 145
111 195 145
103 174 140
111 195 145
103 174 140
103 174 140
103 174 140
103 174 140
103 174 140
103 174 140
103 174 140
103 174 140
103 174 140
111 195 145
111 195 145
111 195 145
103 174 140
111 195 145
111 195 145
111 195 145
111 195 145
111 195 145
111 195 145
103 174 140
103 174 140
103 174 140
111 195 146
111 195 146
111 195 146
111 195 146
111 195 146
111 195 146
111 195 146
111 195 146
111 195 146
104 174 140
104 175 141
104 175 141
32 48 36
34 54 38
32 48 36
34 54 38
34 54 37
34 54 37
87 151 92
118 201 152
110 180 147
110 180 147
118 201 153
119 201 153
119 202 153
119 202 153
119 202 154
119 202 154
112 182 149
120 203 154
120 203 155
120 203 155
113 183 150
113 183 150
114 184 150
114 184 151
114 184 151
114 185 151
115 185 152
115 185 152
123 206 158
124 207 158
116 186 153
124 207 159
117 187 154
29 45 33
32 52 34
29 45 33
31 51 34
31 51 34
29 45 32
29 45 32
30 50 32
76 128 83
128 213 162
129 213 163
129 214 163
130 214 164
130 215 164
131 215 165
131 216 165
132 216 166
132 217 166
133 218 167
125 197 162
134 219 168
127 198 163
127 199 164
128 199 165
136 221 171
129 200 166
130 201 166
130 202 167
139 224 173
131 203 168
140 225 174
141 226 175
141 226 175
142 227 176
143 227 177
143 228 177
144 229 178
144 229 179
145 230 179
138 209 174
146 231 180
139 210 176
139 211 176
148 233 182
140 212 177
141 213 178
150 235 184
142 214 179
151 236 185
151 236 185
144 215 180
144 216 181
145 216 181
153 238 187
153 239 188
154 239 188
154 239 188
155 240 189
155 240 189
155 241 189
156 241 190
156 241 190
156 241 190
148 220 185
149 220 185
157 242 191
157 242 191
157 242 191
157 242 191
157 243 191
157 243 191
157 243 191
149 221 186
157 243 191
157 242 191
157 242 191
149 221 186
149 221 186
149 220 185
148 220 185
156 241 190
148 220 185
156 241 190
147 219 184
147 219 184
146 218 183
146 218 183
146 218 182
28 48 29
28 48 30
28 48 30
28 48 30
28 48 30
28 48 30
26 41 28
28 48 30
28 48 30
25 41 28
25 41 28
25 41 28
28 48 29
28 48 30
28 48 30
28 48 30
70 96 81
67 88 78
66 88 78
65 87 77
64 86 76
132 203 169
131 203 168
130 202 167
129 201 166
129 200 166
128 200 165
29 48 30
84 149 87
126 197 163
125 197 162
132 217 166
124 195 160
123 195 160
122 194 159
121 193 158
121 192 158
29 48 30
29 49 31
29 49 32
29 49 32
29 49 31
29 49 31
29 49 31
29 49 31
29 49 31
29 49 31
29 49 31
29 49 31
27 43 30
27 43 30
27 43 30
27 43 30
27 43 30
27 43 30
27 43 30
27 43 30
27 43 29
27 43 29
117 202 151
109 180 145
116 201 150
116 201 150
116 201 150
115 200 149
107 179 144
115 200 149
114 199 149
114 199 148
114 199 148
114 199 148
106 177 142
105 177 142
105 177 142
105 177 142
105 176 142
105 176 142
113 197 147
104 176 141
104 176 141
112 197 146
112 197 146
111 197 146
111 197 145
111 197 145
111 196 145
103 175 140
103 175 140
103 175 140
103 175 140
103 175 140
103 175 139
103 174 139
103 174 139
111 196 145
102 174 139
110 196 145
110 196 145
110 196 145
110 196 145
110 196 145
110 196 144
102 174 139
110 196 144
102 174 139
102 174 139
102 174 139
102 174 139
102 174 139
102 174 139
102 174 139
102 174 139
102 174 139
102 174 139
102 174 139
102 174 139
110 195 144
102 174 139
110 195 144
102 174 139
110 195 144
110 195 144
102 174 139
110 195 144
110 195 144
110 195 144
110 195 144
102 174 139
102 174 139
102 174 139
102 174 139
102 174 139
102 174 139
102 174 139
102 174 139
102 174 139
102 174 139
110 195 145
102 174 139
110 195 145
102 174 139
110 195 145
102 174 139
102 174 139
102 174 139
110 195 145
103 174 139
103 174 139
103 174 139
103 174 139
103 174 139
111 195 145
111 195 145
111 195 145
111 195 145
111 195 145
111 195 145
111 195 145
111 195 145
111 195 145
111 195 145
111 195 145
111 195 145
103 174 140
103 174 140
103 174 140
111 195 145
103 174 140
103 174 140
103 174 140
103 174 140
103 174 140
103 174 140
111 195 145
111 195 145
111 195 145
111 195 145
111 195 145
111 195 145
111 195 145
111 195 145
111 195 145
103 174 140
103 174 140
111 195 145
111 195 145
103 174 140
103 174 140
103 174 140
103 174 140
103 174 140
103 174 140
103 174 140
103 174 140
111 195 146
111 195 146
111 195 146
104 175 141
104 175 141
35 54 38
32 48 36
34 54 38
34 54 38
34 54 38
34 54 37
34 54 37
34 54 37
34 54 37
31 48 35
31 47 35
31 47 35
119 202 153
119 202 153
119 202 154
120 202 154
120 203 154
120 203 154
120 203 155
113 183 150
113 183 150
121 204 155
114 184 151
114 184 151
122 205 156
115 185 152
115 185 152
123 206 157
116 186 153
116 186 153
124 207 158
124 208 159
125 208 159
78 129 85
29 45 33
29 45 33
29 45 33
29 45 33
29 45 33
119 190 156
77 128 83
27 43 30
27 43 30
27 43 30
27 43 30
27 43 30
27 43 30
76 128 83
132 216 166
132 217 166
125 196 162
125 197 162
126 197 163
126 198 163
127 198 164
128 199 164
128 200 165
129 200 166
129 201 166
130 202 167
131 202 167
139 224 173
140 225 174
141 225 175
141 226 175
134 205 171
134 206 171
143 228 177
144 229 178
144 229 178
145 230 179
146 231 180
146 231 180
147 232 181
147 232 182
148 233 182
141 212 177
149 234 183
142 213 179
142 214 179
143 214 180
143 215 180
144 216 181
144 216 181
145 217 182
145 217 182
154 239 188
154 239 188
155 240 189
155 240 189
155 241 190
156 241 190
156 241 190
156 242 191
149 220 185
157 242 191
149 221 186
157 243 191
149 221 186
158 243 192
150 222 187
150 222 187
150 222 187
158 243 192
158 243 192
158 243 192
158 243 192
158 243 192
158 243 192
158 243 192
149 221 186
157 243 191
157 242 191
149 221 186
148 220 185
148 220 185
148 220 185
156 241 190
147 219 184
147 219 184
27 47 29
28 48 29
28 48 30
28 48 30
28 48 30
28 48 30
28 48 30
28 48 30
28 48 30
28 48 30
28 48 30
28 48 30
28 48 30
25 41 28
28 48 30
28 48 30
69 90 80
68 90 80
67 89 79
66 88 78
66 87 77
65 87 77
132 204 169
139 224 174
131 202 168
138 223 172
129 201 166
29 48 30
29 49 31
29 49 31
29 48 30
29 48 30
28 48 30
28 48 30
28 48 30
28 48 30
84 149 87
121 193 158
29 49 31
29 49 31
29 49 32
29 49 32
29 49 32
29 49 32
29 49 32
29 49 31
29 49 31
29 49 31
29 49 31
29 49 31
27 43 30
27 43 30
27 43 30
27 43 30
27 43 30
27 43 30
27 43 30
27 43 30
27 43 30
27 43 30
117 202 151
117 202 151
116 201 150
116 201 150
108 179 144
115 200 150
115 200 149
115 200 149
115 200 149
114 199 148
114 199 148
106 177 143
114 199 148
105 177 142
113 198 147
105 177 142
113 198 147
105 176 142
105 176 141
104 176 141
104 176 141
112 197 146
103 175 140
111 197 146
111 197 145
111 197 145
111 197 145
103 175 140
103 175 140
111 196 145
103 175 140
111 196 145
111 196 145
103 174 139
111 196 145
111 196 145
110 196 145
110 196 145
110 196 145
110 196 145
110 196 145
110 196 144
102 174 139
102 174 139
110 196 144
110 195 144
102 174 139
102 174 139
102 174 139
102 174 139
102 174 139
110 195 144
102 174 139
102 174 139
110 195 144
102 174 139
102 174 139
102 174 139
110 195 144
110 195 144
110 195 144
110 195 144
102 174 139
110 195 144
102 174 139
110 195 144
110 195 144
110 195 144
110 195 144
102 174 139
102 174 139
102 174 139
102 174 139
110 195 144
102 174 139
102 174 139
102 174 139
102 174 139
110 195 145
102 174 139
102 174 139
110 195 145
110 195 145
110 195 145
110 195 145
110 195 145
110 195 145
110 195 145
102 174 139
103 174 139
103 174 139
103 174 139
111 195 145
111 195 145
111 195 145
111 195 145
111 195 145
103 174 140
111 195 145
111 195 145
111 195 145
111 195 145
111 195 145
111 195 145
103 174 140
103 174 140
103 174 140
103 174 140
103 174 140
103 174 140
103 174 140
103 174 140
103 174 140
103 174 140
103 174 140
103 174 140
103 174 140
111 195 145
103 174 140
111 195 145
111 195 145
111 195 145
111 195 145
111 195 145
103 174 140
111 195 145
111 195 145
103 174 140
103 174 140
103 174 140
103 174 140
103 174 140
103 174 140
103 174 140
111 195 146
103 174 140
103 174 140
103 174 140
103 174 140
104 175 141
32 48 37
32 48 36
34 54 38
34 54 38
34 54 38
34 54 38
34 54 37
34 54 37
32 48 36
34 54 37
31 48 35
34 54 37
31 47 35
31 47 35
33 53 37
31 47 35
31 47 35
31 47 35
113 183 150
113 183 150
121 204 155
121 204 156
122 205 156
114 184 151
114 185 151
115 185 152
115 185 152
115 186 152
116 186 153
124 207 158
124 208 159
125 208 159
125 208 159
51 73 64
29 45 33
29 45 33
29 45 33
29 45 33
127 211 161
128 212 162
128 212 162
30 50 32
27 43 30
27 43 30
27 43 30
27 43 30
27 43 30
27 43 30
27 43 30
132 217 167
125 196 162
134 218 168
134 219 168
135 220 169
127 199 164
128 200 165
129 200 165
129 201 166
130 201 167
130 202 167
131 203 168
140 225 174
140 225 175
141 226 175
134 205 170
142 227 176
143 228 177
144 229 178
136 208 173
145 230 179
145 230 180
138 210 175
147 232 181
147 232 182
148 233 182
141 212 177
149 234 183
142 213 179
142 214 179
143 215 180
143 215 180
144 216 181
144 216 181
145 217 182
145 217 182
154 239 188
154 240 189
155 240 189
155 240 189
156 241 190
156 241 190
156 242 191
157 242 191
157 242 191
157 243 191
150 221 186
150 222 187
150 222 187
158 244 192
150 222 187
150 222 187
151 222 187
151 223 187
151 223 188
151 223 188
151 223 188
151 223 187
151 223 187
75 127 81
158 244 193
150 222 187
150 222 187
158 243 192
149 221 186
149 221 186
149 221 186
149 221 185
148 220 185
156 241 190
147 219 184
28 47 29
28 48 29
28 48 30
28 48 30
28 48 30
28 48 30
28 48 30
28 48 30
28 48 30
28 48 30
28 48 30
28 48 30
28 48 30
28 48 30
28 48 30
28 48 30
69 91 81
71 97 82
67 89 79
67 89 79
66 88 78
133 205 170
133 204 169
132 204 169
131 203 168
130 202 167
130 201 166
29 49 30
29 49 31
29 49 31
29 49 31
29 49 31
29 49 30
29 48 30
29 48 30
28 48 30
28 48 30
28 48 30
29 49 31
29 49 31
52 74 64
51 73 63
30 49 32
29 49 32
29 49 32
29 49 32
29 49 32
29 49 32
29 49 32
29 49 31
27 43 30
27 43 30
27 43 30
27 43 30
27 43 30
27 43 30
27 43 30
27 43 30
27 43 30
27 43 30
117 202 151
117 202 151
108 180 145
116 201 150
116 201 150
115 200 150
115 200 149
115 200 149
115 200 149
114 199 149
114 199 148
106 178 143
106 177 143
105 177 142
105 177 142
105 177 142
105 177 142
105 176 142
105 176 141
104 176 141
104 176 141
83 135 89
112 197 146
111 197 146
111 197 145
111 197 145
111 197 145
111 196 145
111 196 145
111 196 145
103 175 140
103 175 139
111 196 145
111 196 145
103 174 139
102 174 139
102 174 139
102 174 139
102 174 139
102 174 139
110 196 144
102 174 139
110 196 144
110 196 144
102 174 139
110 195 144
102 174 139
102 174 139
102 174 139
102 174 139
102 174 139
102 174 139
102 174 139
102 174 139
102 174 139
102 174 139
102 174 139
110 195 144
102 174 139
110 195 144
110 195 144
110 195 144
110 195 144
102 174 139
110 195 144
110 195 144
102 174 139
110 195 144
102 174 139
102 174 139
102 174 139
110 195 144
102 174 139
102 174 139
102 174 139
110 195 144
102 174 139
102 174 139
102 174 139
102 174 139
102 174 139
110 195 145
110 195 145
110 195 145
110 195 145
110 195 145
110 195 145
110 195 145
110 195 145
102 174 139
110 195 145
110 195 145
103 174 139
103 174 139
111 195 145
111 195 145
111 195 145
111 195 145
103 174 139
111 195 145
111 195 145
103 174 140
111 195 145
111 195 145
103 174 140
111 195 145
103 174 140
111 195 145
103 174 140
103 174 140
103 174 140
111 195 145
103 174 140
103 174 140
111 195 145
103 174 140
111 195 145
103 174 140
103 174 140
111 195 145
111 195 145
111 195 145
111 195 145
111 195 145
103 174 140
111 195 145
103 174 140
111 195 145
103 174 140
103 174 140
103 174 140
103 174 140
103 174 140
103 174 140
103 174 140
103 174 140
103 174 140
103 174 140
103 174 140
103 174 140
32 49 37
32 48 37
32 48 36
34 54 38
34 54 38
34 54 38
34 54 38
32 48 36
34 54 37
34 54 37
34 54 37
31 48 35
31 47 35
31 47 35
31 47 35
31 47 35
33 53 36
31 47 35
33 53 36
31 47 35
31 47 35
33 53 36
33 53 36
86 150 91
115 185 152
115 185 152
123 206 157
123 207 158
116 186 153
124 207 158
124 208 159
125 208 159
125 209 160
126 209 160
30 46 33
29 46 33
29 45 33
119 190 156
127 211 162
128 212 162
56 81 67
27 43 30
27 43 30
27 43 30
27 43 30
27 43 30
27 43 30
27 43 30
132 217 166
133 218 167
133 218 168
126 197 163
127 198 163
135 220 169
136 221 170
136 221 171
137 222 171
130 201 166
138 223 172
131 203 168
132 203 168
140 225 174
141 226 175
141 226 176
142 227 176
143 228 177
143 228 178
144 229 178
145 230 179
145 230 180
146 231 180
147 232 181
139 211 176
140 212 177
141 212 177
141 213 178
150 235 184
150 235 185
143 215 180
143 215 180
144 216 181
145 216 181
145 217 182
146 217 182
146 218 183
147 218 183
155 240 189
156 241 190
156 241 190
156 242 191
157 242 191
149 221 186
157 243 192
158 243 192
158 243 192
158 244 192
159 244 193
151 223 188
151 223 188
151 223 188
151 223 188
151 223 188
151 223 188
151 223 188
151 223 188
151 223 188
151 223 188
83 149 86
28 48 29
28 48 29
28 47 29
28 47 29
25 41 28
27 47 29
27 47 29
150 222 186
149 221 186
149 221 186
148 220 185
27 47 29
28 47 29
28 48 29
28 48 30
28 48 30
28 48 30
28 48 30
28 48 30
28 48 30
28 48 30
28 48 30
28 48 30
28 48 30
28 48 30
28 48 30
28 48 30
28 48 30
69 91 81
69 91 81
68 90 80
67 89 79
66 88 78
134 206 171
133 205 170
140 225 174
131 203 168
131 202 168
130 202 167
29 49 31
29 49 31
29 49 31
29 49 31
29 49 31
29 49 31
29 49 31
29 49 31
29 49 30
29 48 30
29 48 30
29 49 31
29 49 31
52 74 64
52 73 64
51 73 63
53 79 64
50 72 62
49 71 61
49 70 61
48 70 60
29 49 32
29 49 32
27 43 30
27 43 30
27 43 30
27 43 30
27 43 30
27 43 30
27 43 30
27 43 30
27 43 30
118 203 152
117 202 151
117 202 151
116 201 151
116 201 150
116 201 150
115 201 150
115 200 149
115 200 149
115 200 149
114 199 149
114 199 148
106 178 143
106 177 143
113 199 148
105 177 142
105 177 142
105 177 142
105 176 142
105 176 141
104 176 141
104 176 141
83 135 89
112 197 146
111 197 146
111 197 145
111 197 145
111 197 145
111 196 145
111 196 145
103 175 140
111 196 145
103 175 139
111 196 145
111 196 145
102 174 139
102 174 139
102 174 139
102 174 139
102 174 139
102 174 139
102 174 139
102 174 139
102 174 139
110 196 144
102 174 139
102 174 139
110 195 144
102 174 139
102 174 139
102 174 139
102 174 139
102 174 139
102 174 139
102 174 139
110 195 144
110 195 144
102 174 139
102 174 139
110 195 144
110 195 144
110 195 144
110 195 144
102 174 139
102 174 139
110 195 144
110 195 144
110 195 144
110 195 144
110 195 144
102 174 139
102 174 139
102 174 139
102 174 139
102 174 139
102 174 139
102 174 139
102 174 139
102 174 139
102 174 139
110 195 144
110 195 144
110 195 144
102 174 139
110 195 145
110 195 145
110 195 145
110 195 145
102 174 139
102 174 139
110 195 145
110 195 145
110 195 145
102 174 139
102 174 139
103 174 139
103 174 139
103 174 139
103 174 139
103 174 139
111 195 145
103 174 139
103 174 139
111 195 145
111 195 145
111 195 145
111 195 145
103 174 140
103 174 140
103 174 140
103 174 140
103 174 140
103 174 140
103 174 140
111 195 145
103 174 140
103 174 140
103 174 140
111 195 145
103 174 140
111 195 145
111 195 145
111 195 145
111 195 145
111 195 145
111 195 145
111 195 145
111 195 145
111 195 145
103 174 140
103 174 140
103 174 140
111 195 145
103 174 140
103 174 140
103 174 140
103 174 140
103 174 140
103 174 140
103 174 140
103 174 140
33 49 37
32 49 37
32 48 37
35 55 38
32 48 36
34 54 38
34 54 38
34 54 38
32 48 36
32 48 36
34 54 37
32 48 36
31 48 35
31 47 35
31 47 35
31 47 35
31 47 35
31 47 35
31 47 35
31 47 35
33 53 36
33 53 36
33 53 36
33 53 36
33 53 36
30 46 34
115 186 152
116 186 153
116 186 153
116 187 153
117 187 154
125 208 159
125 209 160
126 209 160
126 210 161
30 46 33
127 211 161
127 211 161
120 191 157
120 191 157
56 82 67
56 82 68
27 43 30
30 50 32
27 43 30
27 43 30
27 43 30
132 217 166
133 217 167
133 218 167
134 219 168
134 219 169
135 220 169
136 220 170
136 221 170
137 222 171
137 222 172
138 223 172
139 224 173
131 203 168
132 204 169
133 204 169
133 205 170
134 206 171
135 206 171
135 207 172
144 229 178
137 208 173
145 230 179
146 231 180
147 232 181
139 211 176
140 212 177
140 212 177
141 213 178
142 213 179
142 214 179
143 215 180
143 215 180
144 216 181
145 216 181
145 217 182
154 239 188
154 239 188
155 240 189
147 219 184
156 241 190
156 241 190
157 242 191
157 242 191
157 243 192
158 243 192
158 243 192
158 244 193
159 244 193
151 223 188
151 223 188
151 223 188
152 224 188
152 224 189
152 224 189
160 245 194
152 224 189
160 246 194
152 224 189
152 224 189
152 224 189
28 47 29
28 48 29
25 41 28
28 48 29
25 41 28
28 47 29
25 41 28
27 47 29
27 47 29
25 41 27
27 47 29
27 47 29
27 47 29
28 48 29
28 48 30
28 48 30
28 48 30
28 48 30
26 42 29
28 48 30
28 48 30
26 42 28
28 48 30
28 48 30
28 48 30
28 48 30
28 48 30
28 48 30
71 93 82
70 92 82
69 91 81
68 90 80
68 89 79
67 89 79
134 206 171
133 205 170
133 204 170
132 204 169
131 203 168
28 48 30
29 49 31
29 49 31
29 49 31
29 49 31
29 49 31
29 49 31
29 49 31
29 49 31
29 49 31
29 49 31
29 49 31
29 49 31
29 49 31
52 74 64
52 74 64
51 73 63
50 72 63
50 72 62
49 71 61
49 71 61
48 70 60
48 69 60
49 75 61
49 75 60
48 74 60
48 74 59
45 67 57
47 73 58
27 43 30
27 43 30
27 43 30
27 43 30
118 203 152
117 202 151
117 202 151
116 202 151
116 201 150
116 201 150
116 201 150
115 200 149
115 200 149
115 200 149
114 199 149
106 178 143
114 199 148
106 177 143
106 177 142
105 177 142
113 198 147
105 177 142
105 176 142
105 176 141
112 197 147
104 176 141
83 135 89
112 197 146
103 175 140
111 197 145
111 197 145
103 175 140
111 196 145
111 196 145
111 196 145
111 196 145
103 175 139
103 175 139
111 196 145
102 174 139
102 174 139
110 196 145
102 174 139
110 196 144
102 174 139
102 174 139
102 174 139
102 174 139
102 174 139
102 174 139
102 174 139
110 195 144
110 195 144
110 195 144
110 195 144
110 195 144
110 195 144
110 195 144
110 195 144
110 195 144
102 174 139
110 195 144
102 174 139
110 195 144
110 195 144
110 195 144
110 195 144
110 195 144
110 195 144
110 195 144
110 195 144
110 195 144
110 195 144
110 195 144
110 195 144
102 174 139
102 174 139
110 195 144
102 174 139
102 174 139
102 174 139
102 174 139
102 174 139
102 174 139
102 174 139
102 174 139
110 195 144
110 195 144
110 195 144
110 195 144
110 195 145
110 195 145
110 195 145
110 195 145
110 195 145
110 195 145
110 195 145
110 195 145
102 174 139
102 174 139
102 174 139
103 174 139
103 174 139
103 174 139
111 195 145
103 174 139
103 174 139
103 174 139
103 174 139
103 174 140
111 195 145
111 195 145
103 174 140
111 195 145
103 174 140
103 174 140
103 174 140
103 174 140
103 174 140
103 174 140
111 195 145
103 174 140
111 195 145
111 195 145
111 195 145
111 195 145
103 174 140
111 195 145
111 195 145
111 195 145
111 195 145
111 195 145
111 195 145
111 195 145
103 174 140
103 174 140
103 174 140
103 174 140
103 174 140
103 174 140
103 174 140
103 174 140
111 195 145
103 174 140
103 174 140
33 49 37
33 49 37
33 49 37
32 49 37
35 55 38
35 54 38
34 54 38
34 54 38
34 54 38
34 54 38
34 54 37
32 48 36
32 48 36
34 54 37
31 47 35
31 47 35
31 47 35
33 53 37
31 47 35
33 53 36
33 53 36
31 47 35
33 53 36
33 53 36
33 53 36
115 185 152
116 186 152
116 186 153
116 187 153
117 187 154
117 187 154
117 188 154
118 188 155
118 189 155
127 210 161
127 211 161
127 211 161
127 212 162
128 212 162
128 213 163
54 76 66
57 82 68
30 50 32
27 43 30
30 50 32
27 43 30
124 195 161
132 217 166
133 218 167
133 218 168
126 198 163
135 220 169
127 199 164
136 221 170
137 221 171
137 222 171
130 201 167
138 223 173
139 224 173
132 203 169
140 225 175
133 205 170
142 227 176
134 206 171
135 207 172
136 207 173
136 208 173
137 209 174
138 209 175
138 210 175
147 232 181
140 211 177
140 212 177
141 213 178
142 213 178
142 214 179
151 236 185
143 215 180
144 216 181
145 216 181
145 217 182
146 218 183
146 218 183
155 240 189
155 241 190
156 241 190
156 242 190
157 242 191
157 243 191
158 243 192
158 243 192
158 244 193
151 223 188
159 244 193
151 223 188
152 224 188
152 224 189
152 224 189
152 224 189
152 224 189
152 224 189
153 225 189
153 225 189
153 225 190
161 246 195
161 246 195
27 47 29
28 48 29
28 48 29
28 48 29
25 41 28
28 48 29
28 48 29
28 48 29
28 47 29
27 47 29
27 47 29
27 47 29
27 47 29
27 47 29
28 48 29
28 48 30
28 48 30
28 48 30
81 107 92
78 100 90
77 99 89
77 99 89
76 98 88
75 97 87
77 103 88
28 48 30
28 48 30
26 42 28
28 48 30
71 93 83
70 92 82
70 91 81
69 91 81
68 90 80
135 207 172
135 206 171
134 206 171
141 226 175
132 204 169
131 203 168
28 48 30
29 49 31
29 49 31
29 49 31
29 49 31
29 49 31
29 49 31
29 49 31
29 49 31
29 49 31
29 49 31
29 49 31
29 49 31
53 75 65
53 75 65
52 74 64
51 73 63
51 73 63
50 72 62
49 71 61
51 77 62
48 70 60
50 76 61
47 69 59
47 68 59
48 74 60
48 74 59
47 73 59
47 73 58
46 72 58
44 66 56
46 71 57
45 71 56
26 42 28
26 42 28
26 42 28
76 127 82
116 201 150
116 201 150
116 201 150
107 179 144
115 200 149
115 200 149
106 178 143
114 199 148
106 178 143
106 177 143
106 177 142
105 177 142
113 198 147
105 177 142
105 176 142
113 198 147
104 176 141
104 176 141
83 135 89
103 176 140
111 197 146
111 197 145
103 175 140
111 197 145
111 197 145
111 196 145
111 196 145
111 196 145
111 196 145
111 196 145
111 196 145
111 196 145
110 196 145
102 174 139
102 174 139
102 174 139
102 174 139
102 174 139
102 174 139
102 174 139
102 174 139
102 174 139
102 174 139
110 195 144
102 174 139
110 195 144
110 195 144
110 195 144
110 195 144
110 195 144
110 195 144
110 195 144
110 195 144
110 195 144
102 174 139
102 174 139
102 174 139
110 195 144
110 195 144
110 195 144
102 174 139
110 195 144
110 195 144
110 195 144
110 195 144
102 174 139
110 195 144
102 174 139
102 174 139
102 174 139
102 174 139
102 174 139
102 174 139
102 174 139
110 195 144
102 174 139
110 195 144
102 174 139
110 195 144
110 195 144
102 174 139
110 195 144
110 195 144
110 195 144
102 174 139
110 195 145
110 195 145
110 195 145
110 195 145
110 195 145
110 195 145
102 174 139
102 174 139
102 174 139
110 195 145
102 174 139
103 174 139
103 174 139
103 174 139
103 174 139
103 174 139
103 174 139
103 174 139
103 174 139
111 195 145
103 174 140
111 195 145
111 195 145
103 174 140
111 195 145
111 195 145
111 195 145
111 195 145
111 195 145
103 174 140
111 195 145
111 195 145
103 174 140
111 195 145
111 195 145
111 195 145
111 195 145
111 195 145
111 195 145
111 195 145
111 195 145
103 174 140
103 174 140
103 174 140
111 195 145
103 174 140
103 174 140
111 195 145
103 174 140
103 174 140
103 174 140
103 174 140
47 73 59
47 73 59
47 73 60
33 49 37
35 55 38
35 55 38
35 54 38
32 48 36
34 54 38
34 54 38
34 54 38
34 54 37
32 48 36
32 48 36
32 48 36
31 48 35
31 47 35
34 54 37
31 47 35
33 53 37
33 53 36
33 53 36
33 53 36
115 185 152
115 185 152
115 186 152
116 186 153
116 186 153
116 187 153
117 187 154
117 188 154
118 188 155
126 209 160
119 189 155
126 210 161
127 211 161
127 211 161
128 212 162
128 212 162
129 213 163
129 213 163
130 214 164
28 44 31
28 43 31
27 43 30
27 43 30
132 217 166
133 217 167
133 218 167
134 219 168
126 198 163
135 220 169
136 221 170
136 221 170
137 222 171
138 223 172
138 223 172
131 203 168
132 203 168
132 204 169
133 205 170
134 205 170
134 206 171
135 207 172
136 207 172
136 208 173
137 209 174
138 209 174
138 210 175
139 211 176
148 233 182
148 233 182
149 234 183
150 235 184
150 235 184
151 236 185
143 215 180
152 237 186
145 216 181
145 217 182
154 239 188
146 218 183
155 240 189
155 241 190
156 241 190
156 242 191
157 242 191
157 243 192
158 243 192
158 244 192
159 244 193
159 244 193
159 245 194
160 245 194
160 245 194
152 224 189
152 224 189
153 225 189
161 246 195
153 225 190
153 225 190
161 247 195
153 225 190
161 247 196
161 247 196
153 225 190
27 47 29
28 48 29
28 48 30
25 41 28
28 48 29
25 41 28
28 48 29
28 48 29
28 48 29
28 48 29
28 47 29
27 47 29
27 47 29
27 47 29
28 48 29
28 48 30
28 48 30
80 102 91
81 107 93
81 107 92
80 106 91
77 99 89
77 98 88
76 98 88
78 103 89
74 96 86
74 96 86
73 95 85
28 48 30
28 48 30
28 48 30
70 92 82
69 91 81
68 90 80
144 229 178
143 228 177
142 227 176
133 205 170
133 204 169
28 48 30
28 48 30
29 49 31
29 49 31
29 49 31
29 49 31
29 49 31
29 49 31
29 49 31
29 49 31
29 49 31
29 49 31
29 49 31
29 49 31
53 75 66
53 75 65
52 74 64
51 73 63
51 73 63
50 72 62
52 78 63
49 71 61
51 77 62
48 70 60
50 75 61
49 75 60
48 74 60
48 74 59
45 67 57
47 73 58
47 72 58
46 72 57
46 72 57
45 71 56
26 42 29
26 42 29
26 42 29
26 42 28
26 42 28
26 42 28
26 42 28
26 42 28
26 42 28
26 42 28
106 178 143
106 178 143
106 178 143
106 178 143
114 199 148
113 198 148
113 198 147
105 177 142
105 177 142
105 176 141
104 176 141
104 176 141
91 156 94
112 197 146
111 197 146
103 175 140
103 175 140
111 197 145
111 197 145
111 196 145
111 196 145
103 175 139
111 196 145
111 196 145
111 196 145
102 174 139
110 196 145
110 196 145
102 174 139
110 196 144
102 174 139
102 174 139
102 174 139
102 174 139
102 174 139
102 174 139
110 196 144
110 195 144
110 195 144
110 195 144
110 195 144
110 195 144
110 195 144
110 195 144
110 195 144
110 195 144
110 195 144
110 195 144
110 195 144
102 174 139
110 195 144
102 174 139
102 174 139
102 174 139
110 195 144
102 174 139
102 174 139
102 174 139
110 195 144
110 195 144
110 195 144
102 174 139
102 174 139
102 174 139
102 174 139
102 174 139
102 174 139
102 174 139
102 174 139
102 174 139
102 174 139
102 174 139
102 174 139
102 174 139
110 195 144
110 195 144
110 195 144
110 195 144
110 195 144
110 195 144
110 195 144
110 195 144
110 195 145
110 195 145
110 195 145
102 174 139
102 174 139
102 174 139
102 174 139
110 195 145
102 174 139
102 174 139
103 174 139
103 174 139
103 174 139
103 174 139
103 174 139
111 195 145
103 174 139
111 195 145
111 195 145
111 195 145
111 195 145
103 174 140
111 195 145
103 174 140
103 174 140
111 195 145
111 195 145
103 174 140
103 174 140
103 174 140
103 174 140
103 174 140
111 195 145
111 195 145
111 195 145
111 195 145
111 195 145
103 174 140
111 195 145
103 174 140
103 174 140
103 174 140
111 195 145
103 174 140
103 174 140
103 174 140
103 174 140
103 174 140
103 174 140
47 73 59
47 73 59
47 73 60
47 73 60
45 67 58
45 67 58
46 67 59
46 68 59
46 68 59
34 54 38
34 54 38
34 54 38
32 48 36
34 54 37
32 48 36
34 54 37
31 48 35
31 47 35
31 47 35
31 47 35
33 53 37
33 53 36
122 206 157
115 185 152
123 206 157
115 186 152
116 186 153
116 187 153
117 187 154
117 187 154
117 188 154
118 188 155
118 189 155
127 210 161
31 51 33
31 50 33
28 44 31
120 191 157
121 192 157
121 192 158
129 214 164
130 214 164
131 215 165
28 44 31
28 44 31
132 217 166
132 217 167
133 218 167
134 218 168
134 219 168
135 220 169
135 220 170
136 221 170
137 222 171
137 222 171
138 223 172
139 224 173
131 203 168
132 204 169
133 204 169
133 205 170
142 227 176
143 228 177
143 228 178
136 208 173
137 208 174
137 209 174
138 210 175
139 210 176
147 233 182
148 233 182
149 234 183
149 235 184
150 235 184
151 236 185
151 237 186
152 237 186
153 238 187
153 238 187
154 239 188
154 240 189
147 219 184
147 219 184
156 241 190
157 242 191
157 242 191
158 243 192
158 243 192
158 244 193
159 244 193
151 223 188
152 224 188
160 245 194
152 224 189
153 225 189
153 225 190
153 225 190
153 225 190
153 225 190
154 226 190
154 226 191
154 226 191
154 226 191
154 226 191
154 226 191
27 47 29
27 47 29
28 48 29
28 48 30
28 48 30
28 48 30
28 48 30
25 41 28
28 48 29
28 48 29
28 48 29
28 48 29
25 41 28
28 47 29
28 47 29
28 48 29
28 48 30
28 48 30
80 102 92
80 101 91
79 101 91
78 100 90
78 100 89
77 99 89
76 98 88
76 98 87
75 97 87
74 96 86
76 102 87
28 48 30
28 48 30
26 42 28
28 48 30
28 48 30
28 48 30
28 48 30
26 42 28
83 149 87
142 227 176
141 226 175
28 48 30
28 48 30
29 49 31
29 49 31
29 49 31
29 49 31
29 49 31
29 49 31
29 49 31
29 49 31
29 49 31
29 49 31
29 49 31
29 49 31
54 76 66
53 75 65
55 81 66
54 80 65
51 73 63
50 72 62
52 78 63
49 71 61
48 70 60
50 76 61
50 76 61
49 75 60
46 68 58
48 74 59
45 67 57
47 73 58
47 72 58
46 72 57
46 72 57
45 71 56
26 42 29
26 42 29
26 42 29
26 42 29
26 42 29
26 42 29
26 42 29
26 42 29
26 42 28
26 42 28
26 42 28
114 199 148
114 199 148
114 199 148
114 199 148
113 199 148
113 198 147
105 177 142
105 177 142
105 176 141
104 176 141
104 176 141
90 156 94
112 197 146
111 197 146
111 197 145
111 197 145
103 175 140
103 175 140
111 196 145
111 196 145
111 196 145
111 196 145
103 175 139
102 175 139
102 174 139
102 174 139
102 174 139
102 174 139
102 174 139
102 174 139
110 196 144
102 174 139
102 174 139
102 174 139
102 174 139
102 174 139
110 195 144
110 195 144
102 174 139
102 174 139
110 195 144
110 195 144
110 195 144
110 195 144
110 195 144
110 195 144
110 195 144
110 195 144
102 174 139
102 174 139
102 174 139
102 174 139
102 174 139
102 174 139
102 174 139
102 174 139
102 174 139
102 174 139
110 195 144
102 174 139
110 195 144
110 195 144
110 195 144
110 195 144
102 174 139
102 174 139
110 195 144
110 195 144
110 195 144
102 174 139
102 174 139
102 174 139
110 195 144
110 195 144
110 195 144
110 195 144
110 195 144
110 195 144
110 195 144
110 195 144
110 195 144
110 195 144
110 195 144
110 195 145
102 174 139
102 174 139
102 174 139
102 174 139
102 174 139
102 174 139
102 174 139
102 174 139
102 174 139
102 174 139
103 174 139
103 174 139
103 174 139
111 195 145
111 195 145
111 195 145
111 195 145
111 195 145
111 195 145
111 195 145
111 195 145
103 174 140
103 174 140
111 195 145
111 195 145
103 174 140
103 174 140
103 174 140
103 174 140
111 195 145
103 174 140
103 174 140
103 174 140
103 174 140
103 174 140
111 195 145
103 174 140
103 174 140
103 174 140
103 174 140
103 174 140
103 174 140
103 174 140
111 195 145
103 174 140
103 174 140
47 73 59
47 73 59
45 67 58
45 67 58
45 67 58
45 67 58
46 67 59
46 68 59
46 68 59
46 68 59
46 68 59
47 68 59
49 75 61
49 75 61
32 48 36
32 48 36
32 48 36
31 48 35
31 47 35
31 47 35
34 53 37
114 185 151
122 206 157
115 185 152
123 206 157
116 186 153
116 186 153
116 187 153
117 187 154
117 188 154
118 188 155
126 209 160
126 210 161
127 210 161
28 44 32
28 44 31
31 50 33
28 44 31
30 50 33
28 44 31
28 44 31
28 44 31
77 128 84
28 44 31
131 216 166
132 217 166
133 218 167
133 218 167
134 219 168
126 198 163
135 220 169
136 221 170
136 221 171
137 222 171
138 223 172
138 223 173
131 203 168
140 225 174
140 225 175
133 205 170
134 205 171
134 206 171
135 207 172
144 229 178
136 208 173
137 209 174
146 231 180
147 232 181
147 232 181
148 233 182
149 234 183
149 234 183
150 235 184
151 236 185
151 236 185
152 237 186
153 238 187
145 217 182
154 239 188
146 218 183
147 219 184
147 219 184
148 220 185
149 220 185
149 221 186
150 222 186
150 222 187
151 222 187
159 244 193
159 245 194
160 245 194
160 246 194
161 246 195
153 225 190
153 225 190
153 225 190
154 226 190
154 226 191
154 226 191
154 226 191
154 226 191
162 248 197
154 227 191
155 227 191
83 148 86
27 47 29
28 47 29
28 48 29
28 48 30
28 48 30
28 48 30
25 41 28
28 48 30
28 48 30
28 48 29
25 41 28
28 48 29
28 48 29
28 48 29
28 48 29
28 48 29
28 48 30
81 103 93
81 103 92
80 102 92
79 101 91
79 101 91
78 100 90
77 99 89
77 99 89
78 104 89
78 104 89
75 96 86
28 48 30
28 48 30
28 48 30
28 48 30
28 48 30
28 48 30
28 48 30
26 42 28
26 42 28
28 48 30
28 48 30
28 48 30
28 48 30
29 48 30
29 49 31
65 91 76
62 83 74
61 83 73
62 88 74
29 49 31
29 49 31
29 49 31
29 49 31
29 49 31
29 49 31
55 76 67
56 82 67
56 81 67
52 74 64
52 74 64
51 73 63
50 72 62
50 72 62
49 71 61
49 70 61
50 76 62
50 76 61
49 75 60
46 68 58
48 74 59
48 74 59
47 73 58
47 73 58
46 72 57
46 72 57
45 71 57
26 42 29
26 42 29
26 42 29
26 42 29
26 42 29
26 42 29
26 42 29
26 42 29
26 42 29
26 42 29
26 42 29
114 200 148
114 199 148
114 199 148
114 199 148
113 199 148
113 198 147
113 198 147
113 198 147
113 198 147
113 198 147
112 197 147
90 156 94
25 40 27
75 127 81
111 197 145
103 175 140
103 175 140
111 197 145
111 196 145
111 196 145
111 196 145
111 196 145
111 196 145
102 175 139
102 174 139
102 174 139
102 174 139
102 174 139
110 196 144
102 174 139
102 174 139
102 174 139
102 174 139
110 196 144
102 174 139
102 174 139
110 195 144
102 174 139
110 195 144
110 195 144
110 195 144
102 174 139
110 195 144
110 195 144
110 195 144
110 195 144
110 195 144
110 195 144
102 174 139
102 174 139
102 174 139
102 174 139
110 195 144
102 174 139
102 174 139
102 174 139
102 174 139
102 174 139
102 174 139
102 174 139
110 195 144
110 195 144
102 174 139
102 174 139
110 195 144
110 195 144
102 174 139
110 195 144
110 195 144
110 195 144
110 195 144
110 195 144
110 195 144
110 195 144
110 195 144
110 195 144
110 195 144
110 195 144
110 195 144
110 195 144
102 174 139
110 195 144
110 195 144
102 174 139
110 195 144
102 174 139
102 174 139
102 174 139
102 174 139
102 174 139
102 174 139
102 174 139
102 174 139
102 174 139
102 174 139
102 174 139
103 174 139
110 195 145
103 174 139
111 195 145
111 195 145
111 195 145
111 195 145
111 195 145
111 195 145
111 195 145
111 195 145
103 174 140
111 195 145
111 195 145
103 174 140
103 174 140
103 174 140
103 174 140
103 174 140
103 174 140
103 174 140
103 174 140
103 174 140
103 174 140
111 195 145
111 195 145
111 195 145
111 195 145
111 195 145
111 195 145
111 195 145
111 195 145
103 174 140
103 174 140
47 73 59
45 67 58
45 67 58
45 67 58
45 67 58
45 67 58
46 67 59
46 68 59
46 68 59
46 68 59
46 68 59
49 75 61
49 75 61
49 75 61
50 75 62
50 75 62
50 76 62
50 76 62
51 76 63
51 77 63
114 184 151
114 185 151
115 185 152
115 185 152
115 186 152
116 186 153
116 187 153
117 187 153
117 187 154
117 188 154
118 188 155
118 189 155
126 210 161
127 211 161
77 129 84
28 44 32
28 44 32
28 44 31
28 44 31
30 50 33
28 44 31
28 44 31
131 215 165
131 216 165
132 217 166
132 217 167
133 218 167
134 219 168
134 219 168
135 220 169
135 220 170
136 221 170
137 222 171
129 201 166
138 223 172
131 202 168
131 203 168
140 225 174
133 204 170
133 205 170
134 206 171
135 207 172
135 207 172
136 208 173
137 209 174
138 209 174
138 210 175
147 232 181
140 211 176
148 234 183
149 234 183
150 235 184
150 236 185
143 215 180
152 237 186
152 238 187
153 238 187
154 239 188
154 240 188
147 219 184
155 241 190
148 220 185
149 220 185
149 221 186
158 243 192
158 244 192
151 223 187
151 223 188
152 224 188
152 224 189
160 246 195
153 225 190
27 47 29
27 47 29
27 47 29
154 226 191
154 226 191
154 226 191
155 227 191
155 227 192
155 227 192
155 227 192
155 227 192
155 227 192
27 47 29
27 47 29
28 47 29
28 48 29
28 48 30
28 48 30
28 48 30
28 48 30
28 48 30
28 48 30
25 41 28
28 48 30
28 48 29
28 48 29
28 48 29
25 41 28
28 48 30
28 48 30
84 110 95
83 109 94
80 102 92
80 102 92
79 101 91
81 107 92
78 100 90
80 105 91
76 98 88
76 98 87
75 97 87
28 48 30
28 48 30
28 48 30
26 42 29
28 48 30
28 48 30
26 42 28
28 48 30
28 48 30
28 48 30
28 48 30
28 48 30
28 48 30
29 49 31
63 85 75
65 91 76
62 84 74
61 83 73
63 88 74
59 81 71
59 80 71
58 80 70
57 79 69
56 78 68
58 84 69
55 77 67
54 76 66
53 75 65
53 74 65
54 80 65
119 191 156
118 190 155
118 189 155
117 189 154
117 188 153
124 209 158
123 208 158
123 208 157
46 68 58
48 74 59
48 74 59
47 73 58
47 73 58
46 72 57
43 65 55
45 71 57
26 42 29
26 42 29
26 42 29
26 42 29
26 42 29
26 42 29
26 42 29
26 42 29
26 42 29
26 42 29
26 42 29
106 178 143
114 199 148
106 178 143
114 199 148
113 199 148
113 198 147
105 177 142
105 177 142
113 198 147
113 198 147
112 198 147
90 156 94
25 41 27
25 41 27
25 41 27
25 41 27
25 41 27
25 41 27
25 40 27
25 40 27
111 196 145
111 196 145
111 196 145
111 196 145
110 196 145
102 174 139
102 174 139
102 174 139
102 174 139
102 174 139
102 174 139
102 174 139
102 174 139
102 174 139
102 174 139
102 174 139
110 195 144
110 195 144
110 195 144
102 174 139
110 195 144
110 195 144
110 195 144
110 195 144
102 174 139
102 174 139
110 195 144
110 195 144
102 174 139
102 174 139
102 174 139
102 174 139
102 174 139
102 174 139
102 174 139
102 174 139
110 195 144
102 174 139
102 174 139
102 174 139
102 174 139
102 174 139
110 195 144
110 195 144
110 195 144
110 195 144
110 195 144
110 195 144
110 195 144
110 195 144
110 195 144
110 195 144
102 174 139
102 174 139
102 174 139
102 174 139
110 195 144
102 174 139
110 195 144
110 195 144
110 195 144
110 195 144
110 195 144
110 195 144
110 195 144
102 174 139
102 174 139
102 174 139
102 174 139
102 174 139
102 174 139
102 174 139
102 174 139
102 174 139
110 195 145
102 174 139
102 174 139
110 195 145
102 174 139
110 195 145
111 195 145
103 174 139
111 195 145
111 195 145
111 195 145
111 195 145
111 195 145
111 195 145
111 195 145
111 195 145
103 174 140
103 174 140
103 174 140
111 195 145
103 174 140
103 174 140
103 174 140
103 174 140
103 174 140
111 195 145
103 174 140
103 174 140
111 195 145
111 195 145
111 195 145
111 195 145
111 195 145
111 195 145
111 195 145
111 195 145
45 66 58
45 67 58
45 67 58
45 67 58
45 67 58
45 67 58
46 67 59
46 68 59
46 68 59
46 68 59
49 74 61
49 75 61
49 75 61
49 75 61
50 75 62
50 76 62
50 76 62
50 76 62
51 76 63
114 184 151
114 185 151
114 185 151
115 185 152
115 186 152
116 186 152
116 186 153
116 187 153
117 187 154
117 188 154
118 188 154
126 209 160
126 210 161
127 210 161
127 211 161
55 81 67
28 44 32
28 44 32
28 44 32
28 44 31
28 44 31
28 44 31
131 215 165
29 49 31
123 195 160
132 217 166
133 218 167
133 218 167
134 219 168
134 219 169
127 199 164
136 221 170
136 221 171
137 222 171
138 223 172
138 223 173
131 203 168
140 225 174
132 204 169
133 205 170
134 206 171
134 206 171
143 228 177
136 208 173
137 208 173
137 209 174
138 210 175
147 232 181
147 233 182
148 233 182
149 234 183
149 235 184
150 235 184
151 236 185
152 237 186
152 238 186
153 238 187
153 239 188
154 239 188
155 240 189
147 219 184
148 220 185
157 242 191
149 221 186
150 222 186
150 222 187
151 223 187
151 223 188
152 224 188
160 246 194
161 246 195
153 225 190
27 47 29
27 47 29
27 47 29
27 47 29
25 41 27
27 47 29
27 47 29
27 47 29
25 41 27
27 47 29
156 228 192
156 228 192
27 47 29
27 47 29
27 47 29
28 48 29
28 48 29
28 48 30
28 48 30
26 42 28
26 42 28
28 48 30
28 48 30
28 48 30
28 48 30
28 48 30
28 48 30
28 48 29
28 48 29
28 48 30
83 104 94
82 104 94
81 103 93
81 103 93
83 109 94
80 101 91
79 101 91
78 100 90
77 99 89
77 99 89
76 98 88
28 48 30
28 48 30
28 48 30
28 48 30
28 48 30
26 42 29
28 48 30
26 42 29
28 48 30
28 48 30
26 42 28
28 48 30
28 48 30
28 48 30
29 49 31
66 92 77
63 85 75
64 90 76
61 83 73
60 82 72
60 81 72
59 81 71
58 80 70
57 79 69
59 85 70
56 78 68
57 83 68
57 82 68
56 82 67
55 81 66
54 80 66
119 191 156
119 190 155
118 189 155
117 189 154
117 188 154
124 209 158
124 208 158
115 186 152
122 207 157
114 185 151
121 206 156
121 206 155
120 205 155
120 205 154
46 72 57
43 65 55
26 42 29
26 42 29
26 42 29
26 42 29
26 42 29
26 42 29
26 42 29
26 42 29
26 42 29
26 42 29
26 42 29
114 200 149
114 199 148
114 199 148
114 199 148
105 177 142
113 198 147
113 198 147
113 198 147
113 198 147
113 198 147
112 198 147
90 156 94
25 41 27
27 47 29
27 47 29
25 41 27
25 41 27
27 47 29
25 41 27
27 47 29
27 47 29
25 41 27
25 41 27
25 41 27
102 174 139
110 196 144
110 196 144
102 174 139
102 174 139
110 196 144
102 174 139
102 174 139
102 174 139
110 196 144
110 196 144
102 174 139
110 196 144
110 195 144
110 195 144
110 195 144
102 174 139
102 174 139
110 195 144
110 195 144
110 195 144
110 195 144
110 195 144
110 195 144
102 174 139
102 174 139
102 174 139
102 174 139
102 174 139
102 174 139
102 174 139
102 174 139
102 174 139
102 174 139
102 174 139
102 174 139
102 174 139
110 195 144
110 195 144
110 195 144
110 195 144
110 195 144
110 195 144
110 195 144
102 174 139
110 195 144
110 195 144
110 195 144
110 195 144
110 195 144
102 174 139
110 195 144
102 174 139
102 174 139
102 174 139
102 174 139
110 195 144
102 174 139
102 174 139
102 174 139
102 174 139
110 195 144
110 195 144
102 174 139
110 195 144
102 174 139
102 174 139
102 174 139
102 174 139
102 174 139
102 174 139
102 174 139
102 174 139
102 174 139
110 195 145
102 174 139
110 195 145
110 195 145
111 195 145
111 195 145
111 195 145
111 195 145
111 195 145
111 195 145
103 174 140
111 195 145
103 174 140
103 174 140
103 174 140
111 195 145
103 174 140
103 174 140
103 174 140
103 174 140
103 174 140
103 174 140
103 174 140
103 174 140
111 195 145
111 195 145
111 195 145
111 195 145
111 195 145
111 195 145
111 195 145
111 195 145
45 66 58
45 67 58
45 67 58
45 67 58
45 67 58
45 67 58
46 67 59
46 68 59
46 68 59
48 74 61
49 74 61
49 75 61
49 75 61
49 75 61
50 75 62
50 76 62
50 76 62
50 76 62
32 52 35
114 184 151
114 185 151
115 185 152
115 185 152
123 207 157
116 186 153
116 187 153
116 187 153
117 187 154
117 188 154
126 209 160
126 210 160
126 210 161
127 210 161
127 211 162
55 81 67
29 45 32
28 44 32
28 44 32
31 51 33
28 44 31
130 215 165
131 215 165
26 42 29
26 42 29
29 49 31
26 42 29
26 42 29
26 42 29
76 127 82
135 220 170
128 200 165
137 222 171
137 222 172
130 202 167
131 202 168
139 225 174
140 225 174
133 205 170
133 205 170
142 227 176
135 207 172
136 207 172
136 208 173
137 209 174
138 210 174
146 232 181
147 232 181
140 212 177
149 234 183
149 235 183
150 235 184
151 236 185
143 215 180
152 237 186
153 238 187
153 239 187
154 239 188
155 240 189
147 219 184
156 241 190
148 220 185
149 221 186
150 222 186
150 222 187
151 223 187
159 245 193
152 224 188
160 246 194
153 225 189
153 225 190
27 47 29
27 47 29
28 47 29
28 47 29
27 47 29
27 47 29
27 47 29
27 47 29
27 47 29
27 47 29
27 47 29
27 47 29
25 41 27
27 47 29
27 47 29
27 47 29
28 48 29
28 48 30
28 48 30
87 109 99
87 109 99
87 109 99
87 109 99
86 108 98
28 48 30
28 48 30
25 41 28
28 48 30
28 48 30
25 41 28
28 48 30
83 105 95
85 111 96
82 104 94
81 103 93
81 103 92
148 220 185
148 220 185
81 107 92
78 100 90
77 99 89
76 98 88
28 48 30
28 48 30
28 48 30
29 48 30
28 48 30
28 48 30
28 48 30
26 42 29
28 48 30
28 48 30
28 48 30
28 48 30
28 48 30
28 48 30
29 49 31
64 86 76
63 85 75
65 91 76
61 83 73
63 89 74
60 82 72
59 81 71
61 86 72
57 79 69
57 78 68
56 78 68
55 77 67
57 83 68
56 82 67
53 75 65
55 80 66
127 212 162
127 212 161
118 190 155
125 210 160
125 210 159
124 209 158
116 187 152
115 187 152
122 207 157
122 207 156
121 206 156
121 206 155
120 205 155
112 183 149
119 204 154
119 204 153
26 42 29
26 42 29
26 42 29
26 42 29
26 42 29
26 42 29
26 42 29
26 42 29
26 42 29
26 42 29
26 42 29
114 200 149
106 178 143
114 199 148
114 199 148
113 199 148
113 199 147
113 198 147
105 177 142
113 198 147
113 198 147
112 198 147
25 41 27
25 41 27
25 41 27
25 41 27
27 47 29
25 41 27
25 41 27
27 47 29
27 47 29
25 41 27
25 41 27
25 41 27
25 41 27
110 196 145
110 196 144
110 196 144
102 174 139
102 174 139
110 196 144
110 196 144
110 196 144
110 196 144
102 174 139
102 174 139
102 174 139
110 196 144
110 195 144
110 195 144
110 195 144
110 195 144
110 195 144
102 174 139
110 195 144
102 174 139
110 195 144
110 195 144
110 195 144
110 195 144
102 174 139
110 195 144
102 174 139
102 174 139
102 174 139
102 174 139
102 174 139
102 174 139
110 195 144
102 174 139
102 174 139
102 174 139
110 195 144
102 174 139
110 195 144
102 174 139
110 195 144
110 195 144
110 195 144
110 195 144
110 195 144
102 174 139
110 195 144
110 195 144
110 195 144
110 195 144
102 174 139
102 174 139
102 174 139
102 174 139
110 195 144
102 174 139
102 174 139
110 195 144
102 174 139
110 195 144
102 174 139
110 195 144
102 174 139
110 195 144
110 195 144
110 195 144
110 195 144
102 174 139
102 174 139
102 174 139
110 195 145
102 174 139
110 195 145
110 195 145
110 195 145
102 174 139
110 195 145
110 195 145
110 195 145
110 195 145
111 195 145
111 195 145
111 195 145
111 195 145
103 174 139
111 195 145
111 195 145
103 174 140
111 195 145
103 174 140
103 174 140
103 174 140
103 174 140
103 174 140
103 174 140
103 174 140
103 174 140
103 174 140
111 195 145
111 195 145
111 195 145
111 195 145
111 195 145
111 195 145
103 174 140
110 180 147
45 67 58
45 67 58
45 67 58
45 67 58
45 67 58
46 67 58
46 68 59
48 74 60
48 74 61
49 74 61
49 75 61
49 75 61
49 75 61
50 75 62
50 76 62
50 76 62
50 76 62
48 70 61
32 52 35
32 52 35
30 46 33
32 52 35
30 46 33
86 150 90
116 187 153
117 187 154
125 208 159
125 209 160
126 209 160
126 210 160
119 189 156
127 211 161
127 211 162
128 212 162
128 212 163
29 45 32
28 44 32
28 44 32
130 214 164
131 215 165
123 194 160
59 84 70
29 49 31
26 42 29
26 42 29
26 42 29
26 42 29
26 42 29
26 42 29
26 42 29
28 48 30
26 42 28
28 48 30
84 149 87
132 203 169
132 204 169
133 205 170
142 227 176
134 206 171
135 207 172
136 208 173
137 208 173
137 209 174
146 231 180
147 232 181
148 233 182
148 234 182
149 234 183
150 235 184
150 236 184
151 236 185
152 237 186
152 238 187
153 238 187
154 239 188
146 218 183
147 219 184
148 220 184
148 220 185
149 221 186
157 243 192
158 244 192
151 223 187
151 223 188
152 224 188
152 224 189
161 246 195
153 225 190
153 226 190
27 47 29
27 47 29
28 48 29
28 48 29
28 47 29
27 47 29
27 47 29
27 47 29
27 47 29
27 47 29
27 47 29
27 47 29
27 47 29
27 47 29
27 47 29
27 47 29
28 48 29
28 48 30
88 110 100
90 116 101
88 110 99
87 109 99
87 109 99
87 109 99
87 108 98
89 114 100
86 108 98
85 107 97
85 107 97
87 113 98
84 106 96
83 105 95
83 105 95
82 104 94
82 103 93
81 103 93
149 221 186
148 220 185
155 241 190
147 219 184
146 218 183
145 217 182
28 48 30
28 48 30
29 48 30
29 49 31
26 42 29
29 48 30
29 48 30
26 42 29
28 48 30
28 48 30
28 48 30
28 48 30
28 48 30
28 48 30
65 87 77
64 86 76
63 85 75
62 84 74
62 83 74
61 83 73
60 82 72
61 87 73
61 87 72
57 79 69
57 79 69
58 84 69
58 83 69
54 76 66
54 76 66
55 81 66
55 81 66
128 212 162
127 212 161
118 190 155
118 189 154
125 210 159
116 188 153
116 187 153
115 187 152
115 186 151
114 186 151
122 206 156
113 185 150
120 205 155
120 205 154
112 183 148
111 183 148
26 42 29
26 42 29
26 42 29
26 42 29
26 42 29
26 42 29
26 42 29
26 42 29
26 42 29
26 42 29
115 200 149
114 200 149
106 178 143
114 199 148
114 199 148
113 199 148
113 199 147
113 198 147
113 198 147
113 198 147
113 198 147
104 176 141
25 41 27
25 41 27
27 47 29
27 47 29
25 41 27
25 41 27
25 41 27
27 47 29
25 41 27
25 41 27
25 41 27
25 41 27
25 41 27
110 196 145
110 196 144
110 196 144
110 196 144
110 196 144
110 196 144
110 196 144
110 196 144
110 196 144
110 196 144
110 196 144
110 196 144
110 196 144
102 174 139
102 174 139
102 174 139
110 195 144
110 195 144
102 174 139
110 195 144
110 195 144
110 195 144
110 195 144
102 174 139
102 174 139
102 174 139
102 174 139
102 174 139
102 174 139
110 195 144
102 174 139
102 174 139
102 174 139
102 174 139
102 174 139
102 174 139
102 174 139
110 195 144
110 195 144
110 195 144
110 195 144
102 174 139
110 195 144
110 195 144
110 195 144
110 195 144
110 195 144
102 174 139
110 195 144
110 195 144
102 174 139
110 195 144
102 174 139
102 174 139
102 174 139
102 174 139
102 174 139
102 174 139
102 174 139
102 174 139
102 174 139
102 174 139
110 195 144
110 195 144
110 195 144
110 195 144
110 195 144
110 195 144
110 195 144
110 195 144
110 195 144
110 195 145
110 195 145
102 174 139
110 195 145
110 195 145
110 195 145
102 174 139
110 195 145
110 195 145
110 195 145
110 195 145
110 195 145
111 195 145
103 174 139
111 195 145
111 195 145
103 174 139
111 195 145
103 174 140
103 174 140
111 195 145
103 174 140
103 174 140
103 174 140
103 174 140
103 174 140
103 174 140
103 174 140
103 174 140
111 195 145
111 195 145
111 195 145
111 195 145
111 195 145
111 195 145
110 180 147
110 180 147
111 180 147
111 180 148
111 181 148
111 181 148
46 67 58
48 74 60
48 74 60
49 74 61
49 74 61
49 75 61
49 75 61
49 75 61
50 75 62
50 76 62
50 76 62
48 70 61
48 70 61
32 52 35
30 46 34
30 46 33
32 52 35
32 52 35
32 52 35
32 52 35
32 52 34
117 188 154
125 209 160
118 189 155
118 189 155
127 210 161
119 190 156
128 211 162
120 191 157
129 212 163
29 45 32
29 45 32
130 214 164
122 194 159
123 194 160
131 216 166
59 85 70
26 42 29
26 42 29
26 42 29
26 42 29
26 42 29
26 42 29
26 42 29
26 42 29
26 42 29
26 42 29
28 48 30
28 48 30
28 48 30
28 48 30
28 48 30
28 48 30
83 149 87
136 207 172
136 208 173
137 209 174
138 210 175
146 232 181
147 232 181
140 212 177
149 234 183
149 235 183
142 214 179
151 236 185
151 237 186
152 238 186
153 238 187
153 239 188
154 240 188
147 219 184
155 241 190
148 220 185
149 221 185
149 221 186
150 222 187
150 222 187
159 245 193
160 245 194
152 224 189
153 225 189
153 225 190
153 226 190
27 47 29
27 47 29
27 47 29
28 48 29
28 48 29
25 41 28
28 48 29
28 47 29
27 47 29
27 47 29
27 47 29
27 47 29
27 47 29
27 47 29
25 41 27
27 47 29
28 47 29
28 48 29
28 48 30
88 110 100
88 110 100
88 110 100
90 116 101
88 109 99
87 109 99
87 109 99
87 108 98
86 108 98
86 108 97
85 107 97
85 107 96
84 106 96
86 112 97
86 111 96
83 104 94
84 110 95
158 243 192
157 243 191
148 220 185
148 220 185
147 219 184
146 218 183
28 48 29
28 48 30
28 48 30
29 49 30
29 49 31
29 49 31
26 42 29
26 42 29
29 49 30
29 48 30
28 48 30
28 48 30
28 48 30
28 48 30
28 48 30
65 87 77
64 86 76
63 85 75
63 84 75
62 84 74
61 83 73
60 82 72
62 88 73
58 80 70
58 80 70
57 79 69
58 84 70
58 84 69
57 83 68
56 82 67
55 81 67
128 213 163
128 213 162
127 212 161
126 211 161
118 189 155
125 210 159
116 188 153
116 187 153
115 187 152
115 186 152
114 186 151
114 185 150
121 206 155
121 205 155
112 184 149
112 183 148
111 183 148
45 71 56
45 71 56
44 70 55
41 63 53
26 42 29
26 42 29
26 42 29
26 42 29
26 42 29
26 42 29
115 200 149
114 200 149
114 200 148
114 199 148
106 178 142
113 199 148
113 199 147
105 177 142
113 198 147
113 198 147
104 176 141
112 198 147
25 41 27
25 41 27
25 41 27
25 41 27
25 41 27
25 41 27
25 41 27
25 41 27
25 41 27
25 41 27
25 41 27
25 41 27
29 49 31
110 196 144
110 196 144
110 196 144
110 196 144
110 196 144
110 196 144
110 196 144
102 174 139
110 196 144
102 174 139
110 196 144
102 174 139
102 174 139
110 195 144
102 174 139
102 174 139
102 174 139
102 174 139
102 174 139
102 174 139
110 195 144
102 174 139
102 174 139
110 195 144
110 195 144
110 195 144
102 174 139
102 174 139
110 195 144
102 174 139
102 174 139
102 174 139
102 174 139
102 174 139
110 195 144
102 174 139
110 195 144
102 174 139
110 195 144
102 174 139
110 195 144
110 195 144
102 174 139
110 195 144
110 195 144
110 195 144
102 174 139
110 195 144
110 195 144
110 195 144
102 174 139
102 174 139
102 174 139
102 174 139
102 174 139
102 174 139
102 174 139
102 174 139
102 174 139
102 174 139
102 174 139
102 174 139
102 174 139
102 174 139
110 195 144
102 174 139
102 174 139
110 195 144
110 195 144
110 195 144
110 195 144
110 195 144
110 195 144
110 195 144
110 195 145
102 174 139
102 174 139
102 174 139
102 174 139
102 174 139
102 174 139
102 174 139
110 195 145
110 195 145
110 195 145
111 195 145
103 174 139
111 195 145
111 195 145
103 174 139
103 174 139
103 174 140
103 174 140
103 174 140
103 174 140
103 174 140
103 174 140
111 195 145
103 174 140
111 195 145
111 195 145
111 195 145
111 195 145
111 195 145
111 195 145
103 174 140
110 180 147
110 180 147
111 180 148
111 181 148
111 181 148
119 202 153
119 202 153
119 202 154
120 202 154
120 203 154
120 203 154
49 75 61
49 75 61
49 75 61
50 75 62
50 76 62
48 70 61
48 70 61
49 70 61
49 71 62
32 52 35
32 52 35
32 52 35
32 52 35
32 52 35
32 52 35
117 187 154
117 188 154
118 188 155
118 189 155
119 189 155
119 190 156
120 190 156
128 212 162
120 191 157
129 213 163
29 45 32
129 214 164
130 214 164
131 215 165
131 216 165
132 216 166
57 79 69
60 85 71
29 49 31
26 42 29
26 42 29
29 49 31
26 42 29
26 42 29
26 42 29
26 42 29
26 42 29
28 48 30
26 42 28
28 48 30
28 48 30
28 48 30
28 48 30
28 48 30
28 48 30
28 48 30
28 48 30
138 210 175
139 211 176
148 233 182
148 234 182
149 234 183
150 235 184
150 236 185
143 215 180
152 237 186
153 238 187
145 217 182
154 239 188
155 240 189
147 219 184
148 220 185
148 220 185
149 221 186
150 222 186
150 222 187
159 244 193
151 223 188
160 246 194
152 225 189
153 225 190
153 226 190
27 47 29
27 47 29
27 47 29
28 47 29
28 48 29
28 48 29
28 48 29
28 48 29
25 41 28
28 47 29
28 47 29
27 47 29
27 47 29
27 47 29
25 41 27
27 47 29
27 47 29
28 48 29
28 48 29
89 111 101
89 111 101
89 111 100
88 110 100
88 110 100
88 110 100
88 109 99
87 109 99
89 115 100
89 115 100
86 108 98
86 107 97
87 113 98
85 106 96
86 112 97
86 112 97
85 111 96
85 111 96
158 244 192
158 243 192
157 242 191
156 241 190
155 241 190
155 240 189
28 48 30
28 48 30
28 48 30
29 49 31
75 97 87
74 96 86
73 95 85
29 49 31
29 49 31
29 49 31
26 42 29
29 48 30
29 48 30
28 48 30
29 49 30
65 87 77
64 86 76
64 86 76
63 85 75
62 84 74
61 83 73
60 82 72
59 81 71
59 80 70
58 80 70
57 79 69
59 84 70
58 84 69
57 83 68
56 82 67
56 81 67
129 213 163
128 213 162
127 212 161
126 211 161
126 211 160
125 210 159
117 188 153
116 188 153
115 187 152
115 186 152
114 186 151
114 185 151
113 185 150
113 184 149
112 184 149
120 205 154
119 204 153
119 204 153
45 71 56
44 70 55
44 70 55
44 69 55
43 69 54
43 69 54
40 62 52
42 68 53
42 68 53
115 200 149
114 200 149
114 200 148
114 199 148
114 199 148
114 199 148
113 199 147
113 198 147
113 198 147
113 198 147
104 176 141
112 198 147
25 41 27
25 41 27
25 41 27
25 41 27
27 47 29
25 41 27
25 41 27
25 41 27
27 47 29
25 41 27
25 41 27
27 47 29
29 49 31
110 196 144
110 196 144
110 196 144
110 196 144
110 196 144
110 196 144
110 196 144
110 196 144
102 174 139
102 174 139
110 196 144
110 196 144
110 196 144
102 174 139
102 174 139
102 174 139
102 174 139
110 195 144
102 174 139
102 174 139
102 174 139
110 195 144
102 174 139
102 174 139
102 174 139
110 195 144
110 195 144
110 195 144
110 195 144
102 174 139
102 174 139
102 174 139
110 195 144
102 174 139
102 174 139
110 195 144
102 174 139
102 174 139
110 195 144
110 195 144
102 174 139
110 195 144
110 195 144
110 195 144
102 174 139
102 174 139
110 195 144
110 195 144
110 195 144
110 195 144
102 174 139
102 174 139
102 174 139
102 174 139
102 174 139
102 174 139
102 174 139
102 174 139
102 174 139
102 174 139
102 174 139
102 174 139
102 174 139
110 195 144
110 195 144
110 195 144
110 195 144
110 195 144
110 195 144
110 195 144
110 195 144
110 195 144
102 174 139
102 174 139
110 195 144
110 195 144
102 174 139
102 174 139
102 174 139
102 174 139
102 174 139
110 195 145
102 174 139
110 195 145
102 174 139
102 174 139
103 174 139
103 174 139
103 174 139
103 174 139
103 174 139
103 174 139
103 174 139
103 174 140
103 174 140
103 174 140
103 174 140
103 174 140
103 174 140
103 174 140
103 174 140
111 195 145
111 195 145
111 195 145
111 195 145
111 195 145
32 48 36
34 54 37
34 54 37
32 48 36
119 201 153
119 202 153
119 202 154
119 202 154
120 202 154
120 203 154
120 203 154
120 203 155
121 203 155
121 204 155
121 204 156
114 184 151
114 184 151
48 70 61
49 70 61
49 71 62
32 52 35
32 52 35
30 46 34
32 52 35
30 46 33
117 187 153
117 188 154
117 188 154
118 188 155
118 189 155
127 210 161
127 211 161
120 190 157
120 191 157
121 191 158
121 192 158
129 214 163
130 214 164
130 215 164
123 194 160
131 216 166
124 195 161
59 85 70
60 86 71
27 42 29
26 42 29
26 42 29
26 42 29
26 42 29
26 42 29
26 42 29
26 42 29
26 42 29
26 42 29
28 48 30
28 48 30
28 48 30
28 48 30
28 48 30
28 48 30
28 48 30
28 48 30
138 210 174
138 210 175
139 211 176
140 212 177
141 213 177
149 235 183
142 214 179
143 215 180
143 215 180
152 238 186
145 217 182
146 218 182
154 240 188
147 219 184
156 241 190
148 220 185
149 221 186
149 222 186
150 222 187
159 244 193
151 223 188
152 224 189
152 224 189
153 225 190
153 225 190
154 226 191
27 47 29
27 47 29
27 47 29
28 47 29
28 48 29
28 48 30
28 48 29
28 48 29
28 48 29
28 48 29
28 48 29
28 47 29
27 47 29
27 47 29
27 47 29
27 47 29
27 47 29
28 48 29
28 48 30
89 111 101
89 111 101
89 111 101
89 111 100
88 110 100
88 110 100
88 110 100
90 116 101
87 109 99
87 109 99
89 115 100
86 108 98
88 114 99
87 113 98
87 113 98
86 112 97
86 111 96
159 245 193
158 244 193
158 243 192
157 243 191
156 242 191
156 241 190
25 41 28
28 48 30
28 48 30
28 48 30
76 98 88
75 97 87
77 103 88
73 95 85
73 94 84
72 94 84
71 93 83
70 92 82
69 91 81
68 90 80
26 42 29
66 88 78
66 87 77
65 87 77
64 86 76
63 85 75
62 84 74
129 201 166
129 200 165
128 199 165
127 198 164
134 219 168
133 218 167
59 85 70
58 84 69
57 83 68
56 82 67
56 82 67
121 192 158
128 213 162
119 191 156
127 212 161
126 211 160
117 189 154
117 188 153
116 188 153
115 187 152
115 186 152
114 186 151
114 185 151
113 185 150
113 184 150
112 184 149
112 183 149
119 204 153
119 204 153
45 71 56
44 70 55
44 70 55
41 63 53
43 69 54
43 69 54
40 62 52
42 68 53
42 68 53
25 41 28
25 41 28
25 41 28
75 127 81
114 199 148
114 199 148
113 199 147
113 198 147
113 198 147
105 177 141
113 198 147
112 198 147
25 41 28
25 41 28
25 41 28
25 41 27
25 41 27
25 41 27
25 41 27
25 41 27
25 41 27
25 41 27
27 47 29
25 41 27
29 49 31
110 196 144
110 196 144
110 196 144
110 196 144
110 196 144
110 196 144
110 196 144
102 174 139
110 196 144
110 196 144
110 196 144
102 174 139
110 196 144
102 174 139
102 174 139
102 174 139
102 174 139
102 174 139
102 174 138
102 174 138
102 174 138
102 174 138
102 174 138
102 174 138
110 195 144
102 174 138
110 195 144
110 195 144
110 195 144
102 174 138
110 195 144
110 195 144
110 195 144
110 195 144
110 195 144
110 195 144
102 174 139
102 174 139
102 174 139
110 195 144
110 195 144
110 195 144
110 195 144
102 174 139
110 195 144
102 174 139
110 195 144
110 195 144
110 195 144
102 174 139
102 174 139
102 174 139
102 174 139
102 174 139
102 174 139
110 195 144
102 174 139
102 174 139
102 174 139
102 174 139
102 174 139
102 174 139
102 174 139
110 195 144
110 195 144
110 195 144
110 195 144
110 195 144
110 195 144
110 195 144
110 195 144
110 195 144
102 174 139
110 195 144
110 195 144
110 195 144
102 174 139
102 174 139
102 174 139
102 174 139
102 174 139
102 174 139
102 174 139
102 174 139
102 174 139
102 174 139
102 174 139
102 174 139
103 174 139
103 174 139
103 174 139
111 195 145
103 174 139
111 195 145
111 195 145
103 174 140
103 174 140
111 195 145
103 174 140
111 195 145
103 174 140
111 195 145
111 195 145
111 195 145
111 195 145
111 195 145
32 48 36
34 54 38
34 54 37
34 54 37
34 54 37
32 48 36
31 48 35
31 47 35
31 47 35
120 203 154
120 203 155
120 203 155
121 204 155
121 204 155
113 184 150
114 184 151
114 184 151
114 184 151
115 185 152
115 185 152
115 186 152
32 52 35
32 52 35
30 46 34
124 208 158
117 187 154
117 188 154
125 209 160
118 189 155
118 189 155
119 190 156
119 190 156
120 191 157
120 191 157
121 192 158
129 213 163
129 214 164
130 214 164
130 215 165
131 215 165
132 216 166
132 217 166
133 217 167
133 218 168
29 49 31
29 49 31
27 42 29
26 42 29
26 42 29
26 42 29
29 49 31
26 42 29
26 42 29
26 42 29
28 48 30
28 48 30
28 48 30
28 48 30
28 48 30
28 48 30
28 48 30
137 209 174
146 231 180
139 211 176
139 211 176
140 212 177
149 234 183
142 214 178
142 214 179
151 237 185
152 237 186
144 217 181
145 217 182
146 218 183
27 47 29
27 47 29
83 148 86
149 221 185
149 221 186
150 222 187
150 223 187
151 223 188
152 224 188
160 246 194
153 225 190
153 225 190
154 226 191
27 47 29
27 47 29
27 47 29
27 47 29
28 48 29
28 48 29
28 48 30
28 48 30
28 48 30
28 48 29
25 41 28
28 48 29
28 48 29
28 48 29
28 47 29
27 47 29
27 47 29
27 47 29
28 48 29
90 112 101
90 112 101
89 111 101
89 111 101
89 111 101
91 117 102
91 117 102
91 117 102
90 116 101
87 109 99
87 109 99
89 115 100
89 115 99
88 114 99
88 113 98
87 113 98
86 112 97
86 112 97
159 245 194
159 244 193
158 244 192
149 221 186
157 242 191
156 241 190
25 41 28
28 48 30
28 48 30
28 48 30
76 98 88
75 97 87
74 96 86
74 95 85
73 95 85
72 94 84
71 93 83
70 92 82
69 91 81
71 97 82
67 89 79
69 95 80
68 94 79
67 93 78
64 86 76
65 91 77
130 202 167
130 201 166
129 200 165
128 199 165
127 199 164
126 198 163
133 218 168
133 218 167
132 217 166
131 216 165
130 215 164
129 214 164
129 214 163
128 213 162
127 212 162
127 212 161
126 211 160
117 189 154
117 188 154
116 188 153
115 187 152
123 208 157
114 186 151
114 185 151
113 185 150
113 184 150
112 184 149
112 183 149
119 204 154
119 204 153
118 203 153
44 70 55
44 70 55
44 69 55
41 63 53
43 69 54
42 68 54
40 62 52
42 68 53
25 41 28
25 41 28
25 41 28
25 41 28
25 41 28
25 41 28
25 41 28
28 48 29
28 48 29
25 41 28
113 198 147
112 198 147
25 41 28
28 47 29
25 41 28
25 41 28
25 41 28
25 41 28
28 47 29
25 41 28
25 41 28
25 41 28
25 41 28
25 41 28
90 156 93
110 196 144
110 196 144
110 196 144
110 196 144
110 196 144
102 174 139
102 174 139
110 196 144
110 196 144
102 174 139
102 174 139
110 196 144
110 196 144
102 174 139
110 195 144
102 174 139
110 195 144
102 174 138
102 174 138
102 174 138
102 174 138
102 174 138
110 195 144
102 174 138
110 195 144
102 174 138
110 195 144
110 195 144
110 195 144
110 195 144
110 195 144
102 174 138
110 195 144
110 195 144
110 195 144
102 174 138
102 174 139
110 195 144
102 174 139
110 195 144
102 174 139
102 174 139
110 195 144
102 174 139
110 195 144
110 195 144
110 195 144
102 174 139
110 195 144
110 195 144
110 195 144
102 174 139
102 174 139
102 174 139
102 174 139
102 174 139
102 174 139
102 174 139
102 174 139
110 195 144
102 174 139
102 174 139
110 195 144
102 174 139
110 195 144
110 195 144
102 174 139
110 195 144
102 174 139
110 195 144
110 195 144
110 195 144
102 174 139
110 195 144
102 174 139
110 195 144
102 174 139
102 174 139
102 174 139
110 195 144
102 174 139
102 174 139
102 174 139
102 174 139
102 174 139
110 195 145
102 174 139
102 174 139
102 174 139
110 195 145
103 174 139
110 195 145
111 195 145
111 195 145
111 195 145
111 195 145
111 195 145
111 195 145
111 195 145
111 195 145
111 195 145
111 195 145
111 195 145
111 195 145
111 195 145
111 195 145
34 54 38
32 48 36
34 54 38
34 54 37
34 54 37
32 48 36
32 48 36
31 48 35
31 47 35
31 47 35
31 47 35
31 47 35
31 47 35
33 53 36
87 150 91
114 184 151
114 184 151
114 185 151
115 185 152
115 185 152
116 186 152
33 53 36
32 52 35
116 187 153
116 187 153
117 188 154
117 188 154
118 188 155
118 189 155
119 189 155
119 190 156
119 190 156
120 191 157
120 191 157
129 213 163
27 43 30
27 43 30
77 128 83
131 215 165
131 216 165
132 216 166
132 217 167
133 217 167
134 218 168
134 219 168
27 43 29
29 49 31
27 42 29
26 42 29
26 42 29
26 42 29
26 42 29
26 42 29
26 42 29
28 48 30
28 48 30
28 48 30
28 48 30
28 48 30
28 48 30
28 48 30
138 209 174
138 210 175
139 211 176
140 212 177
140 212 177
149 235 183
142 214 179
143 215 179
151 237 186
144 216 181
145 217 182
146 218 182
83 148 86
27 47 29
27 47 29
27 47 29
27 47 29
27 47 29
25 41 27
27 47 29
27 47 29
152 224 189
161 246 195
153 225 190
154 226 190
27 47 28
27 47 29
27 47 29
27 47 29
27 47 29
28 48 29
28 48 29
28 48 30
28 48 30
28 48 30
25 41 28
28 48 30
28 48 29
28 48 29
28 48 29
28 48 29
25 41 28
28 47 29
28 47 29
28 48 29
92 118 103
90 112 102
92 118 103
90 111 101
92 118 103
89 111 101
89 111 101
88 110 100
88 110 100
88 110 99
87 109 99
87 109 99
86 108 98
88 114 99
88 114 99
87 113 98
87 113 98
160 246 194
160 245 194
159 244 193
158 244 192
158 243 192
157 242 191
75 127 81
25 41 28
28 48 30
28 48 30
28 48 30
76 98 88
75 97 87
77 103 88
76 102 87
73 95 85
72 94 84
71 93 83
70 92 82
69 91 81
68 90 80
70 96 81
67 89 79
68 94 79
67 93 78
66 92 77
66 91 77
139 224 173
138 223 172
129 200 166
136 221 170
135 220 169
134 219 168
133 218 168
125 196 162
132 217 166
131 216 165
130 215 165
130 215 164
121 193 158
128 213 162
127 212 162
127 212 161
126 211 160
125 210 160
117 188 154
116 188 153
116 187 152
115 187 152
114 186 151
114 186 151
113 185 150
121 206 155
120 205 154
112 183 149
119 204 154
119 204 153
118 203 153
118 203 152
41 63 53
41 63 53
43 69 54
43 69 54
42 68 54
42 68 53
42 68 53
28 48 29
25 41 28
25 41 28
25 41 28
25 41 28
25 41 28
28 48 29
25 41 28
25 41 28
28 48 29
28 48 29
25 41 28
36 57 47
38 64 49
38 64 49
38 63 48
35 57 47
25 41 28
25 41 28
25 41 28
25 41 28
25 41 28
25 41 28
25 41 28
90 156 93
110 196 144
110 196 144
110 196 144
110 196 144
110 196 144
110 196 144
102 174 139
102 174 139
110 196 144
102 174 139
110 196 144
110 196 144
110 196 144
102 174 139
110 195 144
102 174 138
102 174 138
102 174 138
102 174 138
102 174 138
102 174 138
102 174 138
110 195 144
102 174 138
110 195 144
102 174 138
110 195 144
102 174 138
110 195 144
110 195 144
110 195 144
110 195 144
102 174 138
110 195 144
110 195 144
110 195 144
102 174 138
110 195 144
110 195 144
110 195 144
102 174 139
102 174 139
102 174 139
102 174 139
110 195 144
102 174 139
102 174 139
102 174 139
102 174 139
110 195 144
110 195 144
102 174 139
102 174 139
110 195 144
102 174 139
110 195 144
110 195 144
102 174 139
110 195 144
102 174 139
102 174 139
102 174 139
102 174 139
102 174 139
110 195 144
110 195 144
110 195 144
110 195 144
110 195 144
110 195 144
110 195 144
110 195 144
110 195 144
110 195 144
110 195 144
110 195 144
110 195 144
102 174 139
102 174 139
102 174 139
102 174 139
110 195 144
102 174 139
110 195 145
110 195 145
110 195 145
102 174 139
102 174 139
102 174 139
102 174 139
110 195 145
110 195 145
110 195 145
110 195 145
111 195 145
111 195 145
111 195 145
103 174 139
103 174 139
111 195 145
111 195 145
111 195 145
111 195 145
27 43 30
27 43 30
27 43 30
35 54 38
32 48 36
34 54 38
34 54 38
34 54 37
34 54 37
32 48 36
32 48 36
31 48 35
31 47 35
31 47 35
31 47 35
31 47 35
33 53 36
33 53 36
33 53 36
33 53 36
33 53 36
33 53 36
87 150 91
116 186 153
30 46 34
116 186 153
116 187 153
117 187 153
125 209 159
117 188 154
118 189 155
118 189 155
119 189 156
127 211 161
120 190 157
128 212 162
129 212 163
129 213 163
130 214 164
27 43 30
27 43 30
27 43 30
27 43 30
27 43 30
27 43 30
27 43 30
134 218 168
134 219 169
27 43 30
29 49 31
29 49 31
27 43 29
26 42 29
26 42 29
26 42 29
26 42 29
26 42 29
26 42 29
29 48 30
28 48 30
28 48 30
28 48 30
28 48 30
145 231 179
138 210 175
139 211 175
139 211 176
140 212 177
141 213 178
141 214 178
142 214 179
143 215 180
144 216 180
144 216 181
145 217 182
146 218 183
27 47 29
27 47 29
27 47 29
27 47 29
27 47 29
27 47 29
27 47 29
27 47 29
27 47 29
25 41 27
27 47 29
27 47 29
27 47 28
27 47 29
27 47 29
27 47 29
27 47 29
28 47 29
28 48 29
28 48 30
89 111 101
92 118 103
89 111 101
90 112 101
90 112 102
90 112 102
90 112 102
25 41 28
28 48 29
28 48 29
28 48 29
28 48 29
90 112 102
90 112 102
90 112 102
92 118 103
90 112 102
90 111 101
158 230 195
166 251 200
157 229 194
88 110 100
90 116 101
90 116 101
90 115 100
87 109 98
89 114 99
86 107 97
87 113 98
87 113 98
161 246 195
160 245 194
159 245 193
159 244 193
158 243 192
157 243 191
25 41 28
25 41 28
28 48 30
28 48 30
77 99 89
76 98 88
76 97 87
75 97 87
76 102 87
73 95 85
72 94 84
71 93 83
70 92 82
69 91 81
69 90 80
68 90 80
69 95 80
68 94 79
67 93 78
67 92 78
66 92 77
139 224 173
138 223 172
137 222 171
136 221 170
135 220 169
126 198 163
126 197 162
125 196 162
132 217 166
131 216 165
130 215 165
130 215 164
129 214 163
128 213 162
128 213 162
127 212 161
126 211 160
117 189 154
117 189 154
116 188 153
116 187 152
115 187 152
114 186 151
114 186 151
113 185 150
121 206 155
112 184 149
112 184 149
119 204 154
119 204 153
119 204 153
118 203 152
41 63 53
44 69 55
43 69 54
43 69 54
42 68 54
42 68 53
42 68 53
25 41 28
28 48 30
25 41 28
25 41 28
25 41 28
25 41 28
25 41 28
25 41 28
25 41 28
25 41 28
28 48 29
30 50 32
104 176 141
38 64 49
35 57 47
35 57 47
37 63 48
37 63 48
35 57 46
37 63 48
37 63 48
37 63 48
34 56 46
25 41 28
90 156 93
110 196 144
110 196 144
110 196 144
110 196 144
102 174 139
110 196 144
110 196 144
110 196 144
102 174 139
110 196 144
110 196 144
110 196 144
110 196 144
102 174 138
102 174 138
102 174 138
102 174 138
110 195 144
102 174 138
102 174 138
102 174 138
102 174 138
102 174 138
102 174 138
102 174 138
102 174 138
110 195 144
102 174 138
110 195 144
110 195 144
110 195 144
110 195 144
110 195 144
110 195 144
110 195 144
110 195 144
110 195 144
110 195 144
110 195 144
102 174 138
102 174 138
102 174 138
102 174 138
102 174 139
102 174 139
110 195 144
102 174 139
102 174 139
102 174 139
102 174 139
102 174 139
102 174 139
110 195 144
110 195 144
102 174 139
110 195 144
102 174 139
102 174 139
110 195 144
102 174 139
102 174 139
102 174 139
102 174 139
102 174 139
102 174 139
110 195 144
110 195 144
110 195 144
110 195 144
110 195 144
102 174 139
110 195 144
110 195 144
102 174 139
110 195 144
102 174 139
110 195 144
110 195 144
102 174 139
102 174 139
102 174 139
102 174 139
102 174 139
102 174 139
102 174 139
102 174 139
102 174 139
102 174 139
102 174 139
102 174 139
110 195 145
102 174 139
110 195 145
110 195 145
103 174 139
110 195 145
111 195 145
111 195 145
111 195 145
111 195 145
111 195 145
111 195 145
111 195 145
27 43 30
27 43 30
27 43 30
35 55 38
35 54 38
34 54 38
34 54 38
34 54 38
32 48 36
32 48 36
32 48 36
34 54 37
31 48 36
31 47 35
34 54 37
31 47 35
31 47 35
33 53 37
31 47 35
33 53 36
31 47 35
33 53 36
33 53 36
33 53 36
115 186 152
116 187 153
116 187 153
117 187 154
117 188 154
117 188 154
118 189 155
126 210 161
119 190 156
119 190 156
128 212 162
128 212 162
129 213 163
129 213 163
130 214 164
27 43 30
27 43 30
27 43 30
27 43 30
27 43 30
29 49 32
27 43 30
27 43 30
135 219 169
62 88 73
62 88 74
63 89 74
61 83 73
27 43 29
29 49 31
26 42 29
26 42 29
26 42 29
26 42 29
29 49 31
29 48 30
28 48 30
28 48 30
137 209 173
137 209 174
138 210 175
147 232 181
140 212 176
148 234 182
141 213 178
142 214 179
151 236 185
143 215 180
144 216 181
153 238 187
145 217 182
27 47 29
27 47 29
27 47 29
28 47 29
27 47 29
27 47 29
27 47 29
27 47 29
27 47 29
27 47 29
27 47 29
27 47 29
27 47 29
27 47 29
27 47 29
27 47 29
27 47 29
27 47 29
28 48 29
28 48 29
28 48 30
89 111 101
89 111 101
90 112 101
90 112 102
90 112 102
93 119 104
93 119 104
93 119 104
91 113 102
91 113 102
93 119 104
93 119 104
91 113 102
91 112 102
90 112 102
90 112 102
92 118 103
158 230 195
158 230 195
166 251 200
166 251 200
157 229 194
157 229 194
156 228 193
164 249 198
164 249 198
163 248 197
88 114 99
88 114 98
161 247 196
161 246 195
160 246 194
159 245 194
151 223 188
158 244 192
157 243 191
25 41 28
25 41 28
28 48 30
28 48 30
77 99 89
77 98 88
76 98 88
75 97 87
74 96 86
73 95 85
72 94 84
71 93 83
70 92 82
72 98 83
69 91 81
68 90 80
69 95 80
68 94 79
68 93 79
67 93 78
140 225 174
139 224 173
138 223 172
137 222 171
136 221 170
135 220 170
126 198 163
126 197 163
125 197 162
124 196 161
131 216 165
131 216 165
122 193 159
121 193 158
120 192 157
120 191 156
119 191 156
126 211 160
126 211 160
117 189 154
116 188 153
116 187 153
115 187 152
115 186 151
114 186 151
113 185 150
121 206 155
112 184 149
112 184 149
119 204 154
119 204 153
119 204 153
118 203 152
118 203 152
43 69 55
43 69 54
43 69 54
42 68 53
40 62 52
42 68 53
25 41 28
25 41 28
25 41 28
28 48 30
25 41 28
28 48 30
28 48 30
25 41 28
25 41 28
25 41 28
25 41 28
90 156 94
112 198 146
112 197 146
38 64 48
37 63 48
37 63 48
35 57 47
35 57 46
37 63 48
37 63 48
34 56 46
37 63 48
37 63 48
90 156 93
26 46 28
102 174 139
110 196 144
102 174 139
110 196 144
110 196 144
110 196 144
110 196 144
110 196 144
110 196 144
110 196 144
110 196 144
110 196 144
102 174 138
102 174 138
102 174 138
110 195 144
102 174 138
110 195 144
102 174 138
110 195 144
102 174 138
110 195 144
102 174 138
102 174 138
102 174 138
102 174 138
110 195 144
110 195 144
110 195 144
110 195 144
110 195 144
110 195 144
110 195 144
110 195 144
102 174 138
110 195 144
110 195 144
102 174 138
102 174 138
102 174 138
110 195 144
102 174 138
110 195 144
102 174 138
102 174 138
102 174 139
102 174 139
102 174 139
102 174 139
102 174 139
102 174 139
110 195 144
110 195 144
102 174 139
110 195 144
110 195 144
110 195 144
110 195 144
110 195 144
110 195 144
110 195 144
102 174 139
102 174 139
102 174 139
110 195 144
110 195 144
110 195 144
110 195 144
110 195 144
110 195 144
110 195 144
102 174 139
102 174 139
102 174 139
110 195 144
110 195 144
110 195 144
110 195 144
102 174 139
102 174 139
102 174 139
102 174 139
102 174 139
102 174 139
102 174 139
102 174 139
102 174 139
102 174 139
102 174 139
102 174 139
110 195 145
110 195 145
102 174 139
110 195 145
110 195 145
103 174 139
110 195 145
111 195 145
103 174 139
111 195 145
111 195 145
111 195 145
111 195 145
27 43 30
27 43 30
35 55 38
35 55 38
32 48 36
34 54 38
34 54 38
34 54 38
34 54 38
32 48 36
32 48 36
32 48 36
34 54 37
34 54 37
31 47 35
31 47 35
33 53 37
31 47 35
33 53 36
33 53 36
33 53 36
33 53 36
115 186 152
116 186 152
116 187 153
116 187 153
117 187 154
117 188 154
118 188 154
118 189 155
118 189 155
119 190 156
119 190 156
128 212 162
128 212 163
129 213 163
129 213 164
130 214 164
28 44 31
27 43 31
27 43 30
27 43 30
27 43 30
27 43 30
27 43 30
27 43 30
135 219 169
62 88 73
62 88 74
63 89 74
64 90 75
64 90 76
63 85 75
66 92 77
66 92 78
67 93 78
26 42 29
29 49 31
29 49 31
29 49 31
136 208 173
137 209 174
138 210 174
138 210 175
147 233 181
140 212 177
141 213 177
141 213 178
142 214 179
151 236 185
143 216 180
144 216 181
145 217 182
27 47 29
27 47 29
27 47 29
27 47 29
28 47 29
28 47 29
27 47 29
27 47 29
27 47 29
27 47 29
27 47 29
27 47 29
27 47 29
27 47 29
27 47 29
27 47 29
27 47 29
27 47 29
27 47 29
28 48 29
28 48 29
89 111 101
89 111 101
90 112 101
90 112 102
90 112 102
93 119 104
91 112 102
91 113 102
93 119 104
93 119 104
93 119 104
91 113 103
93 119 104
93 119 104
93 119 104
93 119 104
93 119 104
93 119 104
167 252 201
158 230 195
158 230 195
158 230 195
157 229 194
165 251 199
165 250 199
164 250 198
164 249 198
163 249 197
155 227 191
154 226 191
162 247 196
153 225 190
160 246 194
160 245 194
159 244 193
150 222 187
25 41 27
25 41 28
25 41 28
28 48 30
81 107 92
80 106 91
77 99 88
78 104 89
75 97 87
74 96 86
73 95 85
72 94 84
71 93 83
71 92 82
72 98 83
69 91 81
70 96 81
69 95 80
68 94 80
68 93 79
67 93 78
140 225 174
131 203 168
138 223 172
137 222 171
136 221 170
127 199 164
127 198 163
126 197 163
125 197 162
132 217 166
123 195 160
123 194 159
130 215 164
121 193 158
120 192 157
120 191 156
127 212 161
126 211 160
126 211 160
125 210 159
116 188 153
124 209 158
123 208 157
123 208 157
122 207 156
113 185 150
113 185 150
112 184 149
112 184 149
119 205 154
119 204 153
119 204 153
118 203 152
118 203 152
109 181 146
109 181 146
117 202 151
108 180 145
108 180 145
42 68 53
26 41 28
26 41 28
26 41 28
26 41 28
26 41 28
26 41 28
25 41 28
25 41 28
28 48 30
25 41 28
25 41 28
90 156 94
112 198 146
112 198 146
112 197 146
37 63 48
37 63 48
37 63 48
37 63 48
37 63 48
37 63 48
37 63 48
37 63 48
37 63 48
90 156 93
24 40 26
24 40 26
24 40 26
27 46 28
24 40 26
24 40 26
24 40 26
83 148 86
102 174 139
110 196 144
102 174 138
110 196 144
102 174 138
102 174 138
102 174 138
102 174 138
102 174 138
102 174 138
102 174 138
110 195 144
110 195 144
102 174 138
110 195 144
102 174 138
102 174 138
110 195 144
110 195 144
110 195 144
110 195 144
110 195 144
110 195 144
102 174 138
110 195 144
102 174 138
110 195 144
110 195 144
110 195 144
110 195 144
102 174 138
102 174 138
102 174 138
102 174 138
102 174 138
110 195 144
102 174 138
102 174 138
102 174 138
102 174 138
102 174 139
110 195 144
102 174 139
110 195 144
110 195 144
102 174 139
110 195 144
102 174 139
102 174 139
110 195 144
110 195 144
102 174 139
110 195 144
110 195 144
102 174 139
110 195 144
110 195 144
102 174 139
102 174 139
102 174 139
102 174 139
110 195 144
110 195 144
102 174 139
110 195 144
110 195 144
110 195 144
110 195 144
110 195 144
110 195 144
102 174 139
102 174 139
102 174 139
102 174 139
102 174 139
102 174 139
102 174 139
110 195 144
102 174 139
110 195 144
110 195 144
102 174 139
110 195 145
110 195 145
110 195 145
110 195 145
110 195 145
110 195 145
110 195 145
110 195 145
103 174 139
110 195 145
111 195 145
103 174 139
111 195 145
111 195 145
27 43 31
27 43 31
46 68 59
46 68 59
35 55 38
35 55 38
35 54 38
34 54 38
32 48 36
32 48 36
32 48 36
32 48 36
32 48 36
32 48 36
31 48 35
31 47 35
34 54 37
31 47 35
33 53 37
33 53 36
33 53 36
31 51 34
123 207 157
116 186 153
116 187 153
116 187 153
117 188 154
117 188 154
118 189 155
118 189 155
119 189 156
119 190 156
127 211 162
128 212 162
128 212 163
129 213 163
129 214 164
57 83 69
58 84 69
28 44 31
27 43 31
30 50 32
27 43 30
27 43 30
27 43 30
126 198 163
135 220 169
60 82 72
60 82 72
63 89 74
64 90 75
65 91 76
65 91 76
66 92 77
64 86 76
67 93 78
68 94 79
69 95 80
67 89 79
136 208 172
136 208 173
137 209 174
138 210 175
147 232 181
139 211 176
140 212 177
141 213 178
142 214 178
142 214 179
143 215 180
144 216 181
144 217 181
145 217 182
27 47 29
27 47 29
27 47 29
27 47 29
28 48 29
28 48 29
28 48 29
28 47 29
25 41 27
27 47 29
27 47 29
27 47 29
27 47 29
27 47 29
27 47 29
25 41 27
27 47 29
27 47 29
28 47 29
28 48 29
91 117 102
89 111 101
90 112 101
90 112 102
90 112 102
90 112 102
91 112 102
93 119 104
93 119 104
91 113 103
91 113 103
91 113 103
91 113 103
93 119 104
93 119 104
93 119 104
93 119 104
93 119 104
167 253 201
167 252 201
167 252 201
158 230 195
166 251 200
166 251 200
165 251 199
75 127 81
164 250 199
164 249 198
163 249 198
155 227 192
162 248 196
162 247 196
161 247 195
160 246 195
160 245 194
159 245 193
158 244 192
25 41 27
25 41 28
25 41 28
28 48 30
78 100 90
78 99 89
79 105 90
76 98 88
75 97 87
77 102 88
73 95 85
72 94 84
72 93 83
71 93 82
70 92 82
71 97 82
70 96 81
69 95 80
66 88 78
68 94 79
67 93 78
140 225 174
139 224 173
138 223 172
137 222 171
136 221 171
127 199 164
127 198 163
134 219 168
125 197 162
124 196 161
131 217 166
123 194 159
122 194 159
121 193 158
128 214 163
120 191 157
127 212 161
126 211 160
126 211 160
125 210 159
124 210 159
124 209 158
123 208 157
123 208 157
114 186 151
121 207 156
121 206 155
120 206 155
112 184 149
111 183 148
111 183 148
119 204 153
110 182 147
110 181 147
117 202 152
117 202 151
117 202 151
116 201 150
116 201 150
116 201 150
26 42 28
26 42 28
26 42 28
26 42 28
26 42 28
26 42 28
28 48 30
26 41 28
28 48 30
26 41 28
26 41 28
112 198 146
112 198 146
112 198 146
112 197 146
37 63 48
37 63 48
37 63 48
35 57 46
35 56 46
37 63 48
37 63 48
37 63 48
37 63 48
90 156 93
24 40 26
24 40 26
24 40 26
24 40 26
24 40 26
24 40 26
24 40 26
24 40 26
24 40 26
24 40 26
24 40 26
24 40 26
24 40 26
102 174 138
102 174 138
110 195 144
102 174 138
102 174 138
102 174 138
102 174 138
101 174 138
110 195 144
101 174 138
101 174 138
101 174 138
101 174 138
110 195 144
101 174 138
110 195 144
110 195 144
110 195 144
110 195 144
110 195 144
110 195 144
110 195 144
110 195 144
110 195 144
110 195 144
110 195 144
102 174 138
102 174 138
102 174 138
102 174 138
102 174 138
110 195 144
102 174 138
102 174 138
102 174 138
102 174 138
102 174 138
102 174 138
102 174 139
102 174 139
102 174 139
110 195 144
110 195 144
110 195 144
110 195 144
110 195 144
110 195 144
110 195 144
110 195 144
110 195 144
110 195 144
102 174 139
110 195 144
102 174 139
102 174 139
102 174 139
102 174 139
102 174 139
102 174 139
102 174 139
102 174 139
102 174 139
110 195 144
110 195 144
110 195 144
110 195 144
102 174 139
102 174 139
110 195 144
102 174 139
102 174 139
102 174 139
102 174 139
102 174 139
102 174 139
102 174 139
102 174 139
102 174 139
102 174 139
110 195 145
102 174 139
110 195 145
102 174 139
110 195 145
110 195 145
102 174 139
110 195 145
110 195 145
110 195 145
111 195 145
111 195 145
111 195 145
28 44 31
46 68 59
46 68 59
46 68 59
46 68 59
46 68 59
47 68 60
47 69 60
34 54 38
32 48 36
32 48 36
32 48 36
32 48 36
32 48 36
31 48 36
31 47 35
31 47 35
34 53 37
33 53 37
115 185 152
31 51 34
31 51 34
31 51 34
29 45 32
31 51 34
31 51 34
117 188 154
118 189 155
118 189 155
127 211 161
127 211 161
120 191 157
120 191 157
129 213 163
129 213 163
130 214 164
122 193 159
131 215 165
28 44 31
30 50 32
28 43 31
27 43 30
30 50 32
134 219 168
134 219 169
135 220 169
62 88 73
63 89 74
63 89 75
62 84 74
65 91 76
65 91 77
64 86 76
64 86 76
68 93 79
66 88 78
67 88 78
67 89 79
136 208 173
136 209 173
137 209 174
138 210 175
139 211 176
148 233 182
140 212 177
141 213 178
150 235 184
142 215 179
143 215 180
144 216 181
145 217 181
27 47 29
27 47 29
27 47 29
27 47 29
28 47 29
28 48 29
28 48 29
28 48 29
28 48 29
28 47 29
27 47 29
27 47 29
27 47 29
27 47 29
27 47 29
27 47 29
27 47 29
27 47 29
27 47 29
28 47 29
28 48 29
89 111 101
92 118 103
92 118 103
90 112 102
90 112 102
91 112 102
91 113 102
91 113 103
91 113 103
91 113 103
91 113 103
91 113 103
94 120 105
94 120 104
94 119 104
93 119 104
93 119 104
93 119 104
167 253 201
167 253 201
167 252 201
166 252 201
166 252 200
158 230 195
25 41 27
25 41 27
25 41 27
25 41 27
25 41 27
25 41 27
27 47 29
162 247 196
161 247 195
161 246 195
160 245 194
159 245 193
25 41 27
25 41 27
25 41 28
26 41 28
82 108 93
78 100 90
78 100 89
79 105 90
78 104 89
75 97 87
74 96 86
73 95 85
75 101 86
72 93 83
71 93 82
70 92 82
145 230 179
144 229 179
135 207 172
69 94 80
68 94 79
67 93 78
132 204 169
139 224 173
138 223 172
137 222 171
136 222 171
128 199 164
127 198 164
126 198 163
125 197 162
124 196 161
123 195 160
123 194 160
122 194 159
121 193 158
120 192 157
120 191 157
119 191 156
126 212 161
126 211 160
125 210 159
124 210 159
124 209 158
123 208 157
123 208 157
122 207 156
113 185 150
121 206 155
120 206 155
112 184 149
111 183 148
111 183 148
111 182 147
118 203 152
110 182 147
109 181 146
117 202 151
117 202 151
116 201 150
116 201 150
26 42 28
26 42 28
26 42 28
28 48 30
26 42 28
26 42 28
26 42 28
26 42 28
28 48 30
26 42 28
26 42 28
26 42 28
112 198 146
112 198 146
104 176 141
104 176 141
112 197 146
35 57 46
37 63 48
37 63 48
37 63 48
37 63 48
37 63 48
37 63 48
37 63 47
90 156 93
27 47 28
24 40 26
24 40 26
24 40 26
24 40 26
24 40 26
24 40 26
24 40 26
24 40 26
24 40 26
24 40 26
27 47 28
24 40 26
102 174 138
102 174 138
110 195 144
110 195 144
110 195 144
110 195 144
110 195 144
101 174 138
101 174 138
110 195 144
101 174 138
101 174 138
110 195 144
110 195 144
110 195 144
110 195 144
110 195 144
110 195 144
110 195 144
101 174 138
101 174 138
110 195 144
110 195 144
110 195 144
110 195 144
110 195 144
110 195 144
110 195 144
102 174 138
102 174 138
110 195 144
102 174 138
102 174 138
102 174 138
102 174 138
102 174 138
102 174 138
102 174 138
102 174 138
102 174 138
110 195 144
102 174 139
102 174 139
110 195 144
110 195 144
110 195 144
110 195 144
110 195 144
110 195 144
110 195 144
110 195 144
110 195 144
110 195 144
102 174 139
102 174 139
102 174 139
102 174 139
102 174 139
102 174 139
102 174 139
102 174 139
102 174 139
110 195 144
102 174 139
102 174 139
102 174 139
110 195 144
110 195 144
110 195 144
102 174 139
102 174 139
102 174 139
102 174 139
102 174 139
102 174 139
102 174 139
102 174 139
102 174 139
102 174 139
110 195 144
102 174 139
110 195 145
102 174 139
110 195 145
110 195 145
110 195 145
102 174 139
110 195 145
110 195 145
110 195 145
110 195 145
111 195 145
28 44 31
46 68 59
46 68 59
46 68 59
46 68 59
46 68 59
47 68 60
47 69 60
49 75 62
50 75 62
50 76 62
50 76 62
50 76 62
32 48 36
32 48 36
32 48 36
31 48 35
34 54 37
115 185 152
115 186 152
116 186 153
31 51 34
31 51 34
31 51 34
31 51 34
31 51 34
31 51 34
31 51 33
28 44 32
119 190 156
119 190 156
128 212 162
128 212 162
121 192 158
121 192 158
130 214 164
122 193 159
131 215 165
123 194 160
30 50 32
28 44 31
28 44 31
133 218 168
126 197 163
135 219 169
135 220 169
62 88 73
63 89 74
64 89 75
64 90 75
65 91 76
63 85 75
66 92 77
67 93 78
65 87 77
66 88 78
67 89 79
135 207 172
136 208 173
137 209 173
137 210 174
138 210 175
147 233 181
140 212 176
140 213 177
141 213 178
150 236 184
143 215 179
143 216 180
152 238 186
27 47 29
27 47 29
27 47 29
27 47 29
27 47 29
28 47 29
28 48 29
28 48 30
28 48 29
28 48 29
28 48 29
28 48 29
25 41 28
27 47 29
27 47 29
27 47 29
27 47 29
27 47 29
27 47 29
27 47 29
28 48 29
89 111 101
89 111 101
90 112 101
90 112 102
90 112 102
93 119 104
91 113 102
91 113 103
91 113 103
91 113 103
91 113 103
91 113 103
91 113 103
94 120 105
94 120 105
94 120 104
91 113 103
93 119 104
168 253 202
167 253 202
167 253 201
159 231 196
167 252 201
166 252 200
166 251 200
25 41 27
25 41 28
25 41 27
25 41 27
25 41 27
25 41 27
25 41 27
25 41 27
27 47 29
27 47 29
25 41 27
25 41 27
25 41 27
25 41 28
25 41 28
26 42 28
82 108 93
81 107 92
80 106 91
79 105 90
78 104 89
78 103 89
74 96 86
73 95 85
72 94 84
72 93 83
71 93 82
138 210 175
145 230 179
144 230 179
144 229 178
135 206 171
142 227 176
141 226 175
140 225 174
139 224 173
130 202 167
129 201 166
136 222 171
128 199 164
127 199 164
134 219 168
125 197 162
124 196 161
123 195 160
123 195 160
122 194 159
121 193 158
120 192 157
120 192 157
127 212 161
126 212 161
126 211 160
125 210 159
124 210 159
124 209 158
123 208 157
123 208 157
114 186 151
122 207 156
121 206 155
121 206 155
112 184 149
112 183 148
111 183 148
111 182 147
110 182 147
118 203 152
109 181 146
109 181 146
109 180 145
108 180 145
108 180 145
116 201 150
41 67 52
41 67 52
41 67 52
26 42 28
26 42 28
28 48 30
26 42 28
26 42 28
26 42 28
26 42 28
26 42 28
112 198 146
112 198 146
112 198 146
112 197 146
112 197 146
112 197 146
37 63 48
37 63 48
34 56 46
37 63 48
37 63 48
37 63 47
37 62 47
75 127 80
24 40 27
24 40 27
27 47 28
24 40 27
24 40 27
24 40 27
24 40 27
24 40 27
24 40 27
24 40 27
24 40 27
24 40 27
24 40 27
90 156 93
110 195 144
110 195 144
110 195 144
101 174 138
110 195 144
110 195 144
110 195 144
101 174 138
110 195 144
110 195 144
110 195 144
110 195 144
101 174 138
110 195 144
110 195 144
110 195 144
110 195 144
110 195 144
110 195 144
110 195 144
110 195 144
101 174 138
110 195 144
101 174 138
110 195 144
110 195 144
110 195 144
102 174 138
102 174 138
102 174 138
110 195 144
102 174 138
102 174 138
102 174 138
102 174 138
102 174 138
110 195 144
102 174 138
102 174 138
110 195 144
110 195 144
102 174 138
110 195 144
110 195 144
102 174 139
110 195 144
102 174 139
110 195 144
110 195 144
110 195 144
110 195 144
102 174 139
102 174 139
110 195 144
102 174 139
102 174 139
102 174 139
102 174 139
102 174 139
102 174 139
102 174 139
102 174 139
102 174 139
102 174 139
110 195 144
102 174 139
102 174 139
110 195 144
110 195 144
110 195 144
110 195 144
110 195 144
110 195 144
110 195 144
110 195 144
102 174 139
110 195 144
102 174 139
110 195 144
110 195 144
110 195 144
102 174 139
110 195 145
110 195 145
110 195 145
110 195 145
110 195 145
110 195 145
110 195 145
110 195 145
110 195 145
110 195 145
46 67 59
46 68 59
46 68 59
46 68 59
46 68 59
47 68 60
49 75 61
49 75 62
50 75 62
50 76 62
50 76 62
50 76 62
51 76 63
51 77 63
51 77 63
51 77 64
115 185 152
115 185 152
115 186 152
116 186 153
29 45 33
31 51 34
31 51 34
31 51 34
31 51 34
31 51 34
31 51 34
118 189 155
119 190 156
127 211 162
120 191 157
128 212 163
121 192 158
121 192 158
130 214 164
130 215 165
131 215 165
131 216 166
28 44 31
28 44 31
133 218 167
125 197 162
134 219 168
127 198 164
62 88 73
62 88 74
63 89 74
64 90 75
64 90 75
63 85 75
66 92 77
64 86 76
65 87 77
65 87 77
68 94 80
67 89 79
25 41 27
27 47 29
27 47 29
138 210 174
138 210 175
139 211 176
140 212 177
141 213 177
149 235 184
142 214 179
143 215 180
144 216 180
27 47 28
27 47 29
27 47 29
27 47 29
27 47 29
27 47 29
28 48 29
28 48 29
28 48 30
28 48 30
28 48 29
28 48 29
28 48 29
28 48 29
28 48 29
28 47 29
27 47 29
27 47 29
27 47 29
27 47 29
27 47 29
89 111 100
89 111 101
89 111 101
90 112 101
92 118 103
90 112 102
93 119 104
91 113 102
91 113 103
91 113 103
91 113 103
91 113 103
91 113 103
91 113 103
91 113 103
94 120 105
94 120 105
91 113 103
93 119 104
168 253 202
167 253 202
159 231 196
159 231 196
167 252 201
158 230 195
25 41 27
25 41 27
28 47 29
25 41 28
25 41 28
25 41 27
25 41 27
25 41 27
25 41 27
25 41 27
27 47 29
25 41 27
27 47 29
25 41 27
25 41 28
25 41 28
26 42 28
79 101 91
81 107 92
80 106 91
79 105 90
78 104 89
78 103 89
77 103 88
76 102 87
75 101 86
74 100 85
73 99 84
26 42 28
75 127 82
144 230 179
136 207 172
143 228 177
134 206 171
141 226 175
132 204 169
139 224 173
130 202 167
137 223 171
136 222 171
128 199 164
127 199 164
126 198 163
125 197 162
132 218 166
124 195 160
123 195 160
130 215 164
121 193 158
120 192 157
120 192 157
127 212 161
126 212 161
118 190 155
117 189 154
124 210 159
116 188 153
123 208 157
123 208 157
122 207 156
114 185 150
121 206 155
121 206 155
112 184 149
112 183 148
111 183 148
111 182 147
110 182 147
110 182 147
109 181 146
109 181 146
109 180 145
108 180 145
108 180 145
108 179 144
41 67 52
41 67 52
41 67 52
41 66 52
40 66 51
40 66 51
40 66 51
40 66 51
39 65 50
28 48 30
26 42 28
112 198 146
112 198 146
112 198 146
112 197 146
112 197 146
112 197 146
35 57 46
37 63 48
34 56 46
34 56 46
37 63 47
37 63 47
36 62 47
24 40 27
27 47 28
24 40 27
24 40 27
27 47 28
24 40 27
24 40 27
24 40 27
24 40 27
24 40 27
27 47 28
27 47 28
24 40 27
24 40 27
90 155 93
110 195 144
110 195 144
110 195 144
101 174 138
110 195 144
110 195 144
110 195 144
110 195 144
110 195 144
110 195 144
109 195 144
109 195 144
109 195 144
109 195 144
101 174 138
101 174 138
109 195 144
101 174 138
101 174 138
110 195 144
110 195 144
110 195 144
110 195 144
110 195 144
110 195 144
110 195 144
101 174 138
110 195 144
101 174 138
101 174 138
102 174 138
102 174 138
102 174 138
102 174 138
102 174 138
102 174 138
102 174 138
110 195 144
102 174 138
110 195 144
110 195 144
110 195 144
110 195 144
102 174 138
102 174 139
110 195 144
102 174 139
110 195 144
110 195 144
102 174 139
102 174 139
110 195 144
110 195 144
102 174 139
102 174 139
102 174 139
102 174 139
102 174 139
102 174 139
102 174 139
110 195 144
110 195 144
110 195 144
110 195 144
102 174 139
102 174 139
110 195 144
110 195 144
110 195 144
110 195 144
110 195 144
110 195 144
110 195 144
110 195 144
110 195 144
110 195 144
110 195 144
110 195 144
110 195 144
102 174 139
110 195 144
110 195 144
110 195 144
110 195 145
110 195 145
102 174 139
110 195 145
110 195 145
110 195 145
110 195 145
110 195 145
110 195 145
46 67 59
46 68 59
46 68 59
46 68 59
46 68 59
49 75 61
49 75 61
49 75 61
50 75 62
48 69 60
50 76 62
50 76 62
51 76 63
51 77 63
51 77 63
114 185 151
115 185 152
115 185 152
115 186 152
116 186 153
50 71 62
32 51 34
31 51 34
29 45 32
31 51 34
31 51 34
118 189 155
119 189 155
119 190 156
127 211 162
128 212 162
120 191 157
121 192 158
129 214 164
122 193 159
123 194 159
123 194 160
124 195 161
59 85 71
132 217 167
125 197 162
134 218 168
134 219 168
135 220 169
62 88 73
62 88 74
63 89 74
64 90 75
64 90 76
65 91 76
66 92 77
64 86 76
67 93 78
66 87 77
66 88 78
67 89 79
27 47 29
27 47 29
27 47 29
27 47 29
27 47 29
27 47 29
27 47 29
27 47 29
142 214 178
150 236 184
143 215 180
152 238 186
27 47 28
27 47 29
27 47 29
27 47 29
27 47 29
28 47 29
28 48 29
28 48 29
82 104 94
82 104 94
83 105 95
84 106 95
84 106 96
28 48 29
28 48 29
28 48 29
28 47 29
27 47 29
27 47 29
27 47 29
28 47 29
89 111 100
89 111 101
90 111 101
90 112 102
93 118 103
90 112 102
159 231 196
91 113 103
93 119 104
94 120 104
91 113 103
94 120 105
94 120 105
94 120 105
94 120 105
91 113 103
94 120 105
91 113 103
168 253 202
168 253 202
159 232 196
159 231 196
167 253 201
167 252 201
166 252 201
25 41 27
25 41 28
25 41 28
25 41 28
25 41 28
25 41 28
25 41 28
27 47 29
27 47 29
25 41 27
27 47 29
25 41 27
25 41 27
25 41 27
25 41 28
25 41 28
83 108 94
79 101 91
81 107 92
80 106 91
79 105 90
76 98 88
78 103 89
77 103 88
73 95 85
75 101 86
74 100 85
73 99 84
26 42 28
28 48 30
26 42 28
26 42 28
28 48 30
26 41 28
28 48 30
140 225 174
131 203 168
138 223 172
129 201 166
128 200 165
136 221 170
127 199 164
134 219 168
125 197 162
124 196 161
124 195 160
123 195 160
122 194 159
121 193 158
129 214 163
120 192 157
119 191 156
126 212 161
118 190 155
125 210 159
116 188 153
124 209 158
123 208 157
123 208 157
122 207 156
122 207 156
121 206 155
121 206 155
120 205 154
112 183 148
111 183 148
111 182 147
118 203 152
110 182 147
109 181 146
117 202 151
109 180 145
108 180 145
108 180 145
108 179 144
115 201 150
41 67 52
41 67 52
41 66 52
40 66 51
38 60 49
40 66 51
40 66 51
39 65 50
39 65 50
39 65 50
112 198 146
112 198 146
104 176 141
112 197 146
112 197 146
112 197 146
111 197 146
111 197 145
111 197 145
103 175 140
111 197 145
111 196 145
36 62 47
24 40 27
27 47 28
24 40 27
24 40 27
24 40 27
27 47 28
24 40 27
24 40 27
27 47 28
27 47 28
24 40 27
24 40 27
24 40 27
29 49 30
90 155 93
110 195 144
110 195 144
101 174 138
110 195 144
110 195 144
110 195 144
110 195 144
109 195 144
109 195 144
109 195 144
109 195 144
109 195 144
109 195 144
101 174 138
101 174 138
101 174 138
101 174 138
101 174 138
101 174 138
101 174 138
101 174 138
109 195 144
101 174 138
110 195 144
110 195 144
110 195 144
110 195 144
101 174 138
101 174 138
101 174 138
101 174 138
101 174 138
101 174 138
102 174 138
102 174 138
102 174 138
102 174 138
102 174 138
102 174 138
102 174 138
110 195 144
110 195 144
102 174 138
110 195 144
110 195 144
110 195 144
110 195 144
110 195 144
102 174 139
110 195 144
102 174 139
110 195 144
110 195 144
102 174 139
102 174 139
102 174 139
102 174 139
102 174 139
102 174 139
102 174 139
102 174 139
102 174 139
102 174 139
102 174 139
102 174 139
102 174 139
102 174 139
110 195 144
110 195 144
110 195 144
110 195 144
110 195 144
110 195 144
110 195 144
110 195 144
110 195 144
110 195 144
110 195 144
110 195 144
110 195 144
102 174 139
102 174 139
110 195 144
102 174 139
102 174 139
110 195 145
102 174 139
102 174 139
110 195 145
110 195 145
110 195 145
110 195 145
46 67 59
46 68 59
46 68 59
46 68 59
49 74 61
49 75 61
49 75 61
49 75 61
50 75 62
50 76 62
50 76 62
50 76 62
51 76 63
51 77 63
114 184 151
114 185 151
115 185 152
115 185 152
115 186 152
116 186 153
116 187 153
32 52 34
32 51 34
31 51 34
31 51 34
118 189 155
126 210 160
119 190 156
119 190 156
120 191 156
120 191 157
128 213 163
121 192 158
122 193 158
122 193 159
123 194 160
123 194 160
132 216 166
132 217 166
133 217 167
133 218 167
134 219 168
134 219 169
135 220 169
60 81 71
63 88 74
63 89 74
64 90 75
65 90 76
63 85 75
66 92 77
67 93 78
65 87 77
66 88 77
66 88 78
69 95 80
83 149 86
25 41 27
27 47 29
25 41 27
27 47 29
25 41 27
27 47 29
27 47 29
27 47 29
27 47 28
27 47 28
27 47 28
27 47 29
27 47 29
27 47 29
27 47 29
27 47 29
28 47 29
28 48 29
28 48 29
82 104 94
83 104 94
86 112 97
84 106 96
84 106 96
85 107 97
86 107 97
86 108 98
87 108 98
89 115 100
28 47 29
27 47 29
88 110 100
89 111 101
89 111 101
90 111 101
90 112 102
90 112 102
159 231 196
159 231 196
160 232 196
160 232 197
160 232 197
160 232 197
168 254 202
94 120 105
94 120 105
94 120 105
94 120 105
91 113 103
94 120 104
168 254 202
168 253 202
168 253 202
159 231 196
159 231 196
167 252 201
25 41 27
25 41 27
25 41 28
25 41 28
25 41 28
25 41 28
25 41 28
25 41 28
25 41 28
27 47 29
25 41 27
25 41 27
25 41 27
27 47 29
25 41 27
25 41 28
25 41 28
82 108 93
79 101 91
81 107 92
78 100 89
79 105 90
78 104 89
75 97 87
77 103 88
76 102 87
75 101 86
72 93 83
75 127 82
26 42 28
26 42 28
26 42 28
26 42 28
26 42 28
26 42 28
26 42 28
26 42 28
26 41 28
28 48 30
25 41 28
28 48 30
28 48 30
127 199 164
126 198 163
125 197 162
124 196 161
124 195 160
123 195 160
122 194 159
121 193 158
121 192 157
120 192 157
127 212 161
118 190 155
126 211 160
125 210 159
124 210 159
116 188 153
115 187 152
115 186 151
114 186 151
122 207 156
113 185 150
112 184 149
112 184 149
112 183 148
119 204 153
111 182 147
110 182 147
110 182 147
117 203 152
109 181 146
109 180 145
116 202 150
108 180 145
108 179 144
115 201 150
115 200 149
41 67 52
40 66 51
40 66 51
40 66 51
37 59 49
40 65 51
39 65 50
37 59 49
37 59 48
104 176 141
104 176 141
104 176 141
112 197 146
112 197 146
103 176 140
111 197 146
111 197 145
103 175 140
103 175 140
111 197 145
111 196 145
111 196 145
25 40 27
25 40 27
25 40 27
25 40 27
25 40 27
24 40 27
27 47 28
24 40 27
24 40 27
24 40 27
24 40 27
24 40 27
24 40 27
29 49 30
90 155 93
110 196 144
101 174 138
110 195 144
101 174 138
110 195 144
109 195 144
109 195 144
101 174 138
109 195 144
109 195 144
109 195 144
109 195 144
101 174 138
101 174 138
101 174 138
109 195 144
101 174 138
101 174 138
101 174 138
101 174 138
109 195 144
101 174 138
101 174 138
101 174 138
101 174 138
101 174 138
101 174 138
101 174 138
110 195 144
101 174 138
110 195 144
101 174 138
101 174 138
101 174 138
110 195 144
110 195 144
102 174 138
102 174 138
102 174 138
102 174 138
102 174 138
110 195 144
110 195 144
110 195 144
110 195 144
110 195 144
110 195 144
102 174 138
110 195 144
110 195 144
110 195 144
110 195 144
110 195 144
102 174 139
102 174 139
102 174 139
102 174 139
102 174 139
102 174 139
102 174 139
110 195 144
102 174 139
110 195 144
102 174 139
102 174 139
102 174 139
110 195 144
110 195 144
102 174 139
110 195 144
110 195 144
110 195 144
110 195 144
110 195 144
110 195 144
110 195 144
110 195 144
110 195 144
110 195 144
110 195 144
102 174 139
110 195 144
102 174 139
102 174 139
102 174 139
102 174 139
102 174 139
102 174 139
102 174 139
102 174 139
102 174 139
102 174 139
46 67 59
46 68 59
46 68 59
48 74 61
49 74 61
49 75 61
49 75 61
49 75 61
50 75 62
50 76 62
50 76 62
50 76 62
51 76 63
32 52 35
32 52 35
115 185 151
115 185 152
115 186 152
116 186 152
116 186 153
116 187 153
117 187 154
32 52 34
32 52 34
117 188 154
126 210 160
118 189 155
119 190 156
119 190 156
120 191 157
120 191 157
129 213 163
121 192 158
122 193 159
122 193 159
123 194 160
131 216 166
131 216 166
132 217 166
125 196 161
133 218 167
126 197 163
134 219 169
135 220 169
128 199 165
136 221 171
137 222 171
138 223 172
65 91 76
65 91 76
64 86 75
64 86 76
65 87 77
66 88 78
69 95 80
70 95 81
70 96 81
27 47 29
27 47 29
27 47 29
27 47 29
27 47 29
25 41 27
27 47 29
27 47 29
25 41 27
27 47 29
27 47 28
27 47 29
27 47 29
27 47 29
27 47 29
27 47 29
28 48 29
28 48 29
84 110 95
82 104 94
85 111 96
83 105 95
84 106 96
84 106 96
85 107 97
86 108 97
89 114 99
87 109 98
87 109 99
90 116 101
90 116 101
91 117 102
91 117 102
92 118 103
90 112 101
90 112 102
90 112 102
159 231 196
167 253 202
160 232 196
160 232 197
160 232 197
160 232 197
168 254 202
168 254 202
168 254 202
168 254 202
168 254 202
168 254 202
160 232 197
160 232 197
160 232 197
168 253 202
167 253 201
167 253 201
167 252 201
25 41 27
25 41 27
25 41 28
25 41 28
25 41 28
25 41 28
25 41 28
25 41 28
25 41 28
25 41 28
28 47 29
25 41 28
25 41 27
25 41 27
25 41 27
25 41 28
83 109 94
80 102 92
82 108 93
78 100 90
80 106 91
79 105 90
78 104 89
75 97 87
77 103 88
73 95 85
72 94 84
74 100 85
26 41 28
26 42 29
26 42 28
26 42 28
26 42 28
26 42 28
26 42 28
26 42 28
26 42 28
26 42 28
28 48 30
26 42 28
28 48 30
28 48 30
25 41 28
28 48 30
28 48 30
28 48 30
28 48 30
83 149 87
122 194 159
121 193 158
120 192 157
128 213 162
119 191 156
126 212 161
126 211 160
125 210 159
124 210 159
124 209 158
123 209 157
123 208 157
122 207 156
114 185 150
113 185 150
112 184 149
120 205 154
112 183 148
111 183 148
119 204 153
110 182 147
110 182 147
117 203 152
109 181 146
109 180 145
108 180 145
116 201 150
116 201 150
107 179 144
115 200 149
41 67 52
38 60 50
40 66 51
40 66 51
40 66 51
40 65 51
39 65 50
39 65 50
39 65 50
104 176 141
112 198 146
104 176 141
104 176 141
112 197 146
112 197 146
103 175 140
103 175 140
103 175 140
111 197 145
111 197 145
103 175 140
103 175 140
25 40 27
25 40 27
25 40 27
25 40 27
25 40 27
27 47 29
27 47 29
27 47 29
25 40 27
25 40 27
25 40 27
25 40 27
25 40 27
29 49 30
90 155 93
110 196 144
110 195 144
110 195 144
101 174 138
101 174 138
109 195 144
101 174 138
109 195 144
101 174 138
109 195 144
109 195 144
101 174 138
109 195 144
101 174 138
101 174 138
101 174 138
101 174 138
109 195 144
101 174 138
101 174 138
101 174 138
101 174 138
101 174 138
101 174 138
101 174 138
101 174 138
101 174 138
109 195 144
109 195 144
109 195 144
101 174 138
110 195 144
110 195 144
101 174 138
110 195 144
101 174 138
110 195 144
110 195 144
102 174 138
102 174 138
110 195 144
110 195 144
110 195 144
102 174 138
110 195 144
110 195 144
110 195 144
110 195 144
110 195 144
110 195 144
110 195 144
110 195 144
110 195 144
110 195 144
102 174 139
102 174 139
102 174 139
102 174 139
102 174 139
110 195 144
102 174 139
102 174 139
102 174 139
102 174 139
110 195 144
102 174 139
102 174 139
110 195 144
110 195 144
102 174 139
110 195 144
110 195 144
110 195 144
110 195 144
110 195 144
110 195 144
102 174 139
110 195 144
110 195 144
110 195 144
110 195 144
102 174 139
102 174 139
102 174 139
110 195 144
102 174 139
102 174 139
102 174 139
102 174 139
102 174 139
102 174 139
102 174 139
111 181 148
48 74 60
48 74 60
48 74 61
49 74 61
49 75 61
49 75 61
49 75 61
50 75 62
50 76 62
50 76 62
50 76 62
48 70 61
49 70 61
32 52 35
32 52 35
30 46 34
32 52 35
32 52 35
32 52 35
116 187 153
117 187 154
32 52 34
117 188 154
117 188 154
118 189 155
118 189 155
119 190 156
119 190 156
120 191 157
128 212 162
121 192 158
121 192 158
130 214 164
130 215 164
123 194 160
131 216 165
124 195 160
132 217 166
133 218 167
133 218 168
134 219 168
127 198 163
135 220 169
136 221 170
137 222 171
129 201 166
138 223 172
139 224 173
131 203 168
132 204 169
141 226 175
141 226 176
66 88 78
66 88 78
67 89 79
68 90 80
28 48 29
28 47 29
27 47 29
27 47 29
27 47 29
27 47 29
27 47 29
25 41 27
27 47 29
27 47 29
27 47 29
27 47 29
27 47 29
27 47 29
27 47 29
28 47 29
28 48 29
81 103 93
81 103 93
82 104 94
85 111 96
83 105 95
84 106 96
85 106 96
85 107 97
86 108 97
86 108 98
87 109 98
87 109 99
88 110 99
90 116 101
91 117 102
91 117 102
92 118 103
92 118 103
92 118 103
159 231 196
167 253 201
168 253 202
168 253 202
168 253 202
160 232 197
168 254 202
168 254 202
168 254 202
168 254 202
168 254 202
168 254 202
160 232 197
168 254 202
168 254 202
160 232 196
168 253 202
167 253 201
167 253 201
25 41 27
25 41 27
25 41 27
25 41 28
25 41 28
25 41 28
25 41 28
25 41 28
25 41 28
25 41 28
25 41 28
25 41 28
25 41 28
25 41 28
25 41 28
25 41 28
25 41 28
83 109 94
82 108 93
82 107 93
81 107 92
78 99 89
79 105 90
152 238 187
151 237 186
151 236 185
142 214 179
75 101 86
71 93 83
26 42 28
26 42 29
26 42 29
26 42 29
26 42 29
26 42 28
28 48 30
26 42 28
26 42 28
26 42 28
26 42 28
26 42 28
28 48 30
28 48 30
28 48 30
28 48 30
28 48 30
26 41 28
28 48 30
25 41 28
28 48 30
28 48 30
28 48 30
25 41 28
25 41 28
75 127 81
126 211 160
125 210 159
124 210 159
116 188 153
123 209 157
123 208 157
122 207 156
114 185 150
121 206 155
112 184 149
120 205 154
120 205 154
119 204 153
111 182 147
118 203 152
110 182 147
109 181 146
109 181 146
109 180 145
116 202 150
108 180 145
116 201 150
115 201 149
115 200 149
115 200 149
40 66 51
40 66 51
40 66 51
40 66 51
39 65 50
39 65 50
39 65 50
30 50 32
104 176 141
104 176 141
104 176 141
104 176 141
112 197 146
103 176 140
103 175 140
103 175 140
103 175 140
103 175 140
103 175 140
111 197 145
103 175 140
36 62 47
34 56 45
27 47 29
25 41 27
27 47 29
25 41 27
27 47 29
25 41 27
25 41 27
27 47 29
25 41 27
27 47 29
27 47 29
29 49 30
90 155 93
110 196 144
110 195 144
101 174 138
109 195 144
109 195 144
109 195 144
109 195 144
109 195 144
109 195 144
109 195 144
109 195 143
109 195 143
109 195 143
109 195 143
101 174 138
101 174 138
109 195 143
101 174 138
109 195 144
101 174 138
109 195 144
101 174 138
101 174 138
101 174 138
101 174 138
101 174 138
101 174 138
109 195 144
109 195 144
109 195 144
109 195 144
109 195 144
109 195 144
110 195 144
101 174 138
110 195 144
110 195 144
110 195 144
110 195 144
101 174 138
110 195 144
102 174 138
110 195 144
110 195 144
110 195 144
110 195 144
110 195 144
110 195 144
110 195 144
110 195 144
110 195 144
110 195 144
110 195 144
110 195 144
102 174 139
102 174 139
110 195 144
102 174 139
102 174 139
110 195 144
110 195 144
110 195 144
102 174 139
110 195 144
102 174 139
102 174 139
102 174 139
102 174 139
110 195 144
110 195 144
110 195 144
110 195 144
110 195 144
110 195 144
110 195 144
110 195 144
110 195 144
110 195 144
102 174 139
110 195 144
110 195 144
102 174 139
102 174 139
110 195 144
102 174 139
110 195 144
102 174 139
102 174 139
102 174 139
102 174 139
102 174 139
102 174 139
119 202 153
119 202 154
119 202 154
120 202 154
120 202 154
120 203 154
49 75 61
49 75 61
50 75 62
50 76 62
50 76 62
48 70 61
48 70 61
49 70 61
33 52 35
32 52 35
32 52 35
32 52 35
32 52 35
32 52 35
32 52 35
32 52 35
117 188 154
117 188 154
118 188 154
118 189 155
126 210 161
127 211 161
119 190 156
120 191 157
120 191 157
121 192 158
121 192 158
122 193 159
130 215 165
131 215 165
123 195 160
124 195 160
124 196 161
133 218 167
125 197 162
126 198 163
127 198 164
135 220 170
136 221 170
137 222 171
129 201 166
138 223 172
139 224 173
139 224 174
132 204 169
133 204 170
141 227 176
134 206 171
135 207 172
136 207 172
144 230 179
83 149 87
25 41 28
28 47 29
27 47 29
27 47 29
27 47 29
27 47 29
25 41 27
27 47 29
27 47 29
27 47 29
27 47 29
27 47 29
27 47 29
27 47 29
28 47 29
28 48 29
81 103 93
84 110 95
82 104 94
85 111 96
86 112 97
84 106 96
85 106 96
85 107 97
86 108 97
89 115 99
87 109 98
87 109 99
90 116 101
90 116 101
91 117 102
91 117 102
92 118 102
92 118 103
167 252 201
167 253 201
167 253 201
167 253 202
168 253 202
160 232 197
168 254 202
25 41 27
25 41 27
25 41 27
160 232 197
168 254 202
168 254 202
168 254 202
168 254 202
168 254 202
168 253 202
168 253 202
167 253 201
167 253 201
25 41 27
25 41 27
25 41 28
25 41 28
25 41 28
28 48 30
25 41 28
25 41 28
25 41 28
25 41 28
28 48 29
25 41 28
28 48 29
25 41 28
25 41 28
25 41 28
25 41 28
83 109 94
80 102 92
79 101 91
81 107 92
80 106 91
153 238 187
144 216 181
151 237 186
151 236 185
150 235 184
149 234 183
25 41 28
26 42 28
26 42 29
26 42 29
28 48 30
26 42 29
26 42 29
26 42 29
26 42 29
26 42 28
28 48 30
28 48 30
26 42 28
26 42 28
28 48 30
28 48 30
28 48 30
26 42 28
26 42 28
28 48 30
28 48 30
26 41 28
28 48 30
28 48 30
25 41 28
25 41 28
25 41 28
25 41 28
25 41 28
25 41 28
25 41 28
25 41 28
123 208 157
122 207 156
122 207 156
121 206 155
112 184 149
112 184 149
111 183 148
111 183 148
111 182 147
110 182 147
110 182 147
109 181 146
117 202 151
109 180 145
108 180 145
108 180 145
108 179 144
107 179 144
115 200 149
115 200 149
114 200 149
40 66 51
37 59 49
40 66 51
39 65 50
39 65 50
39 65 50
30 50 32
104 176 141
104 176 141
104 176 141
104 176 141
104 176 140
103 176 140
111 197 146
111 197 145
103 175 140
103 175 140
103 175 140
103 175 140
103 175 140
111 196 145
36 62 47
36 62 47
36 62 47
34 55 45
33 55 45
36 62 47
36 62 47
25 41 27
25 41 27
25 41 27
27 47 29
25 41 27
29 49 30
90 155 93
110 196 144
109 195 144
109 195 144
109 195 144
109 195 144
101 174 138
109 195 144
109 195 143
101 174 138
109 195 143
101 174 138
101 174 138
109 195 143
109 195 143
101 174 138
109 195 143
101 174 138
101 174 138
101 174 138
101 174 138
101 174 138
101 174 138
101 174 138
109 195 144
109 195 144
101 174 138
101 174 138
109 195 144
101 174 138
109 195 144
109 195 144
109 195 144
109 195 144
109 195 144
109 195 144
109 195 144
110 195 144
101 174 138
110 195 144
110 195 144
110 195 144
101 174 138
101 174 138
102 174 138
102 174 138
110 195 144
110 195 144
102 174 138
102 174 138
102 174 138
110 195 144
110 195 144
102 174 138
110 195 144
110 195 144
110 195 144
102 174 139
110 195 144
102 174 139
110 195 144
102 174 139
102 174 139
102 174 139
102 174 139
102 174 139
102 174 139
110 195 144
110 195 144
110 195 144
110 195 144
110 195 144
102 174 139
110 195 144
110 195 144
110 195 144
110 195 144
110 195 144
110 195 144
110 195 144
102 174 139
110 195 144
110 195 144
102 174 139
102 174 139
102 174 139
102 174 139
102 174 139
102 174 139
102 174 139
102 174 139
102 174 139
102 174 139
119 202 153
119 202 154
119 202 154
120 202 154
120 203 154
120 203 154
120 203 155
121 203 155
121 204 155
121 204 155
114 184 151
48 70 61
48 70 61
49 70 61
49 71 62
33 52 35
32 52 35
32 52 35
32 52 35
30 46 34
32 52 35
116 187 153
125 209 159
117 188 154
118 189 154
118 189 155
118 189 155
119 190 156
119 190 156
120 191 157
120 191 157
121 192 158
121 193 158
130 214 164
130 215 165
123 194 159
123 195 160
124 195 161
132 217 166
125 197 162
126 197 162
134 219 168
127 198 164
127 199 164
128 200 165
129 200 166
129 201 166
130 202 167
131 202 168
139 225 174
132 204 169
133 205 170
142 227 176
134 206 171
135 207 172
136 207 173
144 230 179
137 209 174
28 48 29
28 48 29
28 48 29
28 47 29
27 47 29
27 47 29
27 47 29
27 47 29
27 47 29
27 47 29
27 47 29
27 47 29
27 47 29
27 47 29
28 48 29
80 102 92
81 103 93
81 103 93
82 104 94
83 105 94
83 105 95
86 112 97
87 113 98
85 107 97
86 108 97
86 108 98
89 115 100
87 109 99
90 116 101
88 110 100
91 117 102
91 117 102
89 111 101
92 118 103
159 231 195
167 253 201
167 253 201
167 253 202
168 253 202
168 253 202
25 41 27
25 41 27
25 41 27
25 41 27
25 41 27
25 41 27
25 41 27
25 40 27
25 40 27
75 127 81
168 253 202
159 232 196
167 253 201
25 40 27
25 41 27
25 41 27
25 41 28
25 41 28
89 111 100
88 110 100
90 116 101
90 115 101
87 108 98
88 114 99
28 48 30
25 41 28
25 41 28
25 41 28
25 41 28
25 41 28
84 110 95
83 109 94
82 108 93
81 107 92
81 106 91
77 99 89
153 238 187
152 238 186
151 237 185
150 236 185
142 213 178
149 234 183
25 41 28
26 42 28
26 42 29
26 42 29
26 42 29
26 42 29
26 42 29
26 42 29
26 42 29
26 42 29
26 42 29
26 42 29
26 42 28
28 48 30
28 48 30
28 48 30
28 48 30
28 48 30
28 48 30
28 48 30
28 48 30
26 42 28
28 48 30
28 48 30
26 41 28
26 41 28
25 41 28
25 41 28
25 41 28
25 41 28
25 41 28
25 41 28
25 41 28
25 41 28
25 41 28
25 41 28
28 48 29
83 149 87
111 183 148
111 183 148
111 182 147
118 204 152
110 182 147
109 181 146
109 181 146
109 180 145
116 202 150
108 180 145
116 201 150
115 201 149
115 200 149
115 200 149
114 200 149
40 66 51
40 66 51
40 66 51
39 65 50
39 65 50
39 65 50
90 156 94
104 176 141
104 176 141
104 176 141
104 176 141
112 197 146
103 176 140
103 175 140
103 175 140
103 175 140
103 175 140
111 197 145
103 175 140
103 175 139
103 175 139
111 196 145
36 62 47
34 55 45
36 62 47
36 62 47
36 62 47
36 62 47
36 62 47
36 62 47
36 62 47
36 62 46
29 49 31
29 49 30
90 155 93
109 196 144
109 195 144
109 195 144
109 195 144
101 174 138
109 195 143
109 195 143
109 195 143
109 195 143
109 195 143
109 195 143
109 195 143
109 195 143
101 174 138
101 174 138
101 174 138
109 195 143
109 195 143
101 174 138
109 195 143
101 174 138
109 195 143
101 174 138
101 174 138
101 174 138
101 174 138
101 174 138
101 174 138
109 195 144
109 195 144
101 174 138
109 195 144
109 195 144
109 195 144
109 195 144
109 195 144
109 195 144
101 174 138
101 174 138
101 174 138
110 195 144
101 174 138
101 174 138
101 174 138
101 174 138
110 195 144
110 195 144
102 174 138
102 174 138
102 174 138
102 174 138
110 195 144
102 174 138
102 174 138
102 174 138
110 195 144
102 174 138
102 174 139
110 195 144
102 174 139
102 174 139
102 174 139
102 174 139
102 174 139
102 174 139
102 174 139
102 174 139
102 174 139
102 174 139
110 195 144
110 195 144
110 195 144
110 195 144
110 195 144
102 174 139
110 195 144
110 195 144
110 195 144
110 195 144
110 195 144
110 195 144
102 174 139
102 174 139
102 174 139
102 174 139
102 174 139
102 174 139
102 174 139
102 174 139
102 174 139
102 174 139
102 174 139
111 181 148
111 181 148
112 181 149
120 202 154
120 203 154
120 203 154
120 203 155
121 203 155
121 204 155
113 183 150
114 184 151
122 205 156
114 184 151
115 185 152
115 185 152
33 53 36
33 53 36
30 46 34
32 52 35
32 52 35
116 187 153
116 187 153
117 188 154
125 209 159
118 189 155
118 189 155
119 190 155
119 190 156
119 191 156
120 191 157
128 213 163
121 192 158
129 214 164
130 214 164
122 194 159
123 194 159
123 195 160
124 195 161
124 196 161
125 197 162
134 219 168
126 198 163
135 220 169
135 221 170
136 221 170
129 200 166
129 201 166
138 223 172
139 224 173
131 203 168
140 225 174
141 226 175
142 227 176
134 206 171
135 207 172
136 208 173
136 208 173
137 209 174
25 41 28
28 48 29
28 48 29
28 48 29
28 47 29
27 47 29
27 47 29
27 47 29
27 47 29
27 47 29
27 47 29
27 47 29
27 47 29
28 47 29
79 101 91
80 102 92
81 103 92
81 103 93
82 104 94
83 105 94
83 105 95
84 106 96
84 106 96
85 107 97
86 107 97
86 108 98
89 115 100
89 115 100
90 116 101
90 116 101
91 117 102
91 117 102
92 117 102
158 230 195
167 252 201
167 252 201
167 253 201
167 253 202
160 232 196
168 253 202
25 41 27
25 41 27
25 41 27
25 41 27
25 41 27
25 41 27
25 41 27
25 41 27
25 41 27
27 47 29
25 40 27
25 40 27
24 40 27
25 40 27
25 41 27
25 41 27
25 41 28
25 41 28
88 110 100
90 116 101
90 116 101
89 115 100
86 108 98
88 114 99
88 114 99
87 113 98
86 112 97
86 112 97
85 111 96
82 104 94
84 109 94
83 109 94
82 108 93
81 107 92
80 106 91
77 99 89
145 217 182
144 216 181
151 237 185
150 236 185
149 235 184
149 234 183
25 41 28
26 42 28
26 42 29
26 42 29
26 42 29
26 42 29
26 42 29
26 42 29
26 42 29
26 42 29
26 42 29
26 42 29
26 42 29
28 48 30
28 48 30
28 48 30
28 48 30
28 48 30
28 48 30
28 48 30
28 48 30
26 42 28
28 48 30
28 48 30
26 42 28
26 42 28
26 41 28
26 41 28
26 41 28
25 41 28
25 41 28
25 41 28
25 41 28
25 41 28
25 41 28
25 41 28
28 48 29
28 48 29
28 48 29
25 41 28
28 48 29
28 48 29
28 48 29
83 149 87
117 202 151
117 202 151
116 202 150
116 201 150
116 201 150
115 201 149
115 200 149
115 200 149
106 178 143
114 200 148
114 199 148
114 199 148
114 199 148
113 199 147
39 65 50
90 156 94
104 176 141
104 176 141
112 198 146
112 198 146
104 176 140
103 176 140
103 175 140
103 175 140
103 175 140
103 175 140
103 175 140
111 197 145
111 196 145
111 196 145
111 196 145
36 62 47
36 62 47
36 62 47
36 62 47
36 62 47
36 62 47
33 55 45
36 62 46
33 55 45
36 62 46
36 62 46
29 49 30
90 155 93
101 174 138
109 195 144
109 195 144
109 195 143
109 195 143
109 195 143
109 195 143
109 195 143
109 195 143
109 195 143
109 195 143
109 195 143
109 195 143
101 174 138
109 195 143
101 174 138
101 174 138
101 174 138
101 174 138
101 174 138
101 174 138
109 195 143
101 174 138
101 174 138
109 195 143
101 174 138
101 174 138
101 174 138
109 195 143
101 174 138
101 174 138
109 195 144
109 195 144
109 195 144
109 195 144
109 195 144
109 195 144
101 174 138
109 195 144
109 195 144
101 174 138
110 195 144
101 174 138
101 174 138
101 174 138
101 174 138
101 174 138
102 174 138
102 174 138
102 174 138
110 195 144
102 174 138
102 174 138
102 174 138
102 174 138
110 195 144
110 195 144
110 195 144
110 195 144
110 195 144
110 195 144
110 195 144
102 174 139
110 195 144
102 174 139
110 195 144
110 195 144
102 174 139
102 174 139
110 195 144
110 195 144
110 195 144
110 195 144
110 195 144
110 195 144
110 195 144
102 174 139
110 195 144
110 195 144
110 195 144
102 174 139
110 195 144
102 174 139
110 195 144
102 174 139
102 174 139
102 174 139
102 174 139
102 174 139
110 195 144
102 174 139
102 174 139
111 181 148
111 181 148
112 182 149
112 182 149
112 182 149
112 182 149
113 183 150
113 183 150
113 183 150
113 183 150
114 184 151
114 184 151
114 184 151
115 185 152
115 185 152
115 185 152
33 53 36
30 46 34
33 52 35
116 187 153
124 208 158
124 209 159
125 209 159
117 188 154
118 189 155
118 189 155
126 211 161
119 190 156
120 191 156
120 191 157
120 192 157
129 213 163
129 214 164
122 193 158
122 194 159
123 194 160
123 195 160
132 217 166
124 196 161
125 197 162
126 197 162
126 198 163
135 220 169
128 199 164
128 200 165
129 201 166
138 223 172
138 223 172
139 224 173
140 225 174
140 225 174
141 226 175
142 227 176
142 228 177
143 228 177
144 229 178
145 230 179
145 231 179
83 149 87
28 48 30
28 48 29
28 48 29
28 48 29
28 48 29
28 47 29
27 47 29
27 47 29
27 47 29
27 47 29
27 47 29
27 47 29
79 101 90
79 101 91
80 102 92
81 103 92
81 103 93
82 104 94
83 105 94
83 105 95
84 106 96
87 113 98
85 107 97
85 107 97
88 114 99
89 115 100
89 115 100
90 116 101
90 116 101
91 117 102
91 117 102
91 117 102
166 252 200
158 231 195
167 252 201
159 231 196
167 253 201
167 253 202
25 41 27
25 41 27
25 41 27
25 41 27
25 41 27
25 41 27
25 41 27
25 41 27
25 41 27
25 41 27
25 41 27
25 41 27
25 40 27
25 40 27
25 41 27
25 41 27
25 41 27
25 41 28
89 111 100
91 117 102
90 116 101
90 116 101
89 115 100
89 115 100
86 108 97
85 107 97
87 113 98
86 112 97
83 105 95
85 111 96
25 41 28
25 41 28
25 41 28
25 41 28
25 41 28
25 41 28
154 239 188
153 238 187
152 237 186
151 236 185
150 236 184
141 213 178
25 41 28
26 41 28
26 42 29
26 42 29
71 97 83
71 96 82
70 96 81
26 42 29
26 42 29
26 42 29
26 42 29
26 42 29
26 42 29
28 48 30
26 42 29
28 48 30
28 48 30
26 42 29
28 48 30
28 48 30
28 48 30
26 42 28
28 48 30
28 48 30
28 48 30
26 42 28
26 42 28
28 48 30
26 42 28
26 42 28
28 48 30
26 41 28
26 41 28
26 41 28
25 41 28
25 41 28
25 41 28
28 48 30
28 48 30
28 48 30
25 41 28
28 48 30
28 48 29
25 41 28
28 48 29
28 48 29
28 48 29
28 48 29
108 180 145
108 179 144
107 179 144
115 200 149
115 200 149
114 200 149
114 200 148
106 178 143
114 199 148
113 199 148
105 177 142
105 177 142
82 134 88
104 176 141
104 176 141
104 176 141
104 176 140
112 197 146
103 176 140
103 175 140
103 175 140
111 197 145
103 175 140
111 197 145
111 197 145
103 175 139
103 175 139
111 196 145
111 196 145
33 55 45
36 62 47
33 55 45
33 55 45
33 55 45
36 62 46
36 62 46
36 62 46
36 62 46
33 55 45
90 156 93
90 155 93
24 39 26
24 39 26
24 39 26
101 174 138
109 195 143
109 195 143
109 195 143
101 174 138
109 195 143
109 195 143
109 195 143
101 174 138
109 195 143
109 195 143
101 174 138
109 195 143
101 174 138
101 174 138
101 174 138
109 195 143
101 174 138
109 195 143
101 174 138
101 174 138
101 174 138
101 174 138
109 195 143
101 174 138
109 195 143
101 174 138
109 195 143
109 195 143
109 195 144
101 174 138
109 195 144
109 195 144
109 195 144
109 195 144
109 195 144
101 174 138
101 174 138
109 195 144
101 174 138
101 174 138
101 174 138
101 174 138
101 174 138
101 174 138
101 174 138
110 195 144
102 174 138
102 174 138
102 174 138
102 174 138
102 174 138
102 174 138
110 195 144
110 195 144
102 174 138
110 195 144
110 195 144
110 195 144
102 174 139
110 195 144
110 195 144
102 174 139
110 195 144
102 174 139
102 174 139
102 174 139
110 195 144
102 174 139
110 195 144
110 195 144
102 174 139
110 195 144
110 195 144
110 195 144
110 195 144
110 195 144
110 195 144
110 195 144
110 195 144
102 174 139
102 174 139
102 174 139
102 174 139
102 174 139
102 174 139
102 174 139
102 174 139
102 174 139
111 181 148
111 181 148
112 182 149
112 182 149
112 182 149
112 182 149
113 183 150
121 204 155
121 204 155
121 204 156
121 204 156
122 205 156
122 205 156
115 185 152
115 185 152
115 185 152
33 53 36
33 53 36
116 186 153
116 187 153
30 50 33
30 50 33
30 50 33
28 44 31
30 50 32
126 210 160
127 211 161
119 190 156
127 212 162
120 191 157
121 192 157
129 213 163
129 214 163
122 193 158
130 215 164
131 216 165
123 195 160
132 217 166
124 196 161
125 197 162
126 197 163
126 198 163
127 199 164
128 199 164
128 200 165
137 222 171
138 223 172
138 223 172
131 203 168
132 203 168
140 225 174
141 226 175
142 227 176
142 228 177
143 228 177
144 229 178
145 230 179
137 209 174
70 91 81
70 92 82
71 93 83
72 94 83
72 94 84
28 48 29
28 48 29
28 47 29
25 41 28
27 47 29
27 47 29
27 47 29
27 47 29
79 101 90
79 101 91
80 102 92
83 109 94
81 103 93
82 104 94
159 245 193
152 224 189
84 106 95
84 106 96
87 113 98
85 107 97
86 108 98
89 115 100
87 109 99
90 116 101
90 116 101
88 110 100
91 117 102
166 251 200
166 252 200
166 252 201
167 252 201
159 231 196
167 253 201
167 253 201
25 41 27
25 41 27
25 41 27
25 41 28
25 41 27
25 41 27
25 41 27
25 41 27
25 41 27
25 41 27
27 47 29
25 41 27
25 41 27
25 41 27
25 41 27
25 41 27
25 41 28
25 41 28
91 117 102
90 116 101
90 116 101
87 109 99
89 115 100
88 114 99
88 114 99
85 107 97
87 113 98
86 112 97
85 111 96
82 104 94
25 41 28
25 41 28
25 41 28
25 41 28
25 41 28
25 41 28
25 41 28
25 41 28
25 41 28
25 41 28
25 41 28
141 213 178
25 41 28
26 42 28
26 42 29
72 98 83
71 97 82
70 96 82
70 95 81
69 95 80
68 94 79
67 93 78
66 92 77
65 91 76
26 42 29
29 48 30
26 42 29
28 48 30
28 48 30
28 48 30
26 42 29
28 48 30
28 48 30
28 48 30
28 48 30
28 48 30
28 48 30
26 42 28
26 42 28
26 42 28
26 42 28
26 42 28
26 42 28
26 42 28
28 48 30
28 48 30
26 42 28
26 41 28
28 48 30
28 48 30
26 41 28
28 48 30
28 48 30
25 41 28
28 48 30
28 48 30
28 48 30
28 48 30
28 48 29
28 48 29
108 180 145
108 179 144
107 179 144
115 200 149
107 179 143
106 178 143
114 200 148
106 178 143
114 199 148
113 199 148
105 177 142
113 198 147
82 134 88
104 176 141
112 198 146
104 176 141
104 176 140
103 176 140
103 176 140
103 175 140
103 175 140
103 175 140
111 197 145
103 175 140
103 175 140
103 175 139
103 175 139
102 175 139
110 196 145
110 196 145
36 62 47
36 62 46
36 62 46
33 55 45
36 62 46
36 62 46
36 62 46
36 61 46
33 55 45
90 156 93
90 155 93
24 40 26
24 40 26
24 40 26
24 40 26
24 40 26
24 40 26
24 40 26
24 40 26
26 46 27
109 195 143
109 195 143
109 195 143
109 195 143
101 174 138
101 174 138
109 195 143
101 174 138
101 174 138
101 174 138
101 174 138
109 195 143
101 174 138
101 174 138
101 174 138
101 174 138
101 174 138
101 174 138
101 174 138
109 195 143
109 195 143
101 174 138
109 195 143
109 195 143
109 195 143
109 195 143
109 195 144
101 174 138
101 174 138
109 195 144
109 195 144
109 195 144
109 195 144
101 174 138
101 174 138
101 174 138
101 174 138
101 174 138
110 195 144
101 174 138
101 174 138
110 195 144
102 174 138
102 174 138
102 174 138
102 174 138
102 174 138
110 195 144
110 195 144
110 195 144
110 195 144
110 195 144
110 195 144
110 195 144
110 195 144
110 195 144
110 195 144
102 174 139
110 195 144
110 195 144
110 195 144
102 174 139
102 174 139
110 195 144
102 174 139
102 174 139
110 195 144
110 195 144
110 195 144
110 195 144
110 195 144
110 195 144
110 195 144
102 174 139
110 195 144
102 174 139
102 174 139
102 174 139
102 174 139
102 174 139
102 174 139
102 174 139
110 195 144
111 181 148
111 181 148
112 182 149
112 182 149
112 182 149
112 182 149
120 203 155
121 204 155
121 204 155
121 204 156
122 204 156
122 205 156
122 205 156
122 205 157
123 206 157
123 206 157
116 186 153
115 186 152
116 186 153
116 187 153
117 187 154
28 44 31
30 50 33
30 50 33
30 50 33
30 50 32
28 44 31
30 50 32
30 50 32
85 149 89
129 213 163
121 192 157
121 193 158
130 215 164
122 194 159
123 194 160
123 195 160
132 217 166
125 196 161
125 197 162
126 197 163
126 198 163
135 220 169
128 199 164
136 221 170
137 222 171
138 223 172
138 223 172
131 203 168
132 203 168
140 226 175
141 226 175
142 227 176
142 228 177
143 228 177
144 229 178
145 230 179
145 231 179
70 91 81
70 92 82
71 93 83
72 94 83
72 94 84
73 95 85
74 96 86
75 96 86
75 97 87
76 98 88
27 47 29
27 47 29
78 100 90
79 101 90
79 101 91
82 108 93
83 109 94
81 103 93
82 104 94
151 223 188
152 224 189
152 224 189
153 225 190
162 247 196
154 226 191
163 248 197
89 115 100
89 115 100
87 109 99
90 116 101
90 116 101
165 251 199
166 251 200
166 252 200
166 252 200
167 252 201
167 252 201
159 231 196
25 40 27
25 41 27
25 41 27
25 41 27
25 41 28
25 41 28
25 41 28
25 41 27
25 41 27
25 41 27
25 41 27
25 41 27
25 41 27
25 41 27
27 47 29
25 41 27
25 41 27
25 41 28
91 117 102
91 117 102
90 116 101
90 116 101
89 115 100
86 108 98
88 114 99
88 114 99
87 113 98
86 112 97
86 112 97
85 111 96
84 110 95
25 41 28
26 41 28
25 41 28
28 48 30
25 41 28
25 41 28
25 41 28
28 48 29
28 48 29
28 48 29
28 48 29
25 41 28
25 41 28
26 42 28
26 42 29
72 98 83
71 97 82
70 96 81
69 95 80
69 94 80
68 94 79
67 93 78
66 92 77
65 91 76
64 90 75
63 89 74
60 82 72
59 81 71
58 80 70
58 80 70
28 48 30
28 48 30
28 48 30
28 48 30
28 48 30
28 48 30
28 48 30
26 42 29
26 42 28
26 42 28
26 42 28
26 42 28
26 42 28
26 42 28
26 42 28
26 42 28
26 42 28
26 42 28
28 48 30
28 48 30
28 48 30
28 48 30
26 41 28
28 48 30
28 48 30
28 48 30
28 48 30
28 48 30
28 48 30
28 48 30
108 180 145
107 179 144
107 179 144
115 200 149
107 179 143
114 200 149
106 178 143
106 178 143
106 178 142
105 177 142
105 177 142
105 177 142
82 134 88
112 198 146
104 176 141
104 176 141
104 176 140
103 176 140
103 176 140
103 175 140
103 175 140
103 175 140
111 197 145
103 175 140
103 175 139
103 175 139
111 196 145
111 196 145
102 175 139
110 196 145
102 174 139
36 62 46
36 62 46
33 55 45
33 55 45
36 61 46
35 61 46
35 61 46
35 61 46
90 156 93
90 155 93
24 40 26
24 40 26
24 40 26
24 40 26
24 40 26
24 40 26
24 40 26
24 40 26
24 40 26
24 40 26
24 40 26
24 40 26
24 40 26
24 40 26
109 195 143
101 174 138
101 174 138
109 195 143
109 195 143
101 174 138
101 174 138
101 174 138
101 174 138
101 174 138
101 174 138
101 174 138
101 174 138
101 174 138
109 195 143
109 195 143
109 195 143
109 195 143
109 195 143
109 195 143
109 195 143
109 195 143
109 195 143
109 195 144
109 195 144
109 195 144
101 174 138
101 174 138
101 174 138
101 174 138
101 174 138
109 195 144
101 174 138
101 174 138
101 174 138
110 195 144
101 174 138
101 174 138
110 195 144
102 174 138
102 174 138
102 174 138
110 195 144
110 195 144
102 174 138
110 195 144
110 195 144
110 195 144
102 174 138
110 195 144
110 195 144
110 195 144
110 195 144
110 195 144
102 174 139
110 195 144
102 174 139
102 174 139
102 174 139
102 174 139
102 174 139
102 174 139
102 174 139
102 174 139
102 174 139
102 174 139
102 174 139
110 195 144
110 195 144
110 195 144
110 195 144
102 174 139
102 174 139
102 174 139
102 174 139
110 195 144
102 174 139
102 174 139
111 181 148
111 181 148
112 182 149
112 182 149
112 182 149
120 203 155
120 203 155
121 204 155
121 204 155
121 204 156
122 205 156
122 205 156
122 205 156
122 206 157
123 206 157
115 185 152
115 186 152
116 186 152
116 186 153
116 187 153
117 187 154
28 44 31
30 50 33
28 44 31
30 50 33
30 50 33
30 50 33
30 50 32
30 50 32
120 191 157
120 192 157
121 192 157
121 193 158
122 193 159
122 194 159
123 194 160
123 195 160
124 196 161
125 196 161
125 197 162
126 197 163
126 198 163
127 199 164
136 221 170
136 221 170
137 222 171
138 223 172
138 223 172
139 224 173
140 225 174
140 226 175
133 205 170
142 227 176
142 228 177
135 207 172
144 229 178
137 208 173
145 231 179
69 91 81
70 92 82
71 93 83
72 94 83
72 94 84
75 101 86
74 96 85
74 96 86
78 104 88
78 104 89
77 98 88
80 106 91
80 106 91
81 107 92
79 101 91
80 102 92
81 102 92
81 103 93
151 223 187
151 223 188
152 224 189
152 224 189
153 225 190
153 226 190
162 248 196
163 248 197
163 249 197
163 249 198
164 250 198
156 228 193
165 250 199
165 251 199
157 230 194
166 251 200
166 252 200
166 252 200
167 252 201
75 127 81
25 40 27
25 41 27
25 41 27
25 41 28
25 41 28
25 41 28
25 41 28
25 41 28
27 47 29
25 41 27
25 41 27
25 41 27
25 41 27
27 47 29
27 47 29
25 41 27
25 41 27
25 41 28
91 117 102
90 116 101
90 116 101
87 109 99
89 115 100
88 114 99
88 114 99
87 113 98
87 113 98
86 112 97
85 111 96
85 111 96
25 41 28
25 41 28
26 42 28
26 42 28
26 41 28
26 41 28
25 41 28
25 41 28
25 41 28
25 41 28
25 41 28
25 41 28
25 41 28
25 41 28
26 42 28
73 99 84
72 98 83
71 97 82
70 96 81
69 95 80
68 94 79
67 93 79
67 93 78
66 92 77
65 91 76
64 90 75
63 89 74
60 82 72
59 81 71
58 80 70
58 79 69
57 79 69
56 78 68
55 77 67
54 76 66
54 76 66
28 48 30
28 48 30
26 42 29
26 42 29
26 42 29
26 42 29
26 42 29
28 48 30
26 42 28
26 42 28
28 48 30
26 42 28
26 42 28
26 42 28
28 48 30
28 48 30
26 42 28
28 48 30
28 48 30
28 48 30
26 42 28
28 48 30
28 48 30
28 48 30
28 48 30
108 180 145
107 179 144
107 179 144
107 179 144
107 179 143
114 200 149
106 178 143
106 178 143
106 178 142
105 177 142
105 177 142
105 177 142
82 134 88
104 176 141
104 176 141
112 198 146
104 176 140
112 197 146
103 176 140
103 175 140
103 175 140
103 175 140
111 197 145
103 175 140
111 197 145
103 175 139
102 175 139
111 196 145
110 196 145
110 196 144
102 174 139
36 62 46
36 62 46
36 62 46
36 61 46
33 55 45
35 61 46
35 61 46
35 61 46
90 156 93
74 126 80
24 40 26
24 40 26
24 40 26
26 46 28
24 40 26
24 40 26
24 40 26
24 40 26
24 40 26
24 40 26
24 40 26
24 40 26
24 40 26
24 40 26
90 155 93
109 195 143
109 195 143
109 195 143
109 195 143
109 195 143
109 195 143
101 174 138
101 174 138
101 174 138
109 195 143
101 174 138
101 174 138
101 174 138
101 174 138
109 195 143
101 174 138
109 195 143
109 195 143
101 174 138
109 195 143
101 174 138
109 195 143
101 174 138
101 174 138
109 195 143
109 195 144
109 195 144
101 174 138
101 174 138
101 174 138
101 174 138
101 174 138
101 174 138
101 174 138
101 174 138
101 174 138
101 174 138
101 174 138
101 174 138
110 195 144
102 174 138
110 195 144
110 195 144
102 174 138
102 174 138
102 174 138
102 174 138
110 195 144
110 195 144
110 195 144
110 195 144
110 195 144
110 195 144
110 195 144
110 195 144
102 174 139
102 174 139
102 174 139
102 174 139
102 174 139
102 174 139
102 174 139
102 174 139
102 174 139
102 174 139
102 174 139
110 195 144
102 174 139
102 174 139
102 174 139
28 48 30
84 149 87
102 174 139
102 174 139
102 174 139
102 174 139
102 174 139
111 181 148
111 181 148
112 182 149
112 182 149
120 203 154
120 203 155
120 203 155
121 204 155
121 204 155
121 204 156
122 205 156
122 205 156
122 205 157
122 206 157
123 206 157
115 185 152
115 186 152
116 186 152
116 187 153
116 187 153
117 187 154
85 150 89
31 51 33
31 50 33
30 50 33
30 50 33
30 50 33
30 50 33
128 212 162
128 213 162
120 192 157
121 192 158
121 193 158
122 193 159
122 194 159
123 195 160
123 195 160
124 196 161
133 218 167
125 197 162
134 219 168
126 198 163
135 220 169
136 221 170
136 222 171
129 201 166
138 223 172
138 224 172
139 224 173
140 225 174
140 226 175
141 226 175
142 227 176
142 228 177
143 228 177
144 229 178
137 208 173
137 209 174
69 91 81
70 92 82
73 99 84
72 93 83
75 101 86
73 95 85
76 102 87
74 96 86
75 97 87
76 98 87
76 98 88
80 106 90
80 106 91
78 100 90
82 108 92
82 108 93
83 109 94
158 243 192
158 244 193
159 245 193
152 224 188
152 224 189
153 225 190
153 225 190
162 247 196
154 226 191
163 248 197
163 249 197
164 249 198
164 250 198
165 250 199
165 251 199
165 251 199
166 251 200
166 252 200
166 252 200
166 252 201
24 40 27
25 41 27
25 41 27
25 41 27
25 41 28
25 41 28
25 41 28
25 41 28
25 41 28
28 48 29
25 41 28
25 41 28
25 41 27
25 41 27
27 47 29
25 41 27
25 41 27
25 41 27
91 117 102
91 117 101
88 110 99
90 116 101
87 109 99
89 115 100
88 114 99
88 114 99
87 113 98
86 112 97
86 112 97
85 111 96
85 110 95
25 41 28
26 41 28
28 48 30
26 42 28
26 42 28
26 42 28
26 41 28
26 41 28
25 41 28
25 41 28
25 41 28
25 41 28
25 41 28
25 41 28
26 42 28
72 98 84
72 98 83
71 97 82
70 96 81
69 95 80
68 94 79
67 93 78
66 92 77
66 91 77
65 91 76
64 90 75
63 89 74
60 82 72
59 81 71
58 80 70
57 79 69
57 78 68
56 78 68
55 77 67
54 76 66
54 75 65
53 75 65
52 74 64
54 80 65
53 79 64
53 78 64
52 78 63
26 42 29
28 48 30
26 42 29
28 48 30
26 42 29
26 42 28
28 48 30
26 42 28
28 48 30
28 48 30
28 48 30
28 48 30
28 48 30
28 48 30
26 42 28
28 48 30
28 48 30
26 42 28
28 48 30
108 180 145
107 179 144
115 201 149
107 179 144
107 179 143
106 178 143
106 178 143
106 178 143
106 178 142
105 177 142
105 177 142
105 177 142
82 134 88
26 46 28
104 176 141
104 176 141
104 176 140
112 197 146
103 176 140
103 175 140
103 175 140
111 197 145
103 175 140
103 175 140
103 175 139
103 175 139
111 196 145
111 196 145
110 196 145
110 196 144
110 196 144
110 196 144
36 62 46
36 61 46
35 61 46
33 55 45
35 61 46
35 61 46
33 55 44
90 156 93
24 40 26
24 40 26
26 46 28
24 40 26
24 40 26
24 40 26
26 46 28
24 40 26
26 46 28
24 40 26
26 46 28
26 46 28
24 40 26
24 40 26
24 40 26
90 155 93
109 195 143
101 174 138
109 195 143
109 195 143
109 195 143
109 195 143
109 195 143
109 195 143
109 195 143
109 195 143
109 195 143
109 195 143
109 195 143
101 174 138
109 195 143
109 195 143
109 195 143
109 195 143
109 195 143
109 195 143
101 174 138
109 195 143
109 195 143
109 195 143
109 195 143
109 195 143
109 195 143
109 195 144
101 174 138
101 174 138
101 174 138
101 174 138
101 174 138
101 174 138
101 174 138
101 174 138
110 195 144
101 174 138
101 174 138
110 195 144
101 174 138
101 174 138
110 195 144
110 195 144
102 174 138
110 195 144
102 174 138
102 174 138
102 174 138
102 174 138
110 195 144
110 195 144
110 195 144
110 195 144
110 195 144
110 195 144
102 174 139
102 174 139
102 174 139
102 174 139
102 174 139
102 174 139
102 174 139
102 174 139
102 174 139
102 174 139
102 174 139
102 174 139
110 195 144
102 174 139
28 48 30
28 48 30
26 42 28
28 48 30
28 48 30
28 48 30
28 48 30
111 181 148
111 181 148
112 182 149
120 203 154
120 203 154
120 203 155
120 203 155
121 204 155
121 204 155
121 204 156
122 205 156
122 205 156
122 205 157
122 206 157
114 185 151
115 185 152
115 186 152
116 186 152
116 187 153
116 187 153
117 187 154
117 188 154
31 51 33
31 51 33
31 51 33
30 50 33
30 50 33
127 212 161
119 191 156
120 191 157
120 192 157
121 192 158
121 193 158
130 215 164
130 215 164
123 195 160
123 195 160
124 196 161
125 196 161
125 197 162
134 219 168
134 220 169
127 199 164
136 221 170
128 200 165
137 222 171
138 223 172
130 202 167
139 224 173
140 225 174
140 226 175
141 226 175
142 227 176
142 228 177
143 228 177
136 208 173
137 208 173
137 209 174
69 91 81
70 92 82
71 93 82
71 93 83
72 94 84
73 95 85
74 96 85
77 103 88
75 97 87
76 98 87
79 105 90
79 105 90
80 106 91
81 107 92
81 107 92
82 108 93
83 109 94
150 222 186
158 244 192
159 245 193
160 245 194
160 246 194
161 246 195
25 41 27
25 41 27
162 248 196
163 248 197
163 249 197
164 249 198
164 250 198
164 250 199
165 250 199
157 229 194
165 251 200
166 251 200
158 230 195
24 40 27
25 40 27
25 41 27
25 41 27
25 41 27
25 41 28
25 41 28
93 119 104
25 41 28
25 41 28
25 41 28
25 41 28
25 41 28
25 41 28
25 41 28
27 47 29
27 47 29
25 41 27
25 41 28
91 117 102
90 116 101
87 109 99
89 115 100
89 115 100
88 114 99
88 114 99
87 113 98
87 113 98
86 112 97
86 111 96
82 104 94
25 41 28
25 41 28
26 41 28
26 42 28
28 48 30
26 42 28
26 42 28
28 48 30
26 42 28
26 42 28
26 41 28
26 41 28
25 41 28
25 41 28
26 41 28
26 42 29
72 98 83
71 97 82
71 96 82
70 96 81
69 95 80
68 94 79
67 93 78
66 92 77
65 91 76
65 90 76
64 90 75
60 82 72
60 82 71
59 81 71
58 80 70
57 79 69
56 78 68
56 78 68
55 77 67
54 76 66
53 75 65
53 75 65
52 74 64
54 80 65
53 79 64
52 78 63
52 78 63
51 77 62
51 76 62
50 76 61
49 75 60
49 75 60
26 42 29
28 48 30
26 42 29
28 48 30
26 42 28
26 42 28
28 48 30
28 48 30
28 48 30
28 48 30
26 42 28
28 48 30
28 48 30
28 48 30
108 180 145
107 179 144
107 179 144
115 200 149
107 179 143
106 178 143
106 178 143
114 199 148
114 199 148
105 177 142
105 177 142
105 177 142
82 134 88
27 46 28
27 46 28
27 46 28
27 46 28
24 40 26
27 46 28
83 148 86
103 175 140
103 175 140
103 175 140
103 175 140
111 197 145
111 196 145
111 196 145
110 196 145
102 175 139
110 196 144
110 196 144
102 174 139
102 174 139
110 196 144
110 196 144
110 196 144
33 55 44
35 61 46
35 61 46
90 156 93
24 40 26
24 40 26
24 40 26
24 40 26
26 46 28
24 40 26
24 40 26
24 40 26
24 40 26
26 46 28
24 40 26
24 40 26
24 40 26
24 40 26
24 40 26
90 155 93
101 174 138
101 174 138
109 195 143
109 195 143
101 174 138
109 195 143
109 195 143
109 195 143
109 195 143
101 174 138
109 195 143
101 174 138
109 195 143
109 195 143
101 174 138
101 174 138
101 174 138
101 174 138
101 174 138
109 195 143
109 195 143
109 195 143
109 195 143
109 195 143
109 195 143
109 195 143
109 195 143
109 195 143
101 174 138
101 174 138
101 174 138
101 174 138
101 174 138
101 174 138
109 195 144
101 174 138
101 174 138
109 195 144
101 174 138
101 174 138
101 174 138
101 174 138
101 174 138
110 195 144
110 195 144
110 195 144
110 195 144
102 174 138
110 195 144
102 174 138
110 195 144
110 195 144
110 195 144
110 195 144
110 195 144
102 174 139
110 195 144
102 174 139
110 195 144
102 174 139
102 174 139
102 174 139
102 174 139
102 174 139
102 174 139
110 195 144
102 174 139
110 195 144
102 174 139
102 174 139
102 174 139
28 48 30
28 48 30
28 48 30
28 48 30
28 48 30
28 48 30
111 181 148
111 182 148
119 202 154
120 203 154
120 203 154
120 203 155
120 203 155
121 204 155
121 204 155
114 184 150
122 205 156
122 205 156
122 205 157
115 185 152
31 51 34
115 185 152
115 186 152
116 186 152
116 187 153
116 187 153
117 187 154
117 188 154
31 51 33
28 44 32
31 51 33
31 51 33
119 190 156
119 190 156
119 191 156
120 191 157
128 213 162
121 192 158
121 193 158
122 193 159
130 215 165
131 216 165
123 195 160
124 196 161
125 196 161
125 197 162
126 198 163
134 220 169
127 199 164
136 221 170
136 222 171
129 201 166
138 223 172
138 224 172
139 224 173
140 225 174
132 204 169
141 226 175
134 206 171
142 228 177
135 207 172
144 229 178
136 208 173
137 209 174
69 91 81
70 92 82
71 93 82
71 93 83
72 94 84
75 101 86
73 95 85
77 103 87
75 97 87
78 104 89
79 105 89
79 105 90
80 106 91
81 107 91
79 101 90
79 101 91
157 243 191
158 243 192
158 244 192
159 244 193
159 245 194
160 246 194
160 246 195
25 41 27
27 47 29
25 41 27
27 47 29
25 40 27
24 40 27
24 40 27
164 250 198
165 250 199
165 251 199
165 251 199
165 251 200
166 251 200
24 40 27
25 40 27
25 41 27
25 41 27
25 41 27
25 41 28
93 119 104
90 112 102
93 119 104
93 118 103
92 118 103
92 118 103
90 112 101
25 41 28
25 41 28
28 47 29
25 41 28
25 41 27
25 41 28
88 110 100
90 116 101
87 109 99
89 115 100
89 115 99
88 114 99
154 226 191
161 247 195
153 225 190
86 112 97
85 111 96
85 111 95
25 41 28
25 41 28
26 42 28
26 42 29
26 42 29
26 42 28
26 42 28
26 42 28
26 42 28
26 42 28
26 42 28
28 48 30
26 41 28
26 41 28
26 42 28
73 99 84
72 98 83
71 97 82
70 96 81
69 95 80
69 94 80
68 94 79
67 93 78
66 92 77
65 91 76
64 90 75
63 89 75
60 82 72
59 81 71
59 81 70
58 80 70
57 79 69
56 78 68
56 77 67
55 77 67
54 76 66
53 75 65
53 74 64
52 74 64
54 80 65
53 79 64
52 78 63
52 78 63
51 77 62
50 76 61
50 76 61
49 75 60
49 75 60
48 74 59
48 74 59
45 67 57
44 66 56
44 66 56
43 65 55
26 42 29
28 48 30
28 48 30
28 48 30
28 48 30
26 42 28
28 48 30
28 48 30
108 180 144
115 201 150
107 179 144
107 179 144
106 178 143
114 200 148
114 199 148
114 199 148
105 178 142
105 177 142
105 177 142
105 177 142
83 148 86
27 47 28
27 47 28
27 47 28
24 40 26
27 47 28
24 40 26
27 47 28
27 47 28
24 40 26
27 46 28
27 46 28
27 46 28
83 148 86
102 175 139
110 196 145
110 196 144
102 175 139
110 196 144
110 196 144
110 196 144
110 196 144
110 196 144
110 196 144
110 196 144
110 196 144
110 196 144
90 156 93
24 40 26
24 40 26
26 46 28
26 46 28
24 40 26
24 40 26
26 46 28
24 40 26
24 40 26
24 40 26
26 46 28
24 40 26
24 40 26
24 40 26
29 49 30
90 155 93
109 195 143
109 195 143
109 195 143
101 174 138
109 195 143
109 195 143
109 195 143
109 195 143
109 195 143
109 195 143
101 173 138
109 195 143
101 173 138
109 195 143
101 173 138
101 173 138
109 195 143
101 173 138
101 173 138
101 174 138
109 195 143
109 195 143
101 174 138
101 174 138
101 174 138
109 195 143
109 195 143
109 195 143
109 195 143
101 174 138
101 174 138
101 174 138
101 174 138
101 174 138
101 174 138
101 174 138
101 174 138
101 174 138
101 174 138
101 174 138
110 195 144
101 174 138
101 174 138
101 174 138
110 195 144
110 195 144
110 195 144
110 195 144
102 174 138
110 195 144
110 195 144
110 195 144
110 195 144
110 195 144
110 195 144
110 195 144
110 195 144
102 174 139
102 174 139
102 174 139
102 174 139
102 174 139
102 174 139
102 174 139
102 174 139
102 174 139
102 174 139
102 174 139
102 174 139
110 195 144
102 174 139
28 48 30
28 48 30
26 42 29
28 48 30
28 48 30
28 48 30
111 181 148
119 202 154
119 202 154
120 203 154
120 203 154
120 203 155
120 204 155
121 204 155
121 204 155
121 204 156
122 205 156
122 205 156
114 185 151
115 185 152
32 51 34
31 51 34
31 51 34
31 51 34
29 45 32
31 51 34
117 187 154
117 188 154
118 188 154
31 51 33
31 51 33
118 190 155
119 190 156
119 190 156
28 48 30
28 48 30
84 149 87
121 192 158
121 193 158
122 194 159
122 194 159
123 195 160
131 217 166
124 196 161
125 196 161
125 197 162
126 198 163
134 220 169
135 220 169
136 221 170
136 222 170
137 222 171
138 223 172
138 224 172
131 203 168
140 225 174
140 226 174
141 226 175
142 227 176
134 206 171
135 207 172
136 208 173
136 208 173
145 231 179
69 91 81
70 92 82
73 99 84
71 93 83
72 94 84
73 95 84
73 95 85
76 102 87
75 97 86
75 97 87
78 104 89
79 105 90
80 106 91
80 106 91
79 101 90
148 220 185
157 242 191
157 243 192
158 244 192
159 244 193
159 245 193
160 245 194
25 41 27
25 41 27
25 41 27
25 41 27
25 41 27
25 41 27
25 40 27
25 40 27
24 40 27
24 40 27
24 40 27
24 40 27
24 40 27
24 40 27
24 40 27
25 41 27
25 41 27
25 41 27
25 41 28
25 41 28
92 118 103
92 118 103
92 118 103
90 112 101
90 112 101
92 118 103
89 111 101
89 111 101
91 117 102
91 117 102
91 117 102
91 117 102
25 41 28
88 109 99
90 116 100
89 115 100
89 115 100
88 114 99
162 248 196
162 247 196
161 246 195
160 246 195
160 245 194
159 245 193
75 127 81
25 41 28
25 41 28
26 42 28
82 108 93
81 107 92
26 42 29
26 42 29
28 48 30
28 48 30
26 42 28
26 42 28
26 42 28
26 42 28
26 42 28
26 42 28
73 98 84
72 98 83
71 97 82
70 96 81
69 95 80
68 94 79
67 93 78
67 93 78
66 92 77
65 91 76
64 90 75
63 89 74
60 82 72
59 81 71
58 80 70
58 80 69
57 79 69
56 78 68
55 77 67
55 77 66
54 76 66
53 75 65
52 74 64
54 80 65
53 79 64
53 79 64
52 78 63
52 77 63
51 77 62
50 76 61
50 76 61
49 75 60
49 75 60
48 74 59
48 73 59
45 67 56
44 66 56
44 66 56
43 65 55
43 65 55
42 64 54
42 64 54
42 63 53
41 63 53
28 48 30
28 48 30
108 180 145
108 180 144
107 179 144
115 201 149
107 179 144
106 178 143
114 200 148
106 178 143
106 178 143
105 177 142
105 177 142
105 177 142
105 177 142
24 40 27
27 47 28
27 47 28
27 47 28
27 47 28
27 47 28
27 47 28
27 47 28
27 47 28
27 47 28
27 47 28
27 47 28
27 47 28
24 40 26
111 196 145
102 175 139
110 196 144
102 174 139
102 174 139
110 196 144
110 196 144
110 196 144
110 196 144
110 196 144
110 196 144
110 196 144
102 174 139
90 156 93
24 40 26
24 40 26
24 40 26
27 46 28
24 40 26
24 40 26
24 40 26
27 46 28
24 40 26
27 46 28
24 40 26
24 40 26
27 46 28
24 40 26
29 49 30
90 155 93
109 195 143
109 195 143
109 195 143
101 174 138
101 173 138
109 195 143
109 195 143
109 195 143
101 173 138
109 195 143
101 173 138
109 195 143
109 195 143
109 195 143
109 195 143
101 173 138
101 173 138
101 173 138
101 173 138
101 173 138
101 173 138
101 173 138
101 173 138
101 174 138
101 174 138
101 174 138
101 174 138
101 174 138
109 195 143
109 195 143
101 174 138
101 174 138
101 174 138
101 174 138
109 195 144
101 174 138
109 195 144
101 174 138
101 174 138
101 174 138
101 174 138
101 174 138
101 174 138
110 195 144
101 174 138
110 195 144
110 195 144
110 195 144
110 195 144
110 195 144
110 195 144
110 195 144
110 195 144
110 195 144
110 195 144
110 195 144
110 195 144
110 195 144
102 174 138
102 174 139
102 174 139
102 174 139
102 174 139
102 174 139
110 195 144
102 174 139
102 174 139
102 174 139
110 195 144
102 174 139
102 174 139
102 174 139
28 48 30
26 42 29
28 48 30
28 48 30
28 48 30
119 202 153
119 202 154
119 203 154
120 203 154
120 203 154
120 203 155
120 204 155
121 204 155
121 204 155
121 204 156
122 205 156
114 184 151
114 185 151
115 185 152
115 185 152
32 52 34
32 51 34
31 51 34
31 51 34
31 51 34
31 51 34
31 51 34
31 51 34
51 73 63
118 189 155
126 211 160
119 190 156
119 191 156
29 48 30
28 48 30
28 48 30
28 48 30
28 48 30
28 48 30
28 48 30
123 195 160
123 195 160
124 196 161
125 196 161
133 218 167
134 219 168
134 220 169
135 220 169
136 221 170
136 222 170
137 222 171
138 223 172
138 224 172
139 224 173
140 225 174
140 226 174
141 226 175
142 227 176
134 206 171
135 207 172
136 208 172
144 230 179
145 231 179
69 91 81
70 92 81
70 92 82
71 93 83
72 94 84
73 94 84
73 95 85
74 96 86
77 103 88
75 97 87
78 104 89
79 105 90
77 99 89
78 100 89
81 107 92
156 242 190
157 242 191
157 243 191
158 243 192
150 222 187
151 223 188
25 40 27
25 41 27
25 41 27
25 41 27
27 47 29
25 41 27
27 47 29
25 41 27
25 41 27
25 40 27
25 40 27
24 40 27
24 40 27
24 40 27
24 40 27
25 40 27
25 41 27
25 41 27
25 41 27
25 41 28
92 118 103
89 111 101
92 118 103
92 118 103
89 111 101
92 118 103
92 118 103
91 117 102
91 117 102
91 117 102
91 117 102
91 117 101
88 110 100
25 41 28
25 41 28
25 41 28
25 41 27
25 41 27
25 41 27
154 226 190
161 247 195
161 246 195
160 246 194
151 223 188
151 223 188
25 41 27
25 41 28
25 41 28
26 42 28
82 108 93
81 107 92
80 106 91
80 105 91
79 105 90
78 104 89
77 103 88
26 42 28
26 42 28
26 42 28
26 42 28
26 42 28
72 98 83
71 97 82
71 97 82
70 96 81
69 95 80
68 94 79
141 226 175
140 225 174
139 225 174
65 91 76
64 90 75
61 83 72
60 82 72
59 81 71
58 80 70
57 79 69
57 79 68
56 78 68
55 77 67
54 76 66
54 76 66
53 75 65
52 74 64
54 80 65
53 79 64
53 79 64
52 78 63
51 77 62
51 77 62
50 76 61
50 76 61
49 75 60
49 74 60
48 74 59
47 73 58
45 66 56
44 66 56
44 66 55
43 65 55
43 65 55
42 64 54
42 64 54
42 63 53
41 63 53
41 63 53
40 62 52
116 201 150
108 180 144
107 179 144
107 179 144
107 179 143
106 178 143
106 178 143
106 178 143
106 178 142
105 177 142
113 199 147
105 177 142
105 177 142
24 40 27
27 47 28
24 40 27
27 47 28
27 47 28
27 47 28
27 47 28
27 47 28
27 47 28
27 47 28
27 47 28
27 47 28
27 47 28
27 47 28
102 175 139
102 175 139
102 175 139
110 196 144
110 196 144
102 174 139
102 174 139
110 196 144
102 174 139
102 174 139
102 174 139
110 196 144
110 196 144
24 40 26
24 40 26
24 40 26
24 40 26
27 47 28
27 47 28
27 47 28
24 40 26
24 40 26
24 40 26
24 40 26
24 40 26
24 40 26
24 40 26
27 47 28
29 49 30
90 155 93
109 195 143
109 195 143
101 173 138
109 195 143
101 173 138
109 195 143
109 195 143
109 195 143
109 195 143
109 195 143
109 195 143
109 195 143
109 195 143
109 195 143
101 173 138
101 173 138
101 173 138
109 195 143
101 173 138
101 173 138
101 173 138
101 173 138
101 173 138
101 173 138
101 173 138
101 173 138
101 174 138
101 174 138
109 195 143
109 195 143
109 195 143
109 195 143
109 195 143
109 195 143
109 195 143
109 195 144
101 174 138
101 174 138
101 174 138
101 174 138
109 195 144
101 174 138
101 174 138
101 174 138
110 195 144
101 174 138
110 195 144
101 174 138
110 195 144
110 195 144
110 195 144
102 174 138
110 195 144
110 195 144
110 195 144
110 195 144
110 195 144
110 195 144
102 174 138
102 174 138
102 174 138
110 195 144
102 174 139
102 174 139
110 195 144
102 174 139
110 195 144
102 174 139
102 174 139
102 174 139
110 195 144
102 174 139
26 42 29
28 48 30
29 48 30
29 48 30
29 48 30
119 202 153
119 202 154
119 203 154
120 203 154
120 203 154
120 203 155
113 183 150
121 204 155
121 204 155
121 204 156
114 184 151
114 184 151
114 185 151
115 185 152
115 185 152
32 52 34
32 52 34
32 51 34
31 51 34
31 51 34
31 51 34
31 51 34
118 188 154
125 210 160
118 189 155
126 211 160
127 211 161
119 191 156
120 191 157
29 49 30
28 48 30
28 48 30
28 48 30
28 48 30
26 42 28
28 48 30
28 48 30
28 48 30
125 196 161
125 197 162
134 219 168
134 220 169
127 199 164
136 221 170
136 222 170
137 222 171
138 223 172
138 224 172
131 203 168
131 203 168
140 226 174
141 226 175
134 205 170
134 206 171
135 207 172
136 208 172
136 208 173
137 209 174
71 97 82
70 92 81
70 92 82
73 99 84
72 94 83
72 94 84
73 95 85
76 102 87
77 103 88
77 103 88
78 104 89
79 105 90
79 105 90
78 100 89
155 241 189
156 241 190
156 242 191
157 243 191
158 243 192
150 222 187
151 223 187
25 40 27
25 41 27
25 41 27
25 41 27
25 41 27
25 41 27
25 41 27
27 47 29
27 47 29
27 47 29
25 41 27
25 40 27
25 40 27
24 40 27
24 40 27
25 40 27
25 41 27
25 41 27
25 41 27
25 41 28
91 117 102
89 111 101
92 117 102
89 111 101
91 117 102
89 111 101
91 117 102
91 117 102
91 117 102
88 110 100
90 116 101
90 116 101
25 41 28
25 41 28
25 41 28
25 41 28
25 41 28
25 41 28
25 41 27
25 41 27
25 41 27
27 47 29
25 41 27
75 127 81
159 244 193
25 41 27
25 41 28
26 41 28
26 42 28
81 107 92
81 107 92
80 106 91
79 105 90
78 104 89
78 104 89
77 103 88
76 102 87
75 101 86
74 100 85
74 100 85
70 92 82
72 98 83
71 97 82
70 96 81
69 95 80
69 95 80
142 227 176
141 226 175
140 225 174
139 224 173
138 224 173
138 223 172
129 201 166
128 200 165
127 199 164
58 80 70
57 79 69
56 78 68
56 78 68
55 77 67
54 76 66
54 75 65
53 75 65
52 74 64
54 80 65
53 79 64
53 78 64
52 78 63
51 77 62
51 77 62
50 76 61
49 75 61
49 75 60
48 74 59
48 74 59
47 73 58
44 66 56
44 66 56
44 65 55
43 65 55
43 65 54
42 64 54
42 64 54
41 63 53
41 63 53
41 63 53
40 62 52
108 180 145
108 180 144
107 179 144
115 201 149
107 179 143
106 178 143
106 178 143
106 178 143
106 178 142
105 177 142
105 177 142
105 177 142
105 177 142
27 47 28
27 47 28
27 47 28
27 47 28
27 47 28
27 47 28
27 47 28
27 47 28
27 47 28
27 47 28
27 47 28
24 40 27
27 47 28
26 42 29
102 175 139
102 175 139
102 175 139
102 174 139
102 174 139
102 174 139
102 174 139
102 174 139
110 196 144
110 196 144
102 174 139
102 174 139
102 174 139
110 196 144
33 55 44
33 55 44
35 61 46
24 40 26
27 47 28
24 40 26
27 47 28
24 40 26
24 40 26
24 40 26
24 40 26
24 40 26
24 40 26
24 40 26
29 49 30
90 155 93
89 155 92
109 195 143
109 195 143
109 195 143
109 195 143
101 173 138
109 195 143
109 195 143
109 195 143
101 173 138
109 195 143
101 173 138
101 173 138
109 195 143
109 195 143
101 173 138
101 173 138
101 173 138
101 173 138
101 173 138
101 173 138
101 173 138
101 173 138
101 173 138
101 173 138
101 173 138
101 173 138
109 195 143
101 174 138
101 174 138
109 195 143
109 195 143
109 195 143
101 174 138
101 174 138
109 195 143
109 195 143
109 195 144
109 195 144
109 195 144
109 195 144
109 195 144
101 174 138
109 195 144
101 174 138
109 195 144
110 195 144
110 195 144
110 195 144
110 195 144
101 174 138
110 195 144
110 195 144
102 174 138
110 195 144
110 195 144
110 195 144
110 195 144
102 174 138
102 174 138
102 174 138
102 174 138
110 195 144
102 174 139
102 174 139
110 195 144
102 174 139
110 195 144
102 174 139
102 174 139
110 195 144
102 174 139
102 174 139
29 49 30
29 49 31
29 49 31
29 49 31
31 47 35
31 47 35
31 47 34
79 130 86
120 203 154
120 203 155
120 204 155
121 204 155
121 204 155
114 184 150
114 184 151
114 184 151
114 185 151
115 185 152
115 185 152
115 186 152
32 52 34
32 52 34
32 52 34
32 51 34
31 51 34
117 188 154
117 188 154
117 189 154
118 189 155
118 190 155
127 211 161
119 191 156
128 212 162
29 49 31
29 49 31
29 48 30
28 48 30
28 48 30
28 48 30
28 48 30
28 48 30
28 48 30
125 196 161
125 197 162
126 198 163
126 198 163
127 199 164
128 199 164
128 200 165
137 222 171
138 223 172
138 224 172
131 203 168
139 225 174
140 226 174
141 226 175
133 205 170
142 228 176
135 207 172
135 207 172
136 208 173
145 230 179
146 231 180
146 232 180
139 211 176
71 93 83
72 93 83
72 94 84
73 95 85
76 102 87
77 103 87
77 103 88
78 104 89
79 105 89
77 99 88
154 240 188
147 219 184
156 241 190
148 220 185
149 221 186
149 221 186
150 222 187
24 40 27
25 41 27
25 41 27
25 41 27
25 41 27
25 41 27
25 41 27
27 47 29
27 47 29
25 41 27
27 47 29
25 41 27
25 41 27
27 47 29
25 40 27
27 47 28
25 40 27
25 41 27
25 41 27
25 41 28
91 117 102
91 117 102
89 111 100
91 117 102
89 111 100
91 117 102
89 110 100
88 110 100
91 117 102
90 116 101
90 116 101
88 110 99
90 116 101
25 41 28
25 41 28
25 41 28
25 41 28
25 41 28
25 41 28
25 41 28
25 41 28
25 41 28
25 41 27
25 41 27
25 41 27
25 41 27
25 41 28
25 41 28
26 42 28
82 108 93
81 107 92
80 106 91
80 106 91
79 105 90
78 104 89
77 103 88
77 102 88
76 102 87
75 101 86
74 100 85
73 99 84
70 92 82
69 91 81
68 90 80
68 90 79
67 89 79
66 88 78
141 227 176
141 226 175
140 225 174
139 224 173
138 223 172
137 223 172
129 200 165
128 200 165
127 199 164
126 198 163
125 197 162
125 196 161
124 196 161
123 195 160
122 194 159
53 75 65
53 75 64
52 74 64
54 80 65
53 79 64
52 78 63
52 78 63
51 77 62
51 76 62
50 76 61
49 75 60
49 75 60
48 74 59
48 74 59
47 73 58
44 66 56
44 66 56
43 65 55
43 65 55
43 64 54
42 64 54
42 64 54
41 63 53
41 63 53
41 63 52
40 62 52
25 41 27
107 180 144
107 179 144
107 179 144
115 200 149
106 178 143
106 178 143
106 178 143
114 199 148
105 177 142
105 177 142
113 199 147
105 177 142
27 47 28
27 47 28
27 47 28
27 47 28
27 47 28
27 47 28
27 47 28
27 47 28
27 47 28
27 47 28
27 47 28
27 47 28
27 47 28
26 42 29
110 196 145
110 196 144
110 196 144
102 174 139
110 196 144
102 174 139
102 174 139
102 174 139
102 174 139
102 174 139
102 174 139
102 174 139
102 174 139
110 196 144
33 55 44
35 61 46
35 61 46
35 61 46
35 61 46
35 61 46
35 61 46
35 61 46
24 40 27
24 40 27
24 40 27
24 40 27
24 40 27
29 49 30
29 49 30
90 155 93
89 155 92
109 195 143
109 195 143
101 173 138
109 195 143
101 173 138
101 173 138
109 195 143
109 195 143
109 195 143
101 173 138
109 195 143
109 195 143
109 195 143
109 195 143
109 195 143
101 173 138
109 195 143
101 173 138
101 173 138
109 195 143
109 195 143
101 173 138
101 173 138
101 173 138
101 173 138
101 173 138
109 195 143
109 195 143
109 195 143
109 195 143
109 195 143
101 174 138
109 195 143
109 195 143
101 174 138
109 195 143
109 195 143
109 195 143
109 195 144
101 174 138
101 174 138
109 195 144
109 195 144
101 174 138
101 174 138
101 174 138
101 174 138
110 195 144
110 195 144
101 174 138
110 195 144
110 195 144
110 195 144
110 195 144
110 195 144
110 195 144
110 195 144
110 195 144
102 174 138
110 195 144
102 174 138
102 174 138
110 195 144
110 195 144
110 195 144
102 174 139
102 174 139
102 174 139
102 174 139
102 174 139
102 174 139
102 174 139
29 49 31
29 49 31
29 49 31
29 49 31
31 47 35
31 47 35
31 47 35
31 47 34
31 47 34
30 47 34
30 46 34
30 46 34
113 183 150
114 184 150
114 184 151
114 184 151
114 185 151
115 185 152
115 185 152
115 186 152
32 52 35
32 52 35
32 52 34
32 52 34
117 188 154
117 188 154
117 188 154
117 189 154
118 189 155
118 190 155
127 211 161
119 191 156
120 191 157
84 149 88
29 49 31
29 49 31
29 49 30
28 48 30
28 48 30
28 48 30
28 48 30
124 196 161
133 218 167
125 197 162
126 198 163
126 198 163
135 220 169
127 199 164
128 200 165
129 201 166
129 201 166
130 202 167
131 203 168
139 225 174
132 204 169
141 226 175
133 205 170
134 206 171
143 228 177
135 207 172
144 230 178
137 209 174
137 209 174
146 232 180
139 211 176
139 212 176
140 212 177
141 213 178
150 235 184
142 214 179
76 102 87
77 103 88
78 104 89
78 104 89
79 105 90
154 240 188
155 240 189
155 241 189
156 242 190
157 242 191
157 243 191
75 127 81
25 40 27
25 41 27
25 41 27
25 41 27
25 41 27
25 41 28
25 41 27
25 41 27
25 41 27
27 47 29
25 41 27
25 41 27
25 41 27
25 41 27
25 41 27
25 41 27
25 41 27
25 41 27
25 41 27
88 110 100
91 117 102
91 117 102
91 117 102
91 117 102
91 117 102
91 117 101
88 110 100
88 110 100
90 116 101
90 116 101
90 116 101
87 109 99
25 41 27
25 41 28
25 41 28
25 41 28
25 41 28
25 41 28
25 41 28
25 41 28
25 41 28
25 41 28
25 41 28
25 41 28
25 41 27
25 41 27
25 41 28
25 41 28
26 42 28
81 107 92
81 107 92
80 106 91
79 105 90
78 104 89
78 104 89
77 103 88
76 102 87
75 101 86
75 101 86
74 100 85
73 99 84
70 92 82
69 91 81
68 90 80
67 89 79
66 88 78
66 88 77
133 205 170
132 204 169
132 203 168
131 203 168
130 202 167
137 222 171
128 200 165
128 199 164
127 199 164
126 198 163
125 197 162
124 196 161
124 196 161
123 195 160
122 194 159
122 193 158
121 193 158
128 213 162
128 213 162
127 212 161
52 78 63
52 78 63
51 77 62
50 76 61
50 76 61
49 75 60
49 75 60
48 74 59
48 74 59
45 67 57
44 66 56
44 66 56
43 65 55
43 65 55
42 64 54
42 64 54
42 64 53
41 63 53
41 63 53
41 62 52
40 62 52
27 47 29
25 41 27
25 41 27
27 47 29
27 47 29
27 47 29
83 148 86
106 178 143
106 178 142
113 199 148
105 177 142
105 177 142
105 177 142
27 47 29
27 47 29
27 47 29
27 47 29
27 47 29
27 47 28
27 47 28
25 40 27
27 47 28
27 47 28
27 47 28
24 40 27
27 47 28
82 134 88
102 175 139
102 175 139
110 196 144
102 174 139
110 196 144
102 174 139
110 196 144
102 174 139
102 174 139
110 196 144
102 174 139
102 174 139
102 174 138
110 196 144
110 196 144
35 61 46
35 61 46
35 61 46
33 54 44
35 61 46
35 61 46
35 61 46
33 54 44
35 61 46
35 61 46
35 61 46
33 54 44
29 49 30
29 49 30
90 155 93
89 155 92
109 195 143
109 195 143
109 195 143
109 195 143
109 195 143
101 173 138
109 195 143
109 195 143
109 195 143
109 195 143
101 173 138
109 195 143
109 195 143
109 195 143
109 195 143
101 173 138
101 173 138
101 173 138
101 173 138
101 173 138
101 173 138
109 195 143
101 173 138
101 173 138
101 173 138
101 173 138
101 173 138
101 173 138
101 173 138
109 195 143
109 195 143
109 195 143
109 195 143
101 174 138
109 195 143
109 195 143
109 195 143
101 174 138
109 195 143
109 195 143
101 174 138
109 195 144
109 195 144
109 195 144
101 174 138
109 195 144
101 174 138
101 174 138
101 174 138
101 174 138
101 174 138
101 174 138
101 174 138
110 195 144
110 195 144
110 195 144
110 195 144
110 195 144
102 174 138
102 174 138
102 174 138
102 174 138
102 174 138
102 174 138
102 174 138
102 174 139
110 195 144
102 174 139
102 174 139
102 174 139
102 174 139
102 174 139
102 174 139
29 49 31
29 49 31
29 49 31
31 47 35
31 47 35
31 47 35
33 53 36
31 47 34
31 47 34
30 47 34
121 204 155
121 204 155
113 184 150
122 205 156
122 205 156
114 185 151
123 206 157
115 185 152
115 186 152
116 186 153
32 52 35
32 52 35
116 187 153
117 188 154
117 188 153
117 188 154
117 189 154
118 189 155
118 190 155
119 190 156
119 191 156
120 191 157
120 192 157
29 49 31
29 49 31
29 49 31
29 49 31
29 48 30
28 48 30
123 195 160
132 217 166
124 196 161
125 197 162
126 198 162
126 198 163
127 199 164
127 199 164
128 200 165
129 201 166
129 201 166
138 223 172
131 203 167
131 203 168
140 225 174
141 226 175
141 227 175
142 227 176
135 207 171
135 207 172
136 208 173
137 209 173
137 209 174
138 210 175
139 211 175
139 211 176
140 212 177
141 213 177
149 235 184
150 236 184
143 215 179
151 237 185
152 238 186
153 238 187
145 217 182
146 218 183
155 240 189
155 241 189
156 241 190
156 242 190
157 243 191
24 40 27
25 40 27
25 41 27
25 41 27
25 41 27
25 41 28
25 41 28
25 41 28
25 41 28
25 41 27
25 41 27
25 41 27
25 41 27
25 41 27
25 41 27
25 41 27
27 47 29
25 41 27
25 41 27
25 41 27
88 110 99
90 116 101
90 116 101
88 110 100
90 116 101
88 110 99
90 116 101
88 110 99
90 116 101
90 116 101
90 116 100
89 115 100
89 115 100
25 41 27
25 41 28
25 41 28
25 41 28
25 41 28
25 41 28
25 41 28
25 41 28
25 41 28
25 41 28
25 41 28
25 41 28
28 47 29
25 41 28
25 41 28
25 41 28
26 42 28
81 107 92
80 106 91
80 105 91
79 105 90
78 104 89
77 103 88
77 102 88
76 102 87
75 101 86
74 100 85
73 99 84
70 92 82
69 91 81
69 90 80
68 90 80
67 89 79
66 88 78
134 206 171
133 205 170
132 204 169
131 203 168
130 202 167
130 201 167
28 48 30
28 48 30
26 42 28
28 48 30
28 48 30
83 149 87
124 196 161
124 195 160
123 195 160
122 194 159
121 193 158
121 193 158
128 213 162
127 213 162
127 212 161
126 211 160
125 211 160
125 210 159
124 209 158
124 209 158
49 75 60
49 74 60
48 74 59
48 73 58
45 67 56
44 66 56
44 66 55
43 65 55
43 65 55
42 64 54
42 64 54
42 63 53
41 63 53
41 63 53
40 62 52
40 62 52
27 47 29
25 41 27
27 47 29
27 47 29
27 47 29
27 47 29
27 47 29
27 47 29
25 41 27
27 47 29
27 47 29
75 127 81
105 177 141
27 47 29
27 47 29
27 47 29
27 47 29
27 47 29
27 47 29
27 47 29
27 47 29
25 40 27
27 47 29
27 47 29
27 47 29
27 47 29
82 134 88
102 175 139
102 175 139
102 175 139
102 174 139
110 196 144
102 174 139
102 174 139
102 174 139
102 174 139
110 196 144
102 174 139
102 174 139
110 196 144
102 174 138
110 196 144
110 196 144
35 61 46
32 54 44
35 61 46
35 61 46
35 61 46
32 54 44
35 61 46
35 61 46
35 61 46
35 61 46
35 61 46
29 49 30
29 49 30
90 155 93
89 155 92
109 195 143
109 195 143
109 195 143
109 195 143
101 173 138
109 195 143
109 195 143
109 195 143
109 195 143
109 195 143
109 195 143
109 195 143
101 173 138
109 195 143
109 195 143
109 195 143
101 173 138
101 173 138
101 173 138
101 173 138
101 173 138
101 173 138
101 173 138
109 195 143
109 195 143
101 173 138
101 173 138
101 173 138
101 173 138
109 195 143
109 195 143
101 173 138
109 195 143
109 195 143
101 174 138
101 174 138
109 195 143
109 195 143
109 195 143
109 195 143
101 174 138
101 174 138
101 174 138
109 195 144
101 174 138
101 174 138
101 174 138
101 174 138
101 174 138
101 174 138
110 195 144
101 174 138
101 174 138
101 174 138
101 174 138
101 174 138
110 195 144
102 174 138
110 195 144
110 195 144
102 174 138
102 174 138
102 174 138
102 174 138
102 174 138
102 174 138
102 174 138
102 174 139
102 174 139
102 174 139
102 174 139
102 174 139
102 174 139
29 49 31
29 49 31
29 49 31
33 53 37
31 47 35
31 47 35
31 47 35
31 47 35
31 47 35
120 204 155
121 204 155
121 204 155
121 205 156
122 205 156
114 184 151
122 206 157
123 206 157
123 206 157
123 207 157
124 207 158
32 52 35
116 187 153
116 187 153
124 209 158
125 209 159
125 209 159
117 189 154
118 189 155
118 190 155
127 211 161
127 212 161
120 191 156
120 191 157
29 49 31
29 49 31
29 49 31
29 49 31
29 49 31
123 195 160
123 195 160
124 196 161
132 218 167
133 218 167
126 197 162
126 198 163
135 220 169
135 221 170
136 221 170
137 222 171
129 201 166
130 202 167
130 202 167
139 225 173
140 225 174
141 226 175
141 227 175
142 227 176
142 228 177
143 229 177
144 229 178
145 230 179
145 231 179
138 210 175
138 211 175
139 211 176
148 233 182
149 234 183
141 213 178
150 235 184
151 236 185
151 237 185
152 237 186
152 238 187
153 239 187
154 239 188
154 240 188
147 219 184
147 220 184
156 242 190
24 40 27
24 40 27
25 41 27
25 41 27
25 41 27
25 41 27
25 41 28
25 41 28
28 48 29
25 41 28
25 41 28
25 41 28
25 41 27
25 41 27
25 41 27
25 41 27
25 41 27
27 47 29
25 41 27
25 41 27
90 116 100
90 116 101
90 116 101
87 109 99
87 109 99
90 116 101
87 109 99
90 116 101
90 116 100
87 109 99
87 109 98
87 109 98
89 115 100
25 41 27
25 41 28
25 41 28
25 41 28
26 42 28
26 41 28
25 41 28
25 41 28
25 41 28
25 41 28
25 41 28
25 41 28
25 41 28
25 41 28
25 41 28
25 41 28
26 41 28
81 107 92
80 106 91
80 106 91
79 105 90
78 104 89
78 104 89
77 103 88
76 102 87
75 101 86
75 101 86
74 100 85
73 99 84
70 92 82
69 91 81
68 90 80
67 89 79
67 89 78
66 88 78
133 205 170
133 204 169
132 204 169
131 203 168
130 202 167
129 201 166
28 48 30
28 48 30
28 48 30
28 48 30
26 42 28
28 48 30
26 42 28
28 48 30
28 48 30
28 48 30
83 149 87
121 192 157
128 213 162
127 212 161
127 212 161
126 211 160
125 211 159
125 210 159
124 209 158
124 209 158
123 208 157
122 208 157
122 207 156
121 207 156
113 185 150
44 66 56
44 65 55
43 65 55
43 65 54
42 64 54
42 64 54
41 63 53
41 63 53
41 63 52
40 62 52
40 62 52
27 47 29
27 47 29
27 47 29
27 47 29
27 47 29
27 47 29
27 47 29
27 47 29
27 47 29
27 47 29
27 47 29
25 41 27
27 43 29
36 58 47
38 64 49
35 57 47
35 57 47
27 47 29
27 47 29
27 47 29
25 41 27
27 47 29
27 47 29
27 47 29
27 47 29
27 47 29
82 134 88
110 196 144
102 175 139
102 175 139
102 174 139
102 174 139
102 174 139
102 174 139
110 196 144
102 174 139
110 196 144
102 174 139
110 196 144
102 174 138
102 174 138
102 174 138
110 196 144
102 174 138
35 61 46
35 61 46
35 61 46
35 61 46
35 61 46
35 61 46
35 61 46
35 61 46
35 61 46
35 61 46
29 49 30
29 48 30
90 155 93
89 155 92
109 195 143
109 195 143
101 173 138
109 195 143
109 195 143
109 195 143
109 195 143
101 173 138
109 195 143
109 195 143
109 195 143
109 195 143
109 195 143
109 195 143
109 195 143
109 195 143
101 173 138
101 173 138
101 173 138
101 173 138
101 173 138
101 173 138
101 173 138
109 195 143
101 173 138
101 173 138
101 173 138
101 173 138
101 173 138
101 173 138
101 173 138
109 195 143
109 195 143
109 195 143
109 195 143
109 195 143
109 195 143
109 195 143
109 195 143
109 195 143
109 195 143
109 195 143
109 195 143
109 195 143
101 174 138
101 174 138
101 174 138
101 174 138
109 195 144
101 174 138
101 174 138
109 195 144
101 174 138
110 195 144
101 174 138
101 174 138
110 195 144
101 174 138
102 174 138
27 47 29
27 47 29
27 47 29
27 47 29
27 47 29
102 174 138
102 174 138
102 174 138
102 174 138
102 174 138
110 195 144
102 174 139
102 174 139
102 174 139
102 174 139
29 49 31
29 49 31
34 54 37
34 53 37
31 47 35
31 47 35
31 47 35
120 203 155
120 204 155
113 183 150
121 204 155
121 205 156
122 205 156
114 184 151
122 206 156
122 206 157
123 206 157
123 207 157
116 186 153
116 186 152
116 187 153
124 208 158
116 187 153
124 209 159
125 210 159
125 210 160
126 210 160
126 211 160
119 190 156
119 191 156
128 212 162
120 191 157
121 192 157
29 49 31
29 49 31
26 42 29
122 194 159
123 195 160
131 217 165
124 196 161
132 218 167
133 218 167
125 197 162
126 198 163
127 199 163
127 199 164
136 221 170
128 200 165
137 223 171
130 202 167
138 224 173
139 225 173
140 225 174
132 204 169
141 227 175
142 227 176
134 206 171
143 229 177
144 229 178
144 230 178
145 231 179
146 231 180
146 232 180
147 233 181
25 41 27
75 127 81
149 235 183
142 214 178
142 214 179
143 215 180
152 237 186
152 238 186
153 238 187
145 218 182
154 240 188
146 219 183
155 241 189
75 127 80
24 40 27
25 40 27
25 41 27
25 41 27
25 41 27
25 41 27
25 41 28
86 112 97
86 112 97
86 112 97
87 113 98
87 113 98
25 41 28
25 41 28
25 41 27
25 41 27
25 41 27
25 41 27
25 41 27
25 41 27
89 115 100
87 109 98
89 115 100
89 115 100
89 115 100
89 115 100
164 249 198
164 249 198
87 109 98
89 115 100
86 108 98
89 115 99
88 114 99
25 41 27
25 41 28
25 41 28
26 41 28
26 42 28
26 42 28
28 48 30
26 41 28
26 41 28
25 41 28
25 41 28
25 41 28
25 41 28
28 48 29
25 41 28
25 41 28
26 42 28
81 107 92
80 106 91
79 105 90
79 105 90
78 104 89
77 103 88
76 102 87
76 102 87
75 101 86
74 100 85
73 99 84
73 99 84
69 91 81
69 91 80
68 90 80
67 89 79
66 88 78
65 87 77
133 205 170
132 204 169
132 203 168
131 203 168
130 202 167
129 201 166
28 48 30
28 48 30
28 48 30
28 48 30
28 48 30
28 48 30
28 48 30
28 48 30
28 48 30
28 48 30
28 48 30
28 48 30
28 48 30
26 41 28
25 41 28
25 41 28
125 210 159
125 210 159
124 209 158
123 209 158
123 208 157
122 208 157
122 207 156
121 207 155
113 185 150
112 184 149
112 184 149
111 183 148
111 183 148
111 182 147
110 182 147
41 63 53
41 63 53
41 63 52
40 62 52
40 62 52
27 47 29
27 47 29
25 41 27
25 41 27
27 47 29
27 47 29
27 47 29
27 47 29
27 47 29
27 47 29
27 47 29
27 47 29
82 134 88
104 177 141
35 57 47
35 57 47
35 57 47
37 63 48
35 57 46
37 63 48
35 57 46
37 63 48
37 63 48
25 41 27
27 47 29
27 43 29
82 134 87
110 196 144
102 175 139
102 175 139
102 174 139
102 174 139
102 174 139
102 174 139
102 174 139
102 174 139
102 174 139
102 174 138
110 196 144
102 174 138
110 196 144
110 196 144
102 174 138
102 174 138
110 195 144
35 61 46
32 54 44
35 61 46
35 61 46
35 61 46
35 61 46
35 61 46
35 61 46
35 61 46
29 49 30
29 48 30
90 155 93
89 155 92
74 126 79
109 195 143
101 173 138
109 195 143
109 195 143
109 195 143
101 173 138
109 195 143
101 173 138
109 195 143
101 173 138
109 195 143
109 195 143
101 173 138
109 195 143
101 173 138
109 195 143
101 173 138
101 173 138
101 173 138
101 173 138
101 173 138
101 173 138
101 173 138
101 173 138
101 173 138
101 173 138
101 173 138
101 173 138
101 173 138
109 195 143
109 195 143
109 195 143
109 195 143
109 195 143
109 195 143
101 173 138
109 195 143
109 195 143
109 195 143
109 195 143
101 174 138
109 195 143
109 195 143
101 174 138
101 174 138
101 174 138
109 195 144
109 195 144
109 195 144
101 174 138
101 174 138
101 174 138
101 174 138
101 174 138
101 174 138
101 174 138
101 174 138
101 174 138
102 174 138
27 47 29
27 47 29
27 47 29
27 47 29
27 47 29
27 47 29
27 47 29
27 47 29
27 47 29
83 149 86
102 174 139
102 174 139
102 174 139
102 174 139
34 56 46
34 56 46
34 54 37
34 54 37
31 47 35
31 47 35
120 203 154
120 203 154
120 204 155
121 204 155
121 204 155
121 205 156
122 205 156
122 205 156
122 206 156
122 206 157
115 185 152
115 186 152
116 186 153
115 186 152
115 187 152
124 208 158
124 209 158
116 188 153
125 210 159
125 210 159
126 210 160
118 190 155
119 190 155
127 212 161
128 212 162
128 213 162
128 213 163
53 75 65
29 49 31
122 193 158
122 194 159
123 195 159
131 217 165
132 217 166
124 196 161
133 218 167
125 197 162
126 198 163
127 199 163
135 221 169
128 200 165
128 200 165
129 201 166
138 223 172
130 202 167
139 224 173
140 225 174
132 204 169
141 226 175
142 227 176
142 228 176
143 228 177
144 229 178
144 230 178
145 230 179
145 231 180
138 210 175
25 41 27
25 41 27
25 41 27
25 41 27
25 40 27
25 40 27
24 40 27
75 127 81
152 238 186
153 238 187
153 239 187
154 239 188
154 240 188
155 241 189
24 40 27
24 40 27
25 40 27
25 41 27
25 41 27
25 41 27
25 41 28
82 104 94
85 111 96
86 112 97
86 112 97
86 112 97
84 106 96
85 106 96
87 113 98
88 113 98
88 114 99
88 114 99
25 41 27
25 41 27
88 114 99
89 115 99
89 115 100
86 108 98
86 108 98
86 108 98
89 115 100
155 227 192
155 227 192
163 248 197
163 248 197
163 248 197
162 248 197
25 41 27
25 41 27
25 41 28
25 41 28
26 42 28
87 113 98
26 42 28
26 42 28
26 42 28
26 42 28
26 41 28
26 41 28
25 41 28
28 48 30
25 41 28
25 41 28
25 41 28
81 107 92
80 106 91
80 105 91
79 105 90
78 104 89
77 103 88
77 103 88
76 102 87
75 101 86
75 100 86
74 100 85
73 99 84
70 92 82
69 91 81
68 90 80
67 89 79
67 89 78
66 88 78
134 205 170
133 205 170
132 204 169
131 203 168
130 202 167
130 201 166
129 201 166
28 48 30
28 48 30
28 48 30
28 48 30
28 48 30
28 48 30
28 48 30
28 48 30
28 48 30
28 48 30
28 48 30
28 48 30
26 42 28
26 42 28
26 42 28
26 41 28
28 48 30
28 48 30
25 41 28
25 41 28
25 41 28
122 207 156
122 207 156
121 206 155
113 185 150
112 184 149
112 184 149
111 183 148
111 183 148
110 182 147
110 182 147
110 182 147
109 181 146
109 181 146
109 180 145
108 180 145
28 47 29
28 47 29
25 41 28
25 41 28
27 47 29
27 47 29
27 47 29
27 47 29
25 41 27
27 47 29
27 47 29
27 47 29
105 177 141
104 177 141
35 57 47
35 57 47
35 57 47
37 63 48
35 57 46
35 57 46
37 63 48
34 56 46
34 56 46
34 56 46
37 63 47
27 43 29
82 134 87
102 175 139
102 175 139
102 174 139
102 174 139
110 196 144
102 174 139
110 196 144
102 174 139
102 174 139
102 174 139
102 174 138
102 174 138
102 174 138
110 196 144
110 196 144
110 196 144
110 196 144
110 195 144
32 54 44
35 61 45
35 61 45
35 61 45
35 61 45
32 54 44
35 61 45
35 61 45
35 61 45
35 61 45
29 48 30
90 155 93
89 155 92
23 39 25
23 39 25
23 39 25
23 39 25
23 39 25
74 126 79
101 173 138
109 195 143
109 195 143
109 195 143
101 173 138
109 195 143
109 195 143
109 195 143
109 195 143
101 173 138
101 173 138
101 173 138
109 195 143
109 195 143
101 173 138
101 173 138
101 173 138
109 195 143
109 195 143
101 173 138
101 173 138
101 173 138
109 195 143
101 173 138
109 195 143
109 195 143
109 195 143
109 195 143
109 195 143
109 195 143
109 195 143
109 195 143
109 195 143
109 195 143
101 174 138
109 195 143
109 195 143
109 195 143
109 195 143
101 174 138
101 174 138
101 174 138
101 174 138
101 174 138
101 174 138
109 195 144
101 174 138
101 174 138
101 174 138
101 174 138
101 174 138
101 174 138
101 174 138
101 174 138
27 47 29
27 47 29
27 47 29
27 47 29
27 47 29
27 47 29
27 47 29
28 47 29
28 47 29
28 47 29
28 47 29
25 41 28
28 48 29
28 48 29
28 48 29
34 56 46
46 68 59
46 68 59
49 74 61
120 203 154
120 203 154
120 203 154
120 204 155
121 204 155
121 204 155
121 205 156
122 205 156
122 205 156
122 206 156
122 206 157
115 185 152
115 186 152
115 186 152
123 207 157
123 208 157
124 208 158
116 187 153
124 209 159
125 209 159
117 189 154
118 189 155
126 211 160
127 211 161
127 212 161
119 191 156
128 213 162
120 192 157
53 75 65
53 75 65
121 193 158
122 194 159
123 194 159
131 216 165
124 196 160
124 196 161
125 197 162
125 197 162
126 198 163
135 220 169
127 199 164
136 221 170
136 222 170
137 222 171
130 202 166
138 224 172
139 224 173
139 225 174
132 204 169
141 226 175
141 227 176
142 228 176
143 228 177
143 229 177
144 230 178
145 230 179
145 231 179
75 127 81
25 41 27
25 41 27
25 41 27
25 41 27
25 41 27
25 41 27
25 40 27
24 40 27
24 40 27
24 40 27
24 40 27
27 47 28
146 218 183
24 40 27
24 40 27
24 40 27
25 41 27
25 41 27
25 41 27
25 41 27
25 41 28
84 110 95
85 111 96
83 105 94
86 112 96
86 112 97
84 106 96
87 112 97
87 113 98
87 113 98
87 113 98
88 113 98
88 114 99
88 114 99
25 41 27
25 41 27
25 41 27
88 114 99
88 114 99
86 108 97
155 227 191
163 248 197
154 227 191
162 248 197
154 226 191
162 248 196
154 226 191
25 41 27
25 41 27
25 41 28
25 41 28
26 42 28
86 112 97
86 112 97
86 112 97
85 111 96
85 111 96
84 110 95
26 42 28
26 41 28
26 41 28
25 41 28
25 41 28
25 41 28
80 106 91
80 106 91
79 105 90
78 104 89
78 104 89
77 103 88
76 102 87
76 102 87
75 101 86
74 100 85
73 99 84
73 99 84
69 91 81
69 91 80
68 90 80
67 89 79
66 88 78
66 87 77
133 205 170
132 204 169
132 204 168
131 203 168
130 202 167
129 201 166
28 48 30
28 48 30
26 42 29
28 48 30
26 42 29
28 48 30
28 48 30
28 48 30
26 42 29
28 48 30
28 48 30
28 48 30
28 48 30
26 42 28
26 42 28
26 42 28
26 42 28
26 42 28
26 42 28
26 42 28
26 41 28
26 41 28
26 41 28
25 41 28
25 41 28
121 206 155
120 205 154
120 205 154
111 183 148
111 183 148
110 182 147
110 182 147
110 181 146
109 181 146
109 181 146
109 180 145
108 180 145
28 48 29
28 48 29
28 48 29
28 48 29
28 48 29
28 47 29
28 47 29
28 47 29
28 47 29
25 41 28
27 47 29
27 47 29
113 198 147
104 177 141
104 176 141
35 57 47
35 57 47
35 57 46
35 57 46
37 63 48
37 63 48
34 56 46
34 56 46
34 56 46
34 56 46
27 43 29
82 134 87
102 175 139
110 196 144
110 196 144
102 174 139
110 196 144
110 196 144
110 196 144
102 174 139
102 174 139
102 174 138
110 196 144
102 174 138
110 196 144
102 174 138
110 196 144
110 196 144
101 174 138
110 195 144
101 174 138
35 61 45
35 61 45
35 61 45
35 61 45
35 61 45
35 61 45
35 61 45
35 61 45
35 61 45
29 48 30
90 155 93
89 155 92
23 39 25
23 39 25
23 39 25
23 39 25
23 39 25
23 39 25
23 39 25
23 39 25
23 39 25
23 39 25
23 39 25
74 126 80
109 195 143
109 195 143
109 195 143
101 173 138
101 173 138
109 195 143
109 195 143
109 195 143
109 195 143
109 195 143
109 195 143
101 173 138
101 173 138
109 195 143
101 173 138
109 195 143
101 173 138
101 173 138
109 195 143
109 195 143
109 195 143
101 173 138
109 195 143
109 195 143
109 195 143
101 173 138
109 195 143
101 173 138
109 195 143
109 195 143
101 174 138
109 195 143
109 195 143
109 195 143
101 174 138
101 174 138
109 195 143
101 174 138
101 174 138
101 174 138
101 174 138
101 174 138
101 174 138
109 195 144
101 174 138
101 174 138
101 174 138
101 174 138
101 174 138
28 47 29
28 47 29
28 47 29
28 47 29
28 47 29
28 48 29
28 48 29
28 48 29
28 48 29
28 48 29
28 48 29
28 48 29
28 48 29
37 63 48
34 56 46
46 68 59
46 68 59
119 203 154
120 203 154
120 203 154
120 203 154
120 204 155
113 183 150
121 204 155
121 205 156
122 205 156
122 205 156
122 206 156
122 206 157
115 185 152
115 186 152
115 186 151
123 207 157
123 208 157
124 208 158
124 209 158
124 209 159
125 209 159
125 210 159
126 210 160
126 211 160
127 211 161
127 212 161
119 191 156
120 191 157
120 192 157
55 81 66
121 193 158
121 193 158
122 194 159
122 194 159
123 195 160
124 195 160
132 218 166
125 197 161
133 219 167
126 198 163
126 198 163
127 199 164
128 200 164
128 200 165
137 222 171
137 223 172
138 224 172
139 224 173
139 225 173
132 204 169
141 226 175
141 227 175
142 227 176
134 207 171
143 229 177
144 229 178
144 230 179
145 231 179
25 41 27
25 41 27
25 41 27
25 41 27
25 41 27
27 47 29
25 41 27
25 41 27
25 40 27
25 40 27
24 40 27
24 40 27
24 40 27
24 40 27
24 40 27
24 40 27
25 40 27
25 41 27
25 41 27
25 41 27
25 41 27
81 103 93
84 110 95
84 110 95
85 111 96
85 111 96
85 111 96
83 105 95
86 112 97
86 112 97
87 113 97
87 113 98
87 113 98
87 113 98
25 41 27
25 41 28
25 41 27
25 41 27
25 41 27
25 41 27
25 41 27
25 41 27
75 127 81
154 226 191
162 247 196
162 247 196
162 247 196
25 41 27
25 41 27
25 41 28
25 41 28
25 41 28
86 112 97
86 112 97
85 111 96
85 111 96
85 111 96
84 110 95
84 110 95
83 109 94
83 109 94
82 108 93
82 108 93
81 107 92
26 41 28
80 106 91
79 105 90
79 104 90
78 104 89
77 103 88
77 102 87
76 102 87
75 101 86
74 100 85
74 100 85
73 99 84
72 98 83
137 209 174
137 209 174
67 89 79
67 89 78
66 88 78
65 87 77
133 205 170
132 204 169
131 203 168
131 202 167
130 202 167
129 201 166
28 48 30
28 48 30
29 48 30
29 48 30
28 48 30
28 48 30
26 42 29
26 42 29
28 48 30
28 48 30
28 48 30
28 48 30
28 48 30
26 42 28
26 42 28
26 42 28
26 42 28
26 42 28
26 42 28
26 42 28
26 42 28
28 48 30
26 42 28
26 42 28
121 206 155
120 206 155
120 205 154
120 205 154
119 204 153
119 204 153
118 204 152
118 203 152
118 203 152
109 181 146
109 181 146
108 180 145
108 180 145
28 48 29
28 48 29
28 48 29
28 48 29
28 48 29
28 48 29
28 48 29
28 48 29
28 48 29
25 41 28
28 48 29
28 47 29
104 177 141
112 198 147
104 176 141
104 176 141
37 63 48
37 63 48
37 63 48
35 57 46
37 63 48
34 56 46
34 56 46
34 56 46
34 56 46
27 43 29
82 134 87
102 175 139
102 175 139
102 174 139
110 196 144
102 174 139
102 174 139
102 174 139
102 174 139
102 174 138
110 196 144
110 196 144
102 174 138
102 174 138
102 174 138
102 174 138
101 174 138
101 174 138
110 195 144
110 195 144
110 195 144
35 61 45
32 54 44
35 61 45
32 54 44
35 61 45
35 61 45
32 54 44
35 61 45
90 155 93
90 155 93
89 155 92
26 46 27
23 39 25
26 46 27
23 39 25
23 39 25
23 39 25
23 39 25
23 39 25
23 39 25
23 39 25
23 39 25
26 46 27
23 39 25
23 39 25
23 39 25
23 39 25
26 46 27
101 173 138
101 173 138
101 173 138
101 173 138
101 173 138
101 173 138
109 195 143
101 173 138
101 173 138
101 173 138
101 173 138
101 173 138
101 173 138
101 173 138
101 173 138
109 195 143
109 195 143
109 195 143
109 195 143
109 195 143
101 173 138
109 195 143
101 173 138
109 195 143
109 195 143
109 195 143
109 195 143
101 174 138
109 195 143
101 174 138
101 174 138
109 195 143
109 195 143
101 174 138
101 174 138
101 174 138
101 174 138
101 174 138
101 174 138
101 174 138
101 174 138
101 174 138
101 174 138
101 174 138
28 48 29
28 48 29
28 48 29
28 48 29
28 48 29
28 48 29
28 48 29
28 48 29
28 48 29
28 48 29
25 41 28
28 48 29
28 48 29
34 56 46
37 63 48
46 68 59
119 202 153
119 203 154
112 182 149
120 203 154
120 204 154
120 204 155
121 204 155
121 204 155
121 205 155
121 205 156
122 205 156
122 206 156
115 185 151
114 185 151
122 207 156
122 207 157
123 207 157
123 208 157
124 208 158
124 209 158
116 188 153
117 188 154
125 210 159
118 189 154
126 211 160
126 211 161
127 212 161
119 191 156
120 191 157
120 192 157
120 192 157
129 214 163
121 193 158
122 194 159
122 194 159
123 195 160
123 195 160
124 196 161
125 197 161
125 197 162
126 198 162
126 198 163
127 199 164
127 199 164
136 222 170
137 222 171
137 223 171
138 223 172
130 203 167
139 225 173
140 225 174
140 226 175
133 205 170
134 206 170
142 228 176
135 207 172
144 229 178
144 230 178
25 40 27
25 41 27
25 41 27
25 41 27
27 47 29
25 41 27
25 41 27
25 41 27
25 41 27
27 47 29
25 41 27
25 40 27
25 40 27
24 40 27
24 40 27
24 40 27
24 40 27
25 40 27
25 41 27
25 41 27
25 41 27
25 41 28
81 103 92
84 109 94
81 103 93
84 110 95
85 111 96
85 111 96
85 111 96
83 105 95
86 112 97
84 106 95
86 112 97
87 112 97
87 113 98
25 41 27
25 41 28
25 41 28
25 41 28
25 41 27
25 41 27
25 41 27
25 41 27
27 47 29
25 41 27
25 41 27
25 41 27
25 41 27
25 41 27
25 41 27
25 41 28
25 41 28
26 41 28
86 112 97
85 111 96
85 111 96
85 110 95
84 110 95
84 110 95
83 109 94
83 109 94
82 108 93
82 108 93
81 107 92
81 106 91
26 41 28
26 41 28
26 41 28
25 41 28
25 41 28
77 103 88
76 102 87
75 101 86
75 101 86
74 100 85
73 99 84
72 98 83
138 210 175
137 209 174
136 208 173
136 207 172
135 207 172
134 206 171
133 205 170
132 204 169
132 204 169
131 203 168
130 202 167
129 201 166
129 201 166
28 48 30
28 48 30
29 49 31
29 49 31
29 49 31
29 48 30
29 48 30
28 48 30
28 48 30
28 48 30
28 48 30
28 48 30
28 48 30
26 42 29
26 42 29
26 42 29
26 42 28
28 48 30
26 42 28
26 42 28
26 42 28
28 48 30
26 42 28
26 42 28
121 206 155
120 206 155
120 205 154
119 205 154
119 204 153
119 204 153
118 204 152
118 203 152
117 203 152
117 202 151
117 202 151
116 202 151
108 180 145
39 61 51
28 48 30
28 48 29
28 48 29
28 48 29
28 48 29
28 48 29
28 48 29
28 48 29
25 41 28
28 48 29
28 48 29
104 177 141
104 176 141
104 176 141
104 176 141
35 57 47
35 57 46
35 57 46
35 56 46
34 56 46
34 56 46
34 56 46
34 56 46
34 56 46
27 43 29
82 134 87
26 46 27
82 148 85
110 196 144
102 174 139
102 174 139
102 174 139
102 174 139
102 174 139
110 196 144
102 174 138
102 174 138
110 196 144
102 174 138
102 174 138
110 196 144
101 174 138
110 196 144
101 174 138
110 195 144
110 195 144
109 195 144
32 54 44
32 54 44
32 54 44
35 61 45
32 54 44
35 61 45
32 54 44
90 155 93
90 155 93
23 39 26
23 39 26
23 39 26
23 39 26
23 39 26
23 39 26
23 39 26
23 39 26
23 39 26
23 39 26
23 39 26
23 39 26
23 39 26
23 39 26
23 39 26
23 39 26
26 46 27
26 46 27
26 46 27
23 39 26
26 46 27
26 46 27
23 39 26
82 148 85
101 173 138
101 173 138
109 195 143
109 195 143
101 173 138
109 195 143
101 173 138
101 173 138
109 195 143
109 195 143
101 173 138
109 195 143
109 195 143
109 195 143
109 195 143
109 195 143
109 195 143
109 195 143
109 195 143
101 173 138
109 195 143
109 195 143
109 195 143
101 174 138
101 174 138
101 174 138
101 174 138
101 174 138
101 174 138
101 174 138
109 195 144
109 195 144
101 174 138
101 174 138
101 174 138
109 195 144
101 174 138
101 174 138
28 48 29
28 48 29
28 48 29
28 48 29
25 41 28
25 41 28
25 41 28
25 41 28
25 41 28
28 48 29
28 48 29
28 48 29
34 56 46
34 56 46
37 62 48
119 202 153
119 202 153
119 203 154
120 203 154
120 203 154
120 204 154
120 204 155
121 204 155
121 204 155
121 205 155
121 205 156
122 205 156
114 185 151
122 206 156
122 206 156
122 207 156
114 186 151
115 186 152
123 208 157
124 208 158
116 187 153
124 209 159
125 209 159
125 210 159
126 210 160
118 189 155
118 190 155
127 212 161
119 191 156
120 191 157
120 192 157
120 192 157
129 214 163
129 215 163
130 215 164
130 216 164
123 195 160
123 195 160
124 196 161
133 218 167
125 197 162
126 198 162
126 198 163
127 199 164
135 221 169
128 200 165
128 201 165
137 223 171
138 223 172
138 224 172
139 225 173
140 225 174
140 226 174
141 226 175
141 227 176
134 206 171
135 207 171
143 229 177
24 40 27
25 40 27
25 41 27
25 41 27
25 41 27
25 41 27
27 47 29
25 41 27
25 41 27
25 41 27
25 41 27
25 41 27
25 41 27
25 41 27
25 40 27
25 40 27
24 40 27
25 40 27
25 41 27
25 41 27
25 41 27
25 41 27
82 108 93
83 109 94
83 109 94
83 109 94
84 110 95
82 104 93
82 104 94
85 111 96
85 111 96
85 111 96
86 112 96
83 105 95
86 112 97
25 41 27
25 41 27
25 41 28
25 41 28
25 41 28
25 41 28
25 41 28
25 41 27
25 41 27
25 41 27
25 41 27
25 41 27
25 41 27
27 47 29
25 41 27
25 41 27
25 41 28
25 41 28
85 111 96
85 111 96
85 111 96
84 110 95
84 110 95
84 109 94
83 109 94
83 109 94
82 108 93
82 108 93
81 107 92
81 106 91
80 106 91
26 42 28
26 42 28
26 42 28
28 48 30
26 41 28
26 41 28
25 41 28
25 41 28
25 41 28
25 41 28
73 99 84
72 98 83
137 209 174
137 209 173
136 208 173
135 207 172
134 206 171
134 206 170
133 205 170
132 204 169
131 203 168
131 203 167
130 202 167
129 201 166
28 48 29
28 48 30
29 49 31
58 80 70
58 80 70
57 79 69
29 49 31
29 49 31
29 49 31
29 48 30
29 48 30
28 48 30
28 48 30
28 48 30
26 42 29
26 42 29
26 42 29
26 42 29
26 42 29
26 42 29
26 42 29
26 42 28
28 48 30
26 42 28
26 42 28
121 206 155
120 206 154
120 205 154
119 205 154
119 204 153
119 204 153
118 203 152
118 203 152
117 203 152
117 202 151
117 202 151
116 202 151
108 180 145
39 61 51
39 61 51
39 61 50
38 60 50
38 60 50
38 60 50
28 48 30
28 48 29
28 48 29
28 48 29
28 48 29
28 48 29
104 177 141
112 198 146
104 176 141
104 176 141
104 176 141
35 57 46
35 57 46
34 56 46
34 56 46
34 56 46
34 56 46
34 56 46
34 56 46
27 43 29
82 134 87
26 46 27
26 46 27
26 46 27
26 46 27
26 46 27
26 46 27
82 148 85
102 174 138
110 196 144
102 174 138
110 196 144
102 174 138
110 196 144
101 174 138
110 196 144
110 196 144
110 196 144
110 195 144
101 174 138
109 195 144
109 195 144
109 195 144
101 174 138
109 195 144
35 61 45
35 61 45
32 54 44
35 61 45
90 155 93
90 155 93
24 39 26
24 39 26
26 46 27
26 46 27
24 39 26
24 39 26
26 46 27
26 46 27
24 39 26
24 39 26
26 46 27
24 39 26
26 46 27
24 39 26
26 46 27
24 39 26
26 46 27
26 46 27
26 46 27
26 46 27
26 46 27
26 46 27
26 46 27
26 46 27
26 46 27
26 46 27
26 46 27
26 46 27
26 46 27
82 148 85
101 173 138
101 173 138
109 195 143
109 195 143
109 195 143
109 195 143
109 195 143
109 195 143
109 195 143
101 173 138
101 173 138
101 173 138
109 195 143
109 195 143
101 173 138
109 195 143
109 195 143
109 195 143
109 195 143
101 174 138
109 195 143
101 174 138
101 174 138
101 174 138
101 174 138
101 174 138
101 174 138
101 174 138
101 174 138
101 174 138
101 174 138
101 174 138
101 174 138
28 48 29
25 41 28
28 48 29
28 48 29
28 48 29
28 48 30
28 48 30
28 48 30
25 41 28
25 41 28
25 41 28
34 56 46
34 56 46
34 56 46
119 202 153
119 202 153
119 203 154
120 203 154
120 203 154
120 204 154
120 204 155
121 204 155
121 204 155
121 205 155
121 205 156
114 184 151
122 206 156
122 206 156
114 185 151
114 185 151
122 207 157
123 207 157
123 208 157
123 208 158
116 187 153
124 209 158
125 209 159
117 189 154
125 210 160
126 211 160
126 211 161
119 190 156
119 191 156
119 191 156
120 192 157
120 192 157
129 214 163
121 193 158
130 215 164
122 194 159
123 195 160
123 195 160
132 217 166
132 218 167
125 197 162
133 219 168
126 198 163
135 220 169
135 221 169
136 221 170
136 222 171
137 223 171
138 223 172
138 224 172
139 224 173
139 225 174
140 226 174
141 226 175
133 205 170
134 206 171
142 228 177
143 229 177
25 40 27
25 41 27
25 41 27
25 41 27
25 41 27
25 41 27
25 41 28
25 41 27
25 41 27
25 41 27
25 41 27
25 41 27
25 41 27
25 41 27
25 41 27
25 41 27
25 40 27
25 40 27
25 41 27
25 41 27
25 41 27
81 107 92
82 108 93
82 108 93
83 109 93
83 109 94
83 109 94
84 110 95
84 110 95
84 110 95
85 110 95
85 111 96
83 105 94
85 111 96
85 111 96
25 41 27
25 41 28
25 41 28
25 41 28
25 41 28
25 41 28
25 41 28
28 47 29
27 47 29
25 41 27
25 41 27
25 41 27
25 41 27
25 41 27
25 41 27
25 41 27
25 41 28
25 41 28
85 111 96
84 110 95
84 110 95
84 110 95
83 109 94
83 109 94
82 108 93
82 108 93
82 107 92
81 107 92
81 106 91
80 106 91
25 41 28
26 42 28
26 42 28
26 42 28
26 42 28
26 42 28
26 42 28
26 41 28
28 48 30
25 41 28
25 41 28
25 41 28
25 41 28
28 48 29
25 41 28
28 48 29
135 207 172
134 206 171
133 205 170
132 204 169
132 204 169
131 203 168
130 202 167
130 201 166
129 201 166
28 48 30
28 48 30
59 81 71
58 80 70
57 79 69
57 79 69
56 78 68
55 77 67
55 77 67
54 76 66
56 82 67
29 49 31
29 49 30
29 48 30
26 42 29
26 42 29
26 42 29
26 42 29
26 42 29
26 42 29
28 48 30
26 42 29
26 42 29
26 42 29
28 48 30
121 206 155
120 205 154
120 205 154
119 205 153
119 204 153
118 204 153
118 203 152
118 203 152
117 203 151
117 202 151
117 202 151
116 202 150
108 180 145
108 180 144
39 61 51
39 60 50
38 60 50
38 60 50
38 60 50
38 59 49
37 59 49
37 59 49
37 59 49
37 59 48
28 48 30
112 198 147
104 176 141
112 198 146
104 176 141
104 176 141
104 176 140
35 56 46
34 56 46
37 63 48
34 56 46
37 63 47
34 56 46
36 62 47
27 43 29
82 134 87
26 46 28
24 40 26
26 46 27
26 46 27
24 40 26
26 46 27
26 46 27
26 46 27
26 46 27
26 46 27
24 40 26
26 46 27
101 174 138
110 196 144
110 196 144
110 196 144
110 196 144
110 195 144
109 195 144
109 195 144
109 195 144
101 174 138
109 195 144
109 195 144
109 195 144
109 195 144
109 195 143
109 195 143
90 155 93
90 155 93
26 46 27
24 39 26
24 39 26
24 39 26
24 39 26
26 46 27
24 39 26
24 39 26
24 39 26
24 39 26
24 39 26
24 39 26
24 39 26
24 39 26
26 46 27
24 39 26
26 46 27
26 46 27
24 39 26
26 46 27
26 46 27
24 40 26
26 46 27
24 40 26
26 46 27
26 46 27
26 46 27
26 46 27
26 46 27
26 46 27
26 46 27
26 46 27
26 46 27
24 40 26
74 126 80
101 173 138
109 195 143
109 195 143
109 195 143
109 195 143
109 195 143
109 195 143
101 173 138
109 195 143
101 173 138
101 173 138
109 195 143
109 195 143
101 173 138
101 173 138
101 174 138
101 174 138
109 195 143
101 174 138
101 174 138
101 174 138
109 195 143
101 174 138
101 174 138
101 174 138
101 174 138
101 174 138
101 174 138
28 48 30
28 48 30
28 48 30
28 48 30
28 48 30
25 41 28
25 41 28
25 41 28
28 48 30
28 48 30
34 56 46
34 56 46
34 56 46
34 56 46
119 202 153
111 182 148
119 203 154
120 203 154
120 203 154
120 204 154
120 204 155
121 204 155
121 204 155
121 205 155
114 184 150
121 205 155
122 206 156
121 206 156
122 206 156
122 207 156
122 207 157
123 207 157
115 187 152
123 208 158
124 209 158
124 209 158
125 209 159
125 210 159
117 189 154
126 211 160
118 190 155
119 190 156
119 191 156
28 48 29
120 192 156
120 192 157
121 193 157
121 193 158
122 194 158
122 194 159
123 195 159
123 195 160
124 196 160
124 196 161
125 197 162
125 197 162
126 198 163
134 220 169
135 221 169
136 221 170
136 222 170
129 201 166
137 223 172
138 224 172
139 224 173
131 203 168
132 204 169
140 226 175
133 205 170
142 227 176
142 228 176
24 40 27
25 40 27
25 41 27
25 41 27
25 41 27
25 41 27
25 41 28
25 41 28
25 41 28
25 41 28
25 41 27
25 41 27
25 41 27
25 41 27
25 41 27
25 41 27
25 41 27
25 41 27
25 40 27
25 41 27
25 41 27
25 41 27
81 107 92
81 107 92
82 108 93
82 108 93
80 102 92
83 109 94
81 103 92
83 109 94
84 110 95
84 110 95
82 104 93
82 104 94
85 111 96
25 41 27
25 41 27
25 41 28
25 41 28
28 48 30
25 41 28
28 48 29
25 41 28
25 41 28
28 48 29
28 47 29
25 41 28
25 41 27
25 41 27
25 41 27
25 41 27
25 41 28
25 41 28
25 41 28
84 110 95
84 110 95
84 109 94
83 109 94
83 109 94
82 108 93
82 108 93
81 107 92
81 107 92
80 106 91
80 106 91
79 105 90
25 41 28
26 42 28
26 42 28
26 42 28
26 42 28
26 42 28
26 42 28
26 42 28
26 42 28
26 42 28
26 41 28
26 41 28
25 41 28
25 41 28
28 48 30
25 41 28
28 48 29
28 48 29
28 48 29
28 48 29
28 48 29
131 203 167
130 202 167
129 201 166
128 200 165
28 48 30
28 48 30
58 80 70
58 80 70
59 85 71
56 78 68
56 78 68
55 77 67
54 76 66
56 82 67
53 75 65
52 74 64
52 74 64
51 73 63
53 79 64
52 78 63
29 48 30
26 42 29
26 42 29
26 42 29
26 42 29
26 42 29
26 42 29
26 42 29
26 42 29
120 206 155
120 205 154
120 205 154
119 204 153
119 204 153
118 204 152
118 203 152
118 203 152
117 203 151
117 202 151
117 202 151
116 202 150
108 180 145
108 179 144
39 61 50
38 60 50
38 60 50
38 60 50
38 60 49
37 59 49
37 59 49
37 59 49
37 59 49
37 59 48
36 58 48
104 177 141
104 176 141
104 176 141
104 176 141
104 176 141
104 176 140
37 63 48
34 56 46
37 63 47
34 56 46
34 56 46
34 56 46
36 62 47
27 42 29
26 46 28
26 46 28
26 46 28
26 46 28
26 46 28
26 46 28
26 46 28
26 46 28
26 46 28
26 46 28
26 46 28
24 40 26
26 46 28
26 46 27
26 46 27
101 174 138
101 174 138
101 174 138
109 195 144
101 174 138
109 195 144
109 195 144
101 174 138
109 195 144
109 195 143
109 195 143
109 195 143
109 195 143
109 195 143
90 155 93
24 40 26
24 40 26
24 40 26
24 40 26
24 40 26
24 40 26
24 40 26
24 40 26
24 40 26
24 40 26
26 46 27
24 40 26
24 40 26
24 40 26
24 40 26
24 40 26
26 46 27
26 46 27
26 46 27
26 46 27
26 46 27
26 46 27
26 46 27
26 46 27
26 46 27
26 46 27
26 46 27
26 46 27
26 46 27
26 46 27
26 46 27
24 40 26
26 46 27
24 40 26
24 40 26
24 40 26
24 40 26
24 40 26
24 40 26
24 40 26
24 40 26
74 126 80
109 195 143
109 195 143
109 195 143
109 195 143
109 195 143
109 195 143
101 173 138
101 173 138
101 173 138
101 173 138
101 173 138
101 174 138
101 174 138
101 174 138
101 174 138
101 174 138
101 174 138
101 174 138
101 174 138
101 174 138
109 195 144
101 174 138
101 174 138
28 48 30
25 41 28
28 48 30
28 48 30
28 48 30
28 48 30
28 48 30
28 48 30
34 56 46
34 56 46
34 56 46
36 62 47
34 56 46
30 46 34
30 46 33
30 46 33
120 203 154
120 203 154
120 204 154
120 204 155
121 204 155
121 204 155
113 184 150
121 205 155
121 205 155
121 206 155
121 206 156
122 206 156
114 185 151
122 207 157
123 207 157
123 208 157
123 208 158
124 209 158
124 209 158
125 209 159
125 210 159
125 210 160
118 189 155
118 190 155
119 190 155
119 191 156
28 48 29
28 48 29
28 48 29
28 47 29
27 47 29
83 149 86
122 194 159
131 216 165
123 195 160
124 196 160
124 196 161
125 197 161
125 197 162
134 219 168
134 220 168
127 199 164
127 200 164
136 222 170
129 201 165
137 223 171
130 202 167
138 224 173
139 225 173
140 225 174
140 226 174
133 205 170
133 206 170
24 40 27
25 40 27
25 41 27
25 41 27
25 41 27
25 41 27
25 41 27
25 41 28
25 41 28
25 41 28
25 41 28
25 41 28
25 41 28
25 41 27
25 41 27
25 41 27
25 41 27
25 41 27
27 47 29
25 41 27
25 41 27
25 41 27
80 106 91
78 100 90
81 107 92
81 107 92
82 108 92
80 101 91
82 108 93
83 109 93
80 102 92
83 109 94
81 103 93
84 110 95
81 103 93
84 110 95
25 41 27
25 41 27
25 41 28
25 41 28
25 41 28
25 41 28
28 48 30
25 41 28
25 41 28
25 41 28
25 41 28
25 41 28
28 47 29
25 41 28
25 41 27
25 41 27
25 41 28
25 41 28
84 110 95
84 109 95
83 109 94
83 109 94
83 108 93
82 108 93
82 108 93
81 107 92
81 107 92
80 106 91
80 106 91
79 105 90
79 105 90
26 41 28
26 42 28
26 42 29
26 42 29
26 42 29
26 42 28
26 42 28
26 42 28
26 42 28
26 42 28
26 42 28
26 42 28
26 41 28
26 41 28
28 48 30
28 48 30
25 41 28
28 48 30
28 48 29
28 48 29
28 48 29
28 48 29
28 48 29
28 48 29
28 48 29
28 48 30
28 48 30
58 80 70
57 79 69
57 79 69
56 78 68
55 77 67
55 77 67
54 76 66
53 75 65
53 75 65
52 74 64
51 73 63
51 73 63
53 79 64
52 78 63
52 77 63
51 77 62
50 76 62
50 76 61
49 75 60
29 48 30
26 42 29
28 48 30
121 206 155
120 206 154
120 205 154
119 205 154
119 204 153
119 204 153
118 204 152
118 203 152
117 203 152
117 202 151
117 202 151
116 202 151
116 201 150
108 180 145
107 179 144
107 179 144
38 60 50
38 60 50
38 60 50
38 60 49
37 59 49
37 59 49
37 59 49
37 59 49
37 59 48
27 43 30
104 177 141
104 176 141
104 176 141
104 176 141
104 176 140
112 197 146
103 176 140
103 176 140
37 63 47
37 63 47
34 56 46
34 56 46
34 56 45
82 134 88
26 46 28
26 46 28
26 46 28
26 46 28
26 46 28
26 46 28
26 46 28
26 46 28
26 46 28
26 46 28
26 46 28
26 46 28
26 46 28
26 46 28
24 40 26
110 196 144
101 174 138
101 174 138
101 174 138
101 174 138
101 174 138
109 195 144
101 174 138
101 174 138
109 195 143
109 195 143
109 195 143
109 195 143
109 195 143
109 195 143
26 46 28
24 40 26
24 40 26
24 40 26
24 40 26
24 40 26
26 46 28
24 40 26
24 40 26
26 46 28
24 40 26
24 40 26
24 40 26
24 40 26
24 40 26
24 40 26
24 40 26
26 46 28
26 46 28
26 46 28
26 46 28
26 46 28
24 40 26
24 40 26
24 40 26
26 46 28
24 40 26
24 40 26
26 46 28
26 46 28
26 46 28
26 46 28
26 46 28
24 40 26
24 40 26
24 40 26
24 40 26
24 40 26
24 40 26
24 40 26
24 40 26
24 40 26
26 46 28
24 40 26
24 40 26
24 40 26
26 46 28
109 195 143
109 195 143
109 195 143
101 173 138
101 173 138
101 173 138
101 173 138
101 174 138
101 174 138
101 174 138
109 195 143
101 174 138
101 174 138
109 195 143
109 195 144
101 174 138
109 195 144
101 174 138
28 48 30
28 48 30
28 48 30
28 48 30
28 48 30
28 48 30
28 48 30
28 48 30
34 56 46
34 56 46
34 56 46
34 56 46
34 56 46
30 46 34
32 52 35
30 46 33
30 46 33
30 46 33
30 46 33
29 46 33
120 204 155
113 183 150
121 205 155
121 205 155
121 205 155
113 184 150
121 206 155
122 206 156
122 207 156
122 207 156
123 207 157
123 208 157
123 208 158
124 209 158
116 188 153
124 209 159
125 210 159
117 189 154
118 189 155
126 211 160
119 190 155
119 191 156
119 191 156
28 48 29
28 48 29
28 48 29
28 47 29
27 47 29
27 47 29
27 47 29
27 47 29
27 47 29
124 196 161
124 197 161
133 219 167
134 219 168
134 220 168
135 220 169
135 221 169
136 221 170
136 222 171
137 223 171
130 202 166
138 224 172
131 203 167
139 225 173
140 226 174
132 205 169
75 127 80
24 40 27
25 40 27
25 41 27
25 41 27
25 41 27
25 41 27
25 41 28
25 41 28
70 92 82
73 99 84
71 93 83
72 94 83
75 101 86
25 41 28
25 41 28
25 41 27
25 41 27
25 41 27
25 41 27
25 41 27
25 41 27
25 41 27
77 99 89
80 106 91
78 100 90
78 100 90
79 101 90
81 107 92
156 242 190
82 108 93
80 102 92
83 109 93
83 109 94
83 109 94
83 109 94
25 41 27
25 41 27
25 41 27
25 41 28
25 41 28
26 41 28
26 41 28
26 41 28
25 41 28
25 41 28
25 41 28
25 41 28
25 41 28
25 41 28
25 41 28
25 41 28
25 41 28
25 41 28
25 41 28
83 109 94
83 109 94
83 109 94
82 108 93
82 108 93
81 107 92
81 107 92
81 107 92
80 106 91
80 106 91
79 105 90
79 105 90
25 41 28
26 42 28
26 42 29
26 42 29
26 42 29
26 42 29
26 42 29
26 42 29
26 42 29
26 42 28
26 42 28
26 42 28
26 42 28
26 42 28
28 48 30
28 48 30
26 41 28
28 48 30
28 48 30
28 48 30
28 48 30
28 48 30
28 48 29
28 48 29
25 41 28
28 48 29
28 48 30
28 48 30
58 80 70
57 79 69
59 85 70
56 78 68
55 77 67
54 76 66
54 76 66
53 75 65
52 74 64
52 74 64
51 73 63
53 79 64
52 78 64
52 78 63
51 77 62
51 77 62
50 76 61
47 69 59
49 75 60
49 75 60
48 74 59
48 74 59
121 206 155
120 206 154
120 205 154
119 205 153
119 204 153
118 204 153
118 203 152
118 203 152
117 203 151
117 202 151
117 202 151
116 202 150
116 201 150
108 180 144
107 179 144
107 179 144
38 60 50
38 60 50
38 60 49
38 59 49
37 59 49
37 59 49
37 59 49
37 59 48
37 58 48
27 43 30
112 198 146
104 176 141
104 176 141
104 176 141
112 197 146
103 176 140
103 176 140
103 175 140
103 175 140
103 175 140
103 175 140
103 175 140
103 175 140
82 134 88
26 46 28
26 46 28
26 46 28
26 46 28
26 46 28
26 46 28
26 46 28
26 46 28
26 46 28
24 40 26
26 46 28
26 46 28
26 46 28
26 46 28
26 46 28
101 174 138
101 174 138
101 174 138
101 174 138
101 174 138
109 195 143
101 174 138
109 195 143
109 195 143
101 174 138
101 174 138
101 174 138
109 195 143
101 174 138
109 195 143
24 40 26
24 40 26
24 40 26
24 40 26
26 46 28
24 40 26
24 40 26
24 40 26
24 40 26
24 40 26
24 40 26
24 40 26
24 40 26
24 40 26
24 40 26
24 40 26
26 46 28
24 40 26
26 46 28
24 40 26
26 46 28
26 46 28
26 46 28
26 46 28
26 46 28
26 46 28
26 46 28
26 46 28
26 46 28
26 46 28
26 46 28
26 46 28
26 46 28
24 40 26
24 40 26
24 40 26
24 40 26
24 40 26
24 40 26
24 40 26
24 40 26
24 40 26
24 40 26
24 40 26
24 40 26
26 46 28
26 46 28
24 40 26
24 40 26
24 40 26
26 46 28
26 46 28
82 148 86
101 173 138
101 173 138
101 173 138
101 174 138
101 174 138
101 174 138
101 174 138
101 174 138
109 195 143
109 195 143
101 174 138
109 195 144
109 195 144
34 55 45
28 48 30
28 48 30
28 48 30
28 48 30
28 48 30
34 56 46
36 62 47
34 56 46
36 62 47
36 62 47
34 56 46
30 46 34
30 46 34
30 46 34
30 46 34
30 46 33
32 52 35
30 46 33
113 183 150
120 204 154
121 205 155
120 205 155
113 184 150
121 206 155
121 206 155
122 206 156
114 185 151
122 207 156
123 207 157
123 208 157
115 187 152
124 208 158
124 209 158
124 209 159
125 210 159
125 210 159
118 189 154
118 190 155
118 190 155
119 190 156
119 191 156
28 48 30
28 48 29
28 48 29
28 48 29
28 48 29
28 47 29
27 47 29
27 47 29
27 47 29
27 47 29
27 47 29
25 41 27
25 41 27
75 127 81
135 220 169
135 221 169
136 221 170
136 222 170
129 201 166
137 223 171
138 224 172
139 224 173
139 225 173
140 225 174
140 226 174
24 40 27
24 40 27
25 40 27
25 41 27
25 41 27
25 41 27
25 41 27
25 41 28
25 41 28
72 98 83
73 99 84
73 99 84
71 93 83
74 100 85
75 101 86
75 101 86
76 102 87
76 102 87
77 103 88
25 41 27
25 41 27
25 41 27
79 105 89
79 105 90
79 105 90
80 106 91
80 106 91
78 100 90
81 107 92
148 220 184
156 242 190
156 242 190
157 242 191
157 242 191
149 221 186
83 109 94
25 41 27
25 41 27
25 41 28
25 41 28
25 41 28
26 42 28
84 110 95
84 110 95
84 110 95
26 41 28
25 41 28
25 41 28
25 41 28
28 48 29
25 41 28
25 41 28
25 41 28
25 41 28
83 109 94
83 108 94
82 108 93
82 108 93
82 108 93
81 107 92
81 107 92
80 106 91
80 106 91
80 106 91
79 105 90
79 105 90
78 104 89
25 41 28
26 42 28
26 42 29
26 42 29
26 42 29
26 42 29
28 48 30
26 42 29
26 42 29
26 42 29
26 42 29
26 42 28
26 42 28
28 48 30
28 48 30
28 48 30
28 48 30
28 48 30
28 48 30
28 48 30
28 48 30
25 41 28
28 48 30
28 48 30
25 41 28
28 48 29
28 48 30
58 80 70
57 79 69
57 79 69
56 78 68
55 77 67
55 77 67
54 76 66
53 75 65
53 75 65
55 80 66
52 73 63
51 73 63
53 79 64
52 78 63
52 78 63
51 77 62
51 76 62
50 76 61
49 75 61
49 75 60
48 74 60
48 74 59
48 73 59
120 206 155
120 205 154
120 205 154
119 205 153
119 204 153
118 204 153
118 203 152
118 203 152
117 203 151
117 202 151
117 202 151
116 202 150
116 201 150
108 180 144
107 179 144
107 179 144
107 179 144
38 60 50
38 60 49
37 59 49
37 59 49
37 59 49
37 59 49
37 59 48
36 58 48
27 43 30
27 47 28
83 148 86
104 176 141
104 176 141
104 176 140
112 197 146
103 176 140
103 175 140
103 175 140
103 175 140
103 175 140
103 175 140
103 175 140
82 134 88
27 46 28
26 46 28
26 46 28
24 40 26
24 40 26
26 46 28
26 46 28
24 40 26
26 46 28
26 46 28
26 46 28
26 46 28
26 46 28
26 46 28
26 42 28
101 174 138
109 196 144
109 195 144
101 174 138
101 174 138
101 174 138
101 174 138
101 174 138
101 174 138
101 174 138
101 174 138
101 174 138
101 174 138
101 174 138
101 174 138
34 60 45
34 60 45
34 60 45
32 54 43
34 60 45
24 40 26
24 40 26
24 40 26
24 40 26
26 46 28
24 40 26
24 40 26
24 40 26
24 40 26
24 40 26
26 46 28
26 46 28
26 46 28
26 46 28
26 46 28
26 46 28
26 46 28
26 46 28
24 40 26
26 46 28
26 46 28
26 46 28
26 46 28
26 46 28
26 46 28
26 46 28
26 46 28
24 40 26
24 40 26
24 40 26
24 40 26
24 40 26
24 40 26
24 40 26
24 40 26
24 40 26
24 40 26
24 40 26
24 40 26
24 40 26
24 40 26
24 40 26
26 46 28
24 40 26
26 46 28
24 40 26
26 46 28
27 46 28
27 46 28
27 46 28
27 46 28
27 46 28
27 46 28
83 148 86
101 174 138
101 174 138
101 174 138
109 195 143
101 174 138
101 174 138
101 174 138
36 62 47
34 55 45
34 55 45
34 56 45
36 62 47
36 62 47
34 56 46
34 56 46
34 56 46
34 56 46
34 56 46
34 56 46
119 202 154
30 46 34
30 46 34
30 46 34
30 46 34
30 46 33
112 183 149
120 204 155
120 204 154
120 205 155
121 205 155
27 43 30
27 43 30
27 43 30
76 128 83
122 207 156
122 207 156
123 207 157
123 208 157
123 208 157
116 187 152
124 209 158
124 209 159
125 210 159
117 189 154
126 210 160
126 211 160
118 190 155
127 212 161
119 191 156
120 191 157
28 48 30
28 48 30
28 48 29
28 48 29
28 48 29
28 48 29
27 47 29
27 47 29
27 47 29
27 47 29
27 47 29
25 41 27
25 41 27
25 41 27
25 40 27
25 40 27
75 127 81
137 222 171
137 223 171
130 202 166
138 224 172
139 225 173
131 204 168
24 40 27
24 40 27
25 40 27
25 41 27
25 41 27
25 41 27
25 41 27
25 41 27
25 41 28
71 97 82
72 98 83
72 98 83
73 99 84
71 93 83
74 100 85
74 100 85
72 94 84
75 101 86
76 102 87
76 102 87
77 103 88
77 103 88
75 97 87
76 98 87
79 104 89
79 105 90
77 99 89
80 106 90
78 100 89
155 240 189
155 241 189
147 219 184
156 241 190
156 242 190
156 242 190
156 242 191
25 41 27
25 41 27
25 41 27
25 41 28
25 41 28
25 41 28
84 109 95
84 109 95
84 110 95
84 110 95
84 109 95
83 109 94
83 109 94
83 109 94
83 109 94
25 41 28
25 41 28
25 41 28
25 41 28
82 108 93
82 108 93
82 108 93
81 107 92
81 107 92
81 107 92
80 106 91
80 106 91
79 105 90
79 105 90
78 104 89
78 104 89
25 41 28
25 41 28
26 42 28
26 42 29
76 102 87
75 101 87
75 101 86
26 42 29
26 42 29
26 42 29
26 42 29
26 42 29
28 48 30
26 42 29
26 42 29
28 48 30
28 48 30
26 42 28
28 48 30
28 48 30
28 48 30
28 48 30
28 48 30
28 48 30
26 41 28
28 48 30
28 48 30
28 48 30
58 80 70
57 79 69
56 78 68
56 78 68
55 77 67
54 76 66
54 76 66
53 75 65
53 74 64
52 74 64
51 73 63
51 73 63
53 78 64
52 78 63
51 77 62
51 77 62
50 76 61
50 76 61
49 75 60
49 75 60
48 74 59
48 74 59
47 73 58
120 206 154
120 205 154
119 205 154
119 204 153
119 204 153
118 204 152
118 203 152
118 203 152
117 203 151
117 202 151
116 202 151
116 202 150
116 201 150
108 179 144
107 179 144
107 179 144
107 179 144
38 60 50
38 59 49
37 59 49
37 59 49
37 59 49
37 59 48
37 58 48
36 58 48
82 134 88
27 47 28
27 47 28
27 47 28
27 47 28
27 47 28
27 47 28
27 47 28
111 197 145
103 175 140
111 197 145
103 175 140
103 175 140
103 175 140
82 134 88
24 40 26
27 47 28
27 47 28
27 46 28
24 40 26
27 46 28
27 46 28
27 46 28
27 46 28
27 46 28
27 46 28
26 46 28
26 46 28
26 46 28
26 42 28
81 134 87
101 174 138
109 195 144
101 174 138
101 174 138
101 174 138
109 195 143
101 174 138
109 195 143
101 174 138
109 195 143
101 174 138
109 195 143
101 174 138
109 195 143
101 174 138
34 60 45
34 60 45
34 60 45
34 60 45
34 60 45
32 54 44
34 60 45
34 60 45
35 60 45
24 40 26
26 46 28
24 40 26
24 40 26
24 40 26
26 46 28
24 40 26
26 46 28
26 46 28
26 46 28
26 46 28
26 46 28
26 46 28
26 46 28
24 40 26
24 40 26
26 46 28
26 46 28
26 46 28
26 46 28
26 46 28
24 40 26
26 46 28
24 40 26
24 40 26
24 40 26
24 40 26
26 46 28
24 40 26
24 40 26
24 40 26
24 40 26
24 40 26
24 40 26
27 46 28
24 40 26
24 40 26
24 40 26
24 40 26
27 46 28
27 47 28
27 47 28
27 47 28
27 47 28
27 47 28
27 47 28
27 47 28
27 47 28
27 47 28
27 47 28
27 47 28
24 40 26
27 47 28
83 148 86
101 174 138
101 174 138
33 55 45
34 55 45
34 55 45
36 62 47
34 56 45
36 62 47
28 48 30
28 48 30
28 48 30
26 42 29
28 48 30
28 48 30
119 202 154
30 46 34
30 46 34
30 46 34
30 46 34
120 203 154
120 204 154
120 204 154
120 204 154
120 205 155
121 205 155
27 43 30
27 43 30
27 43 30
27 43 30
27 43 30
27 43 29
27 42 29
26 42 29
115 187 152
116 187 152
116 187 153
116 188 153
117 188 153
117 189 154
117 189 154
126 211 160
118 190 155
119 190 156
119 191 156
120 191 156
28 48 30
28 48 30
28 48 30
28 48 30
28 48 29
28 48 29
28 48 29
28 47 29
27 47 29
27 47 29
27 47 29
25 41 27
25 41 27
25 41 27
25 41 27
25 41 27
25 40 27
25 40 27
24 40 27
24 40 27
24 40 27
131 203 167
75 127 80
24 40 27
24 40 27
25 40 27
25 41 27
25 41 27
25 41 27
25 41 27
25 41 28
70 96 81
71 97 82
71 97 82
72 98 83
72 98 83
73 99 84
71 93 83
74 100 85
74 100 85
75 101 86
75 101 86
76 102 87
76 102 87
77 103 88
75 97 86
75 97 87
76 98 87
76 98 88
76 98 88
77 99 88
77 99 89
146 218 183
155 240 189
155 240 189
155 241 189
147 219 184
156 241 190
75 127 81
25 41 27
25 41 27
25 41 27
25 41 28
25 41 28
26 41 28
83 109 94
83 109 94
83 109 94
83 109 94
83 109 94
83 109 94
83 109 94
83 109 94
83 108 93
82 108 93
82 108 93
82 108 93
79 101 91
82 107 92
81 107 92
81 107 92
81 107 92
80 106 91
80 106 91
80 106 90
79 105 90
79 105 90
78 104 89
78 104 89
77 103 88
25 41 28
26 41 28
26 42 28
26 42 29
75 101 87
75 101 86
74 100 85
74 100 85
73 99 84
72 98 84
72 98 83
71 97 82
26 42 29
26 42 29
28 48 30
26 42 29
28 48 30
28 48 30
28 48 30
28 48 30
28 48 30
28 48 30
28 48 30
28 48 30
28 48 30
28 48 30
28 48 30
28 48 30
57 79 69
57 79 69
56 78 68
55 77 67
55 77 67
54 76 66
53 75 65
53 75 65
52 74 64
52 74 63
51 73 63
50 72 62
52 78 63
52 78 63
51 77 62
51 77 62
50 76 61
50 75 61
49 75 60
49 74 60
48 74 59
48 74 59
47 73 58
120 206 154
120 205 154
119 205 153
119 204 153
119 204 153
118 204 152
118 203 152
117 203 152
117 202 151
117 202 151
116 202 151
116 202 150
116 201 150
107 179 144
107 179 144
107 179 144
107 179 143
106 178 143
37 59 49
37 59 49
37 59 49
37 59 49
37 59 48
36 58 48
36 58 48
82 134 88
27 47 28
27 47 28
27 47 28
27 47 28
27 47 28
27 47 28
24 40 27
27 47 28
27 47 28
27 47 28
27 47 28
27 47 28
103 175 139
83 148 86
27 47 28
27 47 28
27 47 28
27 47 28
27 47 28
27 47 28
27 47 28
27 47 28
27 47 28
27 47 28
27 47 28
27 47 28
27 47 28
24 40 26
26 42 28
81 134 87
101 174 138
101 174 138
101 174 138
101 174 138
109 195 143
101 174 138
101 174 138
101 174 138
101 174 138
109 195 143
101 174 138
101 174 138
101 174 138
101 174 138
101 174 138
109 195 143
34 60 45
34 60 45
34 60 45
34 60 45
34 60 45
34 60 45
34 60 45
32 54 44
34 60 45
34 60 45
35 60 45
32 54 44
32 54 44
26 46 28
26 46 28
24 40 26
24 40 26
26 46 28
26 46 28
26 46 28
26 46 28
26 46 28
27 46 28
27 46 28
27 46 28
27 46 28
27 46 28
27 46 28
27 46 28
24 40 26
24 40 26
24 40 26
24 40 26
24 40 26
24 40 26
27 46 28
24 40 26
24 40 26
24 40 26
27 47 28
24 40 26
24 40 26
24 40 26
27 47 28
24 40 26
24 40 26
24 40 26
27 47 28
24 40 26
27 47 28
24 40 26
27 47 28
27 47 28
27 47 28
27 47 28
27 47 28
27 47 28
27 47 28
27 47 28
27 47 28
27 47 28
27 47 28
27 47 28
27 47 28
36 62 47
33 55 45
36 62 47
34 55 45
34 55 45
34 55 45
34 56 45
28 48 30
28 48 30
28 48 30
28 48 30
28 48 30
119 202 154
119 202 154
30 46 34
30 46 34
120 203 154
120 203 154
120 204 154
120 204 154
120 204 154
120 205 155
121 205 155
121 205 155
27 43 30
27 43 30
27 43 30
27 43 30
27 43 30
27 43 29
27 43 29
26 42 29
26 42 29
124 209 158
124 209 158
117 188 153
117 189 154
117 189 154
118 189 155
118 190 155
119 190 155
127 212 161
119 191 156
120 192 157
28 48 30
28 48 30
28 48 30
28 48 30
28 48 29
28 48 29
28 48 29
28 48 29
28 47 29
27 47 29
25 41 27
25 41 27
25 41 27
25 41 27
25 41 27
25 41 27
25 41 27
25 40 27
25 40 27
24 40 27
24 40 27
24 40 27
24 40 27
25 40 27
25 41 27
25 41 27
25 41 27
25 41 27
25 41 27
25 41 28
70 96 81
70 96 81
71 97 82
71 97 82
70 92 81
70 92 82
73 99 84
74 99 84
74 100 85
74 100 85
75 101 86
75 101 86
76 102 87
76 102 87
77 103 88
75 97 86
75 97 87
75 97 87
78 104 89
76 98 88
145 217 182
146 218 182
146 218 183
146 218 183
155 240 189
147 219 184
155 241 189
25 41 27
25 41 27
25 41 27
25 41 28
25 41 28
25 41 28
82 108 93
82 108 93
82 108 93
82 108 93
82 108 93
82 108 93
82 108 93
82 108 93
82 108 93
82 108 93
82 108 93
82 107 92
81 107 92
79 101 90
78 100 90
78 100 90
78 100 90
78 99 89
77 99 89
79 105 90
79 105 90
79 104 89
78 104 89
78 104 89
77 103 88
77 103 88
25 41 28
26 42 28
26 42 28
26 42 29
75 101 86
74 100 85
74 100 85
73 99 84
70 92 82
72 98 83
69 91 81
71 97 82
70 96 81
69 95 80
69 95 80
68 94 79
28 48 30
28 48 30
26 42 29
28 48 30
28 48 30
26 42 28
26 42 28
28 48 30
28 48 30
28 48 30
28 48 30
28 48 30
57 79 69
59 85 70
56 78 68
55 77 67
57 83 68
54 76 66
53 75 65
53 74 64
52 74 64
51 73 63
51 73 63
50 72 62
52 78 63
51 77 62
51 77 62
50 76 61
50 76 61
47 69 59
49 75 60
48 74 59
45 67 57
47 73 58
47 73 58
25 41 27
75 127 81
119 205 153
119 204 153
118 204 153
118 203 152
118 203 152
117 203 151
117 202 151
117 202 151
116 202 150
116 201 150
108 180 144
107 179 144
107 179 144
107 179 144
107 179 143
106 178 143
106 178 143
37 59 49
37 59 49
37 59 48
37 59 48
36 58 48
36 58 48
82 134 88
27 47 28
27 47 28
27 47 28
24 40 27
27 47 28
27 47 28
27 47 28
27 47 28
27 47 28
24 40 27
27 47 28
27 47 28
27 47 28
111 196 145
36 62 47
33 55 45
33 55 45
24 40 27
27 47 28
27 47 28
27 47 28
27 47 28
27 47 28
27 47 28
27 47 28
24 40 26
24 40 26
24 40 26
26 42 28
81 134 87
101 174 138
101 174 138
109 195 143
101 174 138
101 174 138
101 174 138
101 174 138
101 174 138
101 174 138
109 195 143
101 174 138
109 195 143
101 174 138
101 174 138
109 195 143
109 195 143
109 195 143
34 60 45
34 60 45
34 60 45
34 60 45
34 60 45
32 54 43
32 54 43
32 54 43
34 60 45
32 54 44
34 60 45
35 60 45
32 54 44
32 54 44
35 61 45
32 54 44
35 61 45
32 54 44
27 47 28
27 47 28
27 47 28
27 47 28
24 40 26
27 47 28
24 40 26
27 47 28
27 47 28
27 47 28
24 40 26
27 47 28
27 47 28
24 40 26
24 40 26
24 40 26
24 40 26
24 40 26
24 40 26
24 40 26
24 40 26
24 40 26
24 40 26
24 40 26
24 40 26
24 40 26
24 40 27
27 47 28
27 47 28
27 47 28
27 47 28
27 47 28
27 47 28
24 40 27
27 47 28
27 47 28
27 47 28
27 47 28
24 40 27
27 47 28
27 47 28
27 47 28
27 47 28
27 47 28
24 40 27
33 55 45
36 62 47
33 55 45
36 62 47
33 55 45
34 55 45
34 55 45
28 48 30
28 48 30
28 48 30
28 48 30
28 48 30
111 181 148
112 182 148
31 47 34
30 46 34
120 203 154
119 203 154
120 204 154
120 204 154
120 204 154
120 205 155
121 205 155
121 205 155
27 43 30
27 43 30
27 43 30
27 43 30
27 43 30
27 43 30
27 43 30
27 43 29
115 187 152
124 209 158
124 209 158
124 209 159
117 188 154
125 210 159
126 211 160
118 190 155
126 211 161
119 191 156
127 212 162
128 213 162
28 48 30
28 48 30
28 48 30
28 48 30
28 48 30
28 48 30
28 48 29
28 48 29
28 48 29
28 47 29
27 47 29
25 41 27
25 41 27
25 41 27
25 41 27
25 41 27
25 41 27
25 41 27
25 40 27
25 40 27
24 40 27
24 40 27
24 40 27
25 40 27
25 41 27
25 41 27
25 41 27
25 41 27
25 41 28
69 95 80
70 95 80
70 96 81
71 97 81
69 91 80
72 98 82
72 98 83
73 99 83
73 99 84
74 99 84
74 100 85
74 100 85
75 101 86
75 101 86
73 95 85
74 96 85
77 103 87
75 96 86
75 97 87
78 104 88
144 217 181
145 217 182
153 239 187
153 239 188
146 218 182
154 240 188
154 240 188
83 148 86
25 41 27
25 41 27
25 41 27
25 41 28
25 41 28
25 41 28
82 107 92
82 108 93
82 108 93
82 108 93
82 108 93
82 107 92
81 107 92
81 107 92
81 107 92
81 107 92
81 107 92
81 107 92
78 100 90
78 100 90
78 100 89
77 99 89
77 99 89
77 99 89
77 98 88
76 98 88
76 98 88
75 97 87
75 97 87
75 96 86
77 102 87
25 41 28
25 41 28
26 42 28
26 42 29
75 101 86
74 100 85
74 100 85
73 99 84
73 98 84
72 98 83
71 97 82
71 97 82
70 96 81
69 95 81
69 95 80
68 94 79
65 87 77
64 86 76
64 86 76
63 85 75
63 84 74
62 84 74
28 48 30
28 48 30
26 42 28
28 48 30
28 48 30
28 48 30
57 79 69
57 78 68
56 78 68
55 77 67
55 77 67
54 76 66
122 193 159
121 193 158
120 192 157
52 74 63
51 73 63
50 72 62
52 78 63
52 78 63
51 77 62
51 77 62
50 76 61
50 76 61
49 75 60
49 75 60
48 74 59
48 74 59
47 73 58
47 73 58
25 41 28
25 41 27
25 41 27
25 41 27
25 41 27
25 41 27
75 127 81
117 203 151
117 202 151
116 202 151
116 202 150
116 201 150
108 180 144
107 179 144
107 179 144
107 179 144
106 178 143
106 178 143
106 178 143
106 178 143
106 178 142
105 177 142
37 58 48
36 58 48
36 58 48
27 47 29
25 40 27
27 47 29
27 47 28
27 47 28
27 47 28
27 47 28
27 47 28
27 47 28
27 47 28
27 47 28
27 47 28
27 47 28
27 47 28
111 196 145
102 175 139
36 62 47
33 55 45
36 62 46
33 55 45
33 55 45
33 55 45
33 55 45
33 55 45
27 47 28
24 40 27
27 47 28
24 40 27
26 42 29
26 42 28
81 134 87
101 174 138
109 195 143
109 195 143
109 195 143
109 195 143
101 174 138
101 174 138
101 174 138
101 174 138
109 195 143
101 174 138
101 174 138
101 174 138
101 174 138
101 174 138
101 174 138
109 195 143
101 174 138
34 60 45
34 60 45
34 60 45
34 60 45
34 60 45
34 60 45
34 60 45
34 60 45
34 60 45
34 60 45
34 60 45
32 54 44
32 54 44
32 54 44
32 54 44
32 54 44
32 54 44
32 54 44
35 61 45
32 54 44
32 54 44
32 54 44
27 47 28
27 47 28
27 47 28
27 47 28
24 40 26
24 40 26
24 40 26
24 40 27
24 40 27
24 40 27
24 40 27
24 40 27
24 40 27
24 40 27
24 40 27
24 40 27
24 40 27
24 40 27
24 40 27
24 40 27
24 40 27
27 47 28
27 47 28
27 47 28
27 47 28
27 47 28
24 40 27
27 47 28
27 47 28
27 47 28
27 47 28
27 47 28
27 47 28
27 47 28
27 47 28
27 47 28
27 47 28
27 47 28
27 47 28
33 55 45
36 62 47
33 55 45
33 55 45
36 62 47
33 55 45
33 55 45
34 55 45
34 55 45
28 48 30
28 48 30
28 48 30
29 48 30
111 181 148
119 202 154
48 74 60
119 203 154
119 203 153
119 203 153
119 204 154
120 204 154
120 204 154
120 205 154
121 205 155
121 205 155
121 205 155
27 43 30
27 43 30
27 43 30
27 43 30
27 43 30
27 43 30
123 208 157
115 187 152
124 209 158
124 209 158
124 209 159
125 210 159
125 210 159
118 189 154
126 211 160
126 211 161
127 212 161
127 212 161
128 213 162
120 192 157
28 48 30
28 48 30
28 48 30
28 48 30
28 48 30
28 48 30
28 48 30
28 48 29
28 48 29
28 48 29
25 41 28
25 41 28
25 41 27
25 41 27
25 41 27
25 41 27
25 41 27
25 41 27
25 41 27
25 40 27
25 40 27
24 40 27
25 40 27
25 41 27
25 41 27
25 41 27
25 41 27
66 88 77
69 95 80
67 89 78
67 89 79
70 96 81
71 97 82
69 91 80
72 98 83
72 98 83
73 99 83
73 99 84
71 93 83
74 100 85
72 94 84
72 94 84
75 101 86
73 95 85
74 96 85
74 96 86
74 96 86
77 103 88
144 216 181
144 216 181
144 217 181
145 217 182
145 217 182
145 217 182
146 218 182
27 47 29
25 41 27
25 41 27
25 41 27
25 41 28
25 41 28
81 107 92
81 107 92
81 107 92
81 107 92
81 107 92
81 107 92
81 107 92
81 107 92
81 107 92
81 107 92
80 106 91
80 106 91
80 106 91
78 99 89
77 99 89
77 99 89
77 99 88
76 98 88
76 98 88
76 98 88
76 97 87
75 97 87
75 97 86
74 96 86
74 96 86
73 95 85
25 41 28
25 41 28
26 42 28
26 42 29
74 100 85
74 100 85
73 99 84
70 92 82
72 98 83
71 97 82
71 97 82
70 96 81
70 95 81
69 95 80
66 88 78
68 94 79
65 87 76
64 86 76
63 85 75
63 85 75
62 84 74
61 83 73
63 89 74
60 82 72
62 88 73
59 81 71
58 80 70
26 42 28
57 79 69
56 78 68
58 84 69
55 77 67
54 76 66
54 76 66
121 193 158
121 193 158
120 192 157
128 213 162
119 191 156
118 190 155
126 211 160
125 210 160
49 70 60
50 76 61
50 76 61
49 75 60
49 75 60
48 74 59
48 74 59
45 67 57
47 73 58
47 73 58
25 41 28
25 41 28
25 41 28
25 41 28
25 41 28
25 41 27
25 41 27
25 41 27
25 41 27
25 41 27
25 41 27
75 127 81
107 179 144
107 179 144
107 179 144
107 179 143
106 178 143
106 178 143
106 178 143
106 178 143
105 178 142
105 177 142
105 177 142
105 177 142
105 177 142
27 47 29
27 47 29
27 47 29
27 47 29
27 47 29
25 41 27
27 47 29
27 47 29
27 47 29
27 47 28
25 40 27
27 47 28
27 47 28
27 47 28
102 175 139
102 175 139
36 62 46
33 55 45
33 55 45
33 55 45
33 55 45
33 55 45
33 55 45
33 55 45
33 55 45
33 55 44
33 55 44
33 55 44
26 42 29
26 42 28
81 134 87
101 174 138
109 195 143
101 174 138
109 195 143
101 174 138
101 174 138
101 174 138
101 174 138
101 174 138
101 174 138
101 174 138
101 174 138
101 174 138
101 174 138
101 174 138
109 195 143
109 195 143
109 195 143
34 60 45
34 60 45
32 54 43
34 60 45
34 60 45
34 60 45
34 60 45
32 54 43
32 54 43
32 54 43
34 60 45
32 54 43
32 54 44
32 54 44
35 60 45
32 54 44
32 54 44
35 61 45
32 54 44
32 54 44
32 54 44
32 54 44
32 54 44
32 54 44
35 61 45
32 54 44
35 61 45
24 40 27
24 40 27
24 40 27
24 40 27
24 40 27
24 40 27
24 40 27
24 40 27
24 40 27
27 47 28
24 40 27
27 47 28
24 40 27
24 40 27
24 40 27
24 40 27
24 40 27
27 47 28
27 47 28
27 47 28
24 40 27
27 47 28
27 47 28
27 47 28
27 47 28
24 40 27
27 47 28
27 47 28
24 40 27
27 47 28
27 47 28
27 47 28
27 47 28
27 47 28
33 55 45
33 55 45
33 55 45
33 55 45
33 55 45
33 55 45
36 62 47
36 62 47
36 62 47
29 48 30
29 49 30
26 42 29
29 49 31
119 202 153
111 182 148
119 203 153
111 182 148
111 182 148
111 182 148
119 204 154
120 204 154
120 204 154
120 204 154
120 205 155
121 205 155
121 205 155
27 43 30
27 43 30
27 43 30
27 43 30
27 43 30
122 207 157
123 208 157
123 208 157
124 208 158
124 209 158
124 209 158
117 188 153
125 210 159
125 210 160
126 211 160
126 211 160
127 212 161
127 212 161
128 213 162
120 192 157
52 74 64
52 74 64
53 75 65
28 48 30
28 48 30
28 48 30
28 48 30
28 48 30
28 48 29
28 48 29
28 48 29
25 41 28
25 41 28
25 41 27
25 41 27
25 41 27
25 41 27
25 41 27
25 41 27
25 41 27
25 41 27
25 40 27
25 41 27
25 41 27
25 41 27
25 41 27
25 41 27
68 94 79
68 94 79
69 95 80
67 89 79
67 89 79
70 96 81
71 97 82
69 91 80
72 98 83
72 98 83
73 99 83
73 99 84
73 99 84
74 100 85
74 100 85
72 94 84
73 95 84
73 95 85
76 102 87
74 96 85
143 215 180
151 237 186
152 237 186
144 216 181
152 238 186
144 217 181
145 217 182
27 47 28
27 47 29
25 41 27
25 41 27
25 41 28
25 41 28
25 41 28
80 106 91
80 106 91
80 106 91
80 106 91
80 106 91
80 106 91
80 106 91
80 106 91
80 106 91
80 106 91
80 106 91
80 106 91
77 99 89
77 99 89
77 99 88
76 98 88
76 98 88
76 98 88
75 97 87
75 97 87
75 97 87
74 96 86
74 96 86
74 96 85
73 95 85
27 47 29
25 41 28
26 41 28
26 42 28
74 100 85
74 99 85
73 99 84
72 98 83
72 98 83
71 97 82
71 97 82
70 96 81
70 95 81
69 95 80
68 94 79
68 94 79
65 87 77
64 86 76
63 85 75
63 85 75
62 84 74
62 83 73
61 83 73
63 89 74
60 82 71
59 81 71
58 80 70
60 86 71
59 85 71
59 85 70
58 84 69
58 84 69
57 83 68
56 82 67
53 75 65
121 193 158
120 192 157
120 192 157
119 191 156
119 190 156
118 190 155
126 211 160
125 210 159
125 210 159
124 209 158
124 209 158
123 208 157
123 208 157
46 68 58
48 74 59
45 67 57
47 73 58
46 72 57
25 41 28
25 41 28
28 48 29
25 41 28
25 41 28
25 41 28
25 41 28
25 41 28
25 41 28
25 41 27
25 41 27
25 41 27
25 41 27
25 41 27
27 47 29
27 47 29
83 148 86
106 178 143
106 178 143
106 178 142
105 177 142
105 177 142
105 177 142
105 177 142
105 177 142
27 47 29
27 47 29
25 41 27
27 47 29
27 47 29
27 47 29
27 47 29
27 47 29
27 47 29
27 47 29
27 47 29
27 47 29
27 47 29
27 47 29
102 175 139
102 175 139
110 196 145
33 55 45
33 55 45
36 62 46
33 55 45
33 55 45
33 55 45
33 55 45
33 55 44
33 55 44
33 55 44
33 55 44
26 42 29
82 134 87
81 134 87
101 174 138
101 174 138
101 174 138
101 174 138
101 174 138
101 174 138
101 174 138
109 195 143
101 174 138
109 195 143
109 195 143
101 174 138
101 174 138
101 174 138
101 174 138
109 195 143
101 174 138
109 195 143
109 195 143
34 60 45
32 54 43
34 60 45
34 60 45
34 60 45
32 54 43
34 60 45
32 54 43
32 54 43
34 60 45
34 60 45
34 60 45
34 60 45
32 54 44
32 54 44
35 60 45
35 61 45
32 54 44
32 54 44
32 54 44
32 54 44
32 54 44
32 54 44
32 54 44
35 61 45
35 61 45
35 61 45
32 54 44
35 61 46
35 61 46
35 61 46
35 61 46
24 40 27
27 47 28
24 40 27
24 40 27
24 40 27
27 47 28
24 40 27
24 40 27
24 40 27
27 47 28
27 47 28
27 47 28
27 47 28
27 47 28
27 47 28
27 47 28
27 47 28
27 47 28
27 47 28
27 47 28
27 47 28
27 47 28
27 47 28
25 40 27
27 47 29
25 40 27
25 40 27
36 62 47
36 62 47
33 55 45
36 62 47
33 55 45
33 55 45
33 55 45
33 55 45
33 55 45
33 55 45
33 55 45
29 49 31
29 49 31
29 49 31
119 202 153
119 202 153
111 182 147
111 182 148
111 182 148
111 182 148
111 183 148
112 183 149
112 183 149
112 183 149
112 184 149
121 205 155
121 205 155
121 206 155
27 43 30
27 43 30
27 43 30
27 43 30
122 207 157
123 208 157
123 208 157
115 187 152
124 209 158
124 209 158
125 210 159
125 210 159
117 189 154
126 211 160
118 190 155
119 190 155
127 212 161
127 212 162
54 80 65
52 74 64
52 74 64
53 75 65
56 82 67
56 82 67
54 76 66
55 76 66
28 48 30
28 48 30
28 48 30
28 48 29
25 41 28
25 41 28
25 41 28
25 41 28
25 41 27
25 41 27
25 41 27
25 41 27
25 41 27
25 41 27
25 41 27
25 41 27
25 41 27
25 41 27
25 41 27
67 93 78
67 93 78
68 94 79
68 94 79
69 95 80
69 95 80
70 96 81
70 96 81
71 97 82
71 97 82
72 98 82
72 98 83
73 99 83
73 99 84
71 93 83
71 93 83
74 100 85
75 101 85
73 94 84
73 95 84
73 95 85
142 215 179
143 215 180
151 237 185
143 216 180
144 216 180
144 216 181
144 216 181
27 47 28
27 47 29
27 47 29
25 41 27
25 41 28
25 41 28
79 105 90
79 105 90
80 105 90
80 105 90
80 106 91
80 106 90
80 105 90
79 105 90
79 105 90
79 105 90
79 105 90
79 105 90
79 105 90
76 98 88
76 98 88
76 98 88
76 98 87
75 97 87
75 97 87
75 97 86
74 96 86
74 96 86
74 96 85
73 95 85
73 95 85
73 94 84
28 47 29
25 41 28
26 42 28
26 42 28
73 99 84
73 99 84
70 92 82
72 98 83
71 97 82
71 97 82
70 96 81
70 96 81
67 89 78
68 94 79
68 94 79
67 93 78
64 86 76
64 85 75
65 91 76
62 84 74
62 84 74
61 83 73
63 89 74
60 82 72
59 81 71
59 80 70
58 80 70
57 79 69
59 85 70
58 84 69
58 84 69
57 83 68
57 83 68
56 82 67
55 81 66
129 214 163
128 213 162
128 213 162
119 191 156
118 190 155
118 190 155
125 211 160
125 210 159
124 209 159
124 209 158
123 208 158
123 208 157
122 208 157
122 207 156
121 207 156
121 206 155
121 206 155
46 72 57
25 41 28
25 41 28
25 41 28
25 41 28
25 41 28
25 41 28
25 41 28
25 41 28
25 41 28
25 41 28
25 41 28
25 41 28
25 41 28
27 47 29
27 47 29
25 41 27
27 47 29
27 47 29
27 47 29
27 47 29
27 47 29
83 148 86
105 177 142
105 177 142
105 177 141
27 47 29
27 47 29
25 41 27
27 47 29
27 47 29
27 47 29
27 47 29
27 47 29
27 47 29
27 47 29
27 47 29
27 47 29
27 47 29
27 47 29
102 175 139
102 175 139
102 175 139
36 62 46
33 55 45
33 55 45
35 61 46
35 61 46
33 55 44
33 55 44
33 55 44
33 55 44
33 55 44
35 61 46
26 42 29
82 134 87
81 134 87
101 174 138
101 174 138
101 174 138
101 174 138
109 195 143
101 174 138
101 174 138
109 195 143
101 174 138
101 174 138
101 174 138
101 174 138
109 195 143
109 195 143
101 174 138
101 174 138
109 195 143
109 195 143
109 195 143
109 195 143
34 60 45
34 60 45
34 60 45
34 60 45
34 60 45
34 60 45
34 60 45
34 60 45
34 60 45
34 60 45
32 54 43
32 54 43
32 54 43
32 54 43
32 54 44
32 54 44
32 54 44
32 54 44
32 54 44
35 61 45
32 54 44
32 54 44
32 54 44
32 54 44
32 54 44
35 61 45
35 61 45
35 61 45
32 54 44
35 61 46
35 61 46
32 54 44
35 61 46
35 61 46
32 54 44
35 61 46
25 40 27
25 40 27
25 40 27
25 40 27
25 40 27
27 47 28
27 47 28
27 47 29
27 47 29
27 47 29
27 47 29
27 47 29
25 40 27
27 47 29
27 47 29
25 41 27
27 47 29
25 41 27
27 47 29
27 47 29
27 47 29
27 47 29
33 55 45
36 62 46
36 62 47
33 55 45
33 55 45
33 55 45
33 55 45
33 55 45
33 55 45
36 62 47
33 55 45
29 49 31
29 49 31
29 49 31
