P3
320 240
255
95 145 166
95 145 166
95 145 166
95 145 166
95 145 166
95 145 166
95 145 166
95 145 166
95 145 166
95 145 166
95 145 166
95 145 166
95 145 166
95 145 166
95 145 166
95 145 166
95 145 166
95 145 166
95 145 166
95 145 166
95 145 166
95 145 166
95 145 166
95 145 166
95 145 166
95 145 166
95 145 166
95 145 166
95 145 166
95 145 166
95 145 166
95 145 166
95 145 166
95 145 166
95 145 166
95 145 166
95 145 166
95 145 166
95 145 166
95 145 166
95 145 166
95 145 166
95 145 166
95 145 166
95 145 166
95 145 166
95 145 166
95 145 166
95 145 166
95 145 166
95 145 166
95 145 166
95 145 166
95 145 166
95 146 166
95 146 166
95 146 166
95 146 166
95 146 166
95 146 166
95 146 166
95 146 166
95 146 166
95 146 166
95 146 166
95 146 166
95 146 166
95 146 166
95 146 166
95 146 166
95 146 166
95 146 166
95 146 166
95 146 166
95 146 166
95 146 166
95 146 166
95 146 166
95 146 166
95 146 166
95 146 166
95 146 166
95 146 166
95 146 166
95 146 166
95 146 166
95 146 166
95 146 166
95 146 166
95 146 166
95 146 166
95 146 166
95 146 166
95 146 166
95 146 166
95 146 166
95 146 166
95 146 166
95 146 166
95 146 166
95 146 166
95 146 166
95 146 166
95 146 166
95 146 166
95 146 166
95 146 166
95 146 166
95 146 166
95 146 166
95 146 166
95 146 166
95 146 166
95 146 166
95 146 166
95 146 166
95 146 166
95 146 166
95 146 166
95 146 166
95 146 166
95 146 166
95 146 166
95 146 166
95 146 166
95 146 166
95 146 166
95 146 166
95 146 166
95 146 166
95 146 166
95 146 166
95 146 166
95 146 166
95 146 166
95 146 166
95 146 166
95 146 166
95 146 166
95 146 166
95 146 166
95 146 166
95 146 166
95 146 166
95 146 166
95 146 166
95 146 166
95 146 166
95 146 166
95 146 166
95 146 166
95 146 166
95 146 166
95 146 166
95 146 166
95 146 166
95 146 166
95 146 166
95 146 166
95 146 166
95 146 166
95 146 166
95 146 166
95 146 166
95 146 166
95 146 166
95 146 166
95 146 166
95 146 166
95 146 166
95 146 166
95 146 166
95 146 166
95 146 166
95 146 166
95 146 166
95 146 166
95 146 166
95 146 166
95 146 166
95 146 166
95 146 166
95 146 166
95 146 166
95 146 166
95 146 166
95 146 166
95 146 166
95 146 166
95 146 166
95 146 166
95 146 166
95 146 166
95 146 166
95 146 166
95 146 166
95 146 166
95 146 166
95 146 166
95 146 166
95 146 166
95 146 166
95 146 166
95 146 166
95 146 166
95 146 166
95 146 166
95 146 166
95 146 166
95 146 166
95 146 166
95 146 166
95 146 166
95 146 166
95 146 166
95 146 166
95 146 166
95 146 166
95 146 166
95 146 166
95 146 166
95 146 166
95 146 166
95 146 166
95 146 166
95 146 166
95 146 166
95 146 166
95 146 166
95 146 166
95 146 166
95 146 166
95 146 166
95 146 166
95 146 166
95 146 166
95 146 166
95 146 166
95 146 166
95 146 166
95 146 166
95 146 166
95 146 166
95 146 166
95 146 166
95 146 166
95 146 166
95 146 166
95 146 166
95 146 166
95 146 166
95 146 166
95 146 166
95 146 166
95 146 166
95 146 166
95 146 166
95 146 166
95 146 166
95 146 166
95 146 166
95 146 166
95 146 166
95 146 166
95 146 166
95 146 166
95 145 166
95 145 166
95 145 166
95 145 166
95 145 166
95 145 166
95 145 166
95 145 166
95 145 166
95 145 166
95 145 166
95 145 166
95 145 166
95 145 166
95 145 166
95 145 166
95 145 166
95 145 166
95 145 166
95 145 166
95 145 166
95 145 166
95 145 166
95 145 166
95 145 166
95 145 166
95 145 166
95 145 166
95 145 166
95 145 166
95 145 166
95 145 166
95 145 166
95 145 166
95 145 166
95 145 166
95 145 166
95 145 166
95 145 166
95 145 166
95 145 166
95 145 166
95 145 166
95 145 166
95 145 166
95 145 166
95 145 166
95 145 166
95 145 166
95 145 166
95 145 166
95 145 166
95 145 166
95 145 166
95 145 166
95 145 166
95 145 166
95 145 166
95 145 166
95 145 166
95 145 166
95 145 166
95 145 166
95 145 166
95 145 166
95 145 166
95 145 166
95 145 166
95 145 166
95 145 166
95 145 166
95 145 166
95 145 166
95 145 166
95 145 166
95 145 166
95 145 166
95 145 166
95 145 166
95 145 166
95 145 166
95 145 166
95 145 166
95 145 166
95 145 166
95 145 166
95 145 166
95 145 166
95 145 166
95 145 166
95 145 166
95 145 166
95 145 166
95 145 166
95 145 166
95 145 166
95 145 166
95 145 166
95 145 166
95 145 166
95 145 166
95 145 166
95 145 166
95 145 166
95 145 166
95 145 166
95 145 166
95 145 166
95 145 166
95 145 166
95 145 166
95 145 166
95 145 166
95 145 166
95 145 166
95 145 166
95 145 166
95 145 166
95 145 166
95 145 166
95 145 166
95 145 166
95 145 166
95 145 166
95 145 166
95 145 166
95 145 166
95 145 166
95 145 166
95 145 166
95 145 166
95 145 166
95 145 166
95 145 166
95 145 166
95 145 166
95 145 166
95 145 166
95 145 166
95 145 166
95 145 166
95 145 166
95 145 166
95 145 166
95 145 166
95 145 166
95 145 166
95 145 166
95 145 166
95 145 166
95 145 166
95 145 166
95 145 166
95 145 166
95 145 166
95 145 166
95 145 166
95 145 166
95 145 166
95 145 166
95 145 166
95 145 166
95 145 166
95 145 166
95 145 166
95 145 166
95 145 166
95 145 166
95 145 166
95 145 166
95 145 166
95 145 166
95 145 166
95 145 166
95 145 166
95 145 166
95 145 166
95 145 166
95 145 166
95 145 166
95 145 166
95 145 166
95 145 166
95 145 166
95 145 166
95 145 166
95 145 166
95 145 166
95 145 166
95 145 166
95 145 166
95 145 166
95 145 166
95 145 166
95 145 166
95 145 166
95 145 166
95 145 166
95 145 166
95 145 166
95 145 166
95 145 166
95 145 166
95 145 166
95 145 166
95 145 166
95 145 166
95 145 166
95 145 166
95 145 166
95 145 166
95 145 166
95 145 166
95 145 166
95 145 166
95 145 166
95 145 166
95 145 166
95 145 166
95 145 166
95 145 166
95 145 166
95 145 166
95 145 166
95 145 166
95 145 166
95 145 166
95 145 166
95 145 166
95 145 166
95 145 166
95 145 166
95 145 166
95 145 166
95 145 166
95 145 166
95 145 166
95 145 166
95 145 166
95 145 166
95 145 166
95 145 166
95 145 166
95 145 166
95 145 166
95 145 166
95 145 166
95 145 166
95 145 166
95 145 166
95 145 166
95 145 166
95 145 166
95 145 166
95 145 166
95 145 166
95 145 166
95 145 166
95 145 166
95 145 166
95 145 166
95 145 166
95 145 166
95 145 166
95 145 166
95 145 166
95 145 166
95 145 166
95 145 166
95 145 166
95 145 166
95 145 166
95 145 166
95 145 166
95 145 166
95 145 166
95 145 166
95 145 166
95 145 166
95 145 166
95 145 166
95 145 166
95 145 166
95 145 166
95 145 166
95 145 166
95 145 166
95 145 166
95 145 166
95 145 166
95 145 166
95 145 166
95 145 166
95 145 166
95 145 166
95 145 166
95 145 166
95 145 166
95 145 166
95 145 166
95 145 166
95 145 166
95 145 166
95 145 166
95 145 166
95 145 166
95 145 166
95 145 166
95 145 166
95 145 166
95 145 166
95 145 166
95 145 166
95 145 166
95 145 166
95 145 166
95 145 166
95 145 166
95 145 166
95 145 166
95 145 166
95 145 166
95 145 166
95 145 166
95 145 166
95 145 166
95 145 166
95 145 166
95 145 166
95 145 166
95 145 166
95 145 166
95 145 166
95 145 166
95 145 166
95 145 166
95 145 166
95 145 166
95 145 166
95 145 166
95 145 166
95 145 166
95 145 166
95 145 166
95 145 166
95 145 166
95 145 166
95 145 166
95 145 166
95 145 166
95 145 166
95 145 166
95 145 166
95 145 166
95 145 166
95 145 166
95 145 166
95 145 166
95 145 166
95 145 166
95 145 166
95 145 166
95 145 166
95 145 166
95 145 166
95 145 166
95 145 166
95 145 166
95 145 166
95 145 166
95 145 166
95 145 166
95 145 166
95 145 166
95 145 165
95 145 165
95 145 165
95 145 165
95 145 165
95 145 165
95 145 165
95 145 165
95 145 165
95 145 165
95 145 165
95 145 165
95 145 165
95 145 165
95 145 165
95 145 165
95 145 165
95 145 165
95 145 165
95 145 165
95 145 165
95 145 165
95 145 166
95 145 166
95 145 166
95 145 166
95 145 166
95 145 166
95 145 166
95 145 166
95 145 166
95 145 166
95 145 166
95 145 166
95 145 166
95 145 166
95 145 166
95 145 166
95 145 166
95 145 166
95 145 166
95 145 166
95 145 166
95 145 166
95 145 166
95 145 166
95 145 166
95 145 166
95 145 166
95 145 166
95 145 166
95 145 166
95 145 166
95 145 166
95 145 166
95 145 166
95 145 166
95 145 166
95 145 166
95 145 166
95 145 166
95 145 166
95 145 166
95 145 166
95 145 166
95 145 166
95 145 166
95 145 166
95 145 166
95 145 166
95 145 166
95 145 166
95 145 166
95 145 166
95 145 166
95 145 166
95 145 166
95 145 166
95 145 166
95 145 166
95 145 166
95 145 166
95 145 166
95 145 166
95 145 166
95 145 166
95 145 166
95 145 166
95 145 166
95 145 166
95 145 166
95 145 166
95 145 166
95 145 166
95 145 166
95 145 166
95 145 166
95 145 166
95 145 166
95 145 166
95 145 166
95 145 166
95 145 166
95 145 166
95 145 166
95 145 166
95 145 166
95 145 166
95 145 166
95 145 166
95 145 166
95 145 166
95 145 166
95 145 166
95 145 166
95 145 166
95 145 166
95 145 166
95 145 166
95 145 166
95 145 166
95 145 166
95 145 166
95 145 166
95 145 166
95 145 166
95 145 166
95 145 166
95 145 166
95 145 166
95 145 166
95 145 166
95 145 166
95 145 166
95 145 166
95 145 166
95 145 166
95 145 166
95 145 166
95 145 166
95 145 166
95 145 166
95 145 166
95 145 166
95 145 166
95 145 166
95 145 166
95 145 166
95 145 166
95 145 166
95 145 166
95 145 166
95 145 166
95 145 166
95 145 166
95 145 166
95 145 166
95 145 166
95 145 166
95 145 166
95 145 166
95 145 166
95 145 166
95 145 166
95 145 166
95 145 166
95 145 166
95 145 166
95 145 166
95 145 166
95 145 166
95 145 166
95 145 166
95 145 166
95 145 166
95 145 166
95 145 166
95 145 166
95 145 166
95 145 166
95 145 166
95 145 166
95 145 166
95 145 166
95 145 166
95 145 166
95 145 166
95 145 166
95 145 166
95 145 166
95 145 166
95 145 166
95 145 166
95 145 166
95 145 166
95 145 166
95 145 166
95 145 166
95 145 166
95 145 166
95 145 166
95 145 166
95 145 166
95 145 166
95 145 166
95 145 166
95 145 166
95 145 166
95 145 166
95 145 166
95 145 166
95 145 166
95 145 166
95 145 166
95 145 166
95 145 166
95 145 166
95 145 166
95 145 166
95 145 166
95 145 166
95 145 166
95 145 166
95 145 166
95 145 166
95 145 166
95 145 166
95 145 166
95 145 166
95 145 166
95 145 166
95 145 166
95 145 166
95 145 166
95 145 166
95 145 166
95 145 166
95 145 166
95 145 166
95 145 166
95 145 166
95 145 166
95 145 166
95 145 166
95 145 166
95 145 166
95 145 166
95 145 166
95 145 166
95 145 166
95 145 166
95 145 166
95 145 166
95 145 166
95 145 166
95 145 166
95 145 166
95 145 166
95 145 166
95 145 166
95 145 166
95 145 166
95 145 166
95 145 166
95 145 166
95 145 166
95 145 166
95 145 166
95 145 166
95 145 166
95 145 166
95 145 166
95 145 166
95 145 166
95 145 166
95 145 166
95 145 166
95 145 166
95 145 166
95 145 166
95 145 166
95 145 166
95 145 166
95 145 166
95 145 166
95 145 166
95 145 166
95 145 166
95 145 166
95 145 166
95 145 166
95 145 166
95 145 166
95 145 166
95 145 166
95 145 166
95 145 166
95 145 166
95 145 165
95 145 165
95 145 165
95 145 165
95 145 165
95 145 165
95 145 165
95 145 165
95 145 165
95 145 165
95 145 165
95 145 165
95 145 165
95 145 165
95 145 165
95 145 165
95 145 165
95 145 165
95 145 165
95 145 165
95 145 165
95 145 165
95 145 165
95 145 165
95 145 165
95 145 165
95 145 165
95 145 165
95 145 165
95 145 165
95 145 165
95 145 165
95 145 165
95 145 165
95 145 165
95 145 165
95 145 165
95 145 165
95 145 165
95 145 165
95 145 165
95 145 165
95 145 165
95 145 165
95 145 165
95 145 165
95 145 165
95 145 165
95 145 165
95 145 165
95 145 165
95 145 165
95 145 165
95 145 165
95 145 165
95 145 165
95 145 165
95 145 165
95 145 165
95 145 165
95 145 165
95 145 165
95 145 165
95 145 165
95 145 165
95 145 165
95 145 165
95 145 165
95 145 165
95 145 165
95 145 165
95 145 165
95 145 165
95 145 165
95 145 165
95 145 165
95 145 165
95 145 165
95 145 165
95 145 165
95 145 165
95 145 165
95 145 165
95 145 165
95 145 165
95 145 165
95 145 165
95 145 165
95 145 165
95 145 165
95 145 165
95 145 165
95 145 165
95 145 165
95 145 165
95 145 165
95 145 165
95 145 165
95 145 165
95 145 165
95 145 165
95 145 165
95 145 165
95 145 165
95 145 165
95 145 165
95 145 165
95 145 165
95 145 165
95 145 165
95 145 165
95 145 165
95 145 165
95 145 165
95 145 165
95 145 165
95 145 165
95 145 165
95 145 165
95 145 165
95 145 165
95 145 165
95 145 165
95 145 165
95 145 165
95 145 165
95 145 165
95 145 165
95 145 165
95 145 165
95 145 165
95 145 165
95 145 165
95 145 165
95 145 165
95 145 165
95 145 165
95 145 165
95 145 165
95 145 165
95 145 165
95 145 165
95 145 165
95 145 165
95 145 165
95 145 165
95 145 165
95 145 165
95 145 165
95 145 165
95 145 165
95 145 165
95 145 165
95 145 165
95 145 165
95 145 165
95 145 165
95 145 165
95 145 165
95 145 165
95 145 165
95 145 165
95 145 165
95 145 165
95 145 165
95 145 165
95 145 165
95 145 165
95 145 165
95 145 165
95 145 165
95 145 165
95 145 165
95 145 165
95 145 165
95 145 165
95 145 165
95 145 165
95 145 165
95 145 165
95 145 165
95 145 165
95 145 165
95 145 165
95 145 165
95 145 165
95 145 165
95 145 165
95 145 165
95 145 165
95 145 165
95 145 165
95 145 165
95 145 165
95 145 165
95 145 165
95 145 165
95 145 165
95 145 165
95 145 165
95 145 165
95 145 165
95 145 165
95 145 165
95 145 165
95 145 165
95 145 165
95 145 165
95 145 165
95 145 165
95 145 165
95 145 165
95 145 165
95 145 165
95 145 165
95 145 165
95 145 165
95 145 165
95 145 165
95 145 165
95 145 165
95 145 165
95 145 165
95 145 165
95 145 165
95 145 165
95 145 165
95 145 165
95 145 165
95 145 165
95 145 165
95 145 165
95 145 165
95 145 165
95 145 165
95 145 165
95 145 165
95 145 165
95 145 165
95 145 165
95 145 165
95 145 165
95 145 165
95 145 165
95 145 165
95 145 165
95 145 165
95 145 165
95 145 165
95 145 165
95 145 165
95 145 165
95 145 165
95 145 165
95 145 165
95 145 165
95 145 165
95 145 165
95 145 165
95 145 165
95 145 165
95 145 165
95 145 165
95 145 165
95 145 165
95 145 165
95 145 165
95 145 165
95 145 165
95 145 165
95 145 165
95 145 165
95 145 165
95 145 165
95 145 165
95 145 165
95 145 165
95 145 165
95 145 165
95 145 165
95 145 165
95 145 165
95 145 165
95 145 165
95 145 165
95 145 165
95 145 165
95 145 165
95 145 165
95 145 165
95 145 165
95 145 165
95 145 165
95 145 165
95 145 165
95 145 165
95 145 165
95 145 165
95 145 165
95 145 165
95 145 165
95 145 165
95 145 165
95 145 165
95 145 165
95 145 165
95 145 165
95 145 165
95 145 165
95 145 165
95 145 165
95 145 165
95 145 165
95 145 165
95 145 165
95 145 165
95 145 165
95 145 165
95 145 165
95 145 165
95 145 165
95 145 165
95 145 165
95 145 165
95 145 165
95 145 165
95 145 165
95 145 165
95 145 165
95 145 165
95 145 165
95 145 165
95 145 165
95 145 165
95 145 165
95 145 165
95 145 165
95 145 165
95 145 165
95 145 165
95 145 165
95 145 165
95 145 165
95 145 165
95 145 165
95 145 165
95 145 165
95 145 165
95 145 165
95 145 165
95 145 165
95 145 165
95 145 165
95 145 165
95 145 165
95 145 165
95 145 165
95 145 165
95 145 165
95 145 165
95 145 165
95 145 165
95 145 165
95 145 165
95 145 165
95 145 165
95 145 165
95 145 165
95 145 165
95 145 165
95 145 165
95 145 165
95 145 165
95 145 165
95 145 165
95 145 165
95 145 165
95 145 165
95 145 165
95 145 165
95 145 165
95 145 165
95 145 165
95 145 165
95 145 165
95 145 165
95 145 165
95 145 165
95 145 165
95 145 165
95 145 165
95 145 165
95 145 165
95 145 165
95 145 165
95 145 165
95 145 165
95 145 165
95 145 165
95 145 165
95 145 165
95 145 165
95 145 165
95 145 165
95 145 165
95 145 165
95 145 165
95 145 165
95 145 165
95 145 165
95 145 165
95 145 165
95 145 165
95 145 165
95 145 165
95 145 165
95 145 165
95 145 165
95 145 165
95 145 165
95 145 165
95 145 165
95 145 165
95 145 165
95 145 165
95 145 165
95 145 165
95 145 165
95 145 165
95 145 165
95 145 165
95 145 165
95 145 165
95 145 165
95 145 165
95 145 165
95 145 165
95 145 165
95 145 165
95 145 165
95 145 165
95 145 165
95 145 165
95 145 165
95 145 165
95 145 165
95 145 165
95 145 165
95 145 165
95 145 165
95 145 165
95 145 165
95 145 165
95 145 165
95 145 165
95 145 165
95 145 165
95 145 165
95 145 165
95 145 165
95 145 165
95 145 165
95 145 165
95 145 165
95 145 165
95 145 165
95 145 165
95 145 165
95 145 165
95 145 165
95 145 165
95 145 165
95 145 165
95 145 165
95 145 165
95 145 165
95 145 165
95 145 165
95 145 165
95 145 165
95 145 165
95 145 165
95 145 165
95 145 165
95 145 165
95 145 165
95 145 165
95 145 165
95 145 165
95 145 165
95 145 165
95 145 165
95 145 165
95 145 165
95 145 165
95 145 165
95 145 165
95 145 165
95 145 165
95 145 165
95 145 165
95 145 165
95 145 165
95 145 165
95 145 165
95 145 165
95 145 165
95 145 165
95 145 165
95 145 165
95 145 165
95 145 165
95 145 165
95 145 165
95 145 165
95 145 165
95 145 165
95 145 165
95 145 165
95 145 165
95 145 165
95 145 165
95 145 165
95 145 165
95 145 165
95 145 165
95 145 165
95 145 165
95 145 165
95 145 165
95 145 165
95 145 165
95 145 165
95 145 165
95 145 165
95 145 165
95 145 165
95 145 165
95 145 165
95 145 165
95 145 165
95 145 165
95 145 165
95 145 165
95 145 165
95 145 165
95 145 165
95 145 165
95 145 165
95 145 165
95 145 165
95 145 165
95 145 165
95 145 165
95 145 165
95 145 165
95 145 165
95 145 165
95 145 165
95 145 165
95 145 165
95 145 165
95 145 165
95 145 165
95 145 165
95 145 165
95 145 165
95 145 165
95 145 165
95 145 165
95 145 165
95 145 165
95 145 165
95 145 165
95 145 165
95 145 165
95 145 165
95 145 165
95 145 165
95 145 165
95 145 165
95 145 165
95 145 165
95 145 165
95 145 165
95 145 165
95 145 165
95 145 165
95 145 165
95 145 165
95 145 165
95 145 165
95 145 165
95 145 165
95 145 165
95 145 165
95 145 165
95 145 165
95 145 165
95 145 165
95 145 165
95 145 165
95 145 165
95 145 165
95 145 165
95 145 165
95 145 165
95 145 165
95 145 165
95 145 165
95 145 165
95 145 165
95 145 165
95 145 165
95 145 165
95 145 165
95 145 165
95 145 165
95 145 165
95 145 165
95 145 165
95 145 165
95 145 165
95 145 165
95 145 165
95 145 165
95 145 165
95 145 165
95 145 165
95 145 165
95 145 165
95 145 165
95 145 165
95 145 165
95 145 165
95 145 165
95 145 165
95 145 165
95 145 165
95 145 165
95 145 165
95 145 165
95 145 165
95 145 165
95 145 165
95 145 165
95 145 165
95 145 165
95 145 165
95 145 165
95 145 165
95 145 165
95 145 165
95 145 165
95 145 165
95 145 165
95 145 165
95 145 165
95 145 165
95 145 165
95 145 165
95 145 165
94 144 165
94 144 165
94 144 165
94 144 165
94 144 165
94 144 165
94 144 165
94 144 165
94 144 165
94 144 165
94 144 165
94 144 165
94 144 165
94 144 165
94 144 165
94 144 165
94 144 165
94 144 165
94 144 165
94 144 165
94 144 165
94 144 165
94 144 165
94 144 165
94 144 165
94 144 165
94 144 165
94 144 165
94 144 165
94 144 165
94 144 165
94 144 165
94 144 165
94 144 165
94 144 165
94 144 165
94 144 165
94 144 165
94 144 165
94 144 165
94 144 165
94 144 165
94 144 165
94 144 165
94 144 165
94 144 165
94 144 165
94 144 165
94 144 165
94 144 165
94 144 165
94 144 165
95 144 165
95 144 165
95 144 165
95 144 165
95 144 165
95 144 165
95 144 165
95 144 165
95 144 165
95 144 165
95 144 165
95 144 165
95 144 165
95 144 165
95 144 165
95 144 165
95 144 165
95 144 165
95 144 165
95 144 165
95 144 165
95 144 165
95 144 165
95 144 165
95 144 165
95 144 165
95 144 165
95 144 165
95 144 165
95 144 165
95 144 165
95 144 165
95 144 165
95 144 165
95 145 165
95 145 165
95 145 165
95 145 165
95 145 165
95 145 165
95 145 165
95 145 165
95 145 165
95 145 165
95 145 165
95 145 165
95 145 165
95 145 165
95 145 165
95 145 165
95 145 165
95 145 165
95 145 165
95 145 165
95 145 165
95 145 165
95 145 165
95 145 165
95 145 165
95 145 165
95 145 165
95 145 165
95 145 165
95 145 165
95 145 165
95 145 165
95 145 165
95 145 165
95 145 165
95 145 165
95 145 165
95 145 165
95 145 165
95 145 165
95 145 165
95 145 165
95 145 165
95 145 165
95 145 165
95 145 165
95 145 165
95 145 165
95 145 165
95 145 165
95 145 165
95 145 165
95 145 165
95 145 165
95 145 165
95 145 165
95 145 165
95 145 165
95 145 165
95 145 165
95 145 165
95 145 165
95 145 165
95 145 165
95 145 165
95 145 165
95 145 165
95 145 165
95 145 165
95 145 165
95 145 165
95 145 165
95 145 165
95 145 165
95 145 165
95 145 165
95 145 165
95 145 165
95 145 165
95 145 165
95 145 165
95 145 165
95 145 165
95 145 165
95 145 165
95 145 165
95 145 165
95 145 165
95 145 165
95 145 165
95 145 165
95 145 165
95 145 165
95 145 165
95 145 165
95 145 165
95 145 165
95 145 165
95 145 165
95 145 165
95 145 165
95 145 165
95 145 165
95 145 165
95 145 165
95 145 165
95 145 165
95 145 165
95 145 165
95 145 165
95 145 165
95 145 165
95 145 165
95 145 165
95 145 165
95 145 165
95 145 165
95 145 165
95 145 165
95 145 165
95 145 165
95 145 165
95 145 165
95 145 165
95 145 165
95 145 165
95 145 165
95 145 165
95 145 165
95 145 165
95 145 165
95 145 165
95 145 165
95 145 165
95 145 165
95 145 165
95 145 165
95 145 165
95 145 165
95 145 165
95 145 165
95 145 165
95 145 165
95 145 165
95 145 165
95 145 165
95 145 165
95 145 165
95 144 165
95 144 165
95 144 165
95 144 165
95 144 165
95 144 165
95 144 165
95 144 165
95 144 165
95 144 165
95 144 165
95 144 165
95 144 165
95 144 165
95 144 165
95 144 165
95 144 165
95 144 165
95 144 165
95 144 165
95 144 165
95 144 165
95 144 165
95 144 165
95 144 165
95 144 165
95 144 165
95 144 165
95 144 165
95 144 165
95 144 165
95 144 165
95 144 165
95 144 165
94 144 165
94 144 165
94 144 165
94 144 165
94 144 165
94 144 165
94 144 165
94 144 165
94 144 165
94 144 165
94 144 165
94 144 165
94 144 165
94 144 165
94 144 165
94 144 165
94 144 165
94 144 165
94 144 165
94 144 165
94 144 165
94 144 165
94 144 165
94 144 165
94 144 165
94 144 165
94 144 165
94 144 165
94 144 165
94 144 165
94 144 165
94 144 165
94 144 165
94 144 165
94 144 165
94 144 165
94 144 165
94 144 165
94 144 165
94 144 165
94 144 165
94 144 165
94 144 165
94 144 165
94 144 165
94 144 165
94 144 165
94 144 165
94 144 165
94 144 165
94 144 165
94 144 165
94 144 165
94 144 165
94 144 165
94 144 165
94 144 165
94 144 165
94 144 165
94 144 165
94 144 165
94 144 165
94 144 165
94 144 165
94 144 165
94 144 165
94 144 165
94 144 165
94 144 165
94 144 165
94 144 165
94 144 165
94 144 165
94 144 165
94 144 165
94 144 165
94 144 165
94 144 165
94 144 165
94 144 165
94 144 165
94 144 165
94 144 165
94 144 165
94 144 165
94 144 165
94 144 165
94 144 165
94 144 165
94 144 165
94 144 165
94 144 165
94 144 165
94 144 165
94 144 165
94 144 165
94 144 165
94 144 165
94 144 165
94 144 165
94 144 165
94 144 165
94 144 165
94 144 165
94 144 165
94 144 165
94 144 165
94 144 165
94 144 165
94 144 165
94 144 165
94 144 165
94 144 165
94 144 165
94 144 165
94 144 165
94 144 165
94 144 165
94 144 165
94 144 165
94 144 165
94 144 165
94 144 165
94 144 165
94 144 165
94 144 165
94 144 165
94 144 165
94 144 165
94 144 165
94 144 165
94 144 165
94 144 165
94 144 165
94 144 165
94 144 165
94 144 165
94 144 165
94 144 165
94 144 165
94 144 165
94 144 165
94 144 165
94 144 165
94 144 165
94 144 165
94 144 165
94 144 165
94 144 165
94 144 165
94 144 165
94 144 165
94 144 165
94 144 165
94 144 165
94 144 165
94 144 165
94 144 165
94 144 165
94 144 165
94 144 165
94 144 165
94 144 165
94 144 165
94 144 165
94 144 165
94 144 165
94 144 165
94 144 165
94 144 165
94 144 165
94 144 165
94 144 165
94 144 165
94 144 165
94 144 165
94 144 165
94 144 165
94 144 165
94 144 165
94 144 165
94 144 165
94 144 165
94 144 165
94 144 165
94 144 165
94 144 165
94 144 165
94 144 165
94 144 165
94 144 165
94 144 165
94 144 165
94 144 165
94 144 165
94 144 165
94 144 165
94 144 165
94 144 165
94 144 165
94 144 165
94 144 165
94 144 165
94 144 165
94 144 165
94 144 165
94 144 165
94 144 165
94 144 165
94 144 165
94 144 165
94 144 165
94 144 165
94 144 165
94 144 165
94 144 165
94 144 165
94 144 165
94 144 165
94 144 165
94 144 165
94 144 165
94 144 165
94 144 165
94 144 165
94 144 165
94 144 165
94 144 165
94 144 165
94 144 165
94 144 165
94 144 165
94 144 165
94 144 165
94 144 165
94 144 165
94 144 165
94 144 165
94 144 165
94 144 165
94 144 165
94 144 165
94 144 165
94 144 165
94 144 165
94 144 165
94 144 165
94 144 165
94 144 165
94 144 165
94 144 165
94 144 165
94 144 165
94 144 165
94 144 165
94 144 165
94 144 165
94 144 165
94 144 165
94 144 165
94 144 165
94 144 165
94 144 165
94 144 165
94 144 165
94 144 165
94 144 165
94 144 165
94 144 165
94 144 165
94 144 165
94 144 165
94 144 165
94 144 165
94 144 165
94 144 165
94 144 165
94 144 165
94 144 165
94 144 165
94 144 165
94 144 165
94 144 165
94 144 165
94 144 165
94 144 165
94 144 165
94 144 165
94 144 165
94 144 165
94 144 165
94 144 165
94 144 165
94 144 165
94 144 165
94 144 165
94 144 165
94 144 165
94 144 165
94 144 165
94 144 165
94 144 165
94 144 165
94 144 165
94 144 165
94 144 165
94 144 165
94 144 165
94 144 165
94 144 165
94 144 165
94 144 165
94 144 165
94 144 165
94 144 165
94 144 165
94 144 165
94 144 165
94 144 165
94 144 165
94 144 165
94 144 165
94 144 165
94 144 165
94 144 165
94 144 165
94 144 165
94 144 165
94 144 165
94 144 165
94 144 165
94 144 165
94 144 165
94 144 165
94 144 165
94 144 165
94 144 165
94 144 165
94 144 165
94 144 165
94 144 165
94 144 165
94 144 165
94 144 165
94 144 165
94 144 165
94 144 165
94 144 165
94 144 165
94 144 165
94 144 165
94 144 165
94 144 165
94 144 165
94 144 165
94 144 165
94 144 165
94 144 165
94 144 165
94 144 165
94 144 165
94 144 165
94 144 165
94 144 165
94 144 165
94 144 165
94 144 165
94 144 165
94 144 165
94 144 165
94 144 165
94 144 165
94 144 164
94 144 164
94 144 164
94 144 164
94 144 164
94 144 164
94 144 164
94 144 164
94 144 164
94 144 164
94 144 164
94 144 164
94 144 164
94 144 164
94 144 164
94 144 164
94 144 164
94 144 164
94 144 164
94 144 164
94 144 164
94 144 164
94 144 164
94 144 164
94 144 164
94 144 164
94 144 164
94 144 164
94 144 164
94 144 164
94 144 164
94 144 164
94 144 164
94 144 164
94 144 164
94 144 164
94 144 164
94 144 164
94 144 164
94 144 164
94 144 164
94 144 164
94 144 164
94 144 164
94 144 164
94 144 164
94 144 164
94 144 164
94 144 164
94 144 164
94 144 164
94 144 164
94 144 164
94 144 164
94 144 164
94 144 164
94 144 164
94 144 164
94 144 164
94 144 164
94 144 164
94 144 164
94 144 164
94 144 164
94 144 164
94 144 164
94 144 164
94 144 164
94 144 164
94 144 164
94 144 164
94 144 164
94 144 164
94 144 164
94 144 164
94 144 164
94 144 164
94 144 164
94 144 164
94 144 164
94 144 164
94 144 164
94 144 164
94 144 164
94 144 164
94 144 164
94 144 164
94 144 164
94 144 164
94 144 164
94 144 164
94 144 164
94 144 164
94 144 164
94 144 164
94 144 164
94 144 164
94 144 164
94 144 164
94 144 164
94 144 164
94 144 164
94 144 164
94 144 164
94 144 164
94 144 164
94 144 164
94 144 164
94 144 164
94 144 164
94 144 164
94 144 164
94 144 164
94 144 164
94 144 164
94 144 164
94 144 164
94 144 164
94 144 164
94 144 164
94 144 164
94 144 164
94 144 164
94 144 164
94 144 164
94 144 164
94 144 164
94 144 164
94 144 164
94 144 164
94 144 164
94 144 164
94 144 164
94 144 164
94 144 164
94 144 164
94 144 164
94 144 164
94 144 164
94 144 164
94 144 164
94 144 164
94 144 164
94 144 164
94 144 164
94 144 164
94 144 164
94 144 164
94 144 164
94 144 164
94 144 164
94 144 164
94 144 164
94 144 164
94 144 164
94 144 164
94 144 164
94 144 164
94 144 164
94 144 164
94 144 164
94 144 164
94 144 164
94 144 164
94 144 164
94 144 164
94 144 164
94 144 164
94 144 164
94 144 164
94 144 164
94 144 164
94 144 164
94 144 164
94 144 164
94 144 164
94 144 164
94 144 164
94 144 164
94 144 164
94 144 164
94 144 164
94 144 164
94 144 164
94 144 164
94 144 164
94 144 164
94 144 164
94 144 164
94 144 164
94 144 164
94 144 164
94 144 164
94 144 164
94 144 164
94 144 164
94 144 164
94 144 164
94 144 164
94 144 164
94 144 164
94 144 164
94 144 164
94 144 164
94 144 164
94 144 164
94 144 164
94 144 164
94 144 164
94 144 164
94 144 164
94 144 164
94 144 164
94 144 164
94 144 164
94 144 164
94 144 164
94 144 164
94 144 164
94 144 164
94 144 164
94 144 164
94 144 164
94 144 164
94 144 164
94 144 164
94 144 164
94 144 164
94 144 164
94 144 164
94 144 164
94 144 164
94 144 164
94 144 164
94 144 164
94 144 164
94 144 164
94 144 164
94 144 164
94 144 164
94 144 164
94 144 164
94 144 164
94 144 164
94 144 164
94 144 164
94 144 164
94 144 164
94 144 164
94 144 164
94 144 164
94 144 164
94 144 164
94 144 164
94 144 164
94 144 164
94 144 164
94 144 164
94 144 164
94 144 164
94 144 164
94 144 164
94 144 164
94 144 164
94 144 164
94 144 164
94 144 164
94 144 164
94 144 164
94 144 164
94 144 164
94 144 164
94 144 164
94 144 164
94 144 164
94 144 164
94 144 164
94 144 164
94 144 164
94 144 164
94 144 164
94 144 164
94 144 164
94 144 164
94 144 164
94 144 164
94 144 164
94 144 164
94 144 164
94 144 164
94 144 164
94 144 164
94 144 164
94 144 164
94 144 164
94 144 164
94 144 164
94 144 164
94 144 164
94 144 164
94 144 164
94 144 164
94 144 164
94 144 164
94 144 164
94 144 164
94 144 164
94 144 164
94 144 164
94 144 164
94 144 164
94 144 164
94 144 164
94 144 164
94 144 164
94 144 164
94 144 164
94 144 164
94 144 164
94 144 164
94 144 164
94 144 164
94 144 164
94 144 164
94 144 164
94 144 164
94 144 164
94 144 164
94 144 164
94 144 164
94 144 164
94 144 164
94 144 164
94 144 164
94 144 164
94 144 164
94 144 164
94 144 164
94 144 164
94 144 164
94 144 164
94 144 164
94 144 164
94 144 164
94 144 164
94 144 164
94 144 164
94 144 164
94 144 164
94 144 164
94 144 164
94 144 164
94 144 164
94 144 164
94 144 164
94 144 164
94 144 164
94 144 164
94 144 164
94 144 164
94 144 164
94 144 164
94 144 164
94 144 164
94 144 164
94 144 164
94 144 164
94 144 164
94 144 164
94 144 164
94 144 164
94 144 164
94 144 164
94 144 164
94 144 164
94 144 164
94 144 164
94 144 164
94 144 164
94 144 164
94 144 164
94 144 164
94 144 164
94 144 164
94 144 164
94 144 164
94 144 164
94 144 164
94 144 164
94 144 164
94 144 164
94 144 164
94 144 164
94 144 164
94 144 164
94 144 164
94 144 164
94 144 164
94 144 164
94 144 164
94 144 164
94 144 164
94 144 164
94 144 164
94 144 164
94 144 164
94 144 164
94 144 164
94 144 164
94 144 164
94 144 164
94 144 164
94 144 164
94 144 164
94 144 164
94 144 164
94 144 164
94 144 164
94 144 164
94 144 164
94 144 164
94 144 164
94 144 164
94 144 164
94 144 164
94 144 164
94 144 164
94 144 164
94 144 164
94 144 164
94 144 164
94 144 164
94 144 164
94 144 164
94 144 164
94 144 164
94 144 164
94 144 164
94 144 164
94 144 164
94 144 164
94 144 164
94 144 164
94 144 164
94 144 164
94 144 164
94 144 164
94 144 164
94 144 164
94 144 164
94 144 164
94 144 164
94 144 164
94 144 164
94 144 164
94 144 164
94 144 164
94 144 164
94 144 164
94 144 164
94 144 164
94 144 164
94 144 164
94 144 164
94 144 164
94 144 164
94 144 164
94 144 164
94 144 164
94 144 164
94 144 164
94 144 164
94 144 164
94 144 164
94 144 164
94 144 164
94 144 164
94 144 164
94 144 164
94 144 164
94 144 164
94 144 164
94 144 164
94 144 164
94 144 164
94 144 164
94 144 164
94 144 164
94 144 164
94 144 164
94 144 164
94 144 164
94 144 164
94 144 164
94 144 164
94 144 164
94 144 164
94 144 164
94 144 164
94 144 164
94 144 164
94 144 164
94 144 164
94 144 164
94 144 164
94 144 164
94 144 164
94 144 164
94 144 164
94 144 164
94 144 164
94 144 164
94 144 164
94 144 164
94 144 164
94 144 164
94 144 164
94 144 164
94 144 164
94 144 164
94 144 164
94 144 164
94 144 164
94 144 164
94 144 164
94 144 164
94 144 164
94 144 164
94 144 164
94 144 164
94 144 164
94 144 164
94 144 164
94 144 164
94 144 164
94 144 164
94 144 164
94 144 164
94 144 164
94 144 164
94 144 164
94 144 164
94 144 164
94 144 164
94 144 164
94 144 164
94 144 164
94 144 164
94 144 164
94 144 164
94 144 164
94 144 164
94 144 164
94 144 164
94 144 164
94 144 164
94 144 164
94 144 164
94 144 164
94 144 164
94 144 164
94 144 164
94 144 164
94 144 164
94 144 164
94 144 164
94 144 164
94 144 164
94 144 164
94 144 164
94 144 164
94 144 164
94 144 164
94 144 164
94 144 164
94 144 164
94 144 164
94 144 164
94 144 164
94 144 164
94 144 164
94 144 164
94 144 164
94 144 164
94 144 164
94 144 164
94 144 164
94 144 164
94 144 164
94 144 164
94 144 164
94 144 164
94 144 164
94 144 164
94 144 164
94 144 164
94 144 164
94 144 164
94 144 164
94 144 164
94 144 164
94 144 164
94 144 164
94 144 164
94 144 164
94 144 164
94 144 164
94 144 164
94 144 164
94 144 164
94 144 164
94 144 164
94 144 164
94 144 164
94 144 164
94 144 164
94 144 164
94 144 164
94 144 164
94 144 164
94 144 164
94 144 164
94 144 164
94 144 164
94 144 164
94 144 164
94 144 164
94 144 164
94 144 164
94 144 164
94 144 164
94 144 164
94 144 164
94 144 164
94 144 164
94 144 164
94 144 164
94 144 164
94 144 164
94 144 164
94 144 164
94 144 164
94 144 164
94 144 164
94 144 164
94 144 164
94 144 164
94 144 164
94 144 164
94 144 164
94 144 164
94 144 164
94 144 164
94 144 164
94 144 164
94 144 164
94 144 164
94 144 164
94 144 164
94 144 164
94 144 164
94 144 164
94 144 164
94 144 164
94 144 164
94 144 164
94 144 164
94 144 164
94 144 164
94 144 164
94 144 164
94 144 164
94 144 164
94 144 164
94 144 164
94 144 164
94 144 164
94 144 164
94 144 164
94 144 164
94 144 164
94 144 164
94 144 164
94 144 164
94 144 164
94 144 164
94 144 164
94 144 164
94 144 164
94 144 164
94 144 164
94 144 164
94 144 164
94 144 164
94 144 164
94 144 164
94 144 164
94 144 164
94 144 164
94 144 164
94 144 164
94 144 164
94 144 164
94 144 164
94 144 164
94 144 164
94 144 164
94 144 164
94 144 164
94 144 164
94 144 164
94 144 164
94 144 164
94 144 164
94 144 164
94 144 164
94 144 164
94 144 164
94 144 164
94 144 164
94 144 164
94 144 164
94 144 164
94 144 164
94 144 164
94 144 164
94 144 164
94 144 164
94 144 164
94 144 164
94 144 164
94 144 164
94 144 164
94 144 164
94 144 164
94 144 164
94 144 164
94 144 164
94 144 164
94 144 164
94 144 164
94 144 164
94 144 164
94 144 164
94 144 164
94 144 164
94 144 164
94 144 164
94 144 164
94 144 164
94 144 164
94 144 164
94 144 164
94 144 164
94 144 164
94 144 164
94 144 164
94 144 164
94 144 164
94 144 164
94 144 164
94 144 164
94 144 164
94 144 164
94 144 164
94 144 164
94 144 164
94 144 164
94 144 164
94 144 164
94 144 164
94 144 164
94 144 164
94 144 164
94 144 164
94 144 164
94 144 164
94 144 164
94 144 164
94 144 164
94 144 164
94 144 164
94 144 164
94 144 164
94 144 164
94 144 164
94 144 164
94 144 164
94 144 164
94 144 164
94 144 164
94 144 164
94 144 164
94 144 164
94 144 164
94 144 164
94 144 164
94 144 164
94 144 164
94 144 164
94 144 164
94 144 164
94 144 164
94 144 164
94 144 164
94 144 164
94 144 164
94 144 164
94 144 164
94 144 164
94 144 164
94 144 164
94 144 164
94 144 164
94 144 164
94 144 164
94 144 164
94 144 164
94 144 164
94 144 164
94 144 164
94 144 164
94 144 164
94 144 164
94 144 164
94 144 164
94 144 164
94 144 164
94 144 164
94 144 164
94 144 164
94 144 164
94 144 164
94 144 164
94 144 164
94 144 164
94 144 164
94 144 164
94 144 164
94 144 164
94 144 164
94 144 164
94 144 164
94 144 164
94 144 164
94 144 164
94 144 164
94 144 164
94 144 164
94 144 164
94 144 164
94 144 164
94 144 164
94 144 164
94 144 164
94 144 164
94 144 164
94 144 164
94 144 164
94 144 164
94 144 164
94 144 164
94 144 164
94 144 164
94 144 164
94 144 164
94 144 164
94 144 164
94 144 164
94 144 164
94 144 164
94 144 164
94 144 164
94 144 164
94 144 164
94 144 164
94 144 164
94 144 164
94 144 164
94 144 164
94 144 164
94 144 164
94 144 164
94 144 164
94 144 164
94 144 164
94 144 164
94 144 164
94 144 164
94 144 164
94 144 164
94 144 164
94 144 164
94 144 164
94 144 164
94 144 164
94 144 164
94 144 164
94 144 164
94 144 164
94 144 164
94 144 164
94 144 164
94 144 164
94 144 164
94 144 164
94 144 164
94 144 164
94 144 164
94 144 164
94 144 164
94 144 164
94 144 164
94 144 164
94 144 164
94 144 164
94 144 164
94 144 164
94 144 164
94 144 164
94 144 164
94 144 164
94 144 164
94 144 164
94 144 164
94 144 164
94 144 164
94 144 164
94 144 164
94 144 164
94 144 164
94 144 164
94 144 164
94 144 164
94 144 164
94 144 164
94 144 164
94 144 164
94 144 164
94 144 164
94 144 164
94 144 164
94 144 164
94 144 164
94 144 164
94 144 164
94 144 164
94 144 164
94 144 164
94 144 164
94 144 164
94 144 164
94 144 164
94 144 164
94 144 164
94 144 164
94 144 164
94 144 164
94 144 164
94 144 164
94 144 164
94 144 164
94 144 164
94 144 164
94 144 164
94 144 164
94 144 164
94 144 164
94 144 164
94 144 164
94 144 164
94 144 164
94 144 164
94 144 164
94 144 164
94 144 164
94 144 164
94 144 164
94 144 164
94 144 164
94 144 164
94 144 164
94 144 164
94 144 164
94 144 164
94 144 164
94 144 164
94 144 164
94 144 164
94 144 164
94 144 164
94 144 164
94 144 164
94 144 164
94 144 164
94 144 164
94 144 164
94 144 164
94 144 164
94 144 164
94 144 164
94 144 164
94 144 164
94 144 164
94 144 164
94 144 164
94 144 164
94 144 164
94 144 164
94 144 164
94 144 164
94 144 164
94 144 164
94 144 164
94 144 164
94 144 164
94 144 164
94 144 164
94 144 164
94 144 164
94 144 164
94 144 164
94 144 164
94 144 164
94 144 164
94 144 164
94 144 164
94 144 164
94 144 164
94 144 164
94 144 164
94 144 164
94 144 164
94 144 164
94 144 164
94 144 164
94 144 164
94 144 164
94 144 164
94 144 164
94 144 164
94 144 164
94 144 164
94 144 164
94 144 164
94 144 164
94 144 164
94 144 164
94 144 164
94 144 164
94 144 164
94 144 164
94 144 164
94 144 164
94 144 164
94 144 164
94 144 164
94 144 164
94 144 164
94 144 164
94 144 164
94 144 164
94 144 164
94 144 164
94 144 164
94 144 164
94 144 164
94 144 164
94 144 164
94 144 164
94 144 164
94 144 164
94 144 164
94 144 164
94 144 164
94 144 164
94 144 164
94 144 164
94 144 164
94 144 164
94 144 164
94 144 164
94 144 164
94 144 164
94 144 164
94 144 164
94 144 164
94 144 164
94 144 164
94 144 164
94 144 164
94 144 164
94 144 164
94 144 164
94 144 164
94 144 164
94 144 164
94 144 164
94 144 164
94 144 164
94 144 164
94 144 164
94 144 164
94 144 164
94 144 164
94 144 164
94 144 164
94 144 164
94 144 164
94 144 164
94 144 164
94 144 164
94 144 164
94 144 164
94 144 164
94 144 164
94 144 164
94 144 164
94 144 164
94 144 164
94 144 164
94 144 164
94 144 164
94 144 164
94 144 164
94 144 164
94 144 164
94 144 164
94 144 164
94 144 164
94 144 164
94 144 164
94 144 164
94 144 164
94 144 164
94 144 164
94 144 164
94 144 164
94 144 164
94 144 164
94 144 164
94 144 164
94 144 164
94 144 164
94 144 164
94 144 164
94 144 164
94 144 164
94 144 164
94 144 164
94 144 164
94 144 164
94 144 164
94 144 164
94 144 164
94 144 164
94 144 164
94 144 164
94 144 164
94 144 164
94 144 164
94 144 164
94 144 164
94 144 164
94 144 164
94 144 164
94 144 164
94 144 164
94 144 164
94 144 164
94 144 164
94 144 164
94 144 164
94 144 164
94 144 164
94 144 164
94 144 164
94 144 164
94 144 164
94 144 164
94 144 164
94 144 164
94 144 164
94 144 164
94 144 164
94 144 164
94 144 164
94 144 164
94 144 164
94 144 164
94 144 164
94 144 164
94 144 164
94 144 164
94 144 164
94 144 164
94 144 164
94 144 164
94 144 164
94 144 164
94 144 164
94 144 164
94 144 164
94 144 164
94 144 164
94 144 164
94 144 164
94 144 164
94 144 164
94 144 164
94 144 164
94 144 164
94 144 164
94 144 164
94 144 164
94 144 164
94 144 164
94 144 164
94 144 164
94 144 164
94 144 164
94 144 164
94 144 164
94 144 164
94 144 164
94 144 164
94 144 164
94 144 164
94 144 164
94 144 164
94 144 164
94 144 164
94 144 164
94 144 164
94 144 164
94 144 164
94 144 164
94 144 164
94 144 164
94 144 164
94 144 164
94 144 164
94 144 164
94 144 164
94 144 164
94 144 164
94 144 164
94 144 164
94 144 164
94 144 164
94 144 164
94 144 164
94 144 164
94 144 164
94 144 164
94 144 164
94 144 164
94 144 164
94 144 164
94 144 164
94 144 164
94 144 164
94 144 164
94 144 164
94 144 164
94 144 164
94 144 164
94 144 164
94 144 164
94 144 164
94 144 164
94 144 164
94 144 164
94 144 164
94 144 164
94 144 164
94 144 164
94 144 164
94 144 164
94 144 164
94 144 164
94 144 164
94 144 164
94 144 164
94 144 164
94 144 164
94 144 164
94 144 164
94 144 164
94 144 164
94 144 164
94 144 164
94 144 164
94 144 164
94 144 164
94 144 164
94 144 164
94 144 164
94 144 164
94 144 164
94 144 164
94 144 164
94 144 164
94 144 164
94 144 164
94 144 164
94 144 164
94 144 164
94 144 164
94 144 164
94 144 164
94 144 164
94 144 164
94 144 164
94 144 164
94 144 164
94 144 164
94 144 164
94 144 164
94 144 164
94 144 164
94 144 164
94 144 164
94 144 164
94 144 164
94 144 164
94 144 164
94 144 164
94 144 164
94 144 164
94 144 164
94 144 164
94 144 164
94 144 164
94 144 164
94 144 164
94 144 164
94 144 164
94 144 164
94 144 164
94 144 164
94 144 164
94 144 164
94 144 164
94 144 164
94 144 164
94 144 164
94 144 164
94 144 164
94 144 164
94 144 164
94 144 164
94 144 164
94 144 164
94 144 164
94 144 164
94 144 164
94 144 164
94 144 164
94 144 164
94 144 164
94 144 164
94 144 164
94 144 164
94 144 164
94 144 164
94 144 164
94 144 164
94 144 164
94 144 164
94 144 164
94 144 164
94 144 164
94 144 164
94 144 164
94 144 164
94 144 164
94 144 164
94 144 164
94 144 164
94 144 164
94 144 164
94 144 164
94 144 164
94 144 164
94 144 164
94 144 164
94 144 164
94 144 164
94 144 164
94 144 164
94 144 164
94 144 164
94 144 164
94 144 164
94 144 164
94 144 164
94 144 164
94 144 164
94 144 164
94 144 164
94 144 164
94 144 164
94 144 164
94 144 164
94 144 164
94 144 164
94 144 164
94 144 164
94 144 164
94 144 164
94 144 164
94 144 164
94 144 164
94 144 164
94 144 164
94 144 164
94 144 164
94 144 164
94 144 164
94 144 164
94 144 164
94 144 164
94 144 164
94 144 164
94 144 164
94 144 164
94 144 164
94 144 164
94 144 164
94 144 164
94 144 164
94 144 164
94 144 164
94 144 164
94 144 164
94 144 164
94 144 164
94 144 164
94 144 164
94 144 164
94 144 164
94 144 164
94 144 164
94 144 164
94 144 164
94 144 164
94 144 164
94 144 164
94 144 164
94 144 164
94 144 164
94 144 164
94 144 164
94 144 164
94 144 164
94 144 164
94 144 164
94 144 164
94 144 164
94 144 164
94 144 164
94 144 164
94 144 164
94 144 164
94 144 164
94 144 164
94 144 164
94 144 164
94 144 164
94 144 164
94 144 164
94 144 164
94 144 164
94 144 164
94 144 164
94 144 164
94 144 164
94 144 164
94 144 164
94 144 164
94 144 164
94 144 164
94 144 164
94 144 164
94 144 164
94 144 164
94 144 164
94 144 164
94 144 164
94 144 164
94 144 164
94 144 164
94 144 164
94 144 164
94 144 164
94 144 164
94 144 164
94 144 164
94 144 164
94 144 164
94 144 164
94 144 164
94 144 164
94 144 164
94 144 164
94 144 164
94 144 164
94 144 164
94 144 164
94 144 164
94 144 164
94 144 164
94 144 164
94 144 164
94 144 164
94 144 164
94 144 164
94 144 164
94 144 164
94 144 164
94 144 164
94 144 164
94 144 164
94 144 164
94 144 164
94 144 164
94 144 164
94 144 164
94 144 164
94 144 164
94 144 164
94 144 164
94 144 164
94 144 164
94 144 164
94 144 164
94 144 164
94 144 164
94 144 164
94 144 164
94 144 164
94 144 164
94 144 164
94 144 164
94 144 164
94 144 164
94 144 164
94 144 164
94 144 164
94 144 164
94 144 164
94 144 164
94 144 164
94 144 164
94 144 164
94 144 164
94 144 164
94 144 164
94 144 164
94 144 164
94 144 164
94 144 164
94 144 164
94 144 164
94 144 164
94 144 164
94 144 164
94 144 164
94 144 164
94 144 164
94 144 164
94 144 164
94 144 164
94 144 164
94 144 164
94 144 164
94 144 164
94 144 164
94 144 164
94 144 164
94 144 164
94 144 164
94 144 164
94 144 164
94 144 164
94 144 164
94 144 164
94 144 164
94 144 164
94 144 164
94 144 164
94 144 164
94 144 164
94 144 164
94 144 164
94 144 164
94 144 164
94 144 164
94 144 164
94 144 164
94 144 164
94 144 164
94 144 164
94 144 164
94 144 164
94 144 164
94 144 164
94 144 164
94 144 164
94 144 164
94 144 164
94 144 164
94 144 164
94 144 164
94 144 164
94 144 164
94 144 164
94 144 164
94 144 164
94 144 164
94 144 164
94 144 164
94 144 164
94 144 164
94 144 164
94 144 164
94 144 164
94 144 164
94 144 164
94 144 164
94 144 164
94 144 164
94 144 164
94 144 164
94 144 164
94 144 164
94 144 164
94 144 164
94 144 164
94 144 164
94 144 164
94 144 164
94 144 164
94 144 164
94 144 164
94 144 164
94 144 164
94 144 164
94 144 164
94 144 164
94 144 164
94 144 164
94 144 164
94 144 164
94 144 164
94 144 164
94 144 164
94 144 164
94 144 164
94 144 164
94 144 164
94 144 164
94 144 164
94 144 164
94 144 164
94 144 164
94 144 164
94 144 164
94 144 164
94 144 164
94 144 164
94 144 164
94 144 164
94 144 164
94 144 164
94 144 164
94 144 164
94 144 164
94 144 164
94 144 164
94 144 164
94 144 164
94 144 164
94 144 164
94 144 164
94 144 164
94 144 164
94 144 164
94 144 164
94 144 164
94 144 164
94 144 164
94 144 164
94 144 164
94 144 164
94 144 164
94 144 164
94 144 164
94 144 164
94 144 164
94 144 164
94 144 164
94 144 164
94 144 164
94 144 164
94 144 164
94 144 164
94 144 164
94 144 164
94 144 164
94 144 164
94 144 164
94 144 164
94 144 164
94 144 164
94 144 164
94 144 164
94 144 164
94 144 164
94 144 164
94 144 164
94 144 164
94 144 164
94 144 164
94 144 164
94 144 164
94 144 164
94 144 164
94 144 164
94 144 164
94 144 164
94 144 164
94 144 164
94 144 164
94 144 164
94 144 164
94 144 164
94 144 164
94 144 164
94 144 164
94 144 164
94 144 164
94 144 164
94 144 164
94 144 164
94 144 164
94 144 164
94 144 164
94 144 164
94 144 164
94 144 164
94 144 164
94 144 164
94 144 164
94 144 164
94 144 164
94 144 164
94 144 164
94 144 164
94 144 164
94 144 164
94 144 164
94 144 164
94 144 164
94 144 164
94 144 164
94 144 164
94 144 164
94 144 164
94 144 164
94 144 164
94 144 164
94 144 164
94 144 164
94 144 164
94 144 164
94 144 164
94 144 164
94 144 164
94 144 164
94 144 164
94 144 164
94 144 164
94 144 164
94 144 164
94 144 164
94 144 164
94 144 164
94 144 164
94 144 164
94 144 164
94 144 164
94 144 164
94 144 164
94 144 164
94 144 164
94 144 164
94 144 164
94 144 164
94 144 164
94 144 164
94 144 164
94 144 164
94 144 164
94 144 164
94 144 164
94 144 164
94 144 164
94 144 164
94 144 164
94 144 164
94 144 164
94 144 164
94 144 164
94 144 164
94 144 164
94 144 164
94 144 164
94 144 164
94 144 164
94 144 164
94 144 164
94 144 164
94 144 164
94 144 164
94 144 164
94 144 164
94 144 164
94 144 164
94 144 164
94 144 164
94 144 164
94 144 164
94 144 164
94 144 164
94 144 164
94 144 164
94 144 164
94 144 164
94 144 164
94 144 164
94 144 164
94 144 164
94 144 164
94 144 164
94 144 164
94 144 164
94 144 164
94 144 164
94 144 164
94 144 164
94 144 164
94 144 164
94 144 164
94 144 164
94 144 164
94 144 164
94 144 164
94 144 164
94 144 164
94 144 164
94 144 164
94 144 164
94 144 164
94 144 164
94 144 164
94 144 164
94 144 164
94 144 164
94 144 164
94 144 164
94 144 164
94 144 164
94 144 164
94 144 164
94 144 164
94 144 164
94 144 164
94 144 164
94 144 164
94 144 164
94 144 164
94 144 164
94 144 164
94 144 164
94 144 164
94 144 164
94 144 164
94 144 164
94 144 164
94 144 164
94 144 164
94 144 164
94 144 164
94 144 164
94 144 164
94 144 164
94 144 164
94 144 164
94 144 164
94 144 164
94 144 164
94 144 164
94 144 164
94 144 164
94 144 164
94 144 164
94 144 164
94 144 164
94 144 164
94 144 164
94 144 164
94 144 164
94 144 164
94 144 164
94 144 164
94 144 164
94 144 164
94 144 164
94 144 164
94 144 164
94 144 164
94 144 164
94 144 164
94 144 164
94 144 164
94 144 164
94 144 164
94 144 164
94 144 164
94 144 164
94 144 164
94 144 164
94 144 164
94 144 164
94 144 164
94 144 164
94 144 164
94 144 164
94 144 164
94 144 164
94 144 164
94 144 164
94 144 164
94 144 164
94 144 164
94 144 164
94 144 164
94 144 164
94 144 164
94 144 164
94 144 164
94 144 164
94 144 164
94 144 164
94 144 164
94 144 164
94 144 164
94 144 164
94 144 164
94 144 164
94 144 164
94 144 164
94 144 164
94 144 164
94 144 164
94 144 164
94 144 164
94 144 164
94 144 164
94 144 164
94 144 164
94 144 164
94 144 164
94 144 164
94 144 164
94 144 164
94 144 164
94 144 164
94 144 164
94 144 164
94 144 164
94 144 164
94 144 164
94 144 164
94 144 164
94 144 164
94 144 164
94 144 164
94 144 164
94 144 164
94 144 164
94 144 164
94 144 164
94 144 164
94 144 164
94 144 164
94 144 164
94 144 164
94 144 164
94 144 164
94 144 164
94 144 164
94 144 164
94 144 164
94 144 164
94 144 164
94 144 164
94 144 164
94 144 164
94 144 164
94 144 164
94 144 164
94 144 164
94 144 164
94 144 164
94 144 164
94 144 164
94 144 164
94 144 164
94 144 164
94 144 164
94 144 164
94 144 164
94 144 164
94 144 164
94 144 164
94 144 164
94 144 164
94 144 164
94 144 164
94 144 164
94 144 164
94 144 164
94 144 164
94 144 164
94 144 164
94 144 164
94 144 164
94 144 164
94 144 164
94 144 164
94 144 164
94 144 164
94 144 164
94 144 164
94 144 164
94 144 164
94 144 164
94 144 164
94 144 164
94 144 164
94 144 164
94 144 164
94 144 164
94 144 164
94 144 164
94 144 164
94 144 164
94 144 164
94 144 164
94 144 164
94 144 164
94 144 164
94 144 164
94 144 164
94 144 164
94 144 164
94 144 164
94 144 164
94 144 164
94 144 164
94 144 164
94 144 164
94 144 164
94 144 164
94 144 164
94 144 164
94 144 164
94 144 164
94 144 164
94 144 164
94 144 164
94 144 164
94 144 164
94 144 164
94 144 164
94 144 164
94 144 164
94 144 164
94 144 164
94 144 164
94 144 164
94 144 164
94 144 164
94 144 164
94 144 164
94 144 164
94 144 164
94 144 164
94 144 164
94 144 164
94 144 164
94 144 164
94 144 164
94 144 164
94 144 164
94 144 164
94 144 164
94 144 164
94 144 164
94 144 164
94 144 164
94 144 164
94 144 164
94 144 164
94 144 164
94 144 164
94 144 164
94 144 164
94 144 164
94 144 164
94 144 164
94 144 164
94 144 164
94 144 164
94 144 164
94 144 164
94 144 164
94 144 164
94 144 164
94 144 164
94 144 164
94 144 164
94 144 164
94 144 164
94 144 164
94 144 164
94 144 164
94 144 164
94 144 164
94 144 164
94 144 164
94 144 164
94 144 164
94 144 164
94 144 164
94 144 164
94 144 164
94 144 164
94 144 164
94 144 164
94 144 164
94 144 164
94 144 164
94 144 164
94 144 164
94 144 164
94 144 164
94 144 164
94 144 164
94 144 164
94 144 164
94 144 164
94 144 164
94 144 164
94 144 164
94 144 164
94 144 164
94 144 164
94 144 164
94 144 164
94 144 164
94 144 164
94 144 164
94 144 164
94 144 164
94 144 164
94 144 164
94 144 164
94 144 164
94 144 164
94 144 164
94 144 164
94 144 164
94 144 164
94 144 164
94 144 164
94 144 164
94 144 164
94 144 164
94 144 164
94 144 164
94 144 164
94 144 164
94 144 164
94 144 164
94 144 164
94 144 164
94 144 164
94 144 164
94 144 164
94 144 164
94 144 164
94 144 164
94 144 164
94 144 164
94 144 164
94 144 164
94 144 164
94 144 164
94 144 164
94 144 164
94 144 164
94 144 164
94 144 164
94 144 164
94 144 164
94 144 164
94 144 164
94 144 164
94 144 164
94 144 164
94 144 164
94 144 164
94 144 164
94 144 164
94 144 164
94 144 164
94 144 164
94 144 164
94 144 164
94 144 164
94 144 164
94 144 164
94 144 164
94 144 164
94 144 164
94 144 164
94 144 164
94 144 164
94 144 164
94 144 164
94 144 164
94 144 164
94 144 164
94 144 164
94 144 164
94 144 164
94 144 164
94 144 164
94 144 164
94 144 164
94 144 164
94 144 164
94 144 164
94 144 164
94 144 164
94 144 164
94 144 164
94 144 164
94 144 164
94 144 164
94 144 164
94 144 164
94 144 164
94 144 164
94 144 164
94 144 164
94 144 164
94 144 164
94 144 164
94 144 164
94 144 164
94 144 164
94 144 164
94 144 164
94 144 164
94 144 164
94 144 164
94 144 164
94 144 164
94 144 164
94 144 164
94 144 164
94 144 164
94 144 164
94 144 164
94 144 164
94 144 164
94 144 164
94 144 164
94 144 164
94 144 164
94 144 164
94 144 164
94 144 164
94 144 164
94 144 164
94 144 164
94 144 164
94 144 164
94 144 164
94 144 164
94 144 164
94 144 164
94 144 164
94 144 164
94 144 164
94 144 164
94 144 164
94 144 164
94 144 164
94 144 164
94 144 164
94 144 164
94 144 164
94 144 164
94 144 164
94 144 164
94 144 164
94 144 164
94 144 164
94 144 164
94 144 164
94 144 164
94 144 164
94 144 164
94 144 164
94 144 164
94 144 164
94 144 164
94 144 164
94 144 164
94 144 164
94 144 164
94 144 164
94 144 164
94 144 164
94 144 164
94 144 164
94 144 164
94 144 164
94 144 164
94 144 164
94 144 164
94 144 164
94 144 164
94 144 164
94 144 164
94 144 164
94 144 164
94 144 164
94 144 164
94 144 164
94 144 164
94 144 164
94 144 164
94 144 164
94 144 164
94 144 164
94 144 164
94 144 164
94 144 164
94 144 164
94 144 164
94 144 164
94 144 164
94 144 164
94 144 164
94 144 164
94 144 164
94 144 164
94 144 164
94 144 164
94 144 164
94 144 164
94 144 164
94 144 164
94 144 164
94 144 164
94 144 164
94 144 164
94 144 164
94 144 164
94 144 164
94 144 164
94 144 164
94 144 164
94 144 164
94 144 164
94 144 164
94 144 164
94 144 164
94 144 164
94 144 164
94 144 164
94 144 164
94 144 164
94 144 164
94 144 164
94 144 164
94 144 164
94 144 164
94 144 164
94 144 164
94 144 164
94 144 164
94 144 164
94 144 164
94 144 164
94 144 164
94 144 164
94 144 164
94 144 164
94 144 164
94 144 164
94 144 164
94 144 164
94 144 164
94 144 164
94 144 164
94 144 164
94 144 164
94 144 164
94 144 164
94 144 164
94 144 164
94 144 164
94 144 164
94 144 164
94 144 164
94 144 164
94 144 164
94 144 164
94 144 164
94 144 164
94 144 164
94 144 164
94 144 164
94 144 164
94 144 164
94 144 164
94 144 164
94 144 164
94 144 164
94 144 164
94 144 164
94 144 164
94 144 164
94 144 164
94 144 164
94 144 164
94 144 164
94 144 164
94 144 164
94 144 164
94 144 164
94 144 164
94 144 164
94 144 164
94 144 164
94 144 164
94 144 164
94 144 164
94 144 164
94 144 164
94 144 164
94 144 164
94 144 164
94 144 164
94 144 164
94 144 164
94 144 164
94 144 164
94 144 164
94 144 164
94 144 164
94 144 164
94 144 164
94 144 164
94 144 164
94 144 164
94 144 164
94 144 164
94 144 164
94 144 164
94 144 164
94 144 164
94 144 164
94 144 164
94 144 164
94 144 164
94 144 164
94 144 164
94 144 164
94 144 164
94 144 164
94 144 164
94 144 164
94 144 164
94 144 164
94 144 164
94 144 164
94 144 164
94 144 164
94 144 164
94 144 164
94 144 164
94 144 164
94 144 164
94 144 164
94 144 164
94 144 164
94 144 164
94 144 164
94 144 164
94 144 164
94 144 164
94 144 164
94 144 164
94 144 164
94 144 164
94 144 164
94 144 164
94 144 164
94 144 164
94 144 164
94 144 164
94 144 164
94 144 164
94 144 164
94 144 164
94 144 164
94 144 164
94 144 164
94 144 164
94 144 164
94 144 164
94 144 164
94 144 164
94 144 164
94 144 164
94 144 164
94 144 164
94 144 164
94 144 164
94 144 164
94 144 164
94 144 164
94 144 164
94 144 164
94 144 164
94 144 164
94 144 164
94 144 164
94 144 164
94 144 164
94 144 164
94 144 164
94 144 164
94 144 164
94 144 164
94 144 164
94 144 164
94 144 164
94 144 164
94 144 164
94 144 164
94 144 164
94 144 164
94 144 164
94 144 164
94 144 164
94 144 164
94 144 164
94 144 164
94 144 164
94 144 164
94 144 164
94 144 164
94 144 164
94 144 164
94 144 164
94 144 164
94 144 164
94 144 164
94 144 164
94 144 164
94 144 164
94 144 164
94 144 164
94 144 164
94 144 164
94 144 164
94 144 164
94 144 164
94 144 164
94 144 164
94 144 164
94 144 164
94 144 164
94 144 164
94 144 164
94 144 164
94 144 164
94 144 164
94 144 164
94 144 164
94 144 164
94 144 164
94 144 164
94 144 164
94 144 164
94 144 164
94 144 164
94 144 164
94 144 164
94 144 164
94 144 164
94 144 164
94 144 164
94 144 164
94 144 164
94 144 164
94 144 164
94 144 164
94 144 164
94 144 164
94 144 164
94 144 164
94 144 164
94 144 164
94 144 164
94 144 164
94 144 164
94 144 164
94 144 164
94 144 164
94 144 164
94 144 164
94 144 164
94 144 164
94 144 164
94 144 164
94 144 164
94 144 164
94 144 164
94 144 164
94 144 164
94 144 164
94 144 164
94 144 164
94 144 164
94 144 164
94 144 164
94 144 164
94 144 164
94 144 164
94 144 164
94 144 164
94 144 164
94 144 164
94 144 164
94 144 164
94 144 164
94 144 164
94 144 164
94 144 164
94 144 164
94 144 164
94 144 164
94 144 164
94 144 164
94 144 164
94 144 164
94 144 164
94 144 164
94 144 164
94 144 164
94 144 164
94 144 164
94 144 164
94 144 164
94 144 164
94 144 164
94 144 164
94 144 164
94 144 164
94 144 164
94 144 164
94 144 164
94 144 164
94 144 164
94 144 164
94 144 164
94 144 164
94 144 164
94 144 164
94 144 164
94 144 164
94 144 164
94 144 164
94 144 164
94 144 164
94 144 164
94 144 164
94 144 164
94 144 164
94 144 164
94 144 164
94 144 164
94 144 164
94 144 164
94 144 164
94 144 164
94 144 164
94 144 164
94 144 164
94 144 164
94 144 164
94 144 164
94 144 164
94 144 164
94 144 164
94 144 164
94 144 164
94 144 164
94 144 164
94 144 164
94 144 164
94 144 164
94 144 164
94 144 164
94 144 164
94 144 164
94 144 164
94 144 164
94 144 164
94 144 164
94 144 164
94 144 164
94 144 164
94 144 164
94 144 164
94 144 164
94 144 164
94 144 164
94 144 164
94 144 164
94 144 164
94 144 164
94 144 164
94 144 164
94 144 164
94 144 164
94 144 164
94 144 164
94 144 164
94 144 164
94 144 164
94 144 164
94 144 164
94 144 164
94 144 164
94 144 164
94 144 164
94 144 164
94 144 164
94 144 164
94 144 164
94 144 164
94 144 164
94 144 164
94 144 164
94 144 164
94 144 164
94 144 164
94 144 164
94 144 164
94 144 164
94 144 164
94 144 164
94 144 164
94 144 164
94 144 164
94 144 164
94 144 164
94 144 164
94 144 164
94 144 164
94 144 164
94 144 164
94 144 164
94 144 164
94 144 164
94 144 164
94 144 164
94 144 164
94 144 164
94 144 164
94 144 164
94 144 164
94 144 164
94 144 164
94 144 164
94 144 164
94 144 164
94 144 164
94 144 164
94 144 164
94 144 164
94 144 164
94 144 164
94 144 164
94 144 164
94 144 164
94 144 164
94 144 164
94 144 164
94 144 164
94 144 164
94 144 164
94 144 164
94 144 164
94 144 164
94 144 164
94 144 164
94 144 164
94 144 164
94 144 164
94 144 164
94 144 164
94 144 164
94 144 164
94 144 164
94 144 164
94 144 164
94 144 164
94 144 164
94 144 164
94 144 164
94 144 164
94 144 164
94 144 164
94 144 164
94 144 164
94 144 164
94 144 164
94 144 164
94 144 164
94 144 164
94 144 164
94 144 164
94 144 164
94 144 164
94 144 164
94 144 164
94 144 164
94 144 164
94 144 164
94 144 164
94 144 164
94 144 164
94 144 164
94 144 164
94 144 164
94 144 164
94 144 164
94 144 164
94 144 164
94 144 164
94 144 164
94 144 164
94 144 164
94 144 164
94 144 164
94 144 164
94 144 164
94 144 164
94 144 164
94 144 164
94 144 164
94 144 164
94 144 164
94 144 164
94 144 164
94 144 164
94 144 164
94 144 164
94 144 164
94 144 164
94 144 164
94 144 164
94 144 164
94 144 164
94 144 164
94 144 164
94 144 164
94 144 164
94 144 164
94 144 164
94 144 164
94 144 164
94 144 164
94 144 164
94 144 164
94 144 164
94 144 164
94 144 164
94 144 164
94 144 164
94 144 164
94 144 164
94 144 164
94 144 164
94 144 164
94 144 164
94 144 164
94 144 164
94 144 164
94 144 164
94 144 164
94 144 164
94 144 164
94 144 164
94 144 164
94 144 164
94 144 164
94 144 164
94 144 164
94 144 164
94 144 164
94 144 164
94 144 164
94 144 164
94 144 164
94 144 164
94 144 164
94 144 164
94 144 164
94 144 164
94 144 164
94 144 164
94 144 164
94 144 164
94 144 164
94 144 164
94 144 164
94 144 164
94 144 164
94 144 164
94 144 164
94 144 164
94 144 164
94 144 164
94 144 164
94 144 164
94 144 164
94 144 164
94 144 164
94 144 164
94 144 164
94 144 164
94 144 164
94 144 164
94 144 164
94 144 164
94 144 164
94 144 164
94 144 164
94 144 164
94 144 164
94 144 164
94 144 164
94 144 164
94 144 164
94 144 164
94 144 164
94 144 164
94 144 164
94 144 164
94 144 164
94 144 164
94 144 164
94 144 164
94 144 164
94 144 164
94 144 164
94 144 164
94 144 164
94 144 164
94 144 164
94 144 164
94 144 164
94 144 164
94 144 164
94 144 164
94 144 164
94 144 164
94 144 164
94 144 164
94 144 164
94 144 164
94 144 164
94 144 164
94 144 164
94 144 164
94 144 164
94 144 164
94 144 164
94 144 164
94 144 164
94 144 164
94 144 164
94 144 164
94 144 164
94 144 164
94 144 164
94 144 164
94 144 164
94 144 164
94 144 164
94 144 164
94 144 164
94 144 164
94 144 164
94 144 164
94 144 164
94 144 164
94 144 164
94 144 164
94 144 164
94 144 164
94 144 164
94 144 164
94 144 164
94 144 164
94 144 164
94 144 164
94 144 164
94 144 164
94 144 164
94 144 164
94 144 164
94 144 164
94 144 164
94 144 164
94 144 164
94 144 164
94 144 164
94 144 164
94 144 164
94 144 164
94 144 164
94 144 164
94 144 164
94 144 164
94 144 164
94 144 164
94 144 164
94 144 164
94 144 164
94 144 164
94 144 164
94 144 164
94 144 164
94 144 164
94 144 164
94 144 164
94 144 164
94 144 164
94 144 164
94 144 164
94 144 164
94 144 164
94 144 164
94 144 164
94 144 164
94 144 164
94 144 164
94 144 164
94 144 164
94 144 164
94 144 164
94 144 164
94 144 164
94 144 164
94 144 164
94 144 164
94 144 164
94 144 164
94 144 164
94 144 164
94 144 164
94 144 164
94 144 164
94 144 164
94 144 164
94 144 164
94 144 164
94 144 164
94 144 164
94 144 164
94 144 164
94 144 164
94 144 164
94 144 164
94 144 164
94 144 164
94 144 164
94 144 164
94 144 164
94 144 164
94 144 164
94 144 164
94 144 164
94 144 164
94 144 164
94 144 164
94 144 164
94 144 164
94 144 164
94 144 164
94 144 164
94 144 164
94 144 164
94 144 164
94 144 164
94 144 164
94 144 164
94 144 164
94 144 164
94 144 164
94 144 164
94 144 164
94 144 164
94 144 164
94 144 164
94 144 164
94 144 164
94 144 164
94 144 164
94 144 164
94 144 164
94 144 164
94 144 164
94 144 164
94 144 164
94 144 164
94 144 164
94 144 164
94 144 164
94 144 164
94 144 164
94 144 164
94 144 164
94 144 164
94 144 164
94 144 164
94 144 164
94 144 164
94 144 164
94 144 164
94 144 164
94 144 164
94 144 164
94 144 164
94 144 164
94 144 164
94 144 164
94 144 164
94 144 164
94 144 164
94 144 164
94 144 164
94 144 164
94 144 164
94 144 164
94 144 164
94 144 164
94 144 164
94 144 164
94 144 164
94 144 164
94 144 164
94 144 164
94 144 164
94 144 164
94 144 164
94 144 164
94 144 164
94 144 164
94 144 164
94 144 164
94 144 164
94 144 164
94 144 164
94 144 164
94 144 164
94 144 164
94 144 164
94 144 164
94 144 164
94 144 164
94 144 164
94 144 164
94 144 164
94 144 164
94 144 164
94 144 164
94 144 164
94 144 164
94 144 164
94 144 164
94 144 164
94 144 164
94 144 164
94 144 164
94 144 164
94 144 164
94 144 164
94 144 164
94 144 164
94 144 164
94 144 164
94 144 164
94 144 164
94 144 164
94 144 164
94 144 164
94 144 164
94 144 164
94 144 164
94 144 164
94 144 164
94 144 164
94 144 164
94 144 164
94 144 164
94 144 164
94 144 164
94 144 164
94 144 164
94 144 164
94 144 164
94 144 164
94 144 164
94 144 164
94 144 164
94 144 164
94 144 164
94 144 164
94 144 164
94 144 164
94 144 164
94 144 164
94 144 164
94 144 164
94 144 164
94 144 164
94 144 164
94 144 164
94 144 164
94 144 164
94 144 164
94 144 164
94 144 164
94 144 164
94 144 164
94 144 164
94 144 164
94 144 164
94 144 164
94 144 164
94 144 164
94 144 164
94 144 164
94 144 164
94 144 164
94 144 164
94 144 164
94 144 164
94 144 164
94 144 164
94 144 164
94 144 164
94 144 164
94 144 164
94 144 164
94 144 164
94 144 164
94 144 164
94 144 164
94 144 164
94 144 164
94 144 164
94 144 164
94 144 164
94 144 164
94 144 164
94 144 164
94 144 164
94 144 164
94 144 164
94 144 164
94 144 164
94 144 164
94 144 164
94 144 164
94 144 164
94 144 164
94 144 164
94 144 164
94 144 164
94 144 164
94 144 164
94 144 164
94 144 164
94 144 164
94 144 164
94 144 164
94 144 164
94 144 164
94 144 164
94 144 164
94 144 164
94 144 164
94 144 164
94 144 164
94 144 164
94 144 164
94 144 164
94 144 164
94 144 164
94 144 164
94 144 164
94 144 164
94 144 164
94 144 164
94 144 164
94 144 164
94 144 164
94 144 164
94 144 164
94 144 164
94 144 164
94 144 164
94 144 164
94 144 164
94 144 164
94 144 164
94 144 164
94 144 164
94 144 164
94 144 164
94 144 164
94 144 164
94 144 164
94 144 164
94 144 164
94 144 164
94 144 164
94 144 164
94 144 164
94 144 164
94 144 164
94 144 164
94 144 164
94 144 164
94 144 164
94 144 164
94 144 164
94 144 164
94 144 164
94 144 164
94 144 164
94 144 164
94 144 164
94 144 164
94 144 164
94 144 164
94 144 164
94 144 164
94 144 164
94 144 164
94 144 164
94 144 164
94 144 164
94 144 164
94 144 164
94 144 164
94 144 164
94 144 164
94 144 164
94 144 164
94 144 164
94 144 164
94 144 164
94 144 164
94 144 164
94 144 164
94 144 164
94 144 164
94 144 164
94 144 164
94 144 164
94 144 164
94 144 164
94 144 164
94 144 164
94 144 164
94 144 164
94 144 164
94 144 164
94 144 164
94 144 164
94 144 164
94 144 164
94 144 164
94 144 164
94 144 164
94 144 164
94 144 164
94 144 164
94 144 164
94 144 164
94 144 164
94 144 164
94 144 164
94 144 164
94 144 164
94 144 164
94 144 164
94 144 164
94 144 164
94 144 164
94 144 164
94 144 164
94 144 164
94 144 164
94 144 164
94 144 164
94 144 164
94 144 164
94 144 164
94 144 164
94 144 164
94 144 164
94 144 164
94 144 164
94 144 164
94 144 164
94 144 164
94 144 164
94 144 164
94 144 164
94 144 164
94 144 164
94 144 164
94 144 164
94 144 164
94 144 164
94 144 164
94 144 164
94 144 164
94 144 164
94 144 164
94 144 164
94 144 164
94 144 164
94 144 164
94 144 164
94 144 164
94 144 164
94 144 164
94 144 164
94 144 164
94 144 164
94 144 164
94 144 164
94 144 164
94 144 164
94 144 164
94 144 164
94 144 164
94 144 164
94 144 164
94 144 164
94 144 164
94 144 164
94 144 164
94 144 164
94 144 164
94 144 164
94 144 164
94 144 164
94 144 164
94 144 164
94 144 164
94 144 164
94 144 164
94 144 164
94 144 164
94 144 164
94 144 164
94 144 164
94 144 164
94 144 164
94 144 164
94 144 164
94 144 164
94 144 164
94 144 164
94 144 164
94 144 164
94 144 164
94 144 164
94 144 164
94 144 164
94 144 164
94 144 164
94 144 164
94 144 164
94 144 164
94 144 164
94 144 164
94 144 164
94 144 164
94 144 164
94 144 164
94 144 164
94 144 164
94 144 164
94 144 164
94 144 164
94 144 164
94 144 164
94 144 164
94 144 164
94 144 164
94 144 164
94 144 164
94 144 164
94 144 164
94 144 164
94 144 164
94 144 164
94 144 164
94 144 164
94 144 164
94 144 164
94 144 164
94 144 164
94 144 164
94 144 164
94 144 164
94 144 164
94 144 164
94 144 164
94 144 164
94 144 164
94 144 164
94 144 164
94 144 164
94 144 164
94 144 164
94 144 164
94 144 164
94 144 164
94 144 164
94 144 164
94 144 164
94 144 164
94 144 164
94 144 164
94 144 164
94 144 164
94 144 164
94 144 164
94 144 164
94 144 164
94 144 164
94 144 164
94 144 164
94 144 164
94 144 164
94 144 164
94 144 164
94 144 164
94 144 164
94 144 164
94 144 164
94 144 164
94 144 164
94 144 164
94 144 164
94 144 164
94 144 164
94 144 164
94 144 164
94 144 164
94 144 164
94 144 164
94 144 164
94 144 164
94 144 164
94 144 164
94 144 164
94 144 164
94 144 164
94 144 164
94 144 164
94 144 164
94 144 164
94 144 164
94 144 164
94 144 164
94 144 164
94 144 164
94 144 164
94 144 164
94 144 164
94 144 164
94 144 164
94 144 164
94 144 164
94 144 164
94 144 164
94 144 164
94 144 164
94 144 164
94 144 164
94 144 164
94 144 164
94 144 164
94 144 164
94 144 164
94 144 164
94 144 164
94 144 164
94 144 164
94 144 164
94 144 164
94 144 164
94 144 164
94 144 164
94 144 164
94 144 164
94 144 164
94 144 164
94 144 164
94 144 164
94 144 164
94 144 164
94 144 164
94 144 164
94 144 164
94 144 164
94 144 164
94 144 164
94 144 164
94 144 164
94 144 164
94 144 164
94 144 164
94 144 164
94 144 164
94 144 164
94 144 164
94 144 164
94 144 164
94 144 164
94 144 164
94 144 164
94 144 164
94 144 164
94 144 164
94 144 164
94 144 164
94 144 164
94 144 164
94 144 164
94 144 164
94 144 164
94 144 164
94 144 164
94 144 164
94 144 164
94 144 164
94 144 164
94 144 164
94 144 164
94 144 164
94 144 164
94 144 164
94 144 164
94 144 164
94 144 164
94 144 164
94 144 164
94 144 164
94 144 164
94 144 164
94 144 164
94 144 164
94 144 164
94 144 164
94 144 164
94 144 164
94 144 164
94 144 164
94 144 164
94 144 164
94 144 164
94 144 164
94 144 164
94 144 164
94 144 164
94 144 164
94 144 164
94 144 164
94 144 164
94 144 164
94 144 164
94 144 164
94 144 164
94 144 164
94 144 164
94 144 164
94 144 164
94 144 164
94 144 164
94 144 164
94 144 164
94 144 164
94 144 164
94 144 164
94 144 164
94 144 164
94 144 164
94 144 164
94 144 164
94 144 164
94 144 164
94 144 164
94 144 164
94 144 164
94 144 164
94 144 164
94 144 164
94 144 164
94 144 164
94 144 164
94 144 164
94 144 164
94 144 164
94 144 164
94 144 164
94 144 164
94 144 164
94 144 164
94 144 164
94 144 164
94 144 164
94 144 164
94 144 164
94 144 164
94 144 164
94 144 164
94 144 164
94 144 164
94 144 164
94 144 164
94 144 164
94 144 164
94 144 164
94 144 164
94 144 164
94 144 164
94 144 164
94 144 164
94 144 164
94 144 164
94 144 164
94 144 164
94 144 164
94 144 164
94 144 164
94 144 164
94 144 164
94 144 164
94 144 164
94 144 164
94 144 164
94 144 164
94 144 164
94 144 164
94 144 164
94 144 164
94 144 164
94 144 164
94 144 164
94 144 164
94 144 164
94 144 164
94 144 164
94 144 164
94 144 164
94 144 164
94 144 164
94 144 164
94 144 164
94 144 164
94 144 164
94 144 164
94 144 164
94 144 164
94 144 164
94 144 164
94 144 164
94 144 164
94 144 164
94 144 164
94 144 164
94 144 164
94 144 164
94 144 164
94 144 164
94 144 164
94 144 164
94 144 164
94 144 164
94 144 164
94 144 164
94 144 164
94 144 164
94 144 164
94 144 164
94 144 164
94 144 164
94 144 164
94 144 164
94 144 164
94 144 164
94 144 164
94 144 164
94 144 164
94 144 164
94 144 164
94 144 164
94 144 164
94 144 164
94 144 164
94 144 164
94 144 164
94 144 164
94 144 164
94 144 164
94 144 164
94 144 164
94 144 164
94 144 164
94 144 164
94 144 164
94 144 164
94 144 164
94 144 164
94 144 164
94 144 164
94 144 164
94 144 164
94 144 164
94 144 164
94 144 164
94 144 164
94 144 164
94 144 164
94 144 164
94 144 164
94 144 164
94 144 164
94 144 164
94 144 164
94 144 164
94 144 164
94 144 164
94 144 164
94 144 164
94 144 164
94 144 164
94 144 164
94 144 164
94 144 164
94 144 164
94 144 164
94 144 164
94 144 164
94 144 164
94 144 164
94 144 164
94 144 164
94 144 164
94 144 164
94 144 164
94 144 164
94 144 164
94 144 164
94 144 164
94 144 164
94 144 164
94 144 164
94 144 164
94 144 164
94 144 164
94 144 164
94 144 164
94 144 164
94 144 164
94 144 164
94 144 164
94 144 164
94 144 164
94 144 164
94 144 164
94 144 164
94 144 164
94 144 164
94 144 164
94 144 164
94 144 164
94 144 164
94 144 164
94 144 164
94 144 164
94 144 164
94 144 164
94 144 164
94 144 164
94 144 164
94 144 164
94 144 164
94 144 164
94 144 164
94 144 164
94 144 164
94 144 164
94 144 164
94 144 164
94 144 164
94 144 164
94 144 164
94 144 164
94 144 164
94 144 164
94 144 164
94 144 164
94 144 164
94 144 164
94 144 164
94 144 164
94 144 164
94 144 164
94 144 164
94 144 164
94 144 164
94 144 164
94 144 164
94 144 164
94 144 164
94 144 164
94 144 164
94 144 164
94 144 164
94 144 164
94 144 164
94 144 164
94 144 164
94 144 164
94 144 164
94 144 164
94 144 164
94 144 164
94 144 164
94 144 164
94 144 164
94 144 164
94 144 164
94 144 164
94 144 164
94 144 164
94 144 164
94 144 164
94 144 164
94 144 164
94 144 164
94 144 164
94 144 164
94 144 164
94 144 164
94 144 164
94 144 164
94 144 164
94 144 164
94 144 164
94 144 164
94 144 164
94 144 164
94 144 164
94 144 164
94 144 164
94 144 164
94 144 164
94 144 164
94 144 164
94 144 164
94 144 164
94 144 164
94 144 164
94 144 164
94 144 164
94 144 164
94 144 164
94 144 164
94 144 164
94 144 164
94 144 164
94 144 164
94 144 164
94 144 164
94 144 164
94 144 164
94 144 164
94 144 164
94 144 164
94 144 164
94 144 164
94 144 164
94 144 164
94 144 164
94 144 164
94 144 164
94 144 164
94 144 164
94 144 164
94 144 164
94 144 164
94 144 164
94 144 164
94 144 164
94 144 164
94 144 164
94 144 164
94 144 164
94 144 164
94 144 164
94 144 164
94 144 164
94 144 164
94 144 164
94 144 164
94 144 164
94 144 164
94 144 164
94 144 164
94 144 164
94 144 164
94 144 164
94 144 164
94 144 164
94 144 164
94 144 164
94 144 164
94 144 164
94 144 164
94 144 164
94 144 164
94 144 164
94 144 164
94 144 164
94 144 164
94 144 164
94 144 164
94 144 164
94 144 164
94 144 164
94 144 164
94 144 164
94 144 164
94 144 164
94 144 164
94 144 164
94 144 164
94 144 164
94 144 164
94 144 164
94 144 164
94 144 164
94 144 164
94 144 164
94 144 164
94 144 164
94 144 164
94 144 164
94 144 164
94 144 164
94 144 164
94 144 164
94 144 164
94 144 164
94 144 164
94 144 164
94 144 164
94 144 164
94 144 164
94 144 164
94 144 164
94 144 164
94 144 164
94 144 164
94 144 164
94 144 164
94 144 164
94 144 164
94 144 164
94 144 164
94 144 164
94 144 164
94 144 164
94 144 164
94 144 164
94 144 164
94 144 164
94 144 164
94 144 164
94 144 164
94 144 164
94 144 164
94 144 164
94 144 164
94 144 164
94 144 164
94 144 164
94 144 164
94 144 164
94 144 164
94 144 164
94 144 164
94 144 164
94 144 164
94 144 164
94 144 164
94 144 164
94 144 164
94 144 164
94 144 164
94 144 164
94 144 164
94 144 164
94 144 164
94 144 164
94 144 164
94 144 164
94 144 164
94 144 164
94 144 164
94 144 164
94 144 164
94 144 164
94 144 164
94 144 164
94 144 164
94 144 164
94 144 164
94 144 164
94 144 164
94 144 164
94 144 164
94 144 164
94 144 164
94 144 164
94 144 164
94 144 164
94 144 164
94 144 164
94 144 164
94 144 164
94 144 164
94 144 164
94 144 164
94 144 164
94 144 164
94 144 164
94 144 164
94 144 164
94 144 164
94 144 164
94 144 164
94 144 164
94 144 164
94 144 164
94 144 164
94 144 164
94 144 164
94 144 164
94 144 164
94 144 164
94 144 164
94 144 164
94 144 164
94 144 164
94 144 164
94 144 164
94 144 164
94 144 164
94 144 164
94 144 164
94 144 164
94 144 164
94 144 164
94 144 164
94 144 164
94 144 164
94 144 164
94 144 164
94 144 164
94 144 164
94 144 164
94 144 164
94 144 164
94 144 164
94 144 164
94 144 164
94 144 164
94 144 164
94 144 164
94 144 164
94 144 164
94 144 164
94 144 164
94 144 164
94 144 164
94 144 164
94 144 164
94 144 164
94 144 164
94 144 164
94 144 164
94 144 164
94 144 164
94 144 164
94 144 164
94 144 164
94 144 164
94 144 164
94 144 164
94 144 164
94 144 164
94 144 164
94 144 164
94 144 164
94 144 164
94 144 164
94 144 164
94 144 164
94 144 164
94 144 164
94 144 164
94 144 164
94 144 164
94 144 164
94 144 164
94 144 164
94 144 164
94 144 164
94 144 164
94 144 164
94 144 164
94 144 164
94 144 164
94 144 164
94 144 164
94 144 164
94 144 164
94 144 164
94 144 164
94 144 164
94 144 164
94 144 164
94 144 164
94 144 164
94 144 164
94 144 164
94 144 164
94 144 164
94 144 164
94 144 164
94 144 164
94 144 164
94 144 164
94 144 164
94 144 164
94 144 164
94 144 164
94 144 164
94 144 164
94 144 164
94 144 164
94 144 164
94 144 164
94 144 164
94 144 164
94 144 164
94 144 164
94 144 164
94 144 164
94 144 164
94 144 164
94 144 164
94 144 164
94 144 164
94 144 164
94 144 164
94 144 164
94 144 164
94 144 164
94 144 164
94 144 164
94 144 164
94 144 164
94 144 164
94 144 164
94 144 164
94 144 164
94 144 164
94 144 164
94 144 164
94 144 164
94 144 164
94 144 164
94 144 164
94 144 164
94 144 164
94 144 164
94 144 164
94 144 164
94 144 164
94 144 164
94 144 164
94 144 164
94 144 164
94 144 164
94 144 164
94 144 164
94 144 164
94 144 164
94 144 164
94 144 164
94 144 164
94 144 164
94 144 164
94 144 164
94 144 164
94 144 164
94 144 164
94 144 164
94 144 164
94 144 164
94 144 164
94 144 164
94 144 164
94 144 164
94 144 164
94 144 164
94 144 164
94 144 164
94 144 164
94 144 164
94 144 164
94 144 164
94 144 164
94 144 164
94 144 164
94 144 164
94 144 164
94 144 164
94 144 164
94 144 164
94 144 164
94 144 164
94 144 164
94 144 164
94 144 164
94 144 164
94 144 164
94 144 164
94 144 164
94 144 164
94 144 164
94 144 164
94 144 164
94 144 164
94 144 164
94 144 164
94 144 164
94 144 164
94 144 164
94 144 164
94 144 164
94 144 164
94 144 164
94 144 164
94 144 164
94 144 164
94 144 164
94 144 164
94 144 164
94 144 164
94 144 164
94 144 164
94 144 164
94 144 164
94 144 164
94 144 164
94 144 164
94 144 164
94 144 164
94 144 164
94 144 164
94 144 164
94 144 164
94 144 164
94 144 164
94 144 164
94 144 164
94 144 164
94 144 164
94 144 164
94 144 164
94 144 164
94 144 164
94 144 164
94 144 164
94 144 164
94 144 164
94 144 164
94 144 164
94 144 164
94 144 164
94 144 164
94 144 164
94 144 164
94 144 164
94 144 164
94 144 164
94 144 164
94 144 164
94 144 164
94 144 164
94 144 164
94 144 164
94 144 164
94 144 164
94 144 164
94 144 164
94 144 164
94 144 164
94 144 164
94 144 164
94 144 164
94 144 164
94 144 164
94 144 164
94 144 164
94 144 164
94 144 164
94 144 164
94 144 164
94 144 164
94 144 164
94 144 164
94 144 164
94 144 164
94 144 164
94 144 164
94 144 164
94 144 164
94 144 164
94 144 164
94 144 164
94 144 164
94 144 164
94 144 164
94 144 164
94 144 164
94 144 164
94 144 164
94 144 164
94 144 164
94 144 164
94 144 164
94 144 164
94 144 164
94 144 164
94 144 164
94 144 164
94 144 164
94 144 164
94 144 164
94 144 164
94 144 164
94 144 164
94 144 164
94 144 164
94 144 164
94 144 164
94 144 164
94 144 164
94 144 164
94 144 164
94 144 164
94 144 164
94 144 164
94 144 164
94 144 164
94 144 164
94 144 164
94 144 164
94 144 164
94 144 164
94 144 164
94 144 164
94 144 164
94 144 164
94 144 164
94 144 164
94 144 164
94 144 164
94 144 164
94 144 164
94 144 164
94 144 164
94 144 164
94 144 164
94 144 164
94 144 164
94 144 164
94 144 164
94 144 164
94 144 164
94 144 164
94 144 164
94 144 164
94 144 164
94 144 164
94 144 164
94 144 164
94 144 164
94 144 164
94 144 164
94 144 164
94 144 164
94 144 164
94 144 164
94 144 164
94 144 164
94 144 164
94 144 164
94 144 164
94 144 164
94 144 164
94 144 164
94 144 164
94 144 164
94 144 164
94 144 164
94 144 164
94 144 164
94 144 164
94 144 164
94 144 164
94 144 164
94 144 164
94 144 164
94 144 164
94 144 164
94 144 164
94 144 164
94 144 164
94 144 164
94 144 164
94 144 164
94 144 164
94 144 164
94 144 164
94 144 164
94 144 164
94 144 164
94 144 164
94 144 164
94 144 164
94 144 164
94 144 164
94 144 164
94 144 164
94 144 164
94 144 164
94 144 164
94 144 164
94 144 164
94 144 164
94 144 164
94 144 164
94 144 164
94 144 164
94 144 164
94 144 164
94 144 164
94 144 164
94 144 164
94 144 164
94 144 164
94 144 164
94 144 164
94 144 164
94 144 164
94 144 164
94 144 164
94 144 164
94 144 164
94 144 164
94 144 164
94 144 164
94 144 164
94 144 164
94 144 164
94 144 164
94 144 164
94 144 164
94 144 164
94 144 164
94 144 164
94 144 164
94 144 164
94 144 164
94 144 164
94 144 164
94 144 164
94 144 164
94 144 164
94 144 164
94 144 164
94 144 164
94 144 164
94 144 164
94 144 164
94 144 164
94 144 164
94 144 164
94 144 164
94 144 164
94 144 164
94 144 164
94 144 164
94 144 164
94 144 164
94 144 164
94 144 164
94 144 164
94 144 164
94 144 164
94 144 164
94 144 164
94 144 164
94 144 164
94 144 164
94 144 164
94 144 164
94 144 164
94 144 164
94 144 164
94 144 164
94 144 164
94 144 164
94 144 164
94 144 164
94 144 164
94 144 164
94 144 164
94 144 164
94 144 164
94 144 164
94 144 164
94 144 164
94 144 164
94 144 164
94 144 164
94 144 164
94 144 164
94 144 164
94 144 164
94 144 164
94 144 164
94 144 164
94 144 164
94 144 164
94 144 164
94 144 164
94 144 164
94 144 164
94 144 164
94 144 164
94 144 164
94 144 164
94 144 164
94 144 164
94 144 164
94 144 164
94 144 164
94 144 164
94 144 164
94 144 164
94 144 164
94 144 164
94 144 164
94 144 164
94 144 164
94 144 164
94 144 164
94 144 164
94 144 164
94 144 164
94 144 164
94 144 164
94 144 164
94 144 164
94 144 164
94 144 164
94 144 164
94 144 164
94 144 164
94 144 164
94 144 164
94 144 164
94 144 164
94 144 164
94 144 164
94 144 164
94 144 164
94 144 164
94 144 164
94 144 164
94 144 164
94 144 164
94 144 164
94 144 164
94 144 164
94 144 164
94 144 164
94 144 164
94 144 164
94 144 164
94 144 164
94 144 164
94 144 164
94 144 164
94 144 164
94 144 164
94 144 164
94 144 164
94 144 164
94 144 164
94 144 164
94 144 164
94 144 164
94 144 164
94 144 164
94 144 164
94 144 164
94 144 164
94 144 164
94 144 164
94 144 164
94 144 164
94 144 164
94 144 164
94 144 164
94 144 164
94 144 164
94 144 164
94 144 164
94 144 164
94 144 164
94 144 164
94 144 164
94 144 164
94 144 164
94 144 164
94 144 164
94 144 164
94 144 164
94 144 164
94 144 164
94 144 164
94 144 164
94 144 164
94 144 164
94 144 164
94 144 164
94 144 164
94 144 164
94 144 164
94 144 164
94 144 164
94 144 164
94 144 164
94 144 164
94 144 164
94 144 164
94 144 164
94 144 164
94 144 164
94 144 164
94 144 164
94 144 164
94 144 164
94 144 164
94 144 164
94 144 164
94 144 164
94 144 164
94 144 164
94 144 164
94 144 164
94 144 164
94 144 164
94 144 164
94 144 164
94 144 164
94 144 164
94 144 164
94 144 164
94 144 164
94 144 164
94 144 164
94 144 164
94 144 164
94 144 164
94 144 164
94 144 164
94 144 164
94 144 164
94 144 164
94 144 164
94 144 164
94 144 164
94 144 164
94 144 164
94 144 164
94 144 164
94 144 164
94 144 164
94 144 164
94 144 164
94 144 164
94 144 164
94 144 164
94 144 164
94 144 164
94 144 164
94 144 164
94 144 164
94 144 164
94 144 164
94 144 164
94 144 164
94 144 164
94 144 164
94 144 164
94 144 164
94 144 164
94 144 164
94 144 164
94 144 164
94 144 164
94 144 164
94 144 164
94 144 164
94 144 164
94 144 164
94 144 164
94 144 164
94 144 164
94 144 164
94 144 164
94 144 164
94 144 164
94 144 164
94 144 164
94 144 164
94 144 164
94 144 164
94 144 164
94 144 164
94 144 164
94 144 164
94 144 164
94 144 164
94 144 164
94 144 164
94 144 164
94 144 164
94 144 164
94 144 164
94 144 164
94 144 164
94 144 164
94 144 164
94 144 164
94 144 164
94 144 164
94 144 164
94 144 164
94 144 164
94 144 164
94 144 164
94 144 164
94 144 164
94 144 164
94 144 164
94 144 164
94 144 164
94 144 164
94 144 164
94 144 164
94 144 164
94 144 164
94 144 164
94 144 164
94 144 164
94 144 164
94 144 164
94 144 164
94 144 164
94 144 164
94 144 164
94 144 164
94 144 164
94 144 164
94 144 164
94 144 164
94 144 164
94 144 164
94 144 164
94 144 164
94 144 164
94 144 164
94 144 164
94 144 164
94 144 164
94 144 164
94 144 164
94 144 164
94 144 164
94 144 164
94 144 164
94 144 164
94 144 164
94 144 164
94 144 164
94 144 164
94 144 164
94 144 164
94 144 164
94 144 164
94 144 164
94 144 164
94 144 164
94 144 164
94 144 164
94 144 164
94 144 164
94 144 164
94 144 164
94 144 164
94 144 164
94 144 164
94 144 164
94 144 164
94 144 164
94 144 164
94 144 164
94 144 164
94 144 164
94 144 164
94 144 164
94 144 164
94 144 164
94 144 164
94 144 164
94 144 164
94 144 164
94 144 164
94 144 164
94 144 164
94 144 164
94 144 164
94 144 164
94 144 164
94 144 164
94 144 164
94 144 164
94 144 164
94 144 164
94 144 164
94 144 164
94 144 164
94 144 164
94 144 164
94 144 164
94 144 164
94 144 164
94 144 164
94 144 164
94 144 164
94 144 164
94 144 164
94 144 164
94 144 164
94 144 164
94 144 164
94 144 164
94 144 164
94 144 164
94 144 164
94 144 164
94 144 164
94 144 164
94 144 164
94 144 164
94 144 164
94 144 164
94 144 164
94 144 164
94 144 164
94 144 164
94 144 164
94 144 164
94 144 164
94 144 164
94 144 164
94 144 164
94 144 164
94 144 164
94 144 164
94 144 164
94 144 164
94 144 164
94 144 164
94 144 164
94 144 164
94 144 164
94 144 164
94 144 164
94 144 164
94 144 164
94 144 164
94 144 164
94 144 164
94 144 164
94 144 164
94 144 164
94 144 164
94 144 164
94 144 164
94 144 164
94 144 164
94 144 164
94 144 164
94 144 164
94 144 164
94 144 164
94 144 164
94 144 164
94 144 164
94 144 164
94 144 164
94 144 164
94 144 164
94 144 164
94 144 164
94 144 164
94 144 164
94 144 164
94 144 164
94 144 164
94 144 164
94 144 164
94 144 164
94 144 164
94 144 164
94 144 164
94 144 164
94 144 164
94 144 164
94 144 164
94 144 164
94 144 164
94 144 164
94 144 164
94 144 164
94 144 164
94 144 164
94 144 164
94 144 164
94 144 164
94 144 164
94 144 164
94 144 164
94 144 164
94 144 164
94 144 164
94 144 164
94 144 164
94 144 164
94 144 164
94 144 164
94 144 164
94 144 164
94 144 164
94 144 164
94 144 164
94 144 164
94 144 164
94 144 164
94 144 164
94 144 164
94 144 164
94 144 164
94 144 164
94 144 164
94 144 164
94 144 164
94 144 164
94 144 164
94 144 164
94 144 164
94 144 164
94 144 164
94 144 164
94 144 164
94 144 164
94 144 164
94 144 164
94 144 164
94 144 164
94 144 164
94 144 164
94 144 164
94 144 164
94 144 164
94 144 164
94 144 164
94 144 164
94 144 164
94 144 164
94 144 164
94 144 164
94 144 164
94 144 164
94 144 164
94 144 164
94 144 164
94 144 164
94 144 164
94 144 164
94 144 164
94 144 164
94 144 164
94 144 164
94 144 164
94 144 164
94 144 164
94 144 164
94 144 164
94 144 164
94 144 164
94 144 164
94 144 164
94 144 164
94 144 164
94 144 164
94 144 164
94 144 164
94 144 164
94 144 164
94 144 164
94 144 164
94 144 164
94 144 164
94 144 164
94 144 164
94 144 164
94 144 164
94 144 164
94 144 164
94 144 164
94 144 164
94 144 164
94 144 164
94 144 164
94 144 164
94 144 164
94 144 164
94 144 164
94 144 164
94 144 164
94 144 164
94 144 164
94 144 164
94 144 164
94 144 164
94 144 164
94 144 164
94 144 164
94 144 164
94 144 164
94 144 164
94 144 164
94 144 164
94 144 164
94 144 164
94 144 164
94 144 164
94 144 164
94 144 164
94 144 164
94 144 164
94 144 164
94 144 164
94 144 164
94 144 164
94 144 164
94 144 164
94 144 164
94 144 164
94 144 164
94 144 164
94 144 164
94 144 164
94 144 164
94 144 164
94 144 164
94 144 164
94 144 164
94 144 164
94 144 164
94 144 164
94 144 164
94 144 164
94 144 164
94 144 164
94 144 164
94 144 164
94 144 164
94 144 164
94 144 164
94 144 164
94 144 164
94 144 164
94 144 164
94 144 164
94 144 164
94 144 164
94 144 164
94 144 164
94 144 164
94 144 164
94 144 164
94 144 164
94 144 164
94 144 164
94 144 164
94 144 164
94 144 164
94 144 164
94 144 164
94 144 164
94 144 164
94 144 164
94 144 164
94 144 164
94 144 164
94 144 164
94 144 164
94 144 164
94 144 164
94 144 164
94 144 164
94 144 164
94 144 164
94 144 164
94 144 164
94 144 164
94 144 164
94 144 164
94 144 164
94 144 164
94 144 164
94 144 164
94 144 164
94 144 164
94 144 164
94 144 164
94 144 164
94 144 164
94 144 164
94 144 164
94 144 164
94 144 164
94 144 164
94 144 164
94 144 164
94 144 164
94 144 164
94 144 164
94 144 164
94 144 164
94 144 164
94 144 164
94 144 164
94 144 164
94 144 164
94 144 164
94 144 164
94 144 164
94 144 164
94 144 164
94 144 164
94 144 164
94 144 164
94 144 164
94 144 164
94 144 164
94 144 164
94 144 164
94 144 164
94 144 164
94 144 164
94 144 164
94 144 164
94 144 164
94 144 164
94 144 164
94 144 164
94 144 164
94 144 164
94 144 164
94 144 164
94 144 164
94 144 164
94 144 164
94 144 164
94 144 164
94 144 164
94 144 164
94 144 164
94 144 164
94 144 164
94 144 164
94 144 164
94 144 164
94 144 164
94 144 164
94 144 164
94 144 164
94 144 164
94 144 164
94 144 164
94 144 164
94 144 164
94 144 164
94 144 164
94 144 164
94 144 164
94 144 164
94 144 164
94 144 164
94 144 164
94 144 164
94 144 164
94 144 164
94 144 164
94 144 164
94 144 164
94 144 164
94 144 164
94 144 164
94 144 164
94 144 164
94 144 164
94 144 164
94 144 164
94 144 164
94 144 164
94 144 164
94 144 164
94 144 164
94 144 164
94 144 164
94 144 164
94 144 164
94 144 164
94 144 164
94 144 164
94 144 164
94 144 164
94 144 164
94 144 164
94 144 164
94 144 164
94 144 164
94 144 164
94 144 164
94 144 164
94 144 164
94 144 164
94 144 164
94 144 164
94 144 164
94 144 164
94 144 164
94 144 164
94 144 164
94 144 164
94 144 164
94 144 164
94 144 164
94 144 164
94 144 164
94 144 164
94 144 164
94 144 164
94 144 164
94 144 164
94 144 164
94 144 164
94 144 164
94 144 164
94 144 164
94 144 164
94 144 164
94 144 164
94 144 164
94 144 164
94 144 164
94 144 164
94 144 164
94 144 164
94 144 164
94 144 164
94 144 164
94 144 164
94 144 164
94 144 164
94 144 164
94 144 164
94 144 164
94 144 164
94 144 164
94 144 164
94 144 164
94 144 164
94 144 164
94 144 164
94 144 164
94 144 164
94 144 164
94 144 164
94 144 164
94 144 164
94 144 164
94 144 164
94 144 164
94 144 164
94 144 164
94 144 164
94 144 164
94 144 164
94 144 164
94 144 164
94 144 164
94 144 164
94 144 164
94 144 164
94 144 164
94 144 164
94 144 164
94 144 164
94 144 164
94 144 164
94 144 164
94 144 164
94 144 164
94 144 164
94 144 164
94 144 164
94 144 164
94 144 164
94 144 164
94 144 164
94 144 164
94 144 164
94 144 164
94 144 164
94 144 164
94 144 164
94 144 164
94 144 164
94 144 164
94 144 164
94 144 164
94 144 164
94 144 164
94 144 164
94 144 164
94 144 164
94 144 164
94 144 164
94 144 164
94 144 164
94 144 164
94 144 164
94 144 164
94 144 164
94 144 164
94 144 164
94 144 164
94 144 164
94 144 164
94 144 164
94 144 164
94 144 164
94 144 164
94 144 164
94 144 164
94 144 164
94 144 164
94 144 164
94 144 164
94 144 164
94 144 164
94 144 164
94 144 164
94 144 164
94 144 164
94 144 164
94 144 164
94 144 164
94 144 164
94 144 164
94 144 164
94 144 164
94 144 164
94 144 164
94 144 164
94 144 164
94 144 164
94 144 164
94 144 164
94 144 164
94 144 164
94 144 164
94 144 164
94 144 164
94 144 164
94 144 164
94 144 164
94 144 164
94 144 164
94 144 164
94 144 164
94 144 164
94 144 164
94 144 164
94 144 164
94 144 164
94 144 164
94 144 164
94 144 164
94 144 164
94 144 164
94 144 164
94 144 164
94 144 164
94 144 164
94 144 164
94 144 164
94 144 164
94 144 164
94 144 164
94 144 164
94 144 164
94 144 164
94 144 164
94 144 164
94 144 164
94 144 164
94 144 164
94 144 164
94 144 164
94 144 164
94 144 164
94 144 164
94 144 164
94 144 164
94 144 164
94 144 164
94 144 164
94 144 164
94 144 164
94 144 164
94 144 164
94 144 164
94 144 164
94 144 164
94 144 164
94 144 164
94 144 164
94 144 164
94 144 164
94 144 164
94 144 164
94 144 164
94 144 164
94 144 164
94 144 164
94 144 164
94 144 164
94 144 164
94 144 164
94 144 164
94 144 164
94 144 164
94 144 164
94 144 164
94 144 164
94 144 164
94 144 164
94 144 164
94 144 164
94 144 164
94 144 164
94 144 164
94 144 164
94 144 164
94 144 164
94 144 164
94 144 164
94 144 164
94 144 164
94 144 164
94 144 164
94 144 164
94 144 164
94 144 164
94 144 164
94 144 164
94 144 164
94 144 164
94 144 164
94 144 164
94 144 164
94 144 164
94 144 164
94 144 164
94 144 164
94 144 164
94 144 164
94 144 164
94 144 164
94 144 164
94 144 164
94 144 164
94 144 164
94 144 164
94 144 164
94 144 164
94 144 164
94 144 164
94 144 164
94 144 164
94 144 164
94 144 164
94 144 164
94 144 164
94 144 164
94 144 164
94 144 164
94 144 164
94 144 164
94 144 164
94 144 164
94 144 164
94 144 164
94 144 164
94 144 164
94 144 164
94 144 164
94 144 164
94 144 164
94 144 164
94 144 164
94 144 164
94 144 164
94 144 164
94 144 164
94 144 164
94 144 164
94 144 164
94 144 164
94 144 164
94 144 164
94 144 164
94 144 164
94 144 164
94 144 164
94 144 164
94 144 164
94 144 164
94 144 164
94 144 164
94 144 164
94 144 164
94 144 164
94 144 164
94 144 164
94 144 164
94 144 164
94 144 164
94 144 164
94 144 164
94 144 164
94 144 164
94 144 164
94 144 164
94 144 164
94 144 164
94 144 164
94 144 164
94 144 164
94 144 164
94 144 164
94 144 164
94 144 164
94 144 164
94 144 164
94 144 164
94 144 164
94 144 164
94 144 164
94 144 164
94 144 164
94 144 164
94 144 164
94 144 164
94 144 164
94 144 164
94 144 164
94 144 164
94 144 164
94 144 164
94 144 164
94 144 164
94 144 164
94 144 164
94 144 164
94 144 164
94 144 164
94 144 164
94 144 164
94 144 164
94 144 164
94 144 164
94 144 164
94 144 164
94 144 164
94 144 164
94 144 164
94 144 164
94 144 164
94 144 164
94 144 164
94 144 164
94 144 164
94 144 164
94 144 164
94 144 164
94 144 164
94 144 164
94 144 164
94 144 164
94 144 164
94 144 164
94 144 164
94 144 164
94 144 164
94 144 164
94 144 164
94 144 164
94 144 164
94 144 164
94 144 164
94 144 164
94 144 164
94 144 164
94 144 164
94 144 164
94 144 164
94 144 164
94 144 164
94 144 164
94 144 164
94 144 164
94 144 164
94 144 164
94 144 164
94 144 164
94 144 164
94 144 164
94 144 164
94 144 164
94 144 164
94 144 164
94 144 164
94 144 164
94 144 164
94 144 164
94 144 164
94 144 164
94 144 164
94 144 164
94 144 164
94 144 164
94 144 164
94 144 164
94 144 164
94 144 164
94 144 164
94 144 164
94 144 164
94 144 164
94 144 164
94 144 164
94 144 164
94 144 164
94 144 164
94 144 164
94 144 164
94 144 164
94 144 164
94 144 164
94 144 164
94 144 164
94 144 164
94 144 164
94 144 164
94 144 164
94 144 164
94 144 164
94 144 164
94 144 164
94 144 164
94 144 164
94 144 164
94 144 164
94 144 164
94 144 164
94 144 164
94 144 164
94 144 164
94 144 164
94 144 164
94 144 164
94 144 164
94 144 164
94 144 164
94 144 164
94 144 164
94 144 164
94 144 164
94 144 164
94 144 164
94 144 164
94 144 164
94 144 164
94 144 164
94 144 164
94 144 164
94 144 164
94 144 164
94 144 164
94 144 164
94 144 164
94 144 164
94 144 164
94 144 164
94 144 164
94 144 164
94 144 164
94 144 164
94 144 164
94 144 164
94 144 164
94 144 164
94 144 164
94 144 164
94 144 164
94 144 164
94 144 164
94 144 164
94 144 164
94 144 164
94 144 164
94 144 164
94 144 164
94 144 164
94 144 164
94 144 164
94 144 164
94 144 164
94 144 164
94 144 164
94 144 164
94 144 164
94 144 164
94 144 164
94 144 164
94 144 164
94 144 164
94 144 164
94 144 164
94 144 164
94 144 164
94 144 164
94 144 164
94 144 164
94 144 164
94 144 164
94 144 164
94 144 164
94 144 164
94 144 164
94 144 164
94 144 164
94 144 164
94 144 164
94 144 164
94 144 164
94 144 164
94 144 164
94 144 164
94 144 164
94 144 164
94 144 164
94 144 164
94 144 164
94 144 164
94 144 164
94 144 164
94 144 164
94 144 164
94 144 164
94 144 164
94 144 164
94 144 164
94 144 164
94 144 164
94 144 164
94 144 164
94 144 164
94 144 164
94 144 164
94 144 164
94 144 164
94 144 164
94 144 164
94 144 164
94 144 164
94 144 164
94 144 164
94 144 164
94 144 164
94 144 164
94 144 164
94 144 164
94 144 164
94 144 164
94 144 164
94 144 164
94 144 164
94 144 164
94 144 164
94 144 164
94 144 164
94 144 164
94 144 164
94 144 164
94 144 164
94 144 164
94 144 164
94 144 164
94 144 164
94 144 164
94 144 164
94 144 164
94 144 164
94 144 164
94 144 164
94 144 164
94 144 164
94 144 164
94 144 164
94 144 164
94 144 164
94 144 164
94 144 164
94 144 164
94 144 164
94 144 164
94 144 164
94 144 164
94 144 164
94 144 164
94 144 164
94 144 164
94 144 164
94 144 164
94 144 164
94 144 164
94 144 164
94 144 164
94 144 164
94 144 164
94 144 164
94 144 164
94 144 164
94 144 164
94 144 164
94 144 164
94 144 164
94 144 164
94 144 164
94 144 164
94 144 164
94 144 164
94 144 164
94 144 164
94 144 164
94 144 164
94 144 164
94 144 164
94 144 164
94 144 164
94 144 164
94 144 164
94 144 164
94 144 164
94 144 164
94 144 164
94 144 164
94 144 164
94 144 164
94 144 164
94 144 164
94 144 164
94 144 164
94 144 164
94 144 164
94 144 164
94 144 164
94 144 164
94 144 164
94 144 164
94 144 164
94 144 164
94 144 164
94 144 164
94 144 164
94 144 164
94 144 164
94 144 164
94 144 164
94 144 164
94 144 164
94 144 164
94 144 164
94 144 164
94 144 164
94 144 164
94 144 164
94 144 164
94 144 164
94 144 164
94 144 164
94 144 164
94 144 164
94 144 164
94 144 164
94 144 164
94 144 164
94 144 164
94 144 164
94 144 164
94 144 164
94 144 164
94 144 164
94 144 164
94 144 164
94 144 164
94 144 164
94 144 164
94 144 164
94 144 164
94 144 164
94 144 164
94 144 164
94 144 164
94 144 164
94 144 164
94 144 164
94 144 164
94 144 164
94 144 164
94 144 164
94 144 164
94 144 164
94 144 164
94 144 164
94 144 164
94 144 164
94 144 164
94 144 164
94 144 164
94 144 164
94 144 164
94 144 164
94 144 164
94 144 164
94 144 164
94 144 164
94 144 164
94 144 164
94 144 164
94 144 164
94 144 164
94 144 164
94 144 164
94 144 164
94 144 164
94 144 164
94 144 164
94 144 164
94 144 164
94 144 164
94 144 164
94 144 164
94 144 164
94 144 164
94 144 164
94 144 164
94 144 164
94 144 164
94 144 164
94 144 164
94 144 164
94 144 164
94 144 164
94 144 164
94 144 164
94 144 164
94 144 164
94 144 164
94 144 164
94 144 164
94 144 164
94 144 164
94 144 164
94 144 164
94 144 164
94 144 164
94 144 164
94 144 164
94 144 164
94 144 164
94 144 164
94 144 164
94 144 164
94 144 164
94 144 164
94 144 164
94 144 164
94 144 164
94 144 164
94 144 164
94 144 164
94 144 164
94 144 164
94 144 164
94 144 164
94 144 164
94 144 164
94 144 164
94 144 164
94 144 164
94 144 164
94 144 164
94 144 164
94 144 164
94 144 164
94 144 164
94 144 164
94 144 164
94 144 164
94 144 164
94 144 164
94 144 164
94 144 164
94 144 164
94 144 164
94 144 164
94 144 164
94 144 164
94 144 164
94 144 164
94 144 164
94 144 164
94 144 164
94 144 164
94 144 164
94 144 164
94 144 164
94 144 164
94 144 164
94 144 164
94 144 164
94 144 164
94 144 164
94 144 164
94 144 164
94 144 164
94 144 164
94 144 164
94 144 164
94 144 164
94 144 164
94 144 164
94 144 164
94 144 164
94 144 164
94 144 164
94 144 164
94 144 164
94 144 164
94 144 164
94 144 164
94 144 164
94 144 164
94 144 164
94 144 164
94 144 164
94 144 164
94 144 164
94 144 164
94 144 164
94 144 164
94 144 164
94 144 164
94 144 164
94 144 164
94 144 164
94 144 164
94 144 164
94 144 164
94 144 164
94 144 164
94 144 164
94 144 164
94 144 164
94 144 164
94 144 164
94 144 164
94 144 164
94 144 164
94 144 164
94 144 164
94 144 164
94 144 164
94 144 164
94 144 164
94 144 164
94 144 164
94 144 164
94 144 164
94 144 164
94 144 164
94 144 164
94 144 164
94 144 164
94 144 164
94 144 164
94 144 164
94 144 164
94 144 164
94 144 164
94 144 164
94 144 164
94 144 164
94 144 164
94 144 164
94 144 164
94 144 164
94 144 164
94 144 164
94 144 164
94 144 164
94 144 164
94 144 164
94 144 164
94 144 164
94 144 164
94 144 164
94 144 164
94 144 164
94 144 164
94 144 164
94 144 164
94 144 164
94 144 164
94 144 164
94 144 164
94 144 164
94 144 164
94 144 164
94 144 164
94 144 164
94 144 164
94 144 164
94 144 164
94 144 164
94 144 164
94 144 164
94 144 164
94 144 164
94 144 164
94 144 164
94 144 164
94 144 164
94 144 164
94 144 164
94 144 164
94 144 164
94 144 164
94 144 164
94 144 164
94 144 164
94 144 164
94 144 164
94 144 164
94 144 164
94 144 164
94 144 164
94 144 164
94 144 164
94 144 164
94 144 164
94 144 164
94 144 164
94 144 164
94 144 164
94 144 164
94 144 164
94 144 164
94 144 164
94 144 164
94 144 164
94 144 164
94 144 164
94 144 164
94 144 164
94 144 164
94 144 164
94 144 164
94 144 164
94 144 164
94 144 164
94 144 164
94 144 164
94 144 164
94 144 164
94 144 164
94 144 164
94 144 164
94 144 164
94 144 164
94 144 164
94 144 164
94 144 164
94 144 164
94 144 164
94 144 164
94 144 164
94 144 164
94 144 164
94 144 164
94 144 164
94 144 164
94 144 164
94 144 164
94 144 164
94 144 164
94 144 164
94 144 164
94 144 164
94 144 164
94 144 164
94 144 164
94 144 164
94 144 164
94 144 164
94 144 164
94 144 164
94 144 164
94 144 164
94 144 164
94 144 164
94 144 164
94 144 164
94 144 164
94 144 164
94 144 164
94 144 164
94 144 164
94 144 164
94 144 164
94 144 164
94 144 164
94 144 164
94 144 164
94 144 164
94 144 164
94 144 164
94 144 164
94 144 164
94 144 164
94 144 164
94 144 164
94 144 164
94 144 164
94 144 164
94 144 164
94 144 164
94 144 164
94 144 164
94 144 164
94 144 164
94 144 164
94 144 164
94 144 164
94 144 164
94 144 164
94 144 164
94 144 164
94 144 164
94 144 164
94 144 164
94 144 164
94 144 164
94 144 164
94 144 164
94 144 164
94 144 164
94 144 164
94 144 164
94 144 164
94 144 164
94 144 164
94 144 164
94 144 164
94 144 164
94 144 164
94 144 164
94 144 164
94 144 164
94 144 164
94 144 164
94 144 164
94 144 164
94 144 164
94 144 164
94 144 164
94 144 164
94 144 164
94 144 164
94 144 164
94 144 164
94 144 164
94 144 164
94 144 164
94 144 164
94 144 164
94 144 164
94 144 164
94 144 164
94 144 164
94 144 164
94 144 164
94 144 164
94 144 164
94 144 164
94 144 164
94 144 164
94 144 164
94 144 164
94 144 164
94 144 164
94 144 164
94 144 164
94 144 164
94 144 164
94 144 164
94 144 164
94 144 164
94 144 164
94 144 164
94 144 164
94 144 164
94 144 164
94 144 164
94 144 164
94 144 164
94 144 164
94 144 164
94 144 164
94 144 164
94 144 164
94 144 164
94 144 164
94 144 164
94 144 164
94 144 164
94 144 164
94 144 164
94 144 164
94 144 164
94 144 164
94 144 164
94 144 164
94 144 164
94 144 164
94 144 164
94 144 164
94 144 164
94 144 164
94 144 164
94 144 164
94 144 164
94 144 164
94 144 164
94 144 164
94 144 164
94 144 164
94 144 164
94 144 164
94 144 164
94 144 164
94 144 164
94 144 164
94 144 164
94 144 164
94 144 164
94 144 164
94 144 164
94 144 164
94 144 164
94 144 164
94 144 164
94 144 164
94 144 164
94 144 164
94 144 164
94 144 164
94 144 164
94 144 164
94 144 164
94 144 164
94 144 164
94 144 164
94 144 164
94 144 164
94 144 164
94 144 164
94 144 164
94 144 164
94 144 164
94 144 164
94 144 164
94 144 164
94 144 164
94 144 164
94 144 164
94 144 164
94 144 164
94 144 164
94 144 164
94 144 164
94 144 164
94 144 164
94 144 164
94 144 164
94 144 164
94 144 164
94 144 164
94 144 164
94 144 164
94 144 164
94 144 164
94 144 164
94 144 164
94 144 164
94 144 164
94 144 164
94 144 164
94 144 164
94 144 164
94 144 164
94 144 164
94 144 164
94 144 164
94 144 164
94 144 164
94 144 164
94 144 164
94 144 164
94 144 164
94 144 164
94 144 164
94 144 164
94 144 164
94 144 164
94 144 164
94 144 164
94 144 164
94 144 164
94 144 164
94 144 164
94 144 164
94 144 164
94 144 164
94 144 164
94 144 164
94 144 164
94 144 164
94 144 164
94 144 164
94 144 164
94 144 164
94 144 164
94 144 164
94 144 164
94 144 164
94 144 164
94 144 164
94 144 164
94 144 164
94 144 164
94 144 164
94 144 164
94 144 164
94 144 164
94 144 164
94 144 164
94 144 164
94 144 164
94 144 164
94 144 164
94 144 164
94 144 164
94 144 164
94 144 164
94 144 164
94 144 164
94 144 164
94 144 164
94 144 164
94 144 164
94 144 164
94 144 164
94 144 164
94 144 164
94 144 164
94 144 164
94 144 164
94 144 164
94 144 164
94 144 164
94 144 164
94 144 164
94 144 164
94 144 164
94 144 164
94 144 164
94 144 164
94 144 164
94 144 164
94 144 164
94 144 164
94 144 164
94 144 164
94 144 164
94 144 164
94 144 164
94 144 164
94 144 164
94 144 164
94 144 164
94 144 164
94 144 164
94 144 164
94 144 164
94 144 164
94 144 164
94 144 164
94 144 164
94 144 164
94 144 164
94 144 164
94 144 164
94 144 164
94 144 164
94 144 164
94 144 164
94 144 164
94 144 164
94 144 164
94 144 164
94 144 164
94 144 164
94 144 164
94 144 164
94 144 164
94 144 164
94 144 164
94 144 164
94 144 164
94 144 164
94 144 164
94 144 164
94 144 164
94 144 164
94 144 164
94 144 164
94 144 164
94 144 164
94 144 164
94 144 164
94 144 164
94 144 164
94 144 164
94 144 164
94 144 164
94 144 164
94 144 164
94 144 164
94 144 164
94 144 164
94 144 164
94 144 164
94 144 164
94 144 164
94 144 164
94 144 164
94 144 164
94 144 164
94 144 164
94 144 164
94 144 164
94 144 164
94 144 164
94 144 164
94 144 164
94 144 164
94 144 164
94 144 164
94 144 164
94 144 164
94 144 164
94 144 164
94 144 164
94 144 164
94 144 164
94 144 164
94 144 164
94 144 164
94 144 164
94 144 164
94 144 164
94 144 164
94 144 164
94 144 164
94 144 164
94 144 164
94 144 164
94 144 164
94 144 164
94 144 164
94 144 164
94 144 164
94 144 164
94 144 164
94 144 164
94 144 164
94 144 164
94 144 164
94 144 164
94 144 164
94 144 164
94 144 164
94 144 164
94 144 164
94 144 164
94 144 164
94 144 164
94 144 164
94 144 164
94 144 164
94 144 164
94 144 164
94 144 164
94 144 164
94 144 164
94 144 164
94 144 164
94 144 164
94 144 164
94 144 164
94 144 164
94 144 164
94 144 164
94 144 164
94 144 164
94 144 164
94 144 164
94 144 164
94 144 164
94 144 164
94 144 164
94 144 164
94 144 164
94 144 164
94 144 164
94 144 164
94 144 164
94 144 164
94 144 164
94 144 164
94 144 164
94 144 164
94 144 164
94 144 164
94 144 164
94 144 164
94 144 164
94 144 164
94 144 164
94 144 164
94 144 164
94 144 164
94 144 164
94 144 164
94 144 164
94 144 164
94 144 164
94 144 164
94 144 164
94 144 164
94 144 164
94 144 164
94 144 164
94 144 164
94 144 164
94 144 164
94 144 164
94 144 164
94 144 164
94 144 164
94 144 164
94 144 164
94 144 164
94 144 164
94 144 164
94 144 164
94 144 164
94 144 164
94 144 164
94 144 164
94 144 164
94 144 164
94 144 164
94 144 164
94 144 164
94 144 164
94 144 164
94 144 164
94 144 164
94 144 164
94 144 164
94 144 164
94 144 164
94 144 164
94 144 164
94 144 164
94 144 164
94 144 164
94 144 164
94 144 164
94 144 164
94 144 164
94 144 164
94 144 164
94 144 164
94 144 164
94 144 164
94 144 164
94 144 164
94 144 164
94 144 164
94 144 164
94 144 164
94 144 164
94 144 164
94 144 164
94 144 164
94 144 164
94 144 164
94 144 164
94 144 164
94 144 164
94 144 164
94 144 164
94 144 164
94 144 164
94 144 164
94 144 164
94 144 164
94 144 164
94 144 164
94 144 164
94 144 164
94 144 164
94 144 164
94 144 164
94 144 164
94 144 164
94 144 164
94 144 164
94 144 164
94 144 164
94 144 164
94 144 164
94 144 164
94 144 164
94 144 164
94 144 164
94 144 164
94 144 164
94 144 164
94 144 164
94 144 164
94 144 164
94 144 164
94 144 164
94 144 164
94 144 164
94 144 164
94 144 164
94 144 164
94 144 164
94 144 164
94 144 164
94 144 164
94 144 164
94 144 164
94 144 164
94 144 164
94 144 164
94 144 164
94 144 164
94 144 164
94 144 164
94 144 164
94 144 164
94 144 164
94 144 164
94 144 164
94 144 164
94 144 164
94 144 164
94 144 164
94 144 164
94 144 164
94 144 164
94 144 164
94 144 164
94 144 164
94 144 164
94 144 164
94 144 164
94 144 164
94 144 164
94 144 164
94 144 164
94 144 164
94 144 164
94 144 164
94 144 164
94 144 164
94 144 164
94 144 164
94 144 164
94 144 164
94 144 164
94 144 164
94 144 164
94 144 164
94 144 164
94 144 164
94 144 164
94 144 164
94 144 164
94 144 164
94 144 164
94 144 164
94 144 164
94 144 164
94 144 164
94 144 164
94 144 164
94 144 164
94 144 164
94 144 164
94 144 164
94 144 164
94 144 164
94 144 164
94 144 164
94 144 164
94 144 164
94 144 164
94 144 164
94 144 164
94 144 164
94 144 164
94 144 164
94 144 164
94 144 164
94 144 164
94 144 164
94 144 164
94 144 164
94 144 164
94 144 164
94 144 164
94 144 164
94 144 164
94 144 164
94 144 164
94 144 164
94 144 164
94 144 164
94 144 164
94 144 164
94 144 164
94 144 164
94 144 164
94 144 164
94 144 164
94 144 164
94 144 164
94 144 164
94 144 164
94 144 164
94 144 164
94 144 164
94 144 164
94 144 164
94 144 164
94 144 164
94 144 164
94 144 164
94 144 164
94 144 164
94 144 164
94 144 164
94 144 164
94 144 164
94 144 164
94 144 164
94 144 164
94 144 164
94 144 164
94 144 164
94 144 164
94 144 164
94 144 164
94 144 164
94 144 164
94 144 164
94 144 164
94 144 164
94 144 164
94 144 164
94 144 164
94 144 164
94 144 164
94 144 164
94 144 164
94 144 164
94 144 164
94 144 164
94 144 164
94 144 164
94 144 164
94 144 164
94 144 164
94 144 164
94 144 164
94 144 164
94 144 164
94 144 164
94 144 164
94 144 164
94 144 164
94 144 164
94 144 164
94 144 164
94 144 164
94 144 164
94 144 164
94 144 164
94 144 164
94 144 164
94 144 164
94 144 164
94 144 164
94 144 164
94 144 164
94 144 164
94 144 164
94 144 164
94 144 164
94 144 164
94 144 164
94 144 164
94 144 164
94 144 164
94 144 164
94 144 164
94 144 164
94 144 164
94 144 164
94 144 164
94 144 164
94 144 164
94 144 164
94 144 164
94 144 164
94 144 164
94 144 164
94 144 164
94 144 164
94 144 164
94 144 164
94 144 164
94 144 164
94 144 164
94 144 164
94 144 164
94 144 164
94 144 164
94 144 164
94 144 164
94 144 164
94 144 164
94 144 164
94 144 164
94 144 164
94 144 164
94 144 164
94 144 164
94 144 164
94 144 164
94 144 164
94 144 164
94 144 164
94 144 164
94 144 164
94 144 164
94 144 164
94 144 164
94 144 164
94 144 164
94 144 164
94 144 164
94 144 164
94 144 164
94 144 164
94 144 164
94 144 164
94 144 164
94 144 164
94 144 164
94 144 164
94 144 164
94 144 164
94 144 164
94 144 164
94 144 164
94 144 164
94 144 164
94 144 164
94 144 164
94 144 164
94 144 164
94 144 164
94 144 164
94 144 164
94 144 164
94 144 164
94 144 164
94 144 164
94 144 164
94 144 164
94 144 164
94 144 164
94 144 164
94 144 164
94 144 164
94 144 164
94 144 164
94 144 164
94 144 164
94 144 164
94 144 164
94 144 164
94 144 164
94 144 164
94 144 164
94 144 164
94 144 164
94 144 164
94 144 164
94 144 164
94 144 164
94 144 164
94 144 164
94 144 164
94 144 164
94 144 164
94 144 164
94 144 164
94 144 164
94 144 164
94 144 164
94 144 164
94 144 164
94 144 164
94 144 164
94 144 164
94 144 164
94 144 164
94 144 164
94 144 164
94 144 164
94 144 164
94 144 164
94 144 164
94 144 164
94 144 164
94 144 164
94 144 164
94 144 164
94 144 164
94 144 164
94 144 164
94 144 164
94 144 164
94 144 164
94 144 164
94 144 164
94 144 164
94 144 164
94 144 164
94 144 164
94 144 164
94 144 164
94 144 164
94 144 164
94 144 164
94 144 164
94 144 164
94 144 164
94 144 164
94 144 164
94 144 164
94 144 164
94 144 164
94 144 164
94 144 164
94 144 164
94 144 164
94 144 164
94 144 164
94 144 164
94 144 164
94 144 164
94 144 164
94 144 164
94 144 164
94 144 164
94 144 164
94 144 164
94 144 164
94 144 164
94 144 164
94 144 164
94 144 164
94 144 164
94 144 164
94 144 164
94 144 164
94 144 164
94 144 164
94 144 164
94 144 164
94 144 164
94 144 164
94 144 164
94 144 164
94 144 164
94 144 164
94 144 164
94 144 164
94 144 164
94 144 164
94 144 164
94 144 164
94 144 164
94 144 164
94 144 164
94 144 164
94 144 164
94 144 164
94 144 164
94 144 164
94 144 164
94 144 164
94 144 164
94 144 164
94 144 164
94 144 164
94 144 164
94 144 164
94 144 164
94 144 164
94 144 164
94 144 164
94 144 164
94 144 164
94 144 164
94 144 164
94 144 164
94 144 164
94 144 164
94 144 164
94 144 164
94 144 164
94 144 164
94 144 164
94 144 164
94 144 164
94 144 164
94 144 164
94 144 164
94 144 164
94 144 164
94 144 164
94 144 164
94 144 164
94 144 164
94 144 164
94 144 164
94 144 164
94 144 164
94 144 164
94 144 164
94 144 164
94 144 164
94 144 164
94 144 164
94 144 164
94 144 164
94 144 164
94 144 164
94 144 164
94 144 164
94 144 164
94 144 164
94 144 164
94 144 164
94 144 164
94 144 164
94 144 164
94 144 164
94 144 164
94 144 164
94 144 164
94 144 164
94 144 164
94 144 164
94 144 164
94 144 164
94 144 164
94 144 164
94 144 164
94 144 164
94 144 164
94 144 164
94 144 164
94 144 164
94 144 164
94 144 164
94 144 164
94 144 164
94 144 164
94 144 164
94 144 164
94 144 164
94 144 164
94 144 164
94 144 164
94 144 164
94 144 164
94 144 164
94 144 164
94 144 164
94 144 164
94 144 164
94 144 164
94 144 164
94 144 164
94 144 164
94 144 164
94 144 164
94 144 164
94 144 164
94 144 164
94 144 164
94 144 164
94 144 164
94 144 164
94 144 164
94 144 164
94 144 164
94 144 164
94 144 164
94 144 164
94 144 164
94 144 164
94 144 164
94 144 164
94 144 164
94 144 164
94 144 164
94 144 164
94 144 164
94 144 164
94 144 164
94 144 164
94 144 164
94 144 164
94 144 164
94 144 164
94 144 164
94 144 164
94 144 164
94 144 164
94 144 164
94 144 164
94 144 164
94 144 164
94 144 164
94 144 164
94 144 164
94 144 164
94 144 164
94 144 164
94 144 164
94 144 164
94 144 164
94 144 164
94 144 164
94 144 164
94 144 164
94 144 164
94 144 164
94 144 164
94 144 164
94 144 164
94 144 164
94 144 164
94 144 164
94 144 164
94 144 164
94 144 164
94 144 164
94 144 164
94 144 164
94 144 164
94 144 164
94 144 164
94 144 164
94 144 164
94 144 164
94 144 164
94 144 164
94 144 164
94 144 164
94 144 164
94 144 164
94 144 164
94 144 164
94 144 164
94 144 164
94 144 164
94 144 164
94 144 164
94 144 164
94 144 164
94 144 164
94 144 164
94 144 164
94 144 164
94 144 164
94 144 164
94 144 164
94 144 164
94 144 164
94 144 164
94 144 164
94 144 164
94 144 164
94 144 164
94 144 164
94 144 164
94 144 164
94 144 164
94 144 164
94 144 164
94 144 164
94 144 164
94 144 164
94 144 164
94 144 164
94 144 164
94 144 164
94 144 164
94 144 164
94 144 164
94 144 164
94 144 164
94 144 164
94 144 164
94 144 164
94 144 164
94 144 164
94 144 164
94 144 164
94 144 164
94 144 164
94 144 164
94 144 164
94 144 164
94 144 164
94 144 164
94 144 164
94 144 164
94 144 164
94 144 164
94 144 164
94 144 164
94 144 164
94 144 164
94 144 164
94 144 164
94 144 164
94 144 164
94 144 164
94 144 164
94 144 164
94 144 164
94 144 164
94 144 164
94 144 164
94 144 164
94 144 164
94 144 164
94 144 164
94 144 164
94 144 164
94 144 164
94 144 164
94 144 164
94 144 164
94 144 164
94 144 164
94 144 164
94 144 164
94 144 164
94 144 164
94 144 164
94 144 164
94 144 164
94 144 164
94 144 164
94 144 164
94 144 164
94 144 164
94 144 164
94 144 164
94 144 164
94 144 164
94 144 164
94 144 164
94 144 164
94 144 164
94 144 164
94 144 164
94 144 164
94 144 164
94 144 164
94 144 164
94 144 164
94 144 164
94 144 164
94 144 164
94 144 164
94 144 164
94 144 164
94 144 164
94 144 164
94 144 164
94 144 164
94 144 164
94 144 164
94 144 164
94 144 164
94 144 164
94 144 164
94 144 164
94 144 164
94 144 164
94 144 164
94 144 164
94 144 164
94 144 164
94 144 164
94 144 164
94 144 164
94 144 164
94 144 164
94 144 164
94 144 164
94 144 164
94 144 164
94 144 164
94 144 164
94 144 164
94 144 164
94 144 164
94 144 164
94 144 164
94 144 164
94 144 164
94 144 164
94 144 164
94 144 164
94 144 164
94 144 164
94 144 164
94 144 164
94 144 164
94 144 164
94 144 164
94 144 164
94 144 164
94 144 164
94 144 164
94 144 164
94 144 164
94 144 164
94 144 164
94 144 164
94 144 164
94 144 164
94 144 164
94 144 164
94 144 164
94 144 164
94 144 164
94 144 164
94 144 164
94 144 164
94 144 164
94 144 164
94 144 164
94 144 164
94 144 164
94 144 164
94 144 164
94 144 164
94 144 164
94 144 164
94 144 164
94 144 164
94 144 164
94 144 164
94 144 164
94 144 164
94 144 164
94 144 164
94 144 164
94 144 164
94 144 164
94 144 164
94 144 164
94 144 164
94 144 164
94 144 164
94 144 164
94 144 164
94 144 164
94 144 164
94 144 164
94 144 164
94 144 164
94 144 164
94 144 164
94 144 164
94 144 164
94 144 164
94 144 164
94 144 164
94 144 164
94 144 164
94 144 164
94 144 164
94 144 164
94 144 164
94 144 164
94 144 164
94 144 164
94 144 164
94 144 164
94 144 164
94 144 164
94 144 164
94 144 164
94 144 164
94 144 164
94 144 164
94 144 164
94 144 164
94 144 164
94 144 164
94 144 164
94 144 164
94 144 164
94 144 164
94 144 164
94 144 164
94 144 164
94 144 164
94 144 164
94 144 164
94 144 164
94 144 164
94 144 164
94 144 164
94 144 164
94 144 164
94 144 164
94 144 164
94 144 164
94 144 164
94 144 164
94 144 164
94 144 164
94 144 164
94 144 164
94 144 164
94 144 164
94 144 164
94 144 164
94 144 164
94 144 164
94 144 164
94 144 164
94 144 164
94 144 164
94 144 164
94 144 164
94 144 164
94 144 164
94 144 164
94 144 164
94 144 164
94 144 164
94 144 164
94 144 164
94 144 164
94 144 164
94 144 164
94 144 164
94 144 164
94 144 164
94 144 164
94 144 164
94 144 164
94 144 164
94 144 164
94 144 164
94 144 164
94 144 164
94 144 164
94 144 164
94 144 164
94 144 164
94 144 164
94 144 164
94 144 164
94 144 164
94 144 164
94 144 164
94 144 164
94 144 164
94 144 164
94 144 164
94 144 164
94 144 164
94 144 164
94 144 164
94 144 164
94 144 164
94 144 164
94 144 164
94 144 164
94 144 164
94 144 164
94 144 164
94 144 164
94 144 164
94 144 164
94 144 164
94 144 164
94 144 164
94 144 164
94 144 164
94 144 164
94 144 164
94 144 164
94 144 164
94 144 164
94 144 164
94 144 164
94 144 164
94 144 164
94 144 164
94 144 164
94 144 164
94 144 164
94 144 164
94 144 164
94 144 164
94 144 164
94 144 164
94 144 164
94 144 164
94 144 164
94 144 164
94 144 164
94 144 164
94 144 164
94 144 164
94 144 164
94 144 164
94 144 164
94 144 164
94 144 164
94 144 164
94 144 164
94 144 164
94 144 164
94 144 164
94 144 164
94 144 164
94 144 164
94 144 164
94 144 164
94 144 164
94 144 164
94 144 164
94 144 164
94 144 164
94 144 164
94 144 164
94 144 164
94 144 164
94 144 164
94 144 164
94 144 164
94 144 164
94 144 164
94 144 164
94 144 164
94 144 164
94 144 164
94 144 164
94 144 164
94 144 164
94 144 164
94 144 164
94 144 164
94 144 164
94 144 164
94 144 164
94 144 164
94 144 164
94 144 164
94 144 164
94 144 164
94 144 164
94 144 164
94 144 164
94 144 164
94 144 164
94 144 164
94 144 164
94 144 164
94 144 164
94 144 164
94 144 164
94 144 164
94 144 164
94 144 164
94 144 164
94 144 164
94 144 164
94 144 164
94 144 164
94 144 164
94 144 164
94 144 164
94 144 164
94 144 164
94 144 164
94 144 164
94 144 164
94 144 164
94 144 164
94 144 164
94 144 164
94 144 164
94 144 164
94 144 164
94 144 164
94 144 164
94 144 164
94 144 164
94 144 164
94 144 164
94 144 164
94 144 164
94 144 164
94 144 164
94 144 164
94 144 164
94 144 164
94 144 164
94 144 164
94 144 164
94 144 164
94 144 164
94 144 164
94 144 164
94 144 164
94 144 164
94 144 164
94 144 164
94 144 164
94 144 164
94 144 164
94 144 164
94 144 164
94 144 164
94 144 164
94 144 164
94 144 164
94 144 164
94 144 164
94 144 164
94 144 164
94 144 164
94 144 164
94 144 164
94 144 164
94 144 164
94 144 164
94 144 164
94 144 164
94 144 164
94 144 164
94 144 164
94 144 164
94 144 164
94 144 164
94 144 164
94 144 164
94 144 164
94 144 164
94 144 164
94 144 164
94 144 164
94 144 164
94 144 164
94 144 164
94 144 164
94 144 164
94 144 164
94 144 164
94 144 164
94 144 164
94 144 164
94 144 164
94 144 164
94 144 164
94 144 164
94 144 164
94 144 164
94 144 164
94 144 164
94 144 164
94 144 164
94 144 164
94 144 164
94 144 164
94 144 164
94 144 164
94 144 164
94 144 164
94 144 164
94 144 164
94 144 164
94 144 164
94 144 164
94 144 164
94 144 164
94 144 164
94 144 164
94 144 164
94 144 164
94 144 164
94 144 164
94 144 164
94 144 164
94 144 164
94 144 164
94 144 164
94 144 164
94 144 164
94 144 164
94 144 164
94 144 164
94 144 164
94 144 164
94 144 164
94 144 164
94 144 164
94 144 164
94 144 164
94 144 164
94 144 164
94 144 164
94 144 164
94 144 164
94 144 164
94 144 164
94 144 164
94 144 164
94 144 164
94 144 164
94 144 164
94 144 164
94 144 164
94 144 164
94 144 164
94 144 164
94 144 164
94 144 164
94 144 164
94 144 164
94 144 164
94 144 164
94 144 164
94 144 164
94 144 164
94 144 164
94 144 164
94 144 164
94 144 164
94 144 164
94 144 164
94 144 164
94 144 164
94 144 164
94 144 164
94 144 164
94 144 164
94 144 164
94 144 164
94 144 164
94 144 164
94 144 164
94 144 164
94 144 164
94 144 164
94 144 164
94 144 164
94 144 164
94 144 164
94 144 164
94 144 164
94 144 164
94 144 164
94 144 164
94 144 164
94 144 164
94 144 164
94 144 164
94 144 164
94 144 164
94 144 164
94 144 164
94 144 164
94 144 164
94 144 164
94 144 164
94 144 164
94 144 164
94 144 164
94 144 164
94 144 164
94 144 164
94 144 164
94 144 164
94 144 164
94 144 164
94 144 164
94 144 164
94 144 164
94 144 164
94 144 164
94 144 164
94 144 164
94 144 164
94 144 164
94 144 164
94 144 164
94 144 164
94 144 164
94 144 164
94 144 164
94 144 164
94 144 164
94 144 164
94 144 164
94 144 164
94 144 164
94 144 164
94 144 164
94 144 164
94 144 164
94 144 164
94 144 164
94 144 164
94 144 164
94 144 164
94 144 164
94 144 164
94 144 164
94 144 164
94 144 164
94 144 164
94 144 164
94 144 164
94 144 164
94 144 164
94 144 164
94 144 164
94 144 164
94 144 164
94 144 164
94 144 164
94 144 164
94 144 164
94 144 164
94 144 164
94 144 164
94 144 164
94 144 164
94 144 164
94 144 164
94 144 164
94 144 164
94 144 164
94 144 164
94 144 164
94 144 164
94 144 164
94 144 164
94 144 164
94 144 164
94 144 164
94 144 164
94 144 164
94 144 164
94 144 164
94 144 164
94 144 164
94 144 164
94 144 164
94 144 164
94 144 164
94 144 164
94 144 164
94 144 164
94 144 164
94 144 164
94 144 164
94 144 164
94 144 164
94 144 164
94 144 164
94 144 164
94 144 164
94 144 164
94 144 164
94 144 164
94 144 164
94 144 164
94 144 164
94 144 164
94 144 164
94 144 164
94 144 164
94 144 164
94 144 164
94 144 164
94 144 164
94 144 164
94 144 164
94 144 164
94 144 164
94 144 164
94 144 164
94 144 164
94 144 164
94 144 164
94 144 164
94 144 164
94 144 164
94 144 164
94 144 164
94 144 164
94 144 164
94 144 164
94 144 164
94 144 164
94 144 164
94 144 164
94 144 164
94 144 164
94 144 164
94 144 164
94 144 164
94 144 164
94 144 164
94 144 164
94 144 164
94 144 164
94 144 164
94 144 164
94 144 164
94 144 164
94 144 164
94 144 164
94 144 164
94 144 164
94 144 164
94 144 164
94 144 164
94 144 164
94 144 164
94 144 164
94 144 164
94 144 164
94 144 164
94 144 164
94 144 164
94 144 164
94 144 164
94 144 164
94 144 164
94 144 164
94 144 164
94 144 164
94 144 164
94 144 164
94 144 164
94 144 164
94 144 164
94 144 164
94 144 164
94 144 164
94 144 164
94 144 164
94 144 164
94 144 164
94 144 164
94 144 164
94 144 164
94 144 164
94 144 164
94 144 164
94 144 164
94 144 164
94 144 164
94 144 164
94 144 164
94 144 164
94 144 164
94 144 164
94 144 164
94 144 164
94 144 164
94 144 164
94 144 164
94 144 164
94 144 164
94 144 164
94 144 164
94 144 164
94 144 164
94 144 164
94 144 164
94 144 164
94 144 164
94 144 164
94 144 164
94 144 164
94 144 164
94 144 164
94 144 164
94 144 164
94 144 164
94 144 164
94 144 164
94 144 164
94 144 164
94 144 164
94 144 164
94 144 164
94 144 164
94 144 164
94 144 164
94 144 164
94 144 164
94 144 164
94 144 164
94 144 164
94 144 164
94 144 164
94 144 164
94 144 164
94 144 164
94 144 164
94 144 164
94 144 164
94 144 164
94 144 164
94 144 164
94 144 164
94 144 164
94 144 164
94 144 164
94 144 164
94 144 164
94 144 164
94 144 164
94 144 164
94 144 164
94 144 164
94 144 164
94 144 164
94 144 164
94 144 164
94 144 164
94 144 164
94 144 164
94 144 164
94 144 164
94 144 164
94 144 164
94 144 164
94 144 164
94 144 164
94 144 164
94 144 164
94 144 164
94 144 164
94 144 164
94 144 164
94 144 164
94 144 164
94 144 164
94 144 164
94 144 164
94 144 164
94 144 164
94 144 164
94 144 164
94 144 164
94 144 164
94 144 164
94 144 164
94 144 164
94 144 164
94 144 164
94 144 164
94 144 164
94 144 164
94 144 164
94 144 164
94 144 164
94 144 164
94 144 164
94 144 164
94 144 164
94 144 164
94 144 164
94 144 164
94 144 164
94 144 164
94 144 164
94 144 164
94 144 164
94 144 164
94 144 164
94 144 164
94 144 164
94 144 164
94 144 164
94 144 164
94 144 164
94 144 164
94 144 164
94 144 164
94 144 164
94 144 164
94 144 164
94 144 164
94 144 164
94 144 164
94 144 164
94 144 164
94 144 164
94 144 164
94 144 164
94 144 164
94 144 164
94 144 164
94 144 164
94 144 164
94 144 164
94 144 164
94 144 164
94 144 164
94 144 164
94 144 164
94 144 164
94 144 164
94 144 164
94 144 164
94 144 164
94 144 164
94 144 164
94 144 164
94 144 164
94 144 164
94 144 164
94 144 164
94 144 164
94 144 164
94 144 164
94 144 164
94 144 164
94 144 164
94 144 164
94 144 164
94 144 164
94 144 164
94 144 164
94 144 164
94 144 164
94 144 164
94 144 164
94 144 164
94 144 164
94 144 164
94 144 164
94 144 164
94 144 164
94 144 164
94 144 164
94 144 164
94 144 164
94 144 164
94 144 164
94 144 164
94 144 164
94 144 164
94 144 164
94 144 164
94 144 164
94 144 164
94 144 164
94 144 164
94 144 164
94 144 164
94 144 164
94 144 164
94 144 164
94 144 164
94 144 164
94 144 164
94 144 164
94 144 164
94 144 164
94 144 164
94 144 164
94 144 164
94 144 164
94 144 164
94 144 164
94 144 164
94 144 164
94 144 164
94 144 164
94 144 164
94 144 164
94 144 164
94 144 164
94 144 164
94 144 164
94 144 164
94 144 164
94 144 164
94 144 164
94 144 164
94 144 164
94 144 164
94 144 164
94 144 164
94 144 164
94 144 164
94 144 164
94 144 164
94 144 164
94 144 164
94 144 164
94 144 164
94 144 164
94 144 164
94 144 164
94 144 164
94 144 164
94 144 164
94 144 164
94 144 164
94 144 164
94 144 164
94 144 164
94 144 164
94 144 164
94 144 164
94 144 164
94 144 164
94 144 164
94 144 164
94 144 164
94 144 164
94 144 164
94 144 164
94 144 164
94 144 164
94 144 164
94 144 164
94 144 164
94 144 164
94 144 164
94 144 164
94 144 164
94 144 164
94 144 164
94 144 164
94 144 164
94 144 164
94 144 164
94 144 164
94 144 164
94 144 164
94 144 164
94 144 164
94 144 164
94 144 164
94 144 164
94 144 164
94 144 164
94 144 164
94 144 164
94 144 164
94 144 164
94 144 164
94 144 164
94 144 164
94 144 164
94 144 164
94 144 164
94 144 164
94 144 164
94 144 164
94 144 164
94 144 164
94 144 164
94 144 164
94 144 164
94 144 164
94 144 164
94 144 164
94 144 164
94 144 164
94 144 164
94 144 164
94 144 164
94 144 164
94 144 164
94 144 164
94 144 164
94 144 164
94 144 164
94 144 164
94 144 164
94 144 164
94 144 164
94 144 164
94 144 164
94 144 164
94 144 164
94 144 164
94 144 164
94 144 164
94 144 164
94 144 164
94 144 164
94 144 164
94 144 164
94 144 164
94 144 164
94 144 164
94 144 164
94 144 164
94 144 164
94 144 164
94 144 164
94 144 164
94 144 164
94 144 164
94 144 164
94 144 164
94 144 164
94 144 164
94 144 164
94 144 164
94 144 164
94 144 164
94 144 164
94 144 164
94 144 164
94 144 164
94 144 164
94 144 164
94 144 164
94 144 164
94 144 164
94 144 164
94 144 164
94 144 164
94 144 164
94 144 164
94 144 164
94 144 164
94 144 164
94 144 164
94 144 164
94 144 164
94 144 164
94 144 164
94 144 164
94 144 164
94 144 164
94 144 164
94 144 164
94 144 164
94 144 164
94 144 164
94 144 164
94 144 164
94 144 164
94 144 164
94 144 164
94 144 164
94 144 164
94 144 164
94 144 164
94 144 164
94 144 164
94 144 164
94 144 164
94 144 164
94 144 164
94 144 164
94 144 164
94 144 164
94 144 164
94 144 164
94 144 164
94 144 164
94 144 164
94 144 164
94 144 164
94 144 164
94 144 164
94 144 164
94 144 164
94 144 164
94 144 164
94 144 164
94 144 164
94 144 164
94 144 164
94 144 164
94 144 164
94 144 164
94 144 164
94 144 164
94 144 164
94 144 164
94 144 164
94 144 164
94 144 164
94 144 164
94 144 164
94 144 164
94 144 164
94 144 164
94 144 164
94 144 164
94 144 164
94 144 164
94 144 164
94 144 164
94 144 164
94 144 164
94 144 164
94 144 164
94 144 164
94 144 164
94 144 164
94 144 164
94 144 164
94 144 164
94 144 164
94 144 164
94 144 164
94 144 164
94 144 164
94 144 164
94 144 164
94 144 164
94 144 164
94 144 164
94 144 164
94 144 164
94 144 164
94 144 164
94 144 164
94 144 164
94 144 164
94 144 164
94 144 164
94 144 164
94 144 164
94 144 164
94 144 164
94 144 164
94 144 164
94 144 164
94 144 164
94 144 164
94 144 164
94 144 164
94 144 164
94 144 164
94 144 164
94 144 164
94 144 164
94 144 164
94 144 164
94 144 164
94 144 164
94 144 164
94 144 164
94 144 164
94 144 164
94 144 164
94 144 164
94 144 164
94 144 164
94 144 164
94 144 164
94 144 164
94 144 164
94 144 164
94 144 164
94 144 164
94 144 164
94 144 164
94 144 164
94 144 164
94 144 164
94 144 164
94 144 164
94 144 164
94 144 164
94 144 164
94 144 164
94 144 164
94 144 164
94 144 164
94 144 164
94 144 164
94 144 164
94 144 164
94 144 164
94 144 164
94 144 164
94 144 164
94 144 164
94 144 164
94 144 164
94 144 164
94 144 164
94 144 164
94 144 164
94 144 164
94 144 164
94 144 164
94 144 164
94 144 164
94 144 164
94 144 164
94 144 164
94 144 164
94 144 164
94 144 164
94 144 164
94 144 164
94 144 164
94 144 164
94 144 164
94 144 164
94 144 164
94 144 164
94 144 164
94 144 164
94 144 164
94 144 164
94 144 164
94 144 164
94 144 164
94 144 164
94 144 164
94 144 164
94 144 164
94 144 164
94 144 164
94 144 164
94 144 164
94 144 164
94 144 164
94 144 164
94 144 164
94 144 164
94 144 164
94 144 164
94 144 164
94 144 164
94 144 164
94 144 164
94 144 164
94 144 164
94 144 164
94 144 164
94 144 164
94 144 164
94 144 164
94 144 164
94 144 164
94 144 164
94 144 164
94 144 164
94 144 164
94 144 164
94 144 164
94 144 164
94 144 164
94 144 164
94 144 164
94 144 164
94 144 164
94 144 164
94 144 164
94 144 164
94 144 164
94 144 164
94 144 164
94 144 164
94 144 164
94 144 164
94 144 164
94 144 164
94 144 164
94 144 164
94 144 164
94 144 164
94 144 164
94 144 164
94 144 164
94 144 164
94 144 164
94 144 164
94 144 164
94 144 164
94 144 164
94 144 164
94 144 164
94 144 164
94 144 164
94 144 164
94 144 164
94 144 164
94 144 164
94 144 164
94 144 164
94 144 164
94 144 164
94 144 164
94 144 164
94 144 164
94 144 164
94 144 164
94 144 164
94 144 164
94 144 164
94 144 164
94 144 164
94 144 164
94 144 164
94 144 164
94 144 164
94 144 164
94 144 164
94 144 164
94 144 164
94 144 164
94 144 164
94 144 164
94 144 164
94 144 164
94 144 164
94 144 164
94 144 164
94 144 164
94 144 164
94 144 164
94 144 164
94 144 164
94 144 164
94 144 164
94 144 164
94 144 164
94 144 164
94 144 164
94 144 164
94 144 164
94 144 164
94 144 164
94 144 164
94 144 164
94 144 164
94 144 164
94 144 164
94 144 164
94 144 164
94 144 164
94 144 164
94 144 164
94 144 164
94 144 164
94 144 164
94 144 164
94 144 164
94 144 164
94 144 164
94 144 164
94 144 164
94 144 164
94 144 164
94 144 164
94 144 164
94 144 164
94 144 164
94 144 164
94 144 164
94 144 164
94 144 164
94 144 164
94 144 164
94 144 164
94 144 164
94 144 164
94 144 164
94 144 164
94 144 164
94 144 164
94 144 164
94 144 164
94 144 164
94 144 164
94 144 164
94 144 164
94 144 164
94 144 164
94 144 164
94 144 164
94 144 164
94 144 164
94 144 164
94 144 164
94 144 164
94 144 164
94 144 164
94 144 164
94 144 164
94 144 164
94 144 164
94 144 164
94 144 164
94 144 164
94 144 164
94 144 164
94 144 164
94 144 164
94 144 164
94 144 164
94 144 164
94 144 164
94 144 164
94 144 164
94 144 164
94 144 164
94 144 164
94 144 164
94 144 164
94 144 164
94 144 164
94 144 164
94 144 164
94 144 164
94 144 164
94 144 164
94 144 164
94 144 164
94 144 164
94 144 164
94 144 164
94 144 164
94 144 164
94 144 164
94 144 164
94 144 164
94 144 164
94 144 164
94 144 164
94 144 164
94 144 164
94 144 164
94 144 164
94 144 164
94 144 164
94 144 164
94 144 164
94 144 164
94 144 164
94 144 164
94 144 164
94 144 164
94 144 164
94 144 164
94 144 164
94 144 164
94 144 164
94 144 164
94 144 164
94 144 164
94 144 164
94 144 164
94 144 164
94 144 164
94 144 164
94 144 164
94 144 164
94 144 164
94 144 164
94 144 164
94 144 164
94 144 164
94 144 164
94 144 164
94 144 164
94 144 164
94 144 164
94 144 164
94 144 164
94 144 164
94 144 164
94 144 164
94 144 164
94 144 164
94 144 164
94 144 164
94 144 164
94 144 164
94 144 164
94 144 164
94 144 164
94 144 164
94 144 164
94 144 164
94 144 164
94 144 164
94 144 164
94 144 164
94 144 164
94 144 164
94 144 164
94 144 164
94 144 164
94 144 164
94 144 164
94 144 164
94 144 164
94 144 164
94 144 164
94 144 164
94 144 164
94 144 164
94 144 164
94 144 164
94 144 164
94 144 164
94 144 164
94 144 164
94 144 164
94 144 164
94 144 164
94 144 164
94 144 164
94 144 164
94 144 164
94 144 164
94 144 164
94 144 164
94 144 164
94 144 164
94 144 164
94 144 164
94 144 164
94 144 164
94 144 164
94 144 164
94 144 164
94 144 164
94 144 164
94 144 164
94 144 164
94 144 164
94 144 164
94 144 164
94 144 164
94 144 164
94 144 164
94 144 164
94 144 164
94 144 164
94 144 164
94 144 164
94 144 164
94 144 164
94 144 164
94 144 164
94 144 164
94 144 164
94 144 164
94 144 164
94 144 164
94 144 164
94 144 164
94 144 164
94 144 164
94 144 164
94 144 164
94 144 164
94 144 164
94 144 164
94 144 164
94 144 164
94 144 164
94 144 164
94 144 164
94 144 164
94 144 164
94 144 164
94 144 164
94 144 164
94 144 164
94 144 164
94 144 164
94 144 164
94 144 164
94 144 164
94 144 164
94 144 164
94 144 164
94 144 164
94 144 164
94 144 164
94 144 164
94 144 164
94 144 164
94 144 164
94 144 164
94 144 164
94 144 164
94 144 164
94 144 164
94 144 164
94 144 164
94 144 164
94 144 164
94 144 164
94 144 164
94 144 164
94 144 164
94 144 164
94 144 164
94 144 164
94 144 164
94 144 164
94 144 164
94 144 164
94 144 164
94 144 164
94 144 164
94 144 164
94 144 164
94 144 164
94 144 164
94 144 164
94 144 164
94 144 164
94 144 164
94 144 164
94 144 164
94 144 164
94 144 164
94 144 164
94 144 164
94 144 164
94 144 164
94 144 164
94 144 164
94 144 164
94 144 164
94 144 164
94 144 164
94 144 164
94 144 164
94 144 164
94 144 164
94 144 164
94 144 164
94 144 164
94 144 164
94 144 164
94 144 164
94 144 164
94 144 164
94 144 164
94 144 164
94 144 164
94 144 164
94 144 164
94 144 164
94 144 164
94 144 164
94 144 164
94 144 164
94 144 164
94 144 164
94 144 164
94 144 164
94 144 164
94 144 164
94 144 164
94 144 164
94 144 164
94 144 164
94 144 164
94 144 164
94 144 164
94 144 164
94 144 164
94 144 164
94 144 164
94 144 164
94 144 164
94 144 164
94 144 164
94 144 164
94 144 164
94 144 164
94 144 164
94 144 164
94 144 164
94 144 164
94 144 164
94 144 164
94 144 164
94 144 164
94 144 164
94 144 164
94 144 164
94 144 164
94 144 164
94 144 164
94 144 164
94 144 164
94 144 164
94 144 164
94 144 164
94 144 164
94 144 164
94 144 164
94 144 164
94 144 164
94 144 164
94 144 164
94 144 164
94 144 164
94 144 164
94 144 164
94 144 164
94 144 164
94 144 164
94 144 164
94 144 164
94 144 164
94 144 164
94 144 164
94 144 164
94 144 164
94 144 164
94 144 164
94 144 164
94 144 164
94 144 164
94 144 164
94 144 164
94 144 164
94 144 164
94 144 164
94 144 164
94 144 164
94 144 164
94 144 164
94 144 164
94 144 164
94 144 164
94 144 164
94 144 164
94 144 164
94 144 164
94 144 164
94 144 164
94 144 164
94 144 164
94 144 164
94 144 164
94 144 164
94 144 164
94 144 164
94 144 164
94 144 164
94 144 164
94 144 164
94 144 164
94 144 164
94 144 164
94 144 164
94 144 164
94 144 164
94 144 164
94 144 164
94 144 164
94 144 164
94 144 164
94 144 164
94 144 164
94 144 164
94 144 164
94 144 164
94 144 164
94 144 164
94 144 164
94 144 164
94 144 164
94 144 164
94 144 164
94 144 164
94 144 164
94 144 164
94 144 164
94 144 164
94 144 164
94 144 164
94 144 164
94 144 164
94 144 164
94 144 164
94 144 164
94 144 164
94 144 164
94 144 164
94 144 164
94 144 164
94 144 164
94 144 164
94 144 164
94 144 164
94 144 164
94 144 164
94 144 164
94 144 164
94 144 164
94 144 164
94 144 164
94 144 164
94 144 164
94 144 164
94 144 164
94 144 164
94 144 164
94 144 164
94 144 164
94 144 164
94 144 164
94 144 164
94 144 164
94 144 164
94 144 164
94 144 164
94 144 164
94 144 164
94 144 164
94 144 164
94 144 164
94 144 164
94 144 164
94 144 164
94 144 164
94 144 164
94 144 164
94 144 164
94 144 164
94 144 164
94 144 164
94 144 164
94 144 164
94 144 164
94 144 164
94 144 164
94 144 164
94 144 164
94 144 164
94 144 164
94 144 164
94 144 164
94 144 164
94 144 164
94 144 164
94 144 164
94 144 164
94 144 164
94 144 164
94 144 164
94 144 164
94 144 164
94 144 164
94 144 164
94 144 164
94 144 164
94 144 164
94 144 164
94 144 164
94 144 164
94 144 164
94 144 164
94 144 164
94 144 164
94 144 164
94 144 164
94 144 164
94 144 164
94 144 164
94 144 164
94 144 164
94 144 164
94 144 164
94 144 164
94 144 164
94 144 164
94 144 164
94 144 164
94 144 164
94 144 164
94 144 164
94 144 164
94 144 164
94 144 164
94 144 164
94 144 164
94 144 164
94 144 164
94 144 164
94 144 164
94 144 164
94 144 164
94 144 164
94 144 164
94 144 164
94 144 164
94 144 164
94 144 164
94 144 164
94 144 164
94 144 164
94 144 164
94 144 164
94 144 164
94 144 164
94 144 164
94 144 164
94 144 164
94 144 164
94 144 164
94 144 164
94 144 164
94 144 164
94 144 164
94 144 164
94 144 164
94 144 164
94 144 164
94 144 164
94 144 164
94 144 164
94 144 164
94 144 164
94 144 164
94 144 164
94 144 164
94 144 164
94 144 164
94 144 164
94 144 164
94 144 164
94 144 164
94 144 164
94 144 164
94 144 164
94 144 164
94 144 164
94 144 164
94 144 164
94 144 164
94 144 164
94 144 164
94 144 164
94 144 164
94 144 164
94 144 164
94 144 164
94 144 164
94 144 164
94 144 164
94 144 164
94 144 164
94 144 164
94 144 164
94 144 164
94 144 164
94 144 164
94 144 164
94 144 164
94 144 164
94 144 164
94 144 164
94 144 164
94 144 164
94 144 164
94 144 164
94 144 164
94 144 164
94 144 164
94 144 164
94 144 164
94 144 164
94 144 164
94 144 164
94 144 164
94 144 164
94 144 164
94 144 164
94 144 164
94 144 164
94 144 164
94 144 164
94 144 164
94 144 164
94 144 164
94 144 164
94 144 164
94 144 164
94 144 164
94 144 164
94 144 164
94 144 164
94 144 164
94 144 164
94 144 164
94 144 164
94 144 164
94 144 164
94 144 164
94 144 164
94 144 164
94 144 164
94 144 164
94 144 164
94 144 164
94 144 164
94 144 164
94 144 164
94 144 164
94 144 164
94 144 164
94 144 164
94 144 164
94 144 164
94 144 164
94 144 164
94 144 164
94 144 164
94 144 164
94 144 164
94 144 164
94 144 164
94 144 164
94 144 164
94 144 164
94 144 164
94 144 164
94 144 164
94 144 164
94 144 164
94 144 164
94 144 164
94 144 164
94 144 164
94 144 164
94 144 164
94 144 164
94 144 164
94 144 164
94 144 164
94 144 164
94 144 164
94 144 164
94 144 164
94 144 164
94 144 164
94 144 164
94 144 164
94 144 164
94 144 164
94 144 164
94 144 164
94 144 164
94 144 164
94 144 164
94 144 164
94 144 164
94 144 164
94 144 164
94 144 164
94 144 164
94 144 164
94 144 164
94 144 164
94 144 164
94 144 164
94 144 164
94 144 164
94 144 164
94 144 164
94 144 164
94 144 164
94 144 164
94 144 164
94 144 164
94 144 164
94 144 164
94 144 164
94 144 164
94 144 164
94 144 164
94 144 164
94 144 164
94 144 164
94 144 164
94 144 164
94 144 164
94 144 164
94 144 164
94 144 164
94 144 164
94 144 164
94 144 164
94 144 164
94 144 164
94 144 164
94 144 164
94 144 164
94 144 164
94 144 164
94 144 164
94 144 164
94 144 164
94 144 164
94 144 164
94 144 164
94 144 164
94 144 164
94 144 164
94 144 164
94 144 164
94 144 164
94 144 164
94 144 164
94 144 164
94 144 164
94 144 164
94 144 164
94 144 164
94 144 164
94 144 164
94 144 164
94 144 164
94 144 164
94 144 164
94 144 164
94 144 164
94 144 164
94 144 164
94 144 164
94 144 164
94 144 164
94 144 164
94 144 164
94 144 164
94 144 164
94 144 164
94 144 164
94 144 164
94 144 164
94 144 164
94 144 164
94 144 164
94 144 164
94 144 164
94 144 164
94 144 164
94 144 164
94 144 164
94 144 164
94 144 164
94 144 164
94 144 164
94 144 164
94 144 164
94 144 164
94 144 164
94 144 164
94 144 164
94 144 164
94 144 164
94 144 164
94 144 164
94 144 164
94 144 164
94 144 164
94 144 164
94 144 164
94 144 164
94 144 164
94 144 164
94 144 164
94 144 164
94 144 164
94 144 164
94 144 164
94 144 164
94 144 164
94 144 164
94 144 164
94 144 164
94 144 164
94 144 164
94 144 164
94 144 164
94 144 164
94 144 164
94 144 164
94 144 164
94 144 164
94 144 164
94 144 164
94 144 164
94 144 164
94 144 164
94 144 164
94 144 164
94 144 164
94 144 164
94 144 164
94 144 164
94 144 164
94 144 164
94 144 164
94 144 164
94 144 164
94 144 164
94 144 164
94 144 164
94 144 164
94 144 164
94 144 164
94 144 164
94 144 164
94 144 164
94 144 164
94 144 164
94 144 164
94 144 164
94 144 164
94 144 164
94 144 164
94 144 164
94 144 164
94 144 164
94 144 164
94 144 164
94 144 164
94 144 164
94 144 164
94 144 164
94 144 164
94 144 164
94 144 164
94 144 164
94 144 164
94 144 164
94 144 164
94 144 164
94 144 164
94 144 164
94 144 164
94 144 164
94 144 164
94 144 164
94 144 164
94 144 164
94 144 164
94 144 164
94 144 164
94 144 164
94 144 164
94 144 164
94 144 164
94 144 164
94 144 164
94 144 164
94 144 164
94 144 164
94 144 164
94 144 164
94 144 164
94 144 164
94 144 164
94 144 164
94 144 164
94 144 164
94 144 164
94 144 164
94 144 164
94 144 164
94 144 164
94 144 164
94 144 164
94 144 164
94 144 164
94 144 164
94 144 164
94 144 164
94 144 164
94 144 164
94 144 164
94 144 164
94 144 164
94 144 164
94 144 164
94 144 164
94 144 164
94 144 164
94 144 164
94 144 164
94 144 164
94 144 164
94 144 164
94 144 164
94 144 164
94 144 164
94 144 164
94 144 164
94 144 164
94 144 164
94 144 164
94 144 164
94 144 164
94 144 164
94 144 164
94 144 164
94 144 164
94 144 164
94 144 164
94 144 164
94 144 164
94 144 164
94 144 164
94 144 164
94 144 164
94 144 164
94 144 164
94 144 164
94 144 164
94 144 164
94 144 164
94 144 164
94 144 164
94 144 164
94 144 164
94 144 164
94 144 164
94 144 164
94 144 164
94 144 164
94 144 164
94 144 164
94 144 164
94 144 164
94 144 164
94 144 164
94 144 164
94 144 164
94 144 164
94 144 164
94 144 164
94 144 164
94 144 164
94 144 164
94 144 164
94 144 164
94 144 164
94 144 164
94 144 164
94 144 164
94 144 164
94 144 164
94 144 164
94 144 164
94 144 164
94 144 164
94 144 164
94 144 164
94 144 164
94 144 164
94 144 164
94 144 164
94 144 164
94 144 164
94 144 164
94 144 164
94 144 164
94 144 164
94 144 164
94 144 164
94 144 164
94 144 164
94 144 164
94 144 164
94 144 164
94 144 164
94 144 164
94 144 164
94 144 164
94 144 164
94 144 164
94 144 164
94 144 164
94 144 164
94 144 164
94 144 164
94 144 164
94 144 164
94 144 164
94 144 164
94 144 164
94 144 164
94 144 164
94 144 164
94 144 164
94 144 164
94 144 164
94 144 164
94 144 164
94 144 164
94 144 164
94 144 164
94 144 164
94 144 164
94 144 164
94 144 164
94 144 164
94 144 164
94 144 164
94 144 164
94 144 164
94 144 164
94 144 164
94 144 164
94 144 164
94 144 164
94 144 164
94 144 164
94 144 164
94 144 164
94 144 164
94 144 164
94 144 164
94 144 164
94 144 164
94 144 164
94 144 164
94 144 164
94 144 164
94 144 164
94 144 164
94 144 164
94 144 164
94 144 164
94 144 164
94 144 164
94 144 164
94 144 164
94 144 164
94 144 164
94 144 164
94 144 164
94 144 164
94 144 164
94 144 164
94 144 164
94 144 164
94 144 164
94 144 164
94 144 164
94 144 164
94 144 164
94 144 164
94 144 164
94 144 164
94 144 164
94 144 164
94 144 164
94 144 164
94 144 164
94 144 164
94 144 164
94 144 164
94 144 164
94 144 164
94 144 164
94 144 164
94 144 164
94 144 164
94 144 164
94 144 164
94 144 164
94 144 164
94 144 164
94 144 164
94 144 164
94 144 164
94 144 164
94 144 164
94 144 164
94 144 164
94 144 164
94 144 164
94 144 164
94 144 164
94 144 164
94 144 164
94 144 164
94 144 164
94 144 164
94 144 164
94 144 164
94 144 164
94 144 164
94 144 164
94 144 164
94 144 164
94 144 164
94 144 164
94 144 164
94 144 164
94 144 164
94 144 164
94 144 164
94 144 164
94 144 164
94 144 164
94 144 164
94 144 164
94 144 164
94 144 164
94 144 164
94 144 164
94 144 164
94 144 164
94 144 164
94 144 164
94 144 164
94 144 164
94 144 164
94 144 164
94 144 164
94 144 164
94 144 164
94 144 164
94 144 164
94 144 164
94 144 164
94 144 164
94 144 164
94 144 164
94 144 164
94 144 164
94 144 164
94 144 164
94 144 164
94 144 164
94 144 164
94 144 164
94 144 164
94 144 164
94 144 164
94 144 164
94 144 164
94 144 164
94 144 164
94 144 164
94 144 164
94 144 164
94 144 164
94 144 164
94 144 164
94 144 164
94 144 164
94 144 164
94 144 164
94 144 164
94 144 164
94 144 164
94 144 164
94 144 164
94 144 164
94 144 164
94 144 164
94 144 164
94 144 164
94 144 164
94 144 164
94 144 164
94 144 164
94 144 164
94 144 164
94 144 164
94 144 164
94 144 164
94 144 164
94 144 164
94 144 164
94 144 164
94 144 164
94 144 164
94 144 164
94 144 164
94 144 164
94 144 164
94 144 164
94 144 164
94 144 164
94 144 164
94 144 164
94 144 164
94 144 164
94 144 164
94 144 164
94 144 164
94 144 164
94 144 164
94 144 164
94 144 164
94 144 164
94 144 164
94 144 164
94 144 164
94 144 164
94 144 164
94 144 164
94 144 164
94 144 164
94 144 164
94 144 164
94 144 164
94 144 164
94 144 164
94 144 164
94 144 164
94 144 164
94 144 164
94 144 164
94 144 164
94 144 164
94 144 164
94 144 164
94 144 164
94 144 164
94 144 164
94 144 164
94 144 164
94 144 164
94 144 164
94 144 164
94 144 164
94 144 164
94 144 164
94 144 164
94 144 164
94 144 164
94 144 164
94 144 164
94 144 164
94 144 164
94 144 164
94 144 164
94 144 164
94 144 164
94 144 164
94 144 164
94 144 164
94 144 164
94 144 164
94 144 164
94 144 164
94 144 164
94 144 164
94 144 164
94 144 164
94 144 164
94 144 164
94 144 164
94 144 164
94 144 164
94 144 164
94 144 164
94 144 164
94 144 164
94 144 164
94 144 164
94 144 164
94 144 164
94 144 164
94 144 164
94 144 164
94 144 164
94 144 164
94 144 164
94 144 164
94 144 164
94 144 164
94 144 164
94 144 164
94 144 164
94 144 164
94 144 164
94 144 164
94 144 164
94 144 164
94 144 164
94 144 164
94 144 164
94 144 164
94 144 164
94 144 164
94 144 164
94 144 164
94 144 164
94 144 164
94 144 164
94 144 164
94 144 164
94 144 164
94 144 164
94 144 164
94 144 164
94 144 164
94 144 164
94 144 164
94 144 164
94 144 164
94 144 164
94 144 164
94 144 164
94 144 164
94 144 164
94 144 164
94 144 164
94 144 164
94 144 164
94 144 164
94 144 164
94 144 164
94 144 164
94 144 164
94 144 164
94 144 164
94 144 164
94 144 164
94 144 164
94 144 164
94 144 164
94 144 164
94 144 164
94 144 164
94 144 164
94 144 164
94 144 164
94 144 164
94 144 164
94 144 164
94 144 164
94 144 164
94 144 164
94 144 164
94 144 164
94 144 164
94 144 164
94 144 164
94 144 164
94 144 164
94 144 164
94 144 164
94 144 164
94 144 164
94 144 164
94 144 164
94 144 164
94 144 164
94 144 164
94 144 164
94 144 164
94 144 164
94 144 164
94 144 164
94 144 164
94 144 164
94 144 164
94 144 164
94 144 164
94 144 164
94 144 164
94 144 164
94 144 164
94 144 164
94 144 164
94 144 164
94 144 164
94 144 164
94 144 164
94 144 164
94 144 164
94 144 164
94 144 164
94 144 164
94 144 164
94 144 164
94 144 164
94 144 164
94 144 164
94 144 164
94 144 164
94 144 164
94 144 164
94 144 164
94 144 164
94 144 164
94 144 164
94 144 164
94 144 164
94 144 164
94 144 164
94 144 164
94 144 164
94 144 164
94 144 164
94 144 164
94 144 164
94 144 164
94 144 164
94 144 164
94 144 164
94 144 164
94 144 164
94 144 164
94 144 164
94 144 164
94 144 164
94 144 164
94 144 164
94 144 164
94 144 164
94 144 164
94 144 164
94 144 164
94 144 164
94 144 164
94 144 164
94 144 164
94 144 164
94 144 164
94 144 164
94 144 164
94 144 164
94 144 164
94 144 164
94 144 164
94 144 164
94 144 164
94 144 164
94 144 164
94 144 164
94 144 164
94 144 164
94 144 164
94 144 164
94 144 164
94 144 164
94 144 164
94 144 164
94 144 164
94 144 164
94 144 164
94 144 164
94 144 164
94 144 164
94 144 164
94 144 164
94 144 164
94 144 164
94 144 164
94 144 164
94 144 164
94 144 164
94 144 164
94 144 164
94 144 164
94 144 164
94 144 164
94 144 164
94 144 164
94 144 164
94 144 164
94 144 164
94 144 164
94 144 164
94 144 164
94 144 164
94 144 164
94 144 164
94 144 164
94 144 164
94 144 164
94 144 164
94 144 164
94 144 164
94 144 164
94 144 164
94 144 164
94 144 164
94 144 164
94 144 164
94 144 164
94 144 164
94 144 164
94 144 164
94 144 164
94 144 164
94 144 164
94 144 164
94 144 164
94 144 164
94 144 164
94 144 164
94 144 164
94 144 164
94 144 164
94 144 164
94 144 164
94 144 164
94 144 164
94 144 164
94 144 164
94 144 164
94 144 164
94 144 164
94 144 164
94 144 164
94 144 164
94 144 164
94 144 164
94 144 164
94 144 164
94 144 164
94 144 164
94 144 164
94 144 164
94 144 164
94 144 164
94 144 164
94 144 164
94 144 164
94 144 164
94 144 164
94 144 164
94 144 164
94 144 164
94 144 164
94 144 164
94 144 164
94 144 164
94 144 164
94 144 164
94 144 164
94 144 164
94 144 164
94 144 164
94 144 164
94 144 164
94 144 164
94 144 164
94 144 164
94 144 164
94 144 164
94 144 164
94 144 164
94 144 164
94 144 164
94 144 164
94 144 164
94 144 164
94 144 164
94 144 164
94 144 164
94 144 164
94 144 164
94 144 164
94 144 164
94 144 164
94 144 164
94 144 164
94 144 164
94 144 164
94 144 164
94 144 164
94 144 164
94 144 164
94 144 164
94 144 164
94 144 164
94 144 164
94 144 164
94 144 164
94 144 164
94 144 164
94 144 164
94 144 164
94 144 164
94 144 164
94 144 164
94 144 164
94 144 164
94 144 164
94 144 164
94 144 164
94 144 164
94 144 164
94 144 164
94 144 164
94 144 164
94 144 164
94 144 164
94 144 164
94 144 164
94 144 164
94 144 164
94 144 164
94 144 164
94 144 164
94 144 164
94 144 164
94 144 164
94 144 164
94 144 164
94 144 164
94 144 164
94 144 164
94 144 164
94 144 164
94 144 164
94 144 164
94 144 164
94 144 164
94 144 164
94 144 164
94 144 164
94 144 164
94 144 164
94 144 164
94 144 164
94 144 164
94 144 164
94 144 164
94 144 164
94 144 164
94 144 164
94 144 164
94 144 164
94 144 164
94 144 164
94 144 164
94 144 164
94 144 164
94 144 164
94 144 164
94 144 164
94 144 164
94 144 164
94 144 164
94 144 164
94 144 164
94 144 164
94 144 164
94 144 164
94 144 164
94 144 164
94 144 164
94 144 164
94 144 164
94 144 164
94 144 164
94 144 164
94 144 164
94 144 164
94 144 164
94 144 164
94 144 164
94 144 164
94 144 164
94 144 164
94 144 164
94 144 164
94 144 164
94 144 164
94 144 164
94 144 164
94 144 164
94 144 164
94 144 164
94 144 164
94 144 164
94 144 164
94 144 164
94 144 164
94 144 164
94 144 164
94 144 164
94 144 164
94 144 164
94 144 164
94 144 164
94 144 164
94 144 164
94 144 164
94 144 164
94 144 164
94 144 164
94 144 164
94 144 164
94 144 164
94 144 164
94 144 164
94 144 164
94 144 164
94 144 164
94 144 164
94 144 164
94 144 164
94 144 164
94 144 164
94 144 164
94 144 164
94 144 164
94 144 164
94 144 164
94 144 164
94 144 164
94 144 164
94 144 164
94 144 164
94 144 164
94 144 164
94 144 164
94 144 164
94 144 164
94 144 164
94 144 164
94 144 164
94 144 164
94 144 164
94 144 164
94 144 164
94 144 164
94 144 164
94 144 164
94 144 164
94 144 164
94 144 164
94 144 164
94 144 164
94 144 164
94 144 164
94 144 164
94 144 164
94 144 164
94 144 164
94 144 164
94 144 164
94 144 164
94 144 164
94 144 164
94 144 164
94 144 164
94 144 164
94 144 164
94 144 164
94 144 164
94 144 164
94 144 164
94 144 164
94 144 164
94 144 164
94 144 164
94 144 164
94 144 164
94 144 164
94 144 164
94 144 164
94 144 164
94 144 164
94 144 164
94 144 164
94 144 164
94 144 164
94 144 164
94 144 164
94 144 164
94 144 164
94 144 164
94 144 164
94 144 164
94 144 164
94 144 164
94 144 164
94 144 164
94 144 164
94 144 164
94 144 164
94 144 164
94 144 164
94 144 164
94 144 164
94 144 164
94 144 164
94 144 164
94 144 164
94 144 164
94 144 164
94 144 164
94 144 164
94 144 164
94 144 164
94 144 164
94 144 164
94 144 164
94 144 164
94 144 164
94 144 164
94 144 164
94 144 164
94 144 164
94 144 164
94 144 164
94 144 164
94 144 164
94 144 164
94 144 164
94 144 164
94 144 164
94 144 164
94 144 164
94 144 164
94 144 164
94 144 164
94 144 164
94 144 164
94 144 164
94 144 164
94 144 164
94 144 164
94 144 164
94 144 164
94 144 164
94 144 164
94 144 164
94 144 164
94 144 164
94 144 164
94 144 164
94 144 164
94 144 164
94 144 164
94 144 164
94 144 164
94 144 164
94 144 164
94 144 164
94 144 164
94 144 164
94 144 164
94 144 164
94 144 164
94 144 164
94 144 164
94 144 164
94 144 164
94 144 164
94 144 164
94 144 164
94 144 164
94 144 164
94 144 164
94 144 164
94 144 164
94 144 164
94 144 164
94 144 164
94 144 164
94 144 164
94 144 164
94 144 164
94 144 164
94 144 164
94 144 164
94 144 164
94 144 164
94 144 164
94 144 164
94 144 164
94 144 164
94 144 164
94 144 164
94 144 164
94 144 164
94 144 164
94 144 164
94 144 164
94 144 164
94 144 164
94 144 164
94 144 164
94 144 164
94 144 164
94 144 164
94 144 164
94 144 164
94 144 164
94 144 164
94 144 164
94 144 164
94 144 164
94 144 164
94 144 164
94 144 164
94 144 164
94 144 164
94 144 164
94 144 164
94 144 164
94 144 164
94 144 164
94 144 164
94 144 164
94 144 164
94 144 164
94 144 164
94 144 164
94 144 164
94 144 164
94 144 164
94 144 164
94 144 164
94 144 164
94 144 164
94 144 164
94 144 164
94 144 164
94 144 164
94 144 164
94 144 164
94 144 164
94 144 164
94 144 164
94 144 164
94 144 164
94 144 164
94 144 164
94 144 164
94 144 164
94 144 164
94 144 164
94 144 164
94 144 164
94 144 164
94 144 164
94 144 164
94 144 164
94 144 164
94 144 164
94 144 164
94 144 164
94 144 164
94 144 164
94 144 164
94 144 164
94 144 164
94 144 164
94 144 164
94 144 164
94 144 164
94 144 164
94 144 164
94 144 164
94 144 164
94 144 164
94 144 164
94 144 164
94 144 164
94 144 164
94 144 164
94 144 164
94 144 164
94 144 164
94 144 164
94 144 164
94 144 164
94 144 164
94 144 164
94 144 164
94 144 164
94 144 164
94 144 164
94 144 164
94 144 164
94 144 164
94 144 164
94 144 164
94 144 164
94 144 164
94 144 164
94 144 164
94 144 164
94 144 164
94 144 164
94 144 164
94 144 164
94 144 164
94 144 164
94 144 164
94 144 164
94 144 164
94 144 164
94 144 164
94 144 164
94 144 164
94 144 164
94 144 164
94 144 164
94 144 164
94 144 164
94 144 164
94 144 164
94 144 164
94 144 164
94 144 164
94 144 164
94 144 164
94 144 164
94 144 164
94 144 164
94 144 164
94 144 164
94 144 164
94 144 164
94 144 164
94 144 164
94 144 164
94 144 164
94 144 164
94 144 164
94 144 164
94 144 164
94 144 164
94 144 164
94 144 164
94 144 164
94 144 164
94 144 164
94 144 164
94 144 164
94 144 164
94 144 164
94 144 164
94 144 164
94 144 164
94 144 164
94 144 164
94 144 164
94 144 164
94 144 164
94 144 164
94 144 164
94 144 164
94 144 164
94 144 164
94 144 164
94 144 164
94 144 164
94 144 164
94 144 164
94 144 164
94 144 164
94 144 164
94 144 164
94 144 164
94 144 164
94 144 164
94 144 164
94 144 164
94 144 164
94 144 164
94 144 164
94 144 164
94 144 164
94 144 164
94 144 164
94 144 164
94 144 164
94 144 164
94 144 164
94 144 164
94 144 164
94 144 164
94 144 164
94 144 164
94 144 164
94 144 164
94 144 164
94 144 164
94 144 164
94 144 164
94 144 164
94 144 164
94 144 164
94 144 164
94 144 164
94 144 164
94 144 164
94 144 164
94 144 164
94 144 164
94 144 164
94 144 164
94 144 164
94 144 164
94 144 164
94 144 164
94 144 164
94 144 164
94 144 164
94 144 164
94 144 164
94 144 164
94 144 164
94 144 164
94 144 164
94 144 164
94 144 164
94 144 164
94 144 164
94 144 164
94 144 164
94 144 164
94 144 164
94 144 164
94 144 164
94 144 164
94 144 164
94 144 164
94 144 164
94 144 164
94 144 164
94 144 164
94 144 164
94 144 164
94 144 164
94 144 164
94 144 164
94 144 164
94 144 164
94 144 164
94 144 164
94 144 164
94 144 164
94 144 164
94 144 164
94 144 164
94 144 164
94 144 164
94 144 164
94 144 164
94 144 164
94 144 164
94 144 164
94 144 164
94 144 164
94 144 164
94 144 164
94 144 164
94 144 164
94 144 164
94 144 164
94 144 164
94 144 164
94 144 164
94 144 164
94 144 164
94 144 164
94 144 164
94 144 164
94 144 164
94 144 164
94 144 164
94 144 164
94 144 164
94 144 164
94 144 164
94 144 164
94 144 164
94 144 164
94 144 164
94 144 164
94 144 164
94 144 164
94 144 164
94 144 164
94 144 164
94 144 164
94 144 164
94 144 164
94 144 164
94 144 164
94 144 164
94 144 164
94 144 164
94 144 164
94 144 164
94 144 164
94 144 164
94 144 164
94 144 164
94 144 164
94 144 164
94 144 164
94 144 164
94 144 164
94 144 164
94 144 164
94 144 164
94 144 164
94 144 164
94 144 164
94 144 164
94 144 164
94 144 164
94 144 164
94 144 164
94 144 164
94 144 164
94 144 164
94 144 164
94 144 164
94 144 164
94 144 164
94 144 164
94 144 164
94 144 164
94 144 164
94 144 164
94 144 164
94 144 164
94 144 164
94 144 164
94 144 164
94 144 164
94 144 164
94 144 164
94 144 164
94 144 164
94 144 164
94 144 164
94 144 164
94 144 164
94 144 164
94 144 164
94 144 164
94 144 164
94 144 164
94 144 164
94 144 164
94 144 164
94 144 164
94 144 164
94 144 164
94 144 164
94 144 164
94 144 164
94 144 164
94 144 164
94 144 164
94 144 164
94 144 164
94 144 164
94 144 164
94 144 164
94 144 164
94 144 164
94 144 164
94 144 164
94 144 164
94 144 164
94 144 164
94 144 164
94 144 164
94 144 164
94 144 164
94 144 164
94 144 164
94 144 164
94 144 164
94 144 164
94 144 164
94 144 164
94 144 164
94 144 164
94 144 164
94 144 164
94 144 164
94 144 164
94 144 164
94 144 164
94 144 164
94 144 164
94 144 164
94 144 164
94 144 164
94 144 164
94 144 164
94 144 164
94 144 164
94 144 164
94 144 164
94 144 164
94 144 164
94 144 164
94 144 164
94 144 164
94 144 164
94 144 164
94 144 164
94 144 164
94 144 164
94 144 164
94 144 164
94 144 164
94 144 164
94 144 164
94 144 164
94 144 164
94 144 164
94 144 164
94 144 164
94 144 164
94 144 164
94 144 164
94 144 164
94 144 164
94 144 164
94 144 164
94 144 164
94 144 164
94 144 164
94 144 164
94 144 164
94 144 164
94 144 164
94 144 164
94 144 164
94 144 164
94 144 164
94 144 164
94 144 164
94 144 164
94 144 164
94 144 164
94 144 164
94 144 164
94 144 164
94 144 164
94 144 164
94 144 164
94 144 164
94 144 164
94 144 164
94 144 164
94 144 164
94 144 164
94 144 164
94 144 164
94 144 164
94 144 164
94 144 164
94 144 164
94 144 164
94 144 164
94 144 164
94 144 164
94 144 164
94 144 164
94 144 164
94 144 164
94 144 164
94 144 164
94 144 164
94 144 164
94 144 164
94 144 164
94 144 164
94 144 164
94 144 164
94 144 164
94 144 164
94 144 164
94 144 164
94 144 164
94 144 164
94 144 164
94 144 164
94 144 164
94 144 164
94 144 164
94 144 164
94 144 164
94 144 164
94 144 164
94 144 164
94 144 164
94 144 164
94 144 164
94 144 164
94 144 164
94 144 164
94 144 164
94 144 164
94 144 164
94 144 164
94 144 164
94 144 164
94 144 164
94 144 164
94 144 164
94 144 164
94 144 164
94 144 164
94 144 164
94 144 164
94 144 164
94 144 164
94 144 164
94 144 164
94 144 164
94 144 164
94 144 164
94 144 164
94 144 164
94 144 164
94 144 164
94 144 164
94 144 164
94 144 164
94 144 164
94 144 164
94 144 164
94 144 164
94 144 164
94 144 164
94 144 164
94 144 164
94 144 164
94 144 164
94 144 164
94 144 164
94 144 164
94 144 164
94 144 164
94 144 164
94 144 164
94 144 164
94 144 164
94 144 164
94 144 164
94 144 164
94 144 164
94 144 164
94 144 164
94 144 164
94 144 164
94 144 164
94 144 164
94 144 164
94 144 164
94 144 164
94 144 164
94 144 164
94 144 164
94 144 164
94 144 164
94 144 164
94 144 164
94 144 164
94 144 164
94 144 164
94 144 164
94 144 164
94 144 164
94 144 164
94 144 164
94 144 164
94 144 164
94 144 164
94 144 164
94 144 164
94 144 164
94 144 164
94 144 164
94 144 164
94 144 164
94 144 164
94 144 164
94 144 164
94 144 164
94 144 164
94 144 164
94 144 164
94 144 164
94 144 164
94 144 164
94 144 164
94 144 164
94 144 164
94 144 164
94 144 164
94 144 164
94 144 164
94 144 164
94 144 164
94 144 164
94 144 164
94 144 164
94 144 164
94 144 164
94 144 164
94 144 164
94 144 164
94 144 164
94 144 164
94 144 164
94 144 164
94 144 164
94 144 164
94 144 164
94 144 164
94 144 164
94 144 164
94 144 164
94 144 164
94 144 164
94 144 164
94 144 164
94 144 164
94 144 164
94 144 164
94 144 164
94 144 164
94 144 164
94 144 164
94 144 164
94 144 164
94 144 164
94 144 164
94 144 164
94 144 164
94 144 164
94 144 164
94 144 164
94 144 164
94 144 164
94 144 164
94 144 164
94 144 164
94 144 164
94 144 164
94 144 164
94 144 164
94 144 164
94 144 164
94 144 164
94 144 164
94 144 164
94 144 164
94 144 164
94 144 164
94 144 164
94 144 164
94 144 164
94 144 164
94 144 164
94 144 164
94 144 164
94 144 164
94 144 164
94 144 164
94 144 164
94 144 164
94 144 164
94 144 164
94 144 164
94 144 164
94 144 164
94 144 164
94 144 164
94 144 164
94 144 164
94 144 164
94 144 164
94 144 164
94 144 164
94 144 164
94 144 164
94 144 164
94 144 164
94 144 164
94 144 164
94 144 164
94 144 164
94 144 164
94 144 164
94 144 164
94 144 164
94 144 164
94 144 164
94 144 164
94 144 164
94 144 164
94 144 164
94 144 164
94 144 164
94 144 164
94 144 164
94 144 164
94 144 164
94 144 164
94 144 164
94 144 164
94 144 164
94 144 164
94 144 164
94 144 164
94 144 164
94 144 164
94 144 164
94 144 164
94 144 164
94 144 164
94 144 164
94 144 164
94 144 164
94 144 164
94 144 164
94 144 164
94 144 164
94 144 164
94 144 164
94 144 164
94 144 164
94 144 164
94 144 164
94 144 164
94 144 164
94 144 164
94 144 164
94 144 164
94 144 164
94 144 164
94 144 164
94 144 164
94 144 164
94 144 164
94 144 164
94 144 164
94 144 164
94 144 164
94 144 164
94 144 164
94 144 164
94 144 164
94 144 164
94 144 164
94 144 164
94 144 164
94 144 164
94 144 164
94 144 164
94 144 164
94 144 164
94 144 164
94 144 164
94 144 164
94 144 164
94 144 164
94 144 164
94 144 164
94 144 164
94 144 164
94 144 164
94 144 164
94 144 164
94 144 164
94 144 164
94 144 164
94 144 164
94 144 164
94 144 164
94 144 164
94 144 164
94 144 164
94 144 164
94 144 164
94 144 164
94 144 164
94 144 164
94 144 164
94 144 164
94 144 164
94 144 164
94 144 164
94 144 164
94 144 164
94 144 164
94 144 164
94 144 164
94 144 164
94 144 164
94 144 164
94 144 164
94 144 164
94 144 164
94 144 164
94 144 164
94 144 164
94 144 164
94 144 164
94 144 164
94 144 164
94 144 164
94 144 164
94 144 164
94 144 164
94 144 164
94 144 164
94 144 164
94 144 164
94 144 164
94 144 164
94 144 164
94 144 164
94 144 164
94 144 164
94 144 164
94 144 164
94 144 164
94 144 164
94 144 164
94 144 164
94 144 164
94 144 164
94 144 164
94 144 164
94 144 164
94 144 164
94 144 164
94 144 164
94 144 164
94 144 164
94 144 164
94 144 164
94 144 164
94 144 164
94 144 164
94 144 164
94 144 164
94 144 164
94 144 164
94 144 164
94 144 164
94 144 164
94 144 164
94 144 164
94 144 164
94 144 164
94 144 164
94 144 164
94 144 164
94 144 164
94 144 164
94 144 164
94 144 164
94 144 164
94 144 164
94 144 164
94 144 164
94 144 164
94 144 164
94 144 164
94 144 164
94 144 164
94 144 164
94 144 164
94 144 164
94 144 164
94 144 164
94 144 164
94 144 164
94 144 164
94 144 164
94 144 164
94 144 164
94 144 164
94 144 164
94 144 164
94 144 164
94 144 164
94 144 164
94 144 164
94 144 164
94 144 164
94 144 164
94 144 164
94 144 164
94 144 164
94 144 164
94 144 164
94 144 164
94 144 164
94 144 164
94 144 164
94 144 164
94 144 164
94 144 164
94 144 164
94 144 164
94 144 164
94 144 164
94 144 164
94 144 164
94 144 164
94 144 164
94 144 164
94 144 164
94 144 164
94 144 164
94 144 164
94 144 164
94 144 164
94 144 164
94 144 164
94 144 164
94 144 164
94 144 164
94 144 164
94 144 164
94 144 164
94 144 164
94 144 164
94 144 164
94 144 164
94 144 164
94 144 164
94 144 164
94 144 164
94 144 164
94 144 164
94 144 164
94 144 164
94 144 164
94 144 164
94 144 164
94 144 164
94 144 164
94 144 164
94 144 164
94 144 164
94 144 164
94 144 164
94 144 164
94 144 164
94 144 164
94 144 164
94 144 164
94 144 164
94 144 164
94 144 164
94 144 164
94 144 164
94 144 164
94 144 164
94 144 164
94 144 164
94 144 164
94 144 164
94 144 164
94 144 164
94 144 164
94 144 164
94 144 164
94 144 164
94 144 164
94 144 164
94 144 164
94 144 164
94 144 164
94 144 164
94 144 164
94 144 164
94 144 164
94 144 164
94 144 164
94 144 164
94 144 164
94 144 164
94 144 164
94 144 164
94 144 164
94 144 164
94 144 164
94 144 164
94 144 164
94 144 164
94 144 164
94 144 164
94 144 164
94 144 164
94 144 164
94 144 164
94 144 164
94 144 164
94 144 164
94 144 164
94 144 164
94 144 164
94 144 164
94 144 164
94 144 164
94 144 164
94 144 164
94 144 164
94 144 164
94 144 164
94 144 164
94 144 164
94 144 164
94 144 164
94 144 164
94 144 164
94 144 164
94 144 164
94 144 164
94 144 164
94 144 164
94 144 164
94 144 164
94 144 164
94 144 164
94 144 164
94 144 164
94 144 164
94 144 164
94 144 164
94 144 164
94 144 164
94 144 164
94 144 164
94 144 164
94 144 164
94 144 164
94 144 164
94 144 164
94 144 164
94 144 164
94 144 164
94 144 164
94 144 164
94 144 164
94 144 164
94 144 164
94 144 164
94 144 164
94 144 164
94 144 164
94 144 164
94 144 164
94 144 164
94 144 164
94 144 164
94 144 164
94 144 164
94 144 164
94 144 164
94 144 164
94 144 164
94 144 164
94 144 164
94 144 164
94 144 164
94 144 164
94 144 164
94 144 164
94 144 164
94 144 164
94 144 164
94 144 164
94 144 164
94 144 164
94 144 164
94 144 164
94 144 164
94 144 164
94 144 164
94 144 164
94 144 164
94 144 164
94 144 164
94 144 164
94 144 164
94 144 164
94 144 164
94 144 164
94 144 164
94 144 164
94 144 164
94 144 164
94 144 164
94 144 164
94 144 164
94 144 164
94 144 164
94 144 164
94 144 164
94 144 164
94 144 164
94 144 164
94 144 164
94 144 164
94 144 164
94 144 164
94 144 164
94 144 164
94 144 164
94 144 164
94 144 164
94 144 164
94 144 164
94 144 164
94 144 164
94 144 164
94 144 164
94 144 164
94 144 164
94 144 164
94 144 164
94 144 164
94 144 164
94 144 164
94 144 164
94 144 164
94 144 164
94 144 164
94 144 164
94 144 164
94 144 164
94 144 164
94 144 164
94 144 164
94 144 164
94 144 164
94 144 164
94 144 164
94 144 164
94 144 164
94 144 164
94 144 164
94 144 164
94 144 164
94 144 164
94 144 164
94 144 164
94 144 164
94 144 164
94 144 164
94 144 164
94 144 164
94 144 164
94 144 164
94 144 164
94 144 164
94 144 164
94 144 164
94 144 164
94 144 164
94 144 164
94 144 164
94 144 164
94 144 164
94 144 164
94 144 164
94 144 164
94 144 164
94 144 164
94 144 164
94 144 164
94 144 164
94 144 164
94 144 164
94 144 164
94 144 164
94 144 164
94 144 164
94 144 164
94 144 164
94 144 164
94 144 164
94 144 164
94 144 164
94 144 164
94 144 164
94 144 164
94 144 164
94 144 164
94 144 164
94 144 164
94 144 164
94 144 164
94 144 164
94 144 164
94 144 164
94 144 164
94 144 164
94 144 164
94 144 164
94 144 164
94 144 164
94 144 164
94 144 164
94 144 164
94 144 164
94 144 164
94 144 164
94 144 164
94 144 164
94 144 164
94 144 164
94 144 164
94 144 164
94 144 164
94 144 164
94 144 164
94 144 164
94 144 164
94 144 164
94 144 164
94 144 164
94 144 164
94 144 164
94 144 164
94 144 164
94 144 164
94 144 164
94 144 164
94 144 164
94 144 164
94 144 164
94 144 164
94 144 164
94 144 164
94 144 164
94 144 164
94 144 164
94 144 164
94 144 164
94 144 164
94 144 164
94 144 164
94 144 164
94 144 164
94 144 164
94 144 164
94 144 164
94 144 164
94 144 164
94 144 164
94 144 164
94 144 164
94 144 164
94 144 164
94 144 164
94 144 164
94 144 164
94 144 164
94 144 164
94 144 164
94 144 164
94 144 164
94 144 164
94 144 164
94 144 164
94 144 164
94 144 164
94 144 164
94 144 164
94 144 164
94 144 164
94 144 164
94 144 164
94 144 164
94 144 164
94 144 164
94 144 164
94 144 164
94 144 164
94 144 164
94 144 164
94 144 164
94 144 164
94 144 164
94 144 164
94 144 164
94 144 164
94 144 164
94 144 164
94 144 164
94 144 164
94 144 164
94 144 164
94 144 164
94 144 164
94 144 164
94 144 164
94 144 164
94 144 164
94 144 164
94 144 164
94 144 164
94 144 164
94 144 164
94 144 164
94 144 164
94 144 164
94 144 164
94 144 164
94 144 164
94 144 164
94 144 164
94 144 164
94 144 164
94 144 164
94 144 164
94 144 164
94 144 164
94 144 164
94 144 164
94 144 164
94 144 164
94 144 164
94 144 164
94 144 164
94 144 164
94 144 164
94 144 164
94 144 164
94 144 164
94 144 164
94 144 164
94 144 164
94 144 164
94 144 164
94 144 164
94 144 164
94 144 164
94 144 164
94 144 164
94 144 164
94 144 164
94 144 164
94 144 164
94 144 164
94 144 164
94 144 164
94 144 164
94 144 164
94 144 164
94 144 164
94 144 164
94 144 164
94 144 164
94 144 164
94 144 164
94 144 164
94 144 164
94 144 164
94 144 164
94 144 164
94 144 164
94 144 164
94 144 164
94 144 164
94 144 164
94 144 164
94 144 164
94 144 164
94 144 164
94 144 164
94 144 164
94 144 164
94 144 164
94 144 164
94 144 164
94 144 164
94 144 164
94 144 164
94 144 164
94 144 164
94 144 164
94 144 164
94 144 164
94 144 164
94 144 164
94 144 164
94 144 164
94 144 164
94 144 164
94 144 164
94 144 164
94 144 164
94 144 164
94 144 164
94 144 164
94 144 164
94 144 164
94 144 164
94 144 164
94 144 164
94 144 164
94 144 164
94 144 164
94 144 164
94 144 164
94 144 164
94 144 164
94 144 164
94 144 164
94 144 164
94 144 164
94 144 164
94 144 164
94 144 164
94 144 164
94 144 164
94 144 164
94 144 164
94 144 164
94 144 164
94 144 164
94 144 164
94 144 164
94 144 164
94 144 164
94 144 164
94 144 164
94 144 164
94 144 164
94 144 164
94 144 164
94 144 164
94 144 164
94 144 164
94 144 164
94 144 164
94 144 164
94 144 164
94 144 164
94 144 164
94 144 164
94 144 164
94 144 164
94 144 164
94 144 164
94 144 164
94 144 164
94 144 164
94 144 164
94 144 164
94 144 164
94 144 164
94 144 164
94 144 164
94 144 164
94 144 164
94 144 164
94 144 164
94 144 164
94 144 164
94 144 164
94 144 164
94 144 164
94 144 164
94 144 164
94 144 164
94 144 164
94 144 164
94 144 164
94 144 164
94 144 164
94 144 164
94 144 164
94 144 164
94 144 164
94 144 164
94 144 164
94 144 164
94 144 164
94 144 164
94 144 164
94 144 164
94 144 164
94 144 164
94 144 164
94 144 164
94 144 164
94 144 164
94 144 164
94 144 164
94 144 164
94 144 164
94 144 164
94 144 164
94 144 164
94 144 164
94 144 164
94 144 164
94 144 164
94 144 164
94 144 164
94 144 164
94 144 164
94 144 164
94 144 164
94 144 164
94 144 164
94 144 164
94 144 164
94 144 164
94 144 164
94 144 164
94 144 164
94 144 164
94 144 164
94 144 164
94 144 164
94 144 164
94 144 164
94 144 164
94 144 164
94 144 164
94 144 164
94 144 164
94 144 164
94 144 164
94 144 164
94 144 164
94 144 164
94 144 164
94 144 164
94 144 164
94 144 164
94 144 164
94 144 164
94 144 164
94 144 164
94 144 164
94 144 164
94 144 164
94 144 164
94 144 164
94 144 164
94 144 164
94 144 164
94 144 164
94 144 164
94 144 164
94 144 164
94 144 164
94 144 164
94 144 164
94 144 164
94 144 164
94 144 164
94 144 164
94 144 164
94 144 164
94 144 164
94 144 164
94 144 164
94 144 164
94 144 164
94 144 164
94 144 164
94 144 164
94 144 164
94 144 164
94 144 164
94 144 164
94 144 164
94 144 164
94 144 164
94 144 164
94 144 164
94 144 164
94 144 164
94 144 164
94 144 164
94 144 164
94 144 164
94 144 164
94 144 164
94 144 164
94 144 164
94 144 164
94 144 164
94 144 164
94 144 164
94 144 164
94 144 164
94 144 164
94 144 164
94 144 164
94 144 164
94 144 164
94 144 164
94 144 164
94 144 164
94 144 164
94 144 164
94 144 164
94 144 164
94 144 164
94 144 164
94 144 164
94 144 164
94 144 164
94 144 164
94 144 164
94 144 164
94 144 164
94 144 164
94 144 164
94 144 164
94 144 164
94 144 164
94 144 164
94 144 164
94 144 164
94 144 164
94 144 164
94 144 164
94 144 164
94 144 164
94 144 164
94 144 164
94 144 164
94 144 164
94 144 164
94 144 164
94 144 164
94 144 164
94 144 164
94 144 164
94 144 164
94 144 164
94 144 164
94 144 164
94 144 164
94 144 164
94 144 164
94 144 164
94 144 164
94 144 164
94 144 164
94 144 164
94 144 164
94 144 164
94 144 164
94 144 164
94 144 164
94 144 164
94 144 164
94 144 164
94 144 164
94 144 164
94 144 164
94 144 164
94 144 164
94 144 164
94 144 164
94 144 164
94 144 164
94 144 164
94 144 164
94 144 164
94 144 164
94 144 164
94 144 164
94 144 164
94 144 164
94 144 164
94 144 164
94 144 164
94 144 164
94 144 164
94 144 164
94 144 164
94 144 164
94 144 164
94 144 164
94 144 164
94 144 164
94 144 164
94 144 164
94 144 164
94 144 164
94 144 164
94 144 164
94 144 164
94 144 164
94 144 164
94 144 164
94 144 164
94 144 164
94 144 164
94 144 164
94 144 164
94 144 164
94 144 164
94 144 164
94 144 164
94 144 164
94 144 164
94 144 164
94 144 164
94 144 164
94 144 164
94 144 164
94 144 164
94 144 164
94 144 164
94 144 164
94 144 164
94 144 164
94 144 164
94 144 164
94 144 164
94 144 164
94 144 164
94 144 164
94 144 164
94 144 164
94 144 164
94 144 164
94 144 164
94 144 164
94 144 164
94 144 164
94 144 164
94 144 164
94 144 164
94 144 164
94 144 164
94 144 164
94 144 164
94 144 164
94 144 164
94 144 164
94 144 164
94 144 164
94 144 164
94 144 164
94 144 164
94 144 164
94 144 164
94 144 164
94 144 164
94 144 164
94 144 164
94 144 164
94 144 164
94 144 164
94 144 164
94 144 164
94 144 164
94 144 164
94 144 164
94 144 164
94 144 164
94 144 164
94 144 164
94 144 164
94 144 164
94 144 164
94 144 164
94 144 164
94 144 164
94 144 164
94 144 164
94 144 164
94 144 164
94 144 164
94 144 164
94 144 164
94 144 164
94 144 164
94 144 164
94 144 164
94 144 164
94 144 164
94 144 164
94 144 164
94 144 164
94 144 164
94 144 164
94 144 164
94 144 164
94 144 164
94 144 164
94 144 164
94 144 164
94 144 164
94 144 164
94 144 164
94 144 164
94 144 164
94 144 164
94 144 164
94 144 164
94 144 164
94 144 164
94 144 164
94 144 164
94 144 164
94 144 164
94 144 164
94 144 164
94 144 164
94 144 164
94 144 164
94 144 164
94 144 164
94 144 164
94 144 164
94 144 164
94 144 164
94 144 164
94 144 164
94 144 164
94 144 164
94 144 164
94 144 164
94 144 164
94 144 164
94 144 164
94 144 164
94 144 164
94 144 164
94 144 164
94 144 164
94 144 164
94 144 164
94 144 164
94 144 164
94 144 164
94 144 164
94 144 164
94 144 164
94 144 164
94 144 164
94 144 164
94 144 164
94 144 164
94 144 164
94 144 164
94 144 164
94 144 164
94 144 164
94 144 164
94 144 164
94 144 164
94 144 164
94 144 164
94 144 164
94 144 164
94 144 164
94 144 164
94 144 164
94 144 164
94 144 164
94 144 164
94 144 164
94 144 164
94 144 164
94 144 164
94 144 164
94 144 164
94 144 164
94 144 164
94 144 164
94 144 164
94 144 164
94 144 164
94 144 164
94 144 164
94 144 164
94 144 164
94 144 164
94 144 164
94 144 164
94 144 164
94 144 164
94 144 164
94 144 164
94 144 164
94 144 164
94 144 164
94 144 164
94 144 164
94 144 164
94 144 164
94 144 164
94 144 164
94 144 164
94 144 164
94 144 164
94 144 164
94 144 164
94 144 164
94 144 164
94 144 164
94 144 164
94 144 164
94 144 164
94 144 164
94 144 164
94 144 164
94 144 164
94 144 164
94 144 164
94 144 164
94 144 164
94 144 164
94 144 164
94 144 164
94 144 164
94 144 164
94 144 164
94 144 164
94 144 164
94 144 164
94 144 164
94 144 164
94 144 164
94 144 164
94 144 164
94 144 164
94 144 164
94 144 164
94 144 164
94 144 164
94 144 164
94 144 164
94 144 164
94 144 164
94 144 164
94 144 164
94 144 164
94 144 164
94 144 164
94 144 164
94 144 164
94 144 164
94 144 164
94 144 164
94 144 164
94 144 164
94 144 164
94 144 164
94 144 164
94 144 164
185 116 169
185 116 169
185 116 169
185 116 169
94 144 164
94 144 164
94 144 164
94 144 164
94 144 164
94 144 164
94 144 164
94 144 164
94 144 164
94 144 164
94 144 164
94 144 164
94 144 164
94 144 164
94 144 164
94 144 164
94 144 164
94 144 164
94 144 164
94 144 164
94 144 164
94 144 164
94 144 164
94 144 164
94 144 164
94 144 164
94 144 164
94 144 164
94 144 164
94 144 164
94 144 164
94 144 164
94 144 164
94 144 164
94 144 164
94 144 164
94 144 164
94 144 164
94 144 164
94 144 164
94 144 164
94 144 164
94 144 164
94 144 164
94 144 164
94 144 164
94 144 164
94 144 164
94 144 164
94 144 164
94 144 164
94 144 164
94 144 164
94 144 164
94 144 164
94 144 164
94 144 164
94 144 164
94 144 164
94 144 164
94 144 164
94 144 164
94 144 164
94 144 164
94 144 164
94 144 164
94 144 164
94 144 164
94 144 164
94 144 164
94 144 164
94 144 164
94 144 164
94 144 164
94 144 164
94 144 164
94 144 164
94 144 164
94 144 164
94 144 164
94 144 164
94 144 164
94 144 164
94 144 164
94 144 164
94 144 164
94 144 164
94 144 164
94 144 164
94 144 164
94 144 164
94 144 164
94 144 164
94 144 164
94 144 164
94 144 164
94 144 164
94 144 164
94 144 164
94 144 164
94 144 164
94 144 164
94 144 164
94 144 164
94 144 164
94 144 164
94 144 164
94 144 164
94 144 164
94 144 164
94 144 164
94 144 164
94 144 164
94 144 164
94 144 164
94 144 164
94 144 164
94 144 164
94 144 164
94 144 164
94 144 164
94 144 164
94 144 164
94 144 164
94 144 164
94 144 164
94 144 164
94 144 164
94 144 164
94 144 164
94 144 164
94 144 164
94 144 164
94 144 164
94 144 164
94 144 164
94 144 164
94 144 164
94 144 164
94 144 164
94 144 164
94 144 164
94 144 164
94 144 164
94 144 164
94 144 164
94 144 164
94 144 164
94 144 164
94 144 164
94 144 164
94 144 164
94 144 164
94 144 164
94 144 164
94 144 164
94 144 164
94 144 164
94 144 164
94 144 164
94 144 164
94 144 164
94 144 164
94 144 164
94 144 164
94 144 164
94 144 164
94 144 164
94 144 164
94 144 164
94 144 164
94 144 164
94 144 164
94 144 164
94 144 164
94 144 164
94 144 164
94 144 164
94 144 164
94 144 164
94 144 164
94 144 164
94 144 164
94 144 164
94 144 164
94 144 164
94 144 164
94 144 164
94 144 164
94 144 164
94 144 164
94 144 164
94 144 164
94 144 164
94 144 164
94 144 164
94 144 164
94 144 164
94 144 164
94 144 164
94 144 164
94 144 164
94 144 164
94 144 164
94 144 164
94 144 164
94 144 164
94 144 164
94 144 164
94 144 164
94 144 164
94 144 164
94 144 164
94 144 164
94 144 164
94 144 164
94 144 164
94 144 164
94 144 164
94 144 164
94 144 164
94 144 164
94 144 164
94 144 164
94 144 164
94 144 164
94 144 164
94 144 164
94 144 164
94 144 164
94 144 164
94 144 164
94 144 164
94 144 164
94 144 164
94 144 164
94 144 164
94 144 164
94 144 164
94 144 164
94 144 164
94 144 164
94 144 164
94 144 164
94 144 164
94 144 164
94 144 164
94 144 164
94 144 164
94 144 164
94 144 164
94 144 164
94 144 164
94 144 164
94 144 164
94 144 164
94 144 164
94 144 164
94 144 164
94 144 164
94 144 164
94 144 164
94 144 164
94 144 164
94 144 164
94 144 164
94 144 164
94 144 164
94 144 164
94 144 164
94 144 164
94 144 164
94 144 164
94 144 164
94 144 164
94 144 164
94 144 164
94 144 164
94 144 164
94 144 164
94 144 164
94 144 164
94 144 164
94 144 164
94 144 164
94 144 164
94 144 164
94 144 164
94 144 164
94 144 164
94 144 164
94 144 164
94 144 164
160 115 159
160 115 159
160 115 159
160 115 159
160 115 159
160 115 159
160 115 159
185 115 169
185 115 169
185 115 169
185 115 169
185 115 169
185 115 169
185 115 169
160 115 159
160 115 159
160 115 159
160 115 159
160 115 159
160 115 159
160 115 159
185 115 169
185 115 169
185 115 169
185 115 169
185 115 169
185 115 169
185 115 169
94 144 164
94 144 164
94 144 164
94 144 164
94 144 164
94 144 164
94 144 164
94 144 164
94 144 164
94 144 164
94 144 164
94 144 164
94 144 164
94 144 164
94 144 164
94 144 164
94 144 164
94 144 164
94 144 164
94 144 164
94 144 164
94 144 164
94 144 164
94 144 164
94 144 164
94 144 164
94 144 164
94 144 164
94 144 164
94 144 164
94 144 164
94 144 164
94 144 164
94 144 164
94 144 164
94 144 164
94 144 164
94 144 164
94 144 164
94 144 164
94 144 164
94 144 164
94 144 164
94 144 164
94 144 164
94 144 164
94 144 164
94 144 164
94 144 164
94 144 164
94 144 164
94 144 164
94 144 164
94 144 164
94 144 164
94 144 164
94 144 164
94 144 164
94 144 164
94 144 164
94 144 164
94 144 164
94 144 164
94 144 164
94 144 164
94 144 164
94 144 164
94 144 164
94 144 164
94 144 164
94 144 164
94 144 164
94 144 164
94 144 164
94 144 164
94 144 164
94 144 164
94 144 164
94 144 164
94 144 164
94 144 164
94 144 164
94 144 164
94 144 164
94 144 164
94 144 164
94 144 164
94 144 164
94 144 164
94 144 164
94 144 164
94 144 164
94 144 164
94 144 164
94 144 164
94 144 164
94 144 164
94 144 164
94 144 164
94 144 164
94 144 164
94 144 164
94 144 164
94 144 164
94 144 164
94 144 164
94 144 164
94 144 164
94 144 164
94 144 164
94 144 164
94 144 164
94 144 164
94 144 164
94 144 164
94 144 164
94 144 164
94 144 164
94 144 164
94 144 164
94 144 164
94 144 164
94 144 164
94 144 164
94 144 164
94 144 164
94 144 164
94 144 164
94 144 164
94 144 164
94 144 164
94 144 164
94 144 164
94 144 164
94 144 164
94 144 164
94 144 164
94 144 164
94 144 164
94 144 164
94 144 164
94 144 164
94 144 164
94 144 164
94 144 164
94 144 164
94 144 164
94 144 164
94 144 164
94 144 164
94 144 164
94 144 164
94 144 164
94 144 164
94 144 164
94 144 164
94 144 164
94 144 164
94 144 164
94 144 164
94 144 164
94 144 164
94 144 164
94 144 164
94 144 164
94 144 164
94 144 164
94 144 164
94 144 164
94 144 164
94 144 164
94 144 164
94 144 164
94 144 164
94 144 164
94 144 164
94 144 164
94 144 164
94 144 164
94 144 164
94 144 164
94 144 164
94 144 164
94 144 164
94 144 164
94 144 164
94 144 164
94 144 164
94 144 164
94 144 164
94 144 164
94 144 164
94 144 164
94 144 164
94 144 164
94 144 164
94 144 164
94 144 164
94 144 164
94 144 164
94 144 164
94 144 164
94 144 164
94 144 164
94 144 164
94 144 164
94 144 164
94 144 164
94 144 164
94 144 164
94 144 164
94 144 164
94 144 164
94 144 164
94 144 164
94 144 164
94 144 164
94 144 164
94 144 164
94 144 164
94 144 164
94 144 164
94 144 164
94 144 164
94 144 164
94 144 164
94 144 164
94 144 164
94 144 164
94 144 164
94 144 164
94 144 164
94 144 164
94 144 164
94 144 164
94 144 164
94 144 164
94 144 164
94 144 164
94 144 164
94 144 164
94 144 164
94 144 164
94 144 164
94 144 164
94 144 164
94 144 164
94 144 164
94 144 164
94 144 164
94 144 164
94 144 164
94 144 164
94 144 164
94 144 164
94 144 164
94 144 164
94 144 164
94 144 164
94 144 164
94 144 164
94 144 164
94 144 164
94 144 164
94 144 164
94 144 164
94 144 164
94 144 164
94 144 164
94 144 164
94 144 164
94 144 164
94 144 164
94 144 164
94 144 164
94 144 164
94 144 164
94 144 164
94 144 164
94 144 164
94 144 164
94 144 164
94 144 164
94 144 164
94 144 164
94 144 164
94 144 164
94 144 164
94 144 164
94 144 164
94 144 164
94 144 164
185 115 168
185 115 168
185 115 168
185 115 168
185 115 168
185 115 168
185 115 168
185 115 168
159 115 158
159 115 158
159 115 158
159 115 158
159 115 158
159 115 158
159 115 158
185 115 168
185 115 168
185 115 168
185 115 168
185 115 168
185 115 168
185 115 168
159 115 158
159 115 158
159 115 158
159 115 158
159 115 158
159 115 158
159 115 158
94 144 164
94 144 164
94 144 164
94 144 164
94 144 164
94 144 164
94 144 164
94 144 164
94 144 164
94 144 164
94 144 164
94 144 164
94 144 164
94 144 164
94 144 164
94 144 164
94 144 164
94 144 164
94 144 164
94 144 164
94 144 164
94 144 164
94 144 164
94 144 164
94 144 164
94 144 164
94 144 164
94 144 164
94 144 164
94 144 164
94 144 164
94 144 164
94 144 164
94 144 164
94 144 164
94 144 164
94 144 164
94 144 164
94 144 164
94 144 164
94 144 164
94 144 164
94 144 164
94 144 164
94 144 164
94 144 164
94 144 164
94 144 164
94 144 164
94 144 164
94 144 164
94 144 164
94 144 164
94 144 164
94 144 164
94 144 164
94 144 164
94 144 164
94 144 164
94 144 164
94 144 164
94 144 164
94 144 164
94 144 164
94 144 164
94 144 164
94 144 164
94 144 164
94 144 164
94 144 164
94 144 164
94 144 164
94 144 164
94 144 164
94 144 164
94 144 164
94 144 164
94 144 164
94 144 164
94 144 164
94 144 164
94 144 164
94 144 164
94 144 164
94 144 164
94 144 164
94 144 164
94 144 164
94 144 164
94 144 164
94 144 164
94 144 164
94 144 164
94 144 164
94 144 164
94 144 164
94 144 164
94 144 164
94 144 164
94 144 164
94 144 164
94 144 164
94 144 164
94 144 164
94 144 164
94 144 164
94 144 164
94 144 164
94 144 164
94 144 164
94 144 164
94 144 164
94 144 164
94 144 164
94 144 164
94 144 164
94 144 164
94 144 164
94 144 164
94 144 164
94 144 164
94 144 164
94 144 164
94 144 164
94 144 164
94 144 164
94 144 164
94 144 164
94 144 164
94 144 164
94 144 164
94 144 164
94 144 164
94 144 164
94 144 164
94 144 164
94 144 164
94 144 164
94 144 164
94 144 164
94 144 164
94 144 164
94 144 164
94 144 164
94 144 164
94 144 164
94 144 164
94 144 164
94 144 164
94 144 164
94 144 164
94 144 164
94 144 164
94 144 164
94 144 164
94 144 164
94 144 164
94 144 164
94 144 164
94 144 164
94 144 164
94 144 164
94 144 164
94 144 164
94 144 164
94 144 164
94 144 164
94 144 164
94 144 164
94 144 164
94 144 164
94 144 164
94 144 164
94 144 164
94 144 164
94 144 164
94 144 164
94 144 164
94 144 164
94 144 164
94 144 164
94 144 164
94 144 164
94 144 164
94 144 164
94 144 164
94 144 164
94 144 164
94 144 164
94 144 164
94 144 164
94 144 164
94 144 164
94 144 164
94 144 164
94 144 164
94 144 164
94 144 164
94 144 164
94 144 164
94 144 164
94 144 164
94 144 164
94 144 164
94 144 164
94 144 164
94 144 164
94 144 164
94 144 164
94 144 164
94 144 164
94 144 164
94 144 164
94 144 164
94 144 164
94 144 164
94 144 164
94 144 164
94 144 164
94 144 164
94 144 164
94 144 164
94 144 164
94 144 164
94 144 164
94 144 164
94 144 164
94 144 164
94 144 164
94 144 164
94 144 164
94 144 164
94 144 164
94 144 164
94 144 164
94 144 164
94 144 164
94 144 164
94 144 164
94 144 164
94 144 164
94 144 164
94 144 164
94 144 164
94 144 164
94 144 164
94 144 164
94 144 164
94 144 164
94 144 164
94 144 164
94 144 164
94 144 164
94 144 164
94 144 164
94 144 164
94 144 164
94 144 164
94 144 164
94 144 164
94 144 164
94 144 164
94 144 164
94 144 164
94 144 164
94 144 164
94 144 164
94 144 164
94 144 164
94 144 164
94 144 164
94 144 164
94 144 164
94 144 164
94 144 164
94 144 164
94 144 164
94 144 164
94 144 164
94 144 164
94 144 164
94 144 164
94 144 164
94 144 164
94 144 164
94 144 164
94 144 164
94 144 164
94 144 164
94 144 164
94 144 164
51 33 44
159 115 158
159 115 158
159 115 158
159 115 158
159 115 158
159 115 158
159 115 158
185 115 168
185 115 168
185 115 168
185 115 168
185 115 168
185 115 168
185 115 168
159 115 158
159 115 158
159 115 158
159 115 158
159 115 158
159 115 158
159 115 158
159 115 158
185 115 168
185 115 168
185 115 168
185 115 168
185 115 168
185 115 168
185 115 168
94 144 164
94 144 164
94 144 164
94 144 164
94 144 164
94 144 164
94 144 164
94 144 164
94 144 164
94 144 164
94 144 164
94 144 164
94 144 164
94 144 164
94 144 164
94 144 164
94 144 164
94 144 164
94 144 164
94 144 164
94 144 164
94 144 164
94 144 164
94 144 164
94 144 164
94 144 164
94 144 164
94 144 164
94 144 164
94 144 164
94 144 164
94 144 164
94 144 164
94 144 164
94 144 164
94 144 164
94 144 164
94 144 164
94 144 164
94 144 164
94 144 164
94 144 164
94 144 164
94 144 164
94 144 164
94 144 164
94 144 164
94 144 164
94 144 164
94 144 164
94 144 164
94 144 164
94 144 164
94 144 164
94 144 164
94 144 164
94 144 164
94 144 164
94 144 164
94 144 164
94 144 164
94 144 164
94 144 164
94 144 164
94 144 164
94 144 164
94 144 164
94 144 164
94 144 164
94 144 164
94 144 164
94 144 164
94 144 164
94 144 164
94 144 164
94 144 164
94 144 164
94 144 164
94 144 164
94 144 164
94 144 164
94 144 164
94 144 164
94 144 164
94 144 164
94 144 164
94 144 164
94 144 164
94 144 164
94 144 164
94 144 164
94 144 164
94 144 164
94 144 164
94 144 164
94 144 164
94 144 164
94 144 164
94 144 164
94 144 164
94 144 164
94 144 164
94 144 164
94 144 164
94 144 164
94 144 164
94 144 164
94 144 164
94 144 164
94 144 164
94 144 164
94 144 164
94 144 164
94 144 164
94 144 164
94 144 164
94 144 164
94 144 164
94 144 164
94 144 164
94 144 164
94 144 164
94 144 164
94 144 164
94 144 164
94 144 164
94 144 164
94 144 164
94 144 164
94 144 164
94 144 164
94 144 164
94 144 164
94 144 164
94 144 164
94 144 164
94 144 164
94 144 164
94 144 164
94 144 164
94 144 164
94 144 164
94 144 164
94 144 164
94 144 164
94 144 164
94 144 164
94 144 164
94 144 164
94 144 164
94 144 164
94 144 164
94 144 164
94 144 164
94 144 164
94 144 164
94 144 164
94 144 164
94 144 164
94 144 164
94 144 164
94 144 164
94 144 164
94 144 164
94 144 164
94 144 164
94 144 164
94 144 164
94 144 164
94 144 164
94 144 164
94 144 164
94 144 164
94 144 164
94 144 164
94 144 164
94 144 164
94 144 164
94 144 164
94 144 164
94 144 164
94 144 164
94 144 164
94 144 164
94 144 164
94 144 164
94 144 164
94 144 164
94 144 164
94 144 164
94 144 164
94 144 164
94 144 164
94 144 164
94 144 164
94 144 164
94 144 164
94 144 164
94 144 164
94 144 164
94 144 164
94 144 164
94 144 164
94 144 164
94 144 164
94 144 164
94 144 164
94 144 164
94 144 164
94 144 164
94 144 164
94 144 164
94 144 164
94 144 164
94 144 164
94 144 164
94 144 164
94 144 164
94 144 164
94 144 164
94 144 164
94 144 164
94 144 164
94 144 164
94 144 164
94 144 164
94 144 164
94 144 164
94 144 164
94 144 164
94 144 164
94 144 164
94 144 164
94 144 164
94 144 164
94 144 164
94 144 164
94 144 164
94 144 164
94 144 164
94 144 164
94 144 164
94 144 164
94 144 164
94 144 164
94 144 164
94 144 164
94 144 164
94 144 164
94 144 164
94 144 164
94 144 164
94 144 164
94 144 164
94 144 164
94 144 164
94 144 164
94 144 164
94 144 164
94 144 164
94 144 164
94 144 164
94 144 164
94 144 164
94 144 164
94 144 164
94 144 164
94 144 164
94 144 164
94 144 164
94 144 164
94 144 164
94 144 164
94 144 164
94 144 164
94 144 164
94 144 164
94 144 164
94 144 164
94 144 164
94 144 164
94 144 164
94 144 164
94 144 164
94 144 164
94 144 164
94 144 164
94 144 164
94 144 164
94 144 164
51 33 44
159 114 158
159 114 158
159 114 158
159 114 158
185 114 168
185 114 168
185 114 168
159 114 158
159 114 158
159 114 158
159 114 158
159 114 158
159 114 158
159 114 158
159 114 158
185 114 168
185 114 168
185 114 168
185 114 168
185 114 168
185 114 168
185 114 168
159 114 158
159 114 158
159 114 158
159 114 158
159 114 158
159 114 158
159 114 158
159 114 158
94 144 164
94 144 164
94 144 164
94 144 164
94 144 164
94 144 164
94 144 164
94 144 164
94 144 164
94 144 164
94 144 164
94 144 164
94 144 164
94 144 164
94 144 164
94 144 164
94 144 164
94 144 164
94 144 164
94 144 164
94 144 164
94 144 164
94 144 164
94 144 164
94 144 164
94 144 164
94 144 164
94 144 164
94 144 164
94 144 164
94 144 164
94 144 164
94 144 164
94 144 164
94 144 164
94 144 164
94 144 164
94 144 164
94 144 164
94 144 164
94 144 164
94 144 164
94 144 164
94 144 164
94 144 164
94 144 164
94 144 164
94 144 164
94 144 164
94 144 164
94 144 164
94 144 164
94 144 164
94 144 164
94 144 164
94 144 164
94 144 164
94 144 164
94 144 164
94 144 164
94 144 164
94 144 164
94 144 164
94 144 164
94 144 164
94 144 164
94 144 164
94 144 164
94 144 164
94 144 164
94 144 164
94 144 164
94 144 164
94 144 164
94 144 164
94 144 164
94 144 164
94 144 164
94 144 164
94 144 164
94 144 164
94 144 164
94 144 164
94 144 164
94 144 164
94 144 164
94 144 164
94 144 164
94 144 164
94 144 164
94 144 164
94 144 164
94 144 164
94 144 164
94 144 164
94 144 164
94 144 164
94 144 164
94 144 164
94 144 164
94 144 164
94 144 164
94 144 164
94 144 164
94 144 164
94 144 164
94 144 164
94 144 164
94 144 164
94 144 164
94 144 164
94 144 164
94 144 164
94 144 164
94 144 164
94 144 164
94 144 164
94 144 164
94 144 164
94 144 164
94 144 164
94 144 164
94 144 164
94 144 164
94 144 164
94 144 164
94 144 164
94 144 164
94 144 164
94 144 164
94 144 164
94 144 164
94 144 164
94 144 164
94 144 164
94 144 164
94 144 164
94 144 164
94 144 164
94 144 164
94 144 164
94 144 164
94 144 164
94 144 164
94 144 164
94 144 164
94 144 164
94 144 164
94 144 164
94 144 164
94 144 164
94 144 164
94 144 164
94 144 164
94 144 164
94 144 164
94 144 164
94 144 164
94 144 164
94 144 164
94 144 164
94 144 164
94 144 164
94 144 164
94 144 164
94 144 164
94 144 164
94 144 164
94 144 164
94 144 164
94 144 164
94 144 164
94 144 164
94 144 164
94 144 164
94 144 164
94 144 164
94 144 164
94 144 164
94 144 164
94 144 164
94 144 164
94 144 164
94 144 164
94 144 164
94 144 164
94 144 164
94 144 164
94 144 164
94 144 164
94 144 164
94 144 164
94 144 164
94 144 164
94 144 164
94 144 164
94 144 164
94 144 164
94 144 164
94 144 164
94 144 164
94 144 164
94 144 164
94 144 164
94 144 164
94 144 164
94 144 164
94 144 164
94 144 164
94 144 164
94 144 164
94 144 164
94 144 164
94 144 164
94 144 164
94 144 164
94 144 164
94 144 164
94 144 164
94 144 164
94 144 164
94 144 164
94 144 164
94 144 164
94 144 164
94 144 164
94 144 164
94 144 164
94 144 164
94 144 164
94 144 164
94 144 164
94 144 164
94 144 164
94 144 164
94 144 164
94 144 164
94 144 164
94 144 164
94 144 164
94 144 164
94 144 164
94 144 164
94 144 164
94 144 164
94 144 164
94 144 164
94 144 164
94 144 164
94 144 164
94 144 164
94 144 164
94 144 164
94 144 164
94 144 164
94 144 164
94 144 164
94 144 164
94 144 164
94 144 164
94 144 164
94 144 164
94 144 164
94 144 164
94 144 164
94 144 164
94 144 164
94 144 164
94 144 164
94 144 164
94 144 164
94 144 164
94 144 164
94 144 164
94 144 164
94 144 164
94 144 164
94 144 164
94 144 164
94 144 164
94 144 164
94 144 164
94 144 164
94 144 164
94 144 164
94 144 164
94 144 164
94 144 164
94 144 164
51 33 44
185 114 168
185 114 168
185 114 168
185 114 168
185 114 168
185 114 168
185 114 168
185 114 168
159 114 158
159 114 158
159 114 158
159 114 158
159 114 158
159 114 158
159 114 158
159 114 158
185 114 168
185 114 168
185 114 168
185 114 168
185 114 168
185 114 168
185 114 168
159 114 158
159 70 113
134 70 103
159 70 113
159 70 113
159 70 113
159 70 113
159 70 113
94 144 164
94 144 164
94 144 164
94 144 164
94 144 164
94 144 164
94 144 164
94 144 164
94 144 164
94 144 164
94 144 164
94 144 164
94 144 164
94 144 164
94 144 164
94 144 164
94 144 164
94 144 164
94 144 164
94 144 164
94 144 164
94 144 164
94 144 164
94 144 164
94 144 164
94 144 164
94 144 164
94 144 164
94 144 164
94 144 164
94 144 164
94 144 164
94 144 164
94 144 164
94 144 164
94 144 164
94 144 164
94 144 164
94 144 164
94 144 164
94 144 164
94 144 164
94 144 164
94 144 164
94 144 164
94 144 164
94 144 164
94 144 164
94 144 164
94 144 164
94 144 164
94 144 164
94 144 164
94 144 164
94 144 164
94 144 164
94 144 164
94 144 164
94 144 164
94 144 164
94 144 164
94 144 164
94 144 164
94 144 164
94 144 164
94 144 164
94 144 164
94 144 164
94 144 164
94 144 164
94 144 164
94 144 164
94 144 164
94 144 164
94 144 164
94 144 164
94 144 164
94 144 164
94 144 164
94 144 164
94 144 164
94 144 164
94 144 164
94 144 164
94 144 164
94 144 164
94 144 164
94 144 164
94 144 164
94 144 164
94 144 164
94 144 164
94 144 164
94 144 164
94 144 164
94 144 164
94 144 164
94 144 164
94 144 164
94 144 164
94 144 164
94 144 164
94 144 164
94 144 164
94 144 164
94 144 164
94 144 164
94 144 164
94 144 164
94 144 164
94 144 164
94 144 164
94 144 164
94 144 164
94 144 164
94 144 164
94 144 164
94 144 164
94 144 164
94 144 164
94 144 164
94 144 164
94 144 164
94 144 164
94 144 164
94 144 164
94 144 164
94 144 164
94 144 164
94 144 164
94 144 164
94 144 164
94 144 164
94 144 164
94 144 164
94 144 164
94 144 164
94 144 164
94 144 164
94 144 164
94 144 164
94 144 164
94 144 164
94 144 164
94 144 164
94 144 164
94 144 164
94 144 164
94 144 164
94 144 164
94 144 164
94 144 164
94 144 164
94 144 164
94 144 164
94 144 164
94 144 164
94 144 164
94 144 164
94 144 164
94 144 164
94 144 164
94 144 164
94 144 164
94 144 164
94 144 164
94 144 164
94 144 164
94 144 164
94 144 164
94 144 164
94 144 164
94 144 164
94 144 164
94 144 164
94 144 164
94 144 164
94 144 164
94 144 164
94 144 164
94 144 164
94 144 164
94 144 164
94 144 164
94 144 164
94 144 164
94 144 164
94 144 164
94 144 164
94 144 164
94 144 164
94 144 164
94 144 164
94 144 164
94 144 164
94 144 164
94 144 164
94 144 164
94 144 164
94 144 164
94 144 164
94 144 164
94 144 164
94 144 164
94 144 164
94 144 164
94 144 164
94 144 164
94 144 164
94 144 164
94 144 164
94 144 164
94 144 164
94 144 164
94 144 164
94 144 164
94 144 164
94 144 164
94 144 164
94 144 164
94 144 164
94 144 164
94 144 164
94 144 164
94 144 164
94 144 164
94 144 164
94 144 164
94 144 164
94 144 164
94 144 164
94 144 164
94 144 164
94 144 164
94 144 164
94 144 164
94 144 164
94 144 164
94 144 164
94 144 164
94 144 164
94 144 164
94 144 164
94 144 164
94 144 164
94 144 164
94 144 164
94 144 164
94 144 164
94 144 164
94 144 164
94 144 164
94 144 164
94 144 164
94 144 164
94 144 164
94 144 164
94 144 164
94 144 164
94 144 164
94 144 164
94 144 164
94 144 164
94 144 164
94 144 164
94 144 164
94 144 164
94 144 164
94 144 164
94 144 164
94 144 164
94 144 164
94 144 164
94 144 164
94 144 164
94 144 164
94 144 164
94 144 164
94 144 164
94 144 164
94 144 164
94 144 164
94 144 164
94 144 164
94 144 164
94 144 164
94 144 164
94 144 164
51 33 44
49 31 42
49 31 42
49 31 42
49 31 42
49 31 42
49 31 42
49 31 42
49 31 42
49 31 42
49 31 42
57 31 45
49 31 42
57 31 45
49 31 42
57 31 45
57 31 45
57 31 45
49 31 42
49 31 42
49 31 42
49 31 42
57 31 45
49 31 42
49 31 42
57 31 45
57 31 45
49 31 42
57 31 45
57 31 45
57 31 45
57 31 45
94 144 164
94 144 164
94 144 164
94 144 164
94 144 164
94 144 164
94 144 164
94 144 164
94 144 164
94 144 164
94 144 164
94 144 164
94 144 164
94 144 164
94 144 164
94 144 164
94 144 164
94 144 164
94 144 164
94 144 164
94 144 164
94 144 164
94 144 164
94 144 164
94 144 164
94 144 164
94 144 164
94 144 164
94 144 164
94 144 164
94 144 164
94 144 164
94 144 164
94 144 164
94 144 164
94 144 164
94 144 164
94 144 164
94 144 164
94 144 164
94 144 164
94 144 164
94 144 164
94 144 164
94 144 164
94 144 164
94 144 164
94 144 164
94 144 164
94 144 164
94 144 164
94 144 164
94 144 164
94 144 164
94 144 164
94 144 164
94 144 164
94 144 164
94 144 164
94 144 164
94 144 164
94 144 164
94 144 164
94 144 164
94 144 164
94 144 164
94 144 164
94 144 164
94 144 164
94 144 164
94 144 164
94 144 164
94 144 164
94 144 164
94 144 164
94 144 164
94 144 164
94 144 164
94 144 164
94 144 164
94 144 164
94 144 164
94 144 164
94 144 164
94 144 164
94 144 164
94 144 164
94 144 164
94 144 164
94 144 164
94 144 164
94 144 164
94 144 164
94 144 164
94 144 164
94 144 164
94 144 164
94 144 164
94 144 164
94 144 164
94 144 164
94 144 164
94 144 164
94 144 164
94 144 164
94 144 164
94 144 164
94 144 164
94 144 164
94 144 164
94 144 164
94 144 164
94 144 164
94 144 164
94 144 164
94 144 164
94 144 164
94 144 164
94 144 164
94 144 164
94 144 164
94 144 164
94 144 164
94 144 164
94 144 164
94 144 164
94 144 164
94 144 164
94 144 164
94 144 164
94 144 164
94 144 164
94 144 164
94 144 164
94 144 164
94 144 164
94 144 164
94 144 164
94 144 164
94 144 164
94 144 164
94 144 164
94 144 164
94 144 164
94 144 164
94 144 164
94 144 164
94 144 164
94 144 164
94 144 164
94 144 164
94 144 164
94 144 164
94 144 164
94 144 164
94 144 164
94 144 164
94 144 164
94 144 164
94 144 164
94 144 164
94 144 164
94 144 164
94 144 164
94 144 164
94 144 164
94 144 164
94 144 164
94 144 164
94 144 164
94 144 164
94 144 164
94 144 164
94 144 164
94 144 164
94 144 164
94 144 164
94 144 164
94 144 164
94 144 164
94 144 164
94 144 164
94 144 164
94 144 164
94 144 164
94 144 164
94 144 164
94 144 164
94 144 164
94 144 164
94 144 164
94 144 164
94 144 164
94 144 164
94 144 164
94 144 164
94 144 164
94 144 164
94 144 164
94 144 164
94 144 164
94 144 164
94 144 164
94 144 164
94 144 164
94 144 164
94 144 164
94 144 164
94 144 164
94 144 164
94 144 164
94 144 164
94 144 164
94 144 164
94 144 164
94 144 164
94 144 164
94 144 164
94 144 164
94 144 164
94 144 164
94 144 164
94 144 164
94 144 164
94 144 164
94 144 164
94 144 164
94 144 164
94 144 164
94 144 164
94 144 164
94 144 164
94 144 164
94 144 164
94 144 164
94 144 164
94 144 164
94 144 164
94 144 164
94 144 164
94 144 164
94 144 164
94 144 164
94 144 164
94 144 164
94 144 164
94 144 164
94 144 164
94 144 164
94 144 164
94 144 164
94 144 164
94 144 164
94 144 164
94 144 164
94 144 164
94 144 164
94 144 164
94 144 164
94 144 164
94 144 164
94 144 164
94 144 164
94 144 164
94 144 164
94 144 164
94 144 164
94 144 164
94 144 164
94 144 164
94 144 164
94 144 164
94 144 164
94 144 164
94 144 164
94 144 164
94 144 164
94 144 164
94 144 164
94 144 164
94 144 164
94 144 164
94 144 164
94 144 164
94 144 164
94 144 164
94 144 164
94 144 164
51 33 45
49 31 42
49 31 42
57 31 45
49 31 42
57 31 45
49 31 42
49 31 42
57 31 45
57 31 45
57 31 45
57 31 45
49 31 42
57 31 45
49 31 42
57 31 45
57 31 45
49 31 42
49 31 42
49 31 42
49 31 42
49 31 42
49 31 42
49 31 42
57 31 45
57 31 45
57 31 45
57 31 45
57 31 45
57 31 45
57 31 45
57 31 45
94 144 164
94 144 164
94 144 164
94 144 164
94 144 164
94 144 164
94 144 164
94 144 164
94 144 164
94 144 164
94 144 164
94 144 164
94 144 164
94 144 164
94 144 164
94 144 164
94 144 164
94 144 164
94 144 164
94 144 164
94 144 164
94 144 164
94 144 164
94 144 164
94 144 164
94 144 164
94 144 164
94 144 164
94 144 164
94 144 164
94 144 164
94 144 164
94 144 164
94 144 164
94 144 164
94 144 164
94 144 164
94 144 164
94 144 164
94 144 164
94 144 164
94 144 164
94 144 164
94 144 164
94 144 164
94 144 164
94 144 164
94 144 164
94 144 164
94 144 164
94 144 164
94 144 164
94 144 164
94 144 164
94 144 164
94 144 164
94 144 164
94 144 164
94 144 164
94 144 164
94 144 164
94 144 164
94 144 164
94 144 164
94 144 164
94 144 164
94 144 164
94 144 164
94 144 164
94 144 164
94 144 164
94 144 164
94 144 164
94 144 164
94 144 164
94 144 164
94 144 164
94 144 164
94 144 164
94 144 164
94 144 164
94 144 164
94 144 164
94 144 164
94 144 164
94 144 164
94 144 164
94 144 164
94 144 164
94 144 164
94 144 164
94 144 164
94 144 164
94 144 164
94 144 164
94 144 164
94 144 164
94 144 164
94 144 164
94 144 164
94 144 164
94 144 164
94 144 164
94 144 164
94 144 164
94 144 164
94 144 164
94 144 164
94 144 164
94 144 164
94 144 164
94 144 164
94 144 164
94 144 164
94 144 164
94 144 164
94 144 164
94 144 164
94 144 164
94 144 164
94 144 164
94 144 164
94 144 164
94 144 164
94 144 164
94 144 164
94 144 164
94 144 164
94 144 164
94 144 164
94 144 164
94 144 164
94 144 164
94 144 164
94 144 164
94 144 164
94 144 164
94 144 164
94 144 164
94 144 164
94 144 164
94 144 164
94 144 164
94 144 164
94 144 164
94 144 164
94 144 164
94 144 164
94 144 164
94 144 164
94 144 164
94 144 164
94 144 164
94 144 164
94 144 164
94 144 164
94 144 164
94 144 164
94 144 164
94 144 164
94 144 164
94 144 164
94 144 164
94 144 164
94 144 164
94 144 164
94 144 164
94 144 164
94 144 164
94 144 164
94 144 164
94 144 164
94 144 164
94 144 164
94 144 164
94 144 164
94 144 164
94 144 164
94 144 164
94 144 164
94 144 164
94 144 164
94 144 164
94 144 164
94 144 164
94 144 164
94 144 164
94 144 164
94 144 164
94 144 164
94 144 164
94 144 164
94 144 164
94 144 164
94 144 164
94 144 164
94 144 164
94 144 164
94 144 164
94 144 164
94 144 164
94 144 164
94 144 164
94 144 164
94 144 164
94 144 164
94 144 164
94 144 164
94 144 164
94 144 164
94 144 164
94 144 164
94 144 164
94 144 164
94 144 164
94 144 164
94 144 164
94 144 164
94 144 164
94 144 164
94 144 164
94 144 164
94 144 164
94 144 164
94 144 164
94 144 164
94 144 164
94 144 164
94 144 164
94 144 164
94 144 164
94 144 164
94 144 164
94 144 164
94 144 164
94 144 164
94 144 164
94 144 164
94 144 164
94 144 164
94 144 164
94 144 164
94 144 164
94 144 164
94 144 164
94 144 164
94 144 164
94 144 164
94 144 164
94 144 164
94 144 164
94 144 164
94 144 164
94 144 164
94 144 164
94 144 164
94 144 164
94 144 164
94 144 164
94 144 164
94 144 164
94 144 164
94 144 164
94 144 164
94 144 164
94 144 164
94 144 164
94 144 164
94 144 164
94 144 164
94 144 164
94 144 164
94 144 164
94 144 164
94 144 164
94 144 164
94 144 164
94 144 164
94 144 164
94 144 164
94 144 164
94 144 164
94 144 164
94 144 164
94 144 164
94 144 164
94 144 164
94 144 164
51 33 45
57 31 45
49 31 42
49 31 42
49 31 42
49 31 42
49 31 42
49 31 42
49 31 42
57 31 45
57 31 45
57 31 45
57 31 45
57 31 45
49 31 42
57 31 45
57 31 45
49 31 42
49 31 42
49 31 42
49 31 42
49 31 42
49 31 42
57 31 45
57 31 45
57 31 45
49 31 42
57 31 45
57 31 45
57 31 45
57 31 45
57 31 45
94 144 164
94 144 164
94 144 164
94 144 164
94 144 164
94 144 164
94 144 164
94 144 164
94 144 164
94 144 164
94 144 164
94 144 164
94 144 164
94 144 164
94 144 164
94 144 164
94 144 164
94 144 164
94 144 164
94 144 164
94 144 164
94 144 164
94 144 164
94 144 164
94 144 164
94 144 164
94 144 164
94 144 164
94 144 164
94 144 164
94 144 164
94 144 164
94 144 164
94 144 164
94 144 164
94 144 164
94 144 164
94 144 164
94 144 164
94 144 164
94 144 164
94 144 164
94 144 164
94 144 164
94 144 164
94 144 164
94 144 164
94 144 164
94 144 164
94 144 164
94 144 164
94 144 164
94 144 164
94 144 164
94 144 164
94 144 164
94 144 164
94 144 164
94 144 164
94 144 164
94 144 164
94 144 164
94 144 164
94 144 164
94 144 164
94 144 164
94 144 164
94 144 164
94 144 164
94 144 164
94 144 164
94 144 164
94 144 164
94 144 164
94 144 164
94 144 164
94 144 164
94 144 164
94 144 164
94 144 164
94 144 164
94 144 164
94 144 164
94 144 164
94 144 164
94 144 164
94 144 164
94 144 164
94 144 164
94 144 164
94 144 164
94 144 164
94 144 164
94 144 164
94 144 164
94 144 164
94 144 164
94 144 164
94 144 164
94 144 164
94 144 164
94 144 164
94 144 164
94 144 164
94 144 164
94 144 164
94 144 164
94 144 164
94 144 164
94 144 164
94 144 164
94 144 164
94 144 164
94 144 164
94 144 164
94 144 164
94 144 164
94 144 164
94 144 164
94 144 164
94 144 164
94 144 164
94 144 164
94 144 164
94 144 164
94 144 164
94 144 164
94 144 164
94 144 164
94 144 164
94 144 164
94 144 164
94 144 164
94 144 164
94 144 164
94 144 164
94 144 164
94 144 164
94 144 164
94 144 164
94 144 164
94 144 164
94 144 164
94 144 164
94 144 164
94 144 164
94 144 164
94 144 164
94 144 164
94 144 164
94 144 164
94 144 164
94 144 164
94 144 164
94 144 164
94 144 164
94 144 164
94 144 164
94 144 164
94 144 164
94 144 164
94 144 164
94 144 164
94 144 164
94 144 164
94 144 164
94 144 164
94 144 164
94 144 164
94 144 164
94 144 164
94 144 164
94 144 164
94 144 164
94 144 164
94 144 164
94 144 164
94 144 164
94 144 164
94 144 164
94 144 164
94 144 164
94 144 164
94 144 164
94 144 164
94 144 164
94 144 164
94 144 164
94 144 164
94 144 164
94 144 164
94 144 164
94 144 164
94 144 164
94 144 164
94 144 164
94 144 164
94 144 164
94 144 164
94 144 164
94 144 164
94 144 164
94 144 164
94 144 164
94 144 164
94 144 164
94 144 164
94 144 164
94 144 164
94 144 164
94 144 164
94 144 164
94 144 164
94 144 164
94 144 164
94 144 164
94 144 164
94 144 164
94 144 164
94 144 164
94 144 164
94 144 164
94 144 164
94 144 164
94 144 164
94 144 164
94 144 164
94 144 164
94 144 164
94 144 164
94 144 164
94 144 164
94 144 164
94 144 164
94 144 164
94 144 164
94 144 164
94 144 164
94 144 164
94 144 164
94 144 164
94 144 164
94 144 164
94 144 164
94 144 164
94 144 164
94 144 164
94 144 164
94 144 164
94 144 164
94 144 164
94 144 164
94 144 164
94 144 164
94 144 164
94 144 164
94 144 164
94 144 164
94 144 164
94 144 164
94 144 164
94 144 164
94 144 164
94 144 164
94 144 164
94 144 164
94 144 164
94 144 164
94 144 164
94 144 164
94 144 164
94 144 164
94 144 164
94 144 164
94 144 164
94 144 164
94 144 164
94 144 164
94 144 164
94 144 164
94 144 164
94 144 164
94 144 164
94 144 164
94 144 164
94 144 164
94 144 164
94 144 164
59 34 48
49 31 42
49 31 42
57 31 45
49 31 42
49 31 42
49 31 42
49 31 42
49 31 42
49 31 42
57 31 45
57 31 45
57 31 45
57 31 45
57 31 45
57 31 45
57 31 45
49 31 42
57 31 45
49 31 42
49 31 42
49 31 42
49 31 42
57 31 45
57 31 45
57 31 45
57 31 45
49 31 42
57 31 45
57 31 45
49 31 42
57 31 45
94 144 164
94 144 164
94 144 164
94 144 164
94 144 164
94 144 164
94 144 164
94 144 164
94 144 164
94 144 164
94 144 164
94 144 164
94 144 164
94 144 164
94 144 164
94 144 164
94 144 164
94 144 164
94 144 164
94 144 164
94 144 164
94 144 164
94 144 164
94 144 164
94 144 164
94 144 164
94 144 164
94 144 164
94 144 164
94 144 164
94 144 164
94 144 164
94 144 164
94 144 164
94 144 164
94 144 164
94 144 164
94 144 164
94 144 164
94 144 164
94 144 164
94 144 164
94 144 164
94 144 164
94 144 164
94 144 164
94 144 164
94 144 164
94 144 164
94 144 164
94 144 164
94 144 164
94 144 164
94 144 164
94 144 164
94 144 164
94 144 164
94 144 164
94 144 164
94 144 164
94 144 164
94 144 164
94 144 164
94 144 164
94 144 164
94 144 164
94 144 164
94 144 164
94 144 164
94 144 164
94 144 164
94 144 164
94 144 164
94 144 164
94 144 164
94 144 164
94 144 164
94 144 164
94 144 164
94 144 164
94 144 164
94 144 164
94 144 164
94 144 164
94 144 164
94 144 164
94 144 164
94 144 164
94 144 164
94 144 164
94 144 164
94 144 164
94 144 164
94 144 164
94 144 164
94 144 164
94 144 164
94 144 164
94 144 164
94 144 164
94 144 164
94 144 164
94 144 164
94 144 164
94 144 164
94 144 164
94 144 164
94 144 164
94 144 164
94 144 164
94 144 164
94 144 164
94 144 164
94 144 164
94 144 164
94 144 164
94 144 164
94 144 164
94 144 164
94 144 164
94 144 164
94 144 164
94 144 164
94 144 164
94 144 164
94 144 164
94 144 164
94 144 164
94 144 164
94 144 164
94 144 164
94 144 164
94 144 164
94 144 164
94 144 164
94 144 164
94 144 164
94 144 164
94 144 164
94 144 164
94 144 164
94 144 164
94 144 164
94 144 164
94 144 164
94 144 164
94 144 164
94 144 164
94 144 164
94 144 164
94 144 164
94 144 164
94 144 164
94 144 164
94 144 164
94 144 164
94 144 164
94 144 164
94 144 164
94 144 164
94 144 164
94 144 164
94 144 164
94 144 164
94 144 164
94 144 164
94 144 164
94 144 164
94 144 164
94 144 164
94 144 164
94 144 164
94 144 164
94 144 164
94 144 164
94 144 164
94 144 164
94 144 164
94 144 164
94 144 164
94 144 164
94 144 164
94 144 164
94 144 164
94 144 164
94 144 164
94 144 164
94 144 164
94 144 164
94 144 164
94 144 164
94 144 164
94 144 164
94 144 164
94 144 164
94 144 164
94 144 164
94 144 164
94 144 164
94 144 164
94 144 164
94 144 164
94 144 164
94 144 164
94 144 164
94 144 164
94 144 164
94 144 164
94 144 164
94 144 164
94 144 164
94 144 164
94 144 164
94 144 164
94 144 164
94 144 164
94 144 164
94 144 164
94 144 164
94 144 164
94 144 164
94 144 164
94 144 164
94 144 164
94 144 164
94 144 164
94 144 164
94 144 164
94 144 164
94 144 164
94 144 164
94 144 164
94 144 164
94 144 164
94 144 164
94 144 164
94 144 164
94 144 164
94 144 164
94 144 164
94 144 164
94 144 164
94 144 164
94 144 164
94 144 164
94 144 164
94 144 164
94 144 164
94 144 164
94 144 164
94 144 164
94 144 164
94 144 164
94 144 164
94 144 164
94 144 164
94 144 164
94 144 164
94 144 164
94 144 164
94 144 164
94 144 164
94 144 164
94 144 164
94 144 164
94 144 164
94 144 164
94 144 164
94 144 164
94 144 164
94 144 164
94 144 164
94 144 164
94 144 164
94 144 164
94 144 164
94 144 164
94 144 164
94 144 164
94 144 164
94 144 164
94 144 164
94 144 164
94 144 164
94 144 164
94 144 164
94 144 164
94 144 164
51 34 45
49 31 42
49 31 42
49 31 42
49 31 42
49 31 42
49 31 42
57 31 45
49 31 42
57 31 45
57 31 45
57 31 45
57 31 45
57 31 45
57 31 45
57 31 45
57 31 45
49 31 42
49 31 42
57 31 45
49 31 42
49 31 42
57 31 45
49 31 42
49 31 42
57 31 45
49 31 42
57 31 45
57 31 45
57 31 45
57 31 45
134 70 103
94 144 164
94 144 164
94 144 164
94 144 164
94 144 164
94 144 164
94 144 164
94 144 164
94 144 164
94 144 164
94 144 164
94 144 164
94 144 164
94 144 164
94 144 164
94 144 164
94 144 164
94 144 164
94 144 164
94 144 164
94 144 164
94 144 164
94 144 164
94 144 164
94 144 164
94 144 164
94 144 164
94 144 164
94 144 164
94 144 164
94 144 164
94 144 164
94 144 164
94 144 164
94 144 164
94 144 164
94 144 164
94 144 164
94 144 164
94 144 164
94 144 164
94 144 164
94 144 164
94 144 164
94 144 164
94 144 164
94 144 164
94 144 164
94 144 164
94 144 164
94 144 164
94 144 164
94 144 164
94 144 164
94 144 164
94 144 164
94 144 164
94 144 164
94 144 164
94 144 164
94 144 164
94 144 164
94 144 164
94 144 164
94 144 164
94 144 164
94 144 164
94 144 164
94 144 164
94 144 164
94 144 164
94 144 164
94 144 164
94 144 164
94 144 164
94 144 164
94 144 164
94 144 164
94 144 164
94 144 164
94 144 164
94 144 164
94 144 164
94 144 164
94 144 164
94 144 164
94 144 164
94 144 164
94 144 164
94 144 164
94 144 164
94 144 164
94 144 164
94 144 164
94 144 164
94 144 164
94 144 164
94 144 164
94 144 164
94 144 164
94 144 164
94 144 164
94 144 164
94 144 164
94 144 164
94 144 164
94 144 164
94 144 164
94 144 164
94 144 164
94 144 164
94 144 164
94 144 164
94 144 164
94 144 164
94 144 164
94 144 164
94 144 164
94 144 164
94 144 164
94 144 164
94 144 164
94 144 164
94 144 164
94 144 164
94 144 164
94 144 164
94 144 164
94 144 164
94 144 164
94 144 164
94 144 164
94 144 164
94 144 164
94 144 164
94 144 164
94 144 164
94 144 164
94 144 164
94 144 164
94 144 164
94 144 164
94 144 164
94 144 164
94 144 164
94 144 164
94 144 164
94 144 164
94 144 164
94 144 164
94 144 164
94 144 164
94 144 164
94 144 164
94 144 164
94 144 164
94 144 164
94 144 164
94 144 164
94 144 164
94 144 164
94 144 164
94 144 164
94 144 164
94 144 164
94 144 164
94 144 164
94 144 164
94 144 164
94 144 164
94 144 164
94 144 164
94 144 164
94 144 164
94 144 164
94 144 164
94 144 164
94 144 164
94 144 164
94 144 164
94 144 164
94 144 164
94 144 164
94 144 164
94 144 164
94 144 164
94 144 164
94 144 164
94 144 164
94 144 164
94 144 164
94 144 164
94 144 164
94 144 164
94 144 164
94 144 164
94 144 164
94 144 164
94 144 164
94 144 164
94 144 164
94 144 164
94 144 164
94 144 164
94 144 164
94 144 164
94 144 164
94 144 164
94 144 164
94 144 164
94 144 164
94 144 164
94 144 164
94 144 164
94 144 164
94 144 164
94 144 164
94 144 164
94 144 164
94 144 164
94 144 164
94 144 164
94 144 164
94 144 164
94 144 164
94 144 164
94 144 164
94 144 164
94 144 164
94 144 164
94 144 164
94 144 164
94 144 164
94 144 164
94 144 164
94 144 164
94 144 164
94 144 164
94 144 164
94 144 164
94 144 164
94 144 164
94 144 164
94 144 164
94 144 164
94 144 164
94 144 164
94 144 164
94 144 164
94 144 164
94 144 164
94 144 164
94 144 164
94 144 164
94 144 164
94 144 164
94 144 164
94 144 164
94 144 164
94 144 164
94 144 164
94 144 164
94 144 164
94 144 164
94 144 164
94 144 164
94 144 164
94 144 164
94 144 164
94 144 164
94 144 164
94 144 164
94 144 164
94 144 164
94 144 164
94 144 164
94 144 164
94 144 164
94 144 164
94 144 164
94 144 164
94 144 164
94 144 164
94 144 164
94 144 164
94 144 164
94 144 164
94 144 164
51 34 45
49 31 42
49 31 42
57 31 45
49 31 42
49 31 42
49 31 42
49 31 42
49 31 42
57 31 45
57 31 45
57 31 45
49 31 42
57 31 45
57 31 45
57 31 45
57 31 45
49 31 42
49 31 42
49 31 42
49 31 42
49 31 42
49 31 42
49 31 42
57 31 45
57 31 45
57 31 45
57 31 45
57 31 45
49 31 42
49 31 42
134 70 103
94 144 164
94 144 164
94 144 164
94 144 164
94 144 164
94 144 164
94 144 164
94 144 164
94 144 164
94 144 164
94 144 164
94 144 164
94 144 164
94 144 164
94 144 164
94 144 164
94 144 164
94 144 164
94 144 164
94 144 164
94 144 164
94 144 164
94 144 164
94 144 164
94 144 164
94 144 164
94 144 164
94 144 164
94 144 164
94 144 164
94 144 164
94 144 164
94 144 164
94 144 164
94 144 164
128 196 164
128 196 164
128 196 164
122 180 160
122 180 160
122 180 160
122 180 160
128 196 164
128 196 164
128 196 164
122 181 160
128 196 164
128 196 164
123 181 160
128 196 164
128 196 164
123 181 160
123 181 160
129 196 164
103 147 119
109 162 123
103 147 119
69 89 81
69 89 81
94 144 164
94 144 164
94 144 164
94 144 164
94 144 164
94 144 164
94 144 164
94 144 164
94 144 164
94 144 164
94 144 164
94 144 164
94 144 164
94 144 164
94 144 164
94 144 164
94 144 164
94 144 164
94 144 164
94 144 164
94 144 164
94 144 164
94 144 164
94 144 164
94 144 164
94 144 164
94 144 164
94 144 164
94 144 164
94 144 164
94 144 164
94 144 164
94 144 164
94 144 164
94 144 164
94 144 164
94 144 164
94 144 164
94 144 164
94 144 164
94 144 164
94 144 164
94 144 164
94 144 164
94 144 164
94 144 164
94 144 164
94 144 164
94 144 164
94 144 164
94 144 164
94 144 164
94 144 164
94 144 164
94 144 164
94 144 164
94 144 164
94 144 164
94 144 164
94 144 164
94 144 164
94 144 164
94 144 164
94 144 164
94 144 164
94 144 164
94 144 164
94 144 164
94 144 164
94 144 164
94 144 164
94 144 164
94 144 164
94 144 164
94 144 164
94 144 164
94 144 164
94 144 164
94 144 164
94 144 164
94 144 164
94 144 164
94 144 164
94 144 164
94 144 164
94 144 164
94 144 164
94 144 164
94 144 164
94 144 164
94 144 164
94 144 164
94 144 164
94 144 164
94 144 164
94 144 164
94 144 164
94 144 164
94 144 164
94 144 164
94 144 164
94 144 164
94 144 164
94 144 164
94 144 164
94 144 164
94 144 164
94 144 164
94 144 164
94 144 164
94 144 164
94 144 164
94 144 164
94 144 164
94 144 164
94 144 164
94 144 164
94 144 164
94 144 164
94 144 164
94 144 164
94 144 164
94 144 164
94 144 164
94 144 164
94 144 164
94 144 164
94 144 164
94 144 164
94 144 164
94 144 164
94 144 164
94 144 164
94 144 164
94 144 164
94 144 164
94 144 164
94 144 164
94 144 164
94 144 164
94 144 164
94 144 164
94 144 164
94 144 164
94 144 164
94 144 164
94 144 164
94 144 164
94 144 164
94 144 164
94 144 164
94 144 164
94 144 164
94 144 164
94 144 164
94 144 164
94 144 164
94 144 164
94 144 164
94 144 164
94 144 164
94 144 164
94 144 164
94 144 164
94 144 164
94 144 164
94 144 164
94 144 164
94 144 164
94 144 164
94 144 164
94 144 164
94 144 164
94 144 164
94 144 164
94 144 164
94 144 164
94 144 164
94 144 164
94 144 164
94 144 164
94 144 164
94 144 164
94 144 164
94 144 164
94 144 164
94 144 164
94 144 164
94 144 164
94 144 164
94 144 164
94 144 164
94 144 164
94 144 164
94 144 164
94 144 164
94 144 164
94 144 164
94 144 164
94 144 164
94 144 164
94 144 164
94 144 164
94 144 164
94 144 164
94 144 164
94 144 164
94 144 164
94 144 164
94 144 164
94 144 164
94 144 164
94 144 164
94 144 164
94 144 164
94 144 164
94 144 164
94 144 164
94 144 164
94 144 164
94 144 164
94 144 164
94 144 164
94 144 164
94 144 164
94 144 164
94 144 164
94 144 164
94 144 164
52 34 45
49 31 42
57 31 45
49 31 42
57 31 45
49 31 42
49 31 42
49 31 42
49 31 42
57 31 45
57 31 45
49 31 42
57 31 45
49 31 42
57 31 45
49 31 42
57 31 45
49 31 42
49 31 42
49 31 42
49 31 42
49 31 42
57 31 45
49 31 42
57 31 45
57 31 45
57 31 45
57 31 45
57 31 45
49 31 42
57 31 45
160 70 113
94 144 164
94 144 164
94 144 164
94 144 164
94 144 164
94 144 164
94 144 164
94 144 164
94 144 164
94 144 164
94 144 164
94 144 164
94 144 164
94 144 164
94 144 164
94 144 164
94 144 164
94 144 164
94 144 164
94 144 164
94 144 164
94 144 164
94 144 164
94 144 164
94 144 164
94 144 164
94 144 164
94 144 164
94 144 164
94 144 164
94 144 164
94 144 164
94 144 164
94 144 164
94 144 164
65 82 78
65 82 77
65 82 77
65 82 78
67 87 79
65 82 78
67 87 79
67 87 79
67 87 78
102 146 117
67 87 78
67 87 79
67 87 79
65 82 78
67 87 79
66 83 78
67 87 79
66 83 78
69 89 81
67 84 80
67 84 80
67 84 80
67 84 80
94 144 164
94 144 164
94 144 164
94 144 164
94 144 164
94 144 164
94 144 164
94 144 164
94 144 164
94 144 164
94 144 164
94 144 164
94 144 164
94 144 164
94 144 164
94 144 164
94 144 164
94 144 164
94 144 164
94 144 164
94 144 164
94 144 164
94 144 164
94 144 164
94 144 164
94 144 164
94 144 164
94 144 164
94 144 164
94 144 164
94 144 164
94 144 164
94 144 164
94 144 164
94 144 164
94 144 164
94 144 164
94 144 164
94 144 164
94 144 164
94 144 164
94 144 164
94 144 164
94 144 164
94 144 164
94 144 164
94 144 164
94 144 164
94 144 164
94 144 164
94 144 164
94 144 164
94 144 164
94 144 164
94 144 164
94 144 164
94 144 164
94 144 164
94 144 164
94 144 164
94 144 164
94 144 164
94 144 164
94 144 164
94 144 164
94 144 164
94 144 164
94 144 164
94 144 164
94 144 164
94 144 164
94 144 164
94 144 164
94 144 164
94 144 164
94 144 164
94 144 164
94 144 164
94 144 164
94 144 164
94 144 164
94 144 164
94 144 164
94 144 164
94 144 164
94 144 164
94 144 164
94 144 164
94 144 164
94 144 164
94 144 164
94 144 164
94 144 164
94 144 164
94 144 164
94 144 164
94 144 164
94 144 164
94 144 164
94 144 164
94 144 164
94 144 164
94 144 164
94 144 164
94 144 164
94 144 164
94 144 164
94 144 164
94 144 164
94 144 164
94 144 164
94 144 164
94 144 164
94 144 164
94 144 164
94 144 164
94 144 164
94 144 164
94 144 164
94 144 164
94 144 164
94 144 164
94 144 164
94 144 164
94 144 164
94 144 164
94 144 164
94 144 164
94 144 164
94 144 164
94 144 164
94 144 164
94 144 164
94 144 164
94 144 164
94 144 164
94 144 164
94 144 164
94 144 164
94 144 164
94 144 164
94 144 164
94 144 164
94 144 164
94 144 164
94 144 164
94 144 164
94 144 164
94 144 164
94 144 164
94 144 164
94 144 164
94 144 164
94 144 164
94 144 164
94 144 164
94 144 164
94 144 164
94 144 164
94 144 164
94 144 164
94 144 164
94 144 164
94 144 164
94 144 164
94 144 164
94 144 164
94 144 164
94 144 164
94 144 164
94 144 164
94 144 164
94 144 164
94 144 164
94 144 164
94 144 164
94 144 164
94 144 164
94 144 164
94 144 164
94 144 164
94 144 164
94 144 164
94 144 164
94 144 164
94 144 164
94 144 164
94 144 164
94 144 164
94 144 164
94 144 164
94 144 164
94 144 164
94 144 164
121 180 158
127 196 162
127 196 162
121 180 158
121 180 158
94 144 164
94 144 164
94 144 164
94 144 164
94 144 164
94 144 164
94 144 164
94 144 164
94 144 164
94 144 164
94 144 164
94 144 164
94 144 164
94 144 164
94 144 164
94 144 164
94 144 164
94 144 164
94 144 164
94 144 164
94 144 164
94 144 164
94 144 164
94 144 164
94 144 164
94 144 164
94 144 164
94 144 164
94 144 164
94 144 164
94 144 164
52 34 46
49 31 42
49 31 42
57 31 45
49 31 42
49 31 42
49 31 42
49 31 42
49 31 42
57 31 45
57 31 45
49 31 42
49 31 42
49 31 42
57 31 45
49 31 42
49 31 42
57 31 45
57 31 45
57 31 45
57 31 45
57 31 45
57 31 45
57 31 45
49 31 42
57 31 45
49 31 42
49 31 42
49 31 42
49 31 42
49 31 42
94 144 164
94 144 164
94 144 164
94 144 164
94 144 164
94 144 164
94 144 164
94 144 164
94 144 164
94 144 164
94 144 164
94 144 164
94 144 164
94 144 164
94 144 164
94 144 164
94 144 164
94 144 164
94 144 164
94 144 164
94 144 164
94 144 164
94 144 164
94 144 164
94 144 164
94 144 164
94 144 164
94 144 164
94 144 164
94 144 164
94 144 164
94 144 164
94 144 164
94 144 164
94 144 164
94 144 164
65 82 77
65 82 77
65 82 78
67 87 79
67 87 79
66 83 78
67 87 79
67 87 79
67 87 78
67 87 78
65 82 77
65 82 77
65 82 78
67 87 79
66 82 78
67 87 79
66 83 78
66 83 78
69 89 81
67 84 80
67 84 80
69 89 81
67 84 80
94 144 164
94 144 164
94 144 164
94 144 164
94 144 164
94 144 164
94 144 164
94 144 164
94 144 164
94 144 164
94 144 164
94 144 164
94 144 164
94 144 164
94 144 164
94 144 164
94 144 164
94 144 164
94 144 164
94 144 164
94 144 164
94 144 164
94 144 164
94 144 164
94 144 164
94 144 164
94 144 164
94 144 164
94 144 164
94 144 164
94 144 164
94 144 164
94 144 164
94 144 164
94 144 164
94 144 164
94 144 164
94 144 164
94 144 164
94 144 164
94 144 164
94 144 164
94 144 164
94 144 164
94 144 164
94 144 164
94 144 164
94 144 164
94 144 164
94 144 164
94 144 164
94 144 164
94 144 164
94 144 164
94 144 164
94 144 164
94 144 164
94 144 164
94 144 164
94 144 164
94 144 164
94 144 164
94 144 164
94 144 164
94 144 164
94 144 164
94 144 164
94 144 164
94 144 164
94 144 164
94 144 164
94 144 164
94 144 164
94 144 164
94 144 164
94 144 164
94 144 164
94 144 164
94 144 164
94 144 164
94 144 164
94 144 164
94 144 164
94 144 164
94 144 164
94 144 164
94 144 164
94 144 164
94 144 164
94 144 164
94 144 164
94 144 164
94 144 164
94 144 164
94 144 164
94 144 164
94 144 164
94 144 164
94 144 164
94 144 164
94 144 164
94 144 164
94 144 164
94 144 164
94 144 164
94 144 164
94 144 164
94 144 164
94 144 164
94 144 164
94 144 164
94 144 164
94 144 164
94 144 164
94 144 164
94 144 164
94 144 164
94 144 164
94 144 164
94 144 164
94 144 164
94 144 164
94 144 164
94 144 164
94 144 164
94 144 164
94 144 164
94 144 164
94 144 164
94 144 164
94 144 164
94 144 164
94 144 164
94 144 164
94 144 164
94 144 164
94 144 164
94 144 164
94 144 164
94 144 164
94 144 164
94 144 164
94 144 164
94 144 164
94 144 164
94 144 164
94 144 164
94 144 164
94 144 164
94 144 164
94 144 164
94 144 164
94 144 164
94 144 164
94 144 164
94 144 164
94 144 164
94 144 164
94 144 164
94 144 164
94 144 164
94 144 164
94 144 164
94 144 164
94 144 164
94 144 164
94 144 164
94 144 164
94 144 164
94 144 164
94 144 164
94 144 164
94 144 164
127 196 163
121 180 159
127 196 163
121 180 158
121 180 158
127 196 162
121 180 158
127 196 162
127 196 162
127 196 162
127 196 162
127 196 162
127 196 162
127 196 162
127 196 162
120 180 158
120 180 158
120 180 158
64 84 75
64 84 75
64 84 75
64 84 75
62 79 74
64 84 75
64 84 75
115 169 127
94 144 164
94 144 164
94 144 164
94 144 164
94 144 164
94 144 164
94 144 164
94 144 164
94 144 164
94 144 164
94 144 164
94 144 164
94 144 164
94 144 164
94 144 164
94 144 164
94 144 164
94 144 164
94 144 164
94 144 164
94 144 164
94 144 164
94 144 164
94 144 164
94 144 164
94 144 164
94 144 164
94 144 164
94 144 164
94 144 164
94 144 164
52 34 46
57 31 45
57 31 45
57 31 45
57 31 45
57 31 45
57 31 45
57 31 45
57 31 45
49 31 42
49 31 42
49 31 42
49 31 42
49 31 42
49 31 42
49 31 42
49 31 42
57 31 45
57 31 45
57 31 45
57 31 45
49 31 42
57 31 45
57 31 45
49 31 42
49 31 42
49 31 42
49 31 42
49 31 42
57 31 45
57 31 45
94 144 164
94 144 164
94 144 164
94 144 164
94 144 164
94 144 164
94 144 164
94 144 164
94 144 164
94 144 164
94 144 164
94 144 164
94 144 164
94 144 164
94 144 164
94 144 164
94 144 164
94 144 164
94 144 164
94 144 164
94 144 164
94 144 164
94 144 164
94 144 164
94 144 164
94 144 164
94 144 164
94 144 164
94 144 164
94 144 164
94 144 164
94 144 164
94 144 164
94 144 164
94 144 164
66 83 78
65 82 77
65 82 77
67 87 79
65 82 78
67 87 79
66 83 78
66 83 78
67 87 79
67 87 78
67 87 78
65 82 77
67 87 79
65 82 78
65 82 78
66 83 78
66 83 78
68 88 79
66 83 78
67 84 80
69 89 81
67 84 80
69 89 81
67 84 80
129 196 165
129 196 165
129 196 165
94 144 164
94 144 164
94 144 164
94 144 164
94 144 164
94 144 164
94 144 164
94 144 164
94 144 164
94 144 164
94 144 164
94 144 164
94 144 164
94 144 164
94 144 164
94 144 164
94 144 164
94 144 164
94 144 164
94 144 164
94 144 164
94 144 164
94 144 164
94 144 164
94 144 164
94 144 164
94 144 164
94 144 164
94 144 164
94 144 164
94 144 164
94 144 164
94 144 164
94 144 164
94 144 164
94 144 164
94 144 164
94 144 164
94 144 164
94 144 164
94 144 164
94 144 164
94 144 164
94 144 164
94 144 164
94 144 164
94 144 164
94 144 164
94 144 164
94 144 164
94 144 164
94 144 164
94 144 164
94 144 164
94 144 164
94 144 164
94 144 164
94 144 164
94 144 164
94 144 164
94 144 164
94 144 164
94 144 164
94 144 164
94 144 164
94 144 164
94 144 164
94 144 164
94 144 164
94 144 164
94 144 164
94 144 164
94 144 164
94 144 164
94 144 164
94 144 164
94 144 164
94 144 164
94 144 164
94 144 164
94 144 164
94 144 164
94 144 164
94 144 164
94 144 164
94 144 164
94 144 164
94 144 164
94 144 164
94 144 164
94 144 164
94 144 164
94 144 164
94 144 164
94 144 164
94 144 164
94 144 164
94 144 164
94 144 164
94 144 164
94 144 164
94 144 164
94 144 164
94 144 164
94 144 164
94 144 164
94 144 164
94 144 164
94 144 164
94 144 164
94 144 164
94 144 164
94 144 164
94 144 164
94 144 164
123 181 161
123 181 161
123 181 161
129 196 165
129 196 164
123 181 161
129 196 164
129 196 164
123 181 160
123 181 160
123 181 160
128 196 164
122 181 160
128 196 164
117 170 130
117 170 130
94 144 164
94 144 164
94 144 164
94 144 164
94 144 164
94 144 164
94 144 164
94 144 164
94 144 164
94 144 164
94 144 164
94 144 164
94 144 164
94 144 164
94 144 164
94 144 164
94 144 164
94 144 164
94 144 164
94 144 164
94 144 164
94 144 164
94 144 164
94 144 164
94 144 164
94 144 164
94 144 164
94 144 164
94 144 164
94 144 164
94 144 164
94 144 164
94 144 164
94 144 164
94 144 164
94 144 164
94 144 164
94 144 164
94 144 164
63 80 75
65 85 76
63 80 75
63 80 75
65 85 76
63 80 75
65 85 76
62 79 73
64 84 74
64 84 74
62 79 73
62 79 73
62 79 73
63 83 74
62 78 73
62 78 73
63 83 74
62 78 73
64 84 75
64 84 75
64 84 75
64 84 75
62 79 74
62 79 74
62 79 74
62 79 74
94 144 164
94 144 164
94 144 164
94 144 164
94 144 164
94 144 164
94 144 164
94 144 164
94 144 164
94 144 164
94 144 164
94 144 164
94 144 164
94 144 164
94 144 164
94 144 164
94 144 164
94 144 164
94 144 164
94 144 164
94 144 164
94 144 164
94 144 164
94 144 164
94 144 164
94 144 164
94 144 164
94 144 164
94 144 164
94 144 164
94 144 164
59 35 49
57 31 45
57 31 45
49 31 42
57 31 45
49 31 42
49 31 42
49 31 42
57 31 45
49 31 42
49 31 42
49 31 42
57 31 45
49 31 42
49 31 42
49 31 42
49 31 42
57 31 45
57 31 45
57 31 45
57 31 45
57 31 45
57 31 45
57 31 45
49 31 42
57 31 45
49 31 42
49 31 42
49 31 42
49 31 42
49 31 42
121 180 159
127 196 163
127 196 163
94 144 164
94 144 164
94 144 164
94 144 164
94 144 164
94 144 164
94 144 164
94 144 164
94 144 164
94 144 164
94 144 164
94 144 164
94 144 164
94 144 164
94 144 164
94 144 164
94 144 164
94 144 164
94 144 164
94 144 164
94 144 164
94 144 164
94 144 164
94 144 164
94 144 164
94 144 164
94 144 164
94 144 164
94 144 164
65 82 78
65 82 77
67 87 78
65 82 77
65 82 77
71 92 90
73 97 91
73 97 91
71 93 90
71 93 90
73 97 92
67 87 79
67 87 78
67 87 79
65 82 77
65 82 78
65 82 78
66 83 78
67 87 79
68 87 79
68 88 79
68 88 80
122 181 160
122 181 160
128 196 164
123 181 160
129 196 164
123 181 160
69 89 82
68 85 81
94 144 164
94 144 164
94 144 164
94 144 164
94 144 164
94 144 164
94 144 164
94 144 164
94 144 164
94 144 164
94 144 164
94 144 164
94 144 164
94 144 164
94 144 164
94 144 164
94 144 164
94 144 164
94 144 164
94 144 164
94 144 164
94 144 164
94 144 164
94 144 164
94 144 164
94 144 164
94 144 164
94 144 164
94 144 164
94 144 164
94 144 164
94 144 164
94 144 164
94 144 164
94 144 164
94 144 164
94 144 164
94 144 164
94 144 164
94 144 164
94 144 164
94 144 164
94 144 164
94 144 164
94 144 164
94 144 164
94 144 164
94 144 164
94 144 164
94 144 164
94 144 164
94 144 164
94 144 164
94 144 164
94 144 164
94 144 164
94 144 164
94 144 164
94 144 164
94 144 164
94 144 164
94 144 164
94 144 164
94 144 164
94 144 164
94 144 164
94 144 164
94 144 164
94 144 164
94 144 164
94 144 164
94 144 164
94 144 164
94 144 164
94 144 164
94 144 164
94 144 164
94 144 164
94 144 164
94 144 164
94 144 164
94 144 164
94 144 164
94 144 164
94 144 164
94 144 164
94 144 164
94 144 164
94 144 164
94 144 164
94 144 164
94 144 164
94 144 164
94 144 164
94 144 164
94 144 164
94 144 164
94 144 164
94 144 164
94 144 164
94 144 164
94 144 164
94 144 164
94 144 164
94 144 164
94 144 164
94 144 164
94 144 164
94 144 164
94 144 164
94 144 164
94 144 164
94 144 164
129 196 164
129 196 164
123 181 160
128 196 164
122 181 160
122 181 160
122 181 160
117 170 130
69 86 81
68 88 80
68 88 80
68 88 80
66 83 79
68 88 80
66 83 78
66 83 78
111 154 126
117 170 130
94 144 164
94 144 164
94 144 164
94 144 164
94 144 164
94 144 164
94 144 164
94 144 164
94 144 164
94 144 164
94 144 164
94 144 164
94 144 164
94 144 164
94 144 164
94 144 164
94 144 164
94 144 164
94 144 164
94 144 164
94 144 164
94 144 164
94 144 164
94 144 164
94 144 164
94 144 164
94 144 164
94 144 164
94 144 164
94 144 164
94 144 164
94 144 164
94 144 164
94 144 164
94 144 164
94 144 164
94 144 164
94 144 164
94 144 164
63 80 75
63 80 75
63 80 75
63 80 75
65 85 76
65 85 76
65 85 76
64 84 75
64 84 75
64 84 74
62 79 73
62 79 73
64 84 74
62 79 73
64 83 74
63 83 74
62 78 73
63 83 74
65 82 76
64 84 75
62 79 74
64 84 75
62 79 74
62 79 74
62 79 74
62 79 74
94 144 164
94 144 164
94 144 164
94 144 164
94 144 164
94 144 164
94 144 164
94 144 164
94 144 164
94 144 164
94 144 164
94 144 164
94 144 164
94 144 164
94 144 164
94 144 164
94 144 164
94 144 164
94 144 164
94 144 164
94 144 164
94 144 164
94 144 164
94 144 164
94 144 164
94 144 164
94 144 164
94 144 164
94 144 164
94 144 164
94 144 164
60 35 49
57 31 45
57 31 45
57 31 45
49 31 42
57 31 45
57 31 45
57 31 45
57 31 45
49 31 42
49 31 42
49 31 42
57 31 45
49 31 42
57 31 45
49 31 42
57 31 45
57 31 45
57 31 45
57 31 45
57 31 45
57 31 45
57 31 45
57 31 45
49 31 42
49 31 42
49 31 42
49 31 42
49 31 42
57 31 45
49 31 42
63 80 74
63 80 75
63 80 75
94 144 164
94 144 164
94 144 164
94 144 164
94 144 164
94 144 164
94 144 164
94 144 164
94 144 164
94 144 164
94 144 164
94 144 164
94 144 164
94 144 164
94 144 164
94 144 164
94 144 164
94 144 164
94 144 164
94 144 164
94 144 164
94 144 164
94 144 164
94 144 164
94 144 164
94 144 164
94 144 164
94 144 164
94 144 164
65 82 78
65 82 77
65 82 77
65 82 77
65 82 77
64 81 77
65 81 77
65 82 77
65 82 77
64 81 76
121 180 159
127 196 163
128 196 163
122 180 159
122 180 159
122 180 159
128 196 163
128 196 163
128 196 163
120 180 157
120 180 157
120 180 157
120 180 157
126 196 162
126 196 162
126 196 162
126 196 162
120 180 158
120 180 158
120 180 158
120 180 158
94 144 164
94 144 164
94 144 164
94 144 164
94 144 164
94 144 164
94 144 164
94 144 164
94 144 164
94 144 164
94 144 164
94 144 164
94 144 164
94 144 164
94 144 164
94 144 164
94 144 164
94 144 164
94 144 164
94 144 164
94 144 164
94 144 164
94 144 164
94 144 164
94 144 164
94 144 164
94 144 164
94 144 164
94 144 164
94 144 164
94 144 164
94 144 164
94 144 164
94 144 164
94 144 164
94 144 164
94 144 164
94 144 164
94 144 164
94 144 164
94 144 164
94 144 164
94 144 164
94 144 164
94 144 164
94 144 164
94 144 164
94 144 164
94 144 164
94 144 164
94 144 164
94 144 164
94 144 164
94 144 164
94 144 164
94 144 164
94 144 164
94 144 164
94 144 164
94 144 164
94 144 164
94 144 164
94 144 164
94 144 164
94 144 164
94 144 164
94 144 164
94 144 164
94 144 164
94 144 164
94 144 164
94 144 164
94 144 164
94 144 164
94 144 164
94 144 164
94 144 164
94 144 164
94 144 164
94 144 164
94 144 164
94 144 164
94 144 164
94 144 164
94 144 164
94 144 164
94 144 164
94 144 164
94 144 164
94 144 164
94 144 164
94 144 164
94 144 164
94 144 164
94 144 164
94 144 164
94 144 164
94 144 164
94 144 164
94 144 164
94 144 164
94 144 164
94 144 164
94 144 164
94 144 164
94 144 164
94 144 164
94 144 164
94 144 164
94 144 164
94 144 164
66 83 79
66 83 79
68 88 80
66 83 79
68 88 80
68 88 80
66 83 78
68 88 79
117 170 130
111 154 126
68 88 80
68 88 80
66 83 79
68 88 80
68 88 80
68 88 80
66 83 78
109 162 122
117 170 130
94 144 164
94 144 164
94 144 164
94 144 164
94 144 164
94 144 164
94 144 164
94 144 164
94 144 164
94 144 164
94 144 164
94 144 164
94 144 164
94 144 164
94 144 164
94 144 164
94 144 164
94 144 164
94 144 164
94 144 164
94 144 164
94 144 164
94 144 164
94 144 164
94 144 164
94 144 164
94 144 164
94 144 164
94 144 164
94 144 164
94 144 164
94 144 164
94 144 164
94 144 164
94 144 164
94 144 164
94 144 164
94 144 164
94 144 164
94 144 164
63 80 75
65 85 76
65 85 76
65 85 76
65 85 76
65 85 76
64 84 75
62 79 73
62 79 73
64 84 75
62 79 73
64 84 74
62 79 73
62 79 73
64 83 74
62 79 73
63 83 74
65 82 76
64 84 75
64 84 75
64 84 75
62 79 74
62 79 74
62 79 74
62 79 74
121 180 158
121 180 158
127 196 162
115 169 127
94 144 164
94 144 164
94 144 164
94 144 164
94 144 164
94 144 164
94 144 164
94 144 164
94 144 164
94 144 164
94 144 164
94 144 164
94 144 164
94 144 164
94 144 164
94 144 164
94 144 164
94 144 164
94 144 164
94 144 164
94 144 164
94 144 164
94 144 164
94 144 164
94 144 164
94 144 164
94 144 164
94 144 164
57 31 45
57 31 45
57 31 45
49 31 42
49 31 42
57 31 45
49 31 42
49 31 42
57 31 45
49 31 42
49 31 42
49 31 42
57 31 45
49 31 42
57 31 45
49 31 42
57 31 45
57 31 45
57 31 45
57 31 45
49 31 42
57 31 45
57 31 45
57 31 45
57 31 45
49 31 42
57 31 45
49 31 42
49 31 42
49 31 42
62 79 73
65 85 76
63 80 75
94 144 164
94 144 164
94 144 164
94 144 164
94 144 164
94 144 164
94 144 164
94 144 164
94 144 164
94 144 164
94 144 164
94 144 164
94 144 164
94 144 164
94 144 164
94 144 164
94 144 164
94 144 164
94 144 164
94 144 164
94 144 164
94 144 164
94 144 164
94 144 164
94 144 164
94 144 164
94 144 164
94 144 164
94 144 164
65 82 78
65 82 77
65 82 77
67 87 79
65 82 77
65 81 77
65 82 77
65 82 77
65 82 77
64 81 76
66 86 77
64 81 76
64 81 76
60 76 70
125 196 161
119 179 157
125 196 161
125 196 161
125 196 161
119 179 157
119 180 157
126 196 161
126 196 161
126 196 161
126 196 161
119 180 157
119 180 157
120 180 157
120 180 157
126 196 161
126 196 161
126 196 161
120 180 157
126 196 161
120 180 157
120 180 157
94 144 164
94 144 164
94 144 164
94 144 164
94 144 164
94 144 164
94 144 164
94 144 164
94 144 164
94 144 164
94 144 164
94 144 164
94 144 164
94 144 164
94 144 164
94 144 164
94 144 164
94 144 164
94 144 164
94 144 164
94 144 164
94 144 164
94 144 164
94 144 164
94 144 164
94 144 164
94 144 164
94 144 164
94 144 164
94 144 164
94 144 164
94 144 164
94 144 164
94 144 164
94 144 164
94 144 164
94 144 164
94 144 164
94 144 164
94 144 164
94 144 164
94 144 164
94 144 164
94 144 164
94 144 164
94 144 164
94 144 164
94 144 164
94 144 164
94 144 164
94 144 164
94 144 164
94 144 164
94 144 164
94 144 164
94 144 164
94 144 164
94 144 164
94 144 164
94 144 164
94 144 164
94 144 164
94 144 164
94 144 164
94 144 164
94 144 164
94 144 164
94 144 164
94 144 164
94 144 164
94 144 164
94 144 164
94 144 164
94 144 164
94 144 164
94 144 164
94 144 164
94 144 164
94 144 164
94 144 164
94 144 164
94 144 164
94 144 164
94 144 164
94 144 164
94 144 164
94 144 164
94 144 164
94 144 164
94 144 164
94 144 164
94 144 164
94 144 164
94 144 164
94 144 164
94 144 164
94 144 164
94 144 164
94 144 164
94 144 164
94 144 164
94 144 164
94 144 164
94 144 164
94 144 164
94 144 164
94 144 164
66 83 79
66 83 79
68 88 80
68 88 80
68 88 80
66 83 78
66 83 78
111 154 126
111 154 126
68 88 80
67 84 79
68 88 80
68 88 80
66 83 79
68 88 80
66 83 79
66 83 78
117 170 130
129 196 164
129 196 164
128 196 164
128 196 164
94 144 164
94 144 164
94 144 164
94 144 164
94 144 164
94 144 164
94 144 164
94 144 164
94 144 164
94 144 164
94 144 164
94 144 164
94 144 164
94 144 164
94 144 164
94 144 164
94 144 164
94 144 164
94 144 164
94 144 164
94 144 164
94 144 164
94 144 164
94 144 164
94 144 164
94 144 164
94 144 164
94 144 164
94 144 164
94 144 164
94 144 164
94 144 164
63 80 75
63 80 75
63 80 75
63 80 75
71 95 89
71 95 89
71 95 89
69 90 87
69 90 87
69 90 87
64 84 75
64 84 75
62 79 73
64 84 75
62 79 73
64 84 74
62 79 73
62 79 73
64 84 74
64 84 74
64 83 74
120 180 158
120 180 158
126 196 162
120 180 158
126 196 162
126 196 162
126 196 162
126 196 162
62 79 74
64 84 75
62 79 74
115 169 127
94 144 164
94 144 164
94 144 164
94 144 164
94 144 164
94 144 164
94 144 164
94 144 164
94 144 164
94 144 164
94 144 164
94 144 164
94 144 164
94 144 164
94 144 164
94 144 164
94 144 164
94 144 164
94 144 164
94 144 164
94 144 164
94 144 164
94 144 164
94 144 164
94 144 164
94 144 164
94 144 164
94 144 164
57 31 45
49 31 42
49 31 42
57 31 45
57 31 45
57 31 45
57 31 45
57 31 45
49 31 42
49 31 42
57 31 45
49 31 42
49 31 42
49 31 42
57 31 45
49 31 42
57 31 45
57 31 45
57 31 45
57 31 45
57 31 45
57 31 45
57 31 45
49 31 42
57 31 45
57 31 45
49 31 42
49 31 42
57 31 45
49 31 42
62 79 74
63 80 75
63 80 75
94 144 164
94 144 164
94 144 164
94 144 164
94 144 164
94 144 164
94 144 164
94 144 164
94 144 164
94 144 164
94 144 164
94 144 164
94 144 164
94 144 164
94 144 164
94 144 164
94 144 164
94 144 164
94 144 164
94 144 164
94 144 164
94 144 164
67 87 79
122 180 159
122 180 160
122 180 160
128 196 164
73 97 91
73 97 92
65 82 78
65 82 77
65 82 77
67 87 79
65 82 77
65 82 77
65 82 77
65 82 77
65 82 77
64 81 76
64 81 76
125 196 160
125 196 160
125 196 160
125 196 160
119 179 156
125 196 160
119 179 156
119 179 156
125 196 160
125 196 160
125 196 161
125 196 161
119 179 156
119 179 156
125 196 161
119 179 157
119 179 157
125 196 161
125 196 161
125 196 161
125 196 161
119 179 157
119 180 157
126 196 161
126 196 161
126 196 161
126 196 161
126 196 161
120 180 157
120 180 157
120 180 157
126 196 161
120 180 157
120 180 157
126 196 161
94 144 164
94 144 164
94 144 164
94 144 164
94 144 164
94 144 164
94 144 164
94 144 164
94 144 164
94 144 164
94 144 164
94 144 164
94 144 164
94 144 164
94 144 164
94 144 164
94 144 164
94 144 164
94 144 164
94 144 164
94 144 164
94 144 164
94 144 164
94 144 164
94 144 164
94 144 164
94 144 164
94 144 164
94 144 164
94 144 164
94 144 164
94 144 164
94 144 164
94 144 164
94 144 164
94 144 164
94 144 164
94 144 164
94 144 164
94 144 164
94 144 164
94 144 164
94 144 164
94 144 164
94 144 164
94 144 164
94 144 164
94 144 164
94 144 164
94 144 164
94 144 164
94 144 164
94 144 164
94 144 164
94 144 164
94 144 164
94 144 164
94 144 164
94 144 164
94 144 164
94 144 164
94 144 164
94 144 164
94 144 164
94 144 164
94 144 164
94 144 164
94 144 164
94 144 164
94 144 164
94 144 164
94 144 164
94 144 164
94 144 164
94 144 164
94 144 164
94 144 164
94 144 164
94 144 164
94 144 164
94 144 164
94 144 164
94 144 164
94 144 164
94 144 164
94 144 164
94 144 164
94 144 164
94 144 164
94 144 164
94 144 164
94 144 164
94 144 164
94 144 164
94 144 164
94 144 164
94 144 164
67 84 79
68 88 80
68 88 80
66 83 79
68 88 80
66 83 79
68 88 80
68 88 79
111 154 126
68 88 80
72 94 92
72 94 92
72 94 91
74 98 93
74 98 92
74 98 92
128 196 164
66 83 78
68 88 79
66 83 78
66 83 78
117 170 130
94 144 164
94 144 164
94 144 164
94 144 164
94 144 164
94 144 164
94 144 164
94 144 164
94 144 164
94 144 164
94 144 164
94 144 164
94 144 164
94 144 164
94 144 164
94 144 164
94 144 164
94 144 164
94 144 164
94 144 164
94 144 164
94 144 164
94 144 164
94 144 164
94 144 164
94 144 164
94 144 164
94 144 164
94 144 164
94 144 164
94 144 164
94 144 164
63 80 75
65 85 76
63 80 75
62 79 74
62 79 74
62 79 74
126 196 162
120 180 158
126 196 162
126 196 162
120 180 158
120 180 158
126 196 162
120 180 158
120 180 158
120 180 157
126 196 162
124 196 160
120 180 157
126 196 161
120 180 157
126 196 161
126 196 161
126 196 161
114 169 126
63 83 74
62 78 73
63 83 74
62 78 73
62 79 74
62 79 74
62 79 74
100 145 114
94 144 164
94 144 164
94 144 164
94 144 164
94 144 164
94 144 164
94 144 164
94 144 164
94 144 164
94 144 164
94 144 164
94 144 164
94 144 164
94 144 164
94 144 164
94 144 164
94 144 164
94 144 164
94 144 164
94 144 164
94 144 164
94 144 164
94 144 164
94 144 164
94 144 164
94 144 164
94 144 164
94 144 164
57 31 46
57 31 45
57 31 45
57 31 45
57 31 45
57 31 45
57 31 45
57 31 45
49 31 42
49 31 42
49 31 42
49 31 42
49 31 42
49 31 42
57 31 45
49 31 42
57 31 45
57 31 45
49 31 42
57 31 45
57 31 45
57 31 45
57 31 45
49 31 42
57 31 45
49 31 42
57 31 45
49 31 42
49 31 42
49 31 42
117 179 155
124 196 159
117 179 155
117 179 155
117 179 155
117 179 155
124 196 159
124 196 159
124 196 159
124 196 159
94 144 164
94 144 164
94 144 164
94 144 164
94 144 164
94 144 164
94 144 164
94 144 164
94 144 164
94 144 164
94 144 164
94 144 164
94 144 164
94 144 164
94 144 164
67 87 79
66 86 78
67 86 78
67 87 78
67 87 78
121 180 159
121 180 159
70 92 89
70 92 89
70 92 89
72 97 91
72 97 91
72 97 91
72 97 91
72 97 91
73 97 91
124 196 160
124 196 160
124 196 160
118 179 156
118 179 156
118 179 156
118 179 156
118 179 156
125 196 160
125 196 160
118 179 156
125 196 160
125 196 160
118 179 156
118 179 156
118 179 156
125 196 160
125 196 160
125 196 160
119 179 156
119 179 156
119 179 156
125 196 160
125 196 160
125 196 161
125 196 161
119 179 156
119 179 156
125 196 161
119 179 157
119 179 157
125 196 161
125 196 161
125 196 161
119 179 157
125 196 161
126 196 161
126 196 161
119 180 157
119 180 157
119 180 157
120 180 157
120 180 157
94 144 164
94 144 164
94 144 164
94 144 164
94 144 164
94 144 164
94 144 164
94 144 164
94 144 164
94 144 164
94 144 164
94 144 164
94 144 164
94 144 164
94 144 164
94 144 164
94 144 164
94 144 164
94 144 164
94 144 164
94 144 164
94 144 164
94 144 164
94 144 164
94 144 164
94 144 164
94 144 164
94 144 164
94 144 164
94 144 164
94 144 164
94 144 164
94 144 164
94 144 164
94 144 164
94 144 164
94 144 164
94 144 164
94 144 164
94 144 164
94 144 164
94 144 164
94 144 164
94 144 164
94 144 164
94 144 164
94 144 164
94 144 164
94 144 164
94 144 164
94 144 164
94 144 164
94 144 164
94 144 164
94 144 164
94 144 164
94 144 164
94 144 164
94 144 164
94 144 164
94 144 164
94 144 164
94 144 164
94 144 164
94 144 164
94 144 164
94 144 164
94 144 164
94 144 164
94 144 164
94 144 164
94 144 164
94 144 164
94 144 164
94 144 164
94 144 164
94 144 164
94 144 164
94 144 164
94 144 164
94 144 164
94 144 164
94 144 164
94 144 164
94 144 164
94 144 164
94 144 164
94 144 164
94 144 164
94 144 164
94 144 164
67 84 79
67 84 79
66 83 79
68 88 80
72 93 91
72 93 91
72 93 91
122 180 160
128 196 164
128 196 164
122 180 160
110 154 125
66 83 78
65 82 78
67 87 79
67 87 79
117 170 130
66 83 78
66 83 78
66 83 78
66 83 78
117 170 130
94 144 164
94 144 164
94 144 164
94 144 164
94 144 164
94 144 164
94 144 164
94 144 164
94 144 164
94 144 164
94 144 164
94 144 164
94 144 164
94 144 164
94 144 164
94 144 164
94 144 164
94 144 164
94 144 164
94 144 164
94 144 164
94 144 164
94 144 164
94 144 164
94 144 164
94 144 164
94 144 164
94 144 164
94 144 164
94 144 164
94 144 164
94 144 164
64 80 75
64 80 75
65 85 76
62 79 74
62 79 74
62 79 74
118 179 155
118 179 155
118 179 155
118 179 155
124 196 159
124 196 159
124 196 159
124 196 159
118 179 155
124 196 159
124 196 159
124 196 159
117 179 155
117 179 155
117 179 155
117 179 155
61 78 72
63 83 73
63 83 73
62 79 73
62 78 73
62 78 73
62 78 73
62 79 74
62 79 74
64 84 75
62 79 74
121 180 158
127 196 162
127 196 162
121 180 158
121 180 158
121 180 158
121 180 158
94 144 164
94 144 164
94 144 164
94 144 164
94 144 164
94 144 164
94 144 164
94 144 164
94 144 164
94 144 164
94 144 164
94 144 164
94 144 164
94 144 164
94 144 164
94 144 164
94 144 164
106 161 118
106 161 118
106 161 118
120 180 158
50 32 43
49 31 42
49 31 42
57 31 45
57 31 45
57 31 45
57 31 45
57 31 45
49 31 42
57 31 45
49 31 42
49 31 42
57 31 45
49 31 42
57 31 45
49 31 42
57 31 45
49 31 42
57 31 45
49 31 42
57 31 45
49 31 42
49 31 42
49 31 42
57 31 45
49 31 42
49 31 42
49 31 42
49 31 42
50 31 42
117 179 154
123 196 159
123 196 159
117 179 154
123 196 159
123 196 159
117 179 154
123 196 159
117 179 154
117 179 154
94 144 164
94 144 164
94 144 164
94 144 164
94 144 164
94 144 164
94 144 164
94 144 164
94 144 164
94 144 164
94 144 164
94 144 164
94 144 164
94 144 164
94 144 164
67 87 79
65 82 77
67 87 78
67 87 78
67 87 78
66 86 77
66 86 77
66 86 77
66 86 78
66 86 77
64 81 75
66 85 77
66 86 77
107 161 120
70 91 89
70 91 89
57 74 67
118 179 155
118 179 155
118 179 155
118 179 155
124 196 159
124 196 159
124 196 159
124 196 160
118 179 155
118 179 155
118 179 155
124 196 160
118 179 155
124 196 160
124 196 160
124 196 160
118 179 156
118 179 156
118 179 156
118 179 156
125 196 160
125 196 160
118 179 156
125 196 160
118 179 156
118 179 156
118 179 156
118 179 156
125 196 160
125 196 160
125 196 160
125 196 160
119 179 156
119 179 156
125 196 160
125 196 161
119 179 156
119 179 156
119 179 156
119 179 157
125 196 161
125 196 161
125 196 161
125 196 161
94 144 164
94 144 164
94 144 164
94 144 164
94 144 164
94 144 164
94 144 164
94 144 164
94 144 164
94 144 164
94 144 164
94 144 164
94 144 164
94 144 164
94 144 164
94 144 164
94 144 164
94 144 164
94 144 164
94 144 164
94 144 164
94 144 164
94 144 164
94 144 164
94 144 164
94 144 164
94 144 164
94 144 164
94 144 164
94 144 164
94 144 164
94 144 164
94 144 164
94 144 164
94 144 164
94 144 164
94 144 164
94 144 164
94 144 164
94 144 164
94 144 164
94 144 164
94 144 164
94 144 164
94 144 164
94 144 164
94 144 164
94 144 164
94 144 164
94 144 164
94 144 164
94 144 164
94 144 164
94 144 164
94 144 164
94 144 164
94 144 164
94 144 164
94 144 164
94 144 164
94 144 164
94 144 164
94 144 164
94 144 164
94 144 164
94 144 164
94 144 164
94 144 164
94 144 164
94 144 164
94 144 164
94 144 164
94 144 164
94 144 164
94 144 164
94 144 164
94 144 164
94 144 164
94 144 164
94 144 164
127 196 162
127 196 162
127 196 162
120 180 158
120 180 158
120 180 158
120 180 158
108 153 122
122 180 160
122 180 160
122 180 160
128 196 164
128 196 164
128 196 164
128 196 163
65 82 77
65 82 77
65 82 77
65 82 77
116 170 129
110 154 125
66 83 78
66 83 78
67 87 79
65 82 78
116 170 129
70 90 82
66 83 78
66 83 78
66 83 78
117 170 130
111 154 126
94 144 164
94 144 164
94 144 164
94 144 164
94 144 164
94 144 164
94 144 164
94 144 164
94 144 164
94 144 164
94 144 164
94 144 164
94 144 164
94 144 164
94 144 164
94 144 164
94 144 164
94 144 164
94 144 164
94 144 164
94 144 164
94 144 164
94 144 164
94 144 164
94 144 164
122 180 159
122 180 159
122 180 159
124 196 159
124 196 159
124 196 159
124 196 159
124 196 159
118 179 155
118 179 155
117 179 155
117 179 155
124 196 159
124 196 159
124 196 159
117 179 155
124 196 159
117 179 155
117 179 155
124 196 159
124 196 159
117 179 155
124 196 159
124 196 159
124 196 159
117 179 154
123 196 159
117 179 154
117 179 154
117 179 154
117 179 154
123 196 159
123 196 159
123 196 159
123 196 159
111 167 121
70 95 88
126 196 162
126 196 162
64 84 75
64 84 75
62 79 74
64 84 75
62 79 74
64 84 75
64 84 75
94 144 164
94 144 164
94 144 164
94 144 164
94 144 164
94 144 164
94 144 164
94 144 164
94 144 164
94 144 164
94 144 164
94 144 164
94 144 164
94 144 164
94 144 164
94 144 164
94 144 164
64 84 75
64 84 75
64 84 75
64 84 75
50 32 43
49 31 42
57 31 45
49 31 42
49 31 42
49 31 42
49 31 42
57 31 45
49 31 42
57 31 45
57 31 45
49 31 42
57 31 45
57 31 45
57 31 45
57 31 45
49 31 42
49 31 42
49 31 42
49 31 42
57 31 45
49 31 42
49 31 42
49 31 42
57 31 45
57 31 45
57 31 45
57 31 45
50 31 42
57 31 46
123 196 158
123 196 158
123 196 158
116 179 154
116 179 154
123 196 158
123 196 158
116 179 154
123 196 158
116 179 154
123 196 158
116 179 154
116 179 154
116 179 154
117 179 154
94 144 164
94 144 164
94 144 164
94 144 164
94 144 164
94 144 164
94 144 164
94 144 164
122 180 160
122 180 160
67 87 79
67 87 78
67 87 78
67 87 78
67 87 78
66 86 77
66 86 77
64 81 76
64 81 76
66 86 77
65 85 77
66 86 77
66 86 77
65 85 77
63 80 75
117 179 155
117 179 155
124 196 159
117 179 155
117 179 155
124 196 159
124 196 159
124 196 159
117 179 155
117 179 155
117 179 155
117 179 155
124 196 159
117 179 155
124 196 159
124 196 159
118 179 155
118 179 155
118 179 155
118 179 155
124 196 159
124 196 159
124 196 160
124 196 160
118 179 155
118 179 155
118 179 155
118 179 155
124 196 160
118 179 156
124 196 160
124 196 160
125 196 160
118 179 156
118 179 156
118 179 156
125 196 160
118 179 156
118 179 156
118 179 156
125 196 160
119 179 156
125 196 160
125 196 160
125 196 160
125 196 160
125 196 160
119 179 156
94 144 164
94 144 164
94 144 164
94 144 164
94 144 164
94 144 164
94 144 164
94 144 164
94 144 164
94 144 164
94 144 164
94 144 164
94 144 164
94 144 164
94 144 164
94 144 164
94 144 164
94 144 164
94 144 164
94 144 164
94 144 164
94 144 164
94 144 164
94 144 164
94 144 164
94 144 164
94 144 164
94 144 164
94 144 164
94 144 164
94 144 164
94 144 164
94 144 164
94 144 164
94 144 164
94 144 164
94 144 164
94 144 164
94 144 164
94 144 164
94 144 164
94 144 164
94 144 164
94 144 164
94 144 164
94 144 164
94 144 164
94 144 164
94 144 164
94 144 164
94 144 164
94 144 164
94 144 164
94 144 164
94 144 164
94 144 164
94 144 164
94 144 164
94 144 164
94 144 164
94 144 164
94 144 164
94 144 164
94 144 164
94 144 164
94 144 164
94 144 164
94 144 164
94 144 164
94 144 164
94 144 164
94 144 164
94 144 164
94 144 164
94 144 164
126 196 162
126 196 162
120 180 158
120 180 158
126 196 162
126 196 162
126 196 162
126 196 162
126 196 162
120 180 157
120 180 157
120 180 157
126 196 161
65 82 77
65 82 77
65 81 77
64 81 76
116 170 129
116 170 129
65 82 77
65 82 77
65 82 77
65 82 77
116 170 129
66 83 78
66 83 78
67 87 79
65 82 78
116 170 129
70 90 82
66 83 79
66 83 78
66 83 78
103 146 118
128 196 164
128 196 164
128 196 164
122 180 160
122 180 160
122 180 160
122 180 160
116 170 129
94 144 164
94 144 164
94 144 164
94 144 164
94 144 164
94 144 164
94 144 164
94 144 164
94 144 164
94 144 164
94 144 164
94 144 164
94 144 164
94 144 164
94 144 164
94 144 164
124 196 159
124 196 159
124 196 159
124 196 159
124 196 159
117 179 155
117 179 155
117 179 155
124 196 159
124 196 159
124 196 159
124 196 159
117 179 155
117 179 154
117 179 154
117 179 154
123 196 159
123 196 159
123 196 159
117 179 154
123 196 159
117 179 154
117 179 154
123 196 159
123 196 158
117 179 154
117 179 154
117 179 154
117 179 154
123 196 158
123 196 158
123 196 158
123 196 158
116 179 154
116 179 154
116 179 154
116 179 154
123 196 158
123 196 158
123 196 158
123 196 158
64 84 75
64 84 75
62 79 74
64 84 75
64 84 75
62 79 74
64 84 75
94 144 164
94 144 164
94 144 164
94 144 164
94 144 164
94 144 164
94 144 164
94 144 164
94 144 164
94 144 164
94 144 164
94 144 164
94 144 164
94 144 164
94 144 164
94 144 164
94 144 164
64 84 75
64 84 75
64 84 75
64 84 75
50 32 43
49 31 42
49 31 42
49 31 42
57 31 45
49 31 42
57 31 45
49 31 42
57 31 45
57 31 45
57 31 45
57 31 45
57 31 45
57 31 45
57 31 45
57 31 45
49 31 42
49 31 42
57 31 45
49 31 42
49 31 42
57 31 45
49 31 42
49 31 42
57 31 45
49 31 42
57 31 45
57 31 46
57 31 46
50 31 43
123 196 158
116 178 153
116 178 153
116 178 153
123 196 158
123 196 158
123 196 158
123 196 158
116 178 153
116 178 153
123 196 158
116 178 153
123 196 158
116 178 154
123 196 158
123 196 158
121 180 159
121 180 159
108 161 120
108 162 120
66 86 78
64 81 77
65 82 77
66 86 78
66 86 78
67 87 78
71 92 89
71 92 90
71 92 90
71 92 90
66 86 77
66 86 78
66 86 78
66 86 78
66 86 77
66 86 77
66 86 77
66 86 77
65 85 77
125 196 160
57 77 66
102 158 112
102 158 112
95 141 108
57 77 66
117 179 154
117 179 154
123 196 159
117 179 154
123 196 159
117 179 154
123 196 159
123 196 159
117 179 154
117 179 155
117 179 155
117 179 155
117 179 155
124 196 159
124 196 159
124 196 159
124 196 159
124 196 159
117 179 155
124 196 159
117 179 155
124 196 159
118 179 155
124 196 159
124 196 159
118 179 155
118 179 155
118 179 155
118 179 155
118 179 155
124 196 160
118 179 155
124 196 160
118 179 155
118 179 156
118 179 156
124 196 160
125 196 160
118 179 156
118 179 156
125 196 160
60 80 70
60 80 70
60 80 70
59 75 69
94 144 164
94 144 164
94 144 164
94 144 164
94 144 164
94 144 164
94 144 164
94 144 164
94 144 164
94 144 164
94 144 164
94 144 164
94 144 164
94 144 164
94 144 164
94 144 164
94 144 164
94 144 164
94 144 164
94 144 164
94 144 164
94 144 164
94 144 164
94 144 164
94 144 164
94 144 164
94 144 164
94 144 164
94 144 164
94 144 164
94 144 164
94 144 164
94 144 164
94 144 164
94 144 164
94 144 164
94 144 164
94 144 164
94 144 164
94 144 164
94 144 164
94 144 164
94 144 164
94 144 164
94 144 164
94 144 164
94 144 164
94 144 164
94 144 164
94 144 164
94 144 164
94 144 164
94 144 164
94 144 164
94 144 164
94 144 164
94 144 164
94 144 164
94 144 164
94 144 164
94 144 164
94 144 164
94 144 164
94 144 164
94 144 164
94 144 164
94 144 164
94 144 164
94 144 164
94 144 164
94 144 164
120 180 158
120 180 157
120 180 157
120 180 157
120 180 157
120 180 157
120 180 157
120 180 157
119 180 157
126 196 161
126 196 161
126 196 161
126 196 161
119 179 157
125 196 161
119 179 157
125 196 161
125 196 161
125 196 161
125 196 161
125 196 161
113 168 124
65 82 77
65 82 77
65 82 77
116 170 129
70 90 82
66 83 78
67 87 79
66 82 78
116 170 129
122 180 160
128 196 164
128 196 164
122 180 160
117 170 130
66 83 78
66 83 78
66 83 78
67 87 79
66 83 78
67 87 79
67 87 79
116 170 129
117 170 130
94 144 164
94 144 164
94 144 164
94 144 164
94 144 164
94 144 164
94 144 164
94 144 164
94 144 164
94 144 164
124 196 159
124 196 159
124 196 159
124 196 159
117 179 155
124 196 159
117 179 154
123 196 159
123 196 159
123 196 159
117 179 154
123 196 159
117 179 154
117 179 154
117 179 154
117 179 154
117 179 154
123 196 158
123 196 158
123 196 158
123 196 158
117 179 154
123 196 158
116 179 154
116 179 154
123 196 158
123 196 158
116 179 154
123 196 158
123 196 158
116 179 154
123 196 158
123 196 158
116 178 154
116 178 154
116 178 154
116 178 154
116 178 154
123 196 158
123 196 158
123 196 158
123 196 158
116 178 153
116 178 153
116 178 153
116 178 153
63 79 74
63 79 74
64 84 75
62 79 74
64 84 75
62 79 74
64 84 75
121 180 159
121 180 159
121 180 159
121 180 158
127 196 163
127 196 162
127 196 162
121 180 158
121 180 158
121 180 158
127 196 162
127 196 162
127 196 162
127 196 162
121 180 158
69 90 87
69 90 87
64 84 75
116 178 153
116 178 153
116 178 153
50 32 43
57 31 45
49 31 42
49 31 42
49 31 42
49 31 42
49 31 42
49 31 42
57 31 45
49 31 42
49 31 42
49 31 42
57 31 45
57 31 45
57 31 45
57 31 45
57 31 45
49 31 42
49 31 42
49 31 42
49 31 42
49 31 42
49 31 42
57 31 45
57 31 45
57 31 46
57 31 46
57 31 46
57 31 46
57 31 46
122 196 157
116 178 153
116 178 153
116 178 153
122 196 157
116 178 153
116 178 153
116 178 153
116 178 153
122 196 157
122 196 157
122 196 157
122 196 157
116 178 153
116 178 153
116 178 153
116 178 153
66 86 77
66 86 78
64 81 76
64 81 77
66 86 78
66 86 78
66 86 78
67 87 78
67 87 78
66 86 78
66 86 77
66 86 77
66 86 77
66 86 77
121 180 159
70 91 89
70 91 89
66 86 77
66 86 77
66 86 77
124 196 160
124 196 160
58 78 67
57 77 66
57 77 66
57 77 66
57 77 66
57 77 66
57 77 66
101 158 112
123 196 158
123 196 158
117 179 154
123 196 158
117 179 154
117 179 154
117 179 154
117 179 154
123 196 158
123 196 159
123 196 159
123 196 159
117 179 154
117 179 154
123 196 159
117 179 154
123 196 159
117 179 154
124 196 159
124 196 159
117 179 155
117 179 155
117 179 155
117 179 155
117 179 155
124 196 159
124 196 159
124 196 159
124 196 159
117 179 155
118 179 155
118 179 155
124 196 159
124 196 159
124 196 159
124 196 159
124 196 160
118 179 155
103 159 114
103 159 114
103 159 114
60 80 70
61 81 71
126 196 162
94 144 164
94 144 164
94 144 164
94 144 164
94 144 164
94 144 164
94 144 164
94 144 164
94 144 164
94 144 164
94 144 164
94 144 164
94 144 164
94 144 164
94 144 164
94 144 164
94 144 164
94 144 164
94 144 164
94 144 164
94 144 164
94 144 164
94 144 164
94 144 164
94 144 164
94 144 164
94 144 164
94 144 164
94 144 164
94 144 164
94 144 164
94 144 164
94 144 164
94 144 164
94 144 164
94 144 164
94 144 164
94 144 164
94 144 164
94 144 164
94 144 164
94 144 164
94 144 164
94 144 164
94 144 164
94 144 164
94 144 164
94 144 164
94 144 164
94 144 164
94 144 164
94 144 164
94 144 164
94 144 164
94 144 164
94 144 164
94 144 164
94 144 164
94 144 164
94 144 164
94 144 164
94 144 164
94 144 164
94 144 164
94 144 164
94 144 164
94 144 164
94 144 164
94 144 164
126 196 161
126 196 161
126 196 161
126 196 161
119 180 157
119 180 157
125 196 161
125 196 161
119 179 157
119 179 157
119 179 157
119 179 156
125 196 161
125 196 161
125 196 161
119 179 156
125 196 160
119 179 156
119 179 156
119 179 156
125 196 160
125 196 160
125 196 160
125 196 160
125 196 160
112 168 124
116 170 129
128 196 164
128 196 164
128 196 163
128 196 163
128 196 163
128 196 163
128 196 163
110 154 125
110 154 125
111 154 126
66 83 78
66 83 78
66 83 78
66 83 78
66 83 78
67 87 79
65 82 78
110 154 125
111 154 126
94 144 164
94 144 164
94 144 164
94 144 164
94 144 164
94 144 164
94 144 164
94 144 164
94 144 164
117 179 154
117 179 154
117 179 154
117 179 154
117 179 154
123 196 158
117 179 154
117 179 154
117 179 154
123 196 158
123 196 158
116 179 154
116 179 154
123 196 158
123 196 158
123 196 158
123 196 158
116 179 154
116 179 154
116 178 154
123 196 158
123 196 158
123 196 158
116 178 154
123 196 158
116 178 153
116 178 153
123 196 158
116 178 153
116 178 153
122 196 158
122 196 158
122 196 158
116 178 153
116 178 153
122 196 158
122 196 158
122 196 158
116 178 153
122 196 157
116 178 153
116 178 153
122 196 157
122 196 157
122 196 157
122 196 157
122 196 157
110 167 121
63 79 74
63 79 74
70 95 88
69 90 87
68 90 87
120 180 158
64 84 75
64 84 75
62 79 74
64 84 75
64 84 75
64 84 75
62 79 74
64 84 75
64 84 75
64 84 75
62 79 74
62 79 74
64 84 75
62 79 74
64 84 75
64 84 75
64 84 75
120 180 158
115 178 153
115 178 153
100 157 110
58 32 46
49 31 42
49 31 42
49 31 42
49 31 42
57 31 45
49 31 42
49 31 42
57 31 45
57 31 45
57 31 45
57 31 45
57 31 45
57 31 45
49 31 42
49 31 42
49 31 42
49 31 42
49 31 42
57 31 45
49 31 42
49 31 42
50 31 42
50 31 42
50 31 43
57 31 46
57 31 46
50 31 43
57 31 46
57 32 46
115 178 153
122 196 157
122 196 157
122 196 157
122 196 157
115 178 153
115 178 153
115 178 153
115 178 153
122 196 157
115 178 153
115 178 153
115 178 153
115 178 153
52 69 61
52 69 61
54 74 63
54 74 63
64 81 76
64 81 77
66 86 78
66 86 78
66 86 78
67 87 78
65 82 77
67 87 78
66 86 78
66 86 77
66 86 77
64 81 76
66 86 77
65 85 77
65 85 77
64 81 76
66 86 77
124 196 159
117 179 155
124 196 159
118 179 155
58 77 67
57 77 66
55 72 65
57 77 66
57 77 66
57 77 66
57 77 66
54 71 64
54 71 63
123 196 158
123 196 158
94 141 107
95 141 107
123 196 158
123 196 158
123 196 158
123 196 158
123 196 158
116 179 154
116 179 154
116 179 154
123 196 158
123 196 158
123 196 158
117 179 154
123 196 158
123 196 158
123 196 158
123 196 158
123 196 159
123 196 159
123 196 159
123 196 159
123 196 159
117 179 154
123 196 159
123 196 159
124 196 159
124 196 159
117 179 155
124 196 159
117 179 155
117 179 155
124 196 159
117 179 155
117 179 155
117 179 155
59 79 69
59 79 69
61 80 71
119 180 157
120 180 157
126 196 161
126 196 161
126 196 161
120 180 157
126 196 161
126 196 162
120 180 157
126 196 162
120 180 158
126 196 162
94 144 164
94 144 164
94 144 164
94 144 164
94 144 164
94 144 164
94 144 164
94 144 164
94 144 164
94 144 164
94 144 164
94 144 164
94 144 164
94 144 164
94 144 164
94 144 164
94 144 164
94 144 164
94 144 164
94 144 164
94 144 164
94 144 164
94 144 164
94 144 164
94 144 164
94 144 164
94 144 164
94 144 164
94 144 164
94 144 164
94 144 164
94 144 164
94 144 164
94 144 164
94 144 164
94 144 164
94 144 164
94 144 164
94 144 164
94 144 164
94 144 164
94 144 164
94 144 164
94 144 164
94 144 164
94 144 164
94 144 164
94 144 164
94 144 164
94 144 164
94 144 164
94 144 164
94 144 164
94 144 164
94 144 164
94 144 164
94 144 164
119 179 157
119 179 157
119 179 157
119 179 157
119 179 157
125 196 161
125 196 161
125 196 161
119 179 156
119 179 156
125 196 160
125 196 160
125 196 160
119 179 156
118 179 156
118 179 156
118 179 156
125 196 160
125 196 160
125 196 160
118 179 156
118 179 156
118 179 156
118 179 156
118 179 155
118 179 155
112 168 123
112 168 123
122 180 159
121 180 159
127 196 163
110 154 124
67 86 78
66 86 78
66 86 78
66 86 78
110 154 125
116 170 129
116 170 129
68 88 80
66 83 78
68 88 79
66 83 78
68 87 79
67 87 79
67 87 79
67 87 79
111 154 126
122 181 160
122 180 160
122 180 160
128 196 164
128 196 164
128 196 164
117 179 154
117 179 154
123 196 158
123 196 158
123 196 158
116 179 154
116 179 154
116 179 154
116 179 154
116 179 154
123 196 158
123 196 158
123 196 158
123 196 158
116 178 154
116 178 153
116 178 153
123 196 158
116 178 153
123 196 158
122 196 158
122 196 158
122 196 158
122 196 158
116 178 153
122 196 158
122 196 158
116 178 153
122 196 157
122 196 157
122 196 157
116 178 153
116 178 153
116 178 153
116 178 153
115 178 153
122 196 157
122 196 157
122 196 157
122 196 157
115 178 153
122 196 157
122 196 157
122 196 157
122 196 157
122 196 157
115 178 153
115 178 153
115 178 153
109 166 119
110 167 120
120 180 158
120 180 158
62 79 73
64 83 74
62 79 73
64 83 74
64 84 75
64 84 75
64 84 75
64 84 75
62 79 74
62 79 74
62 79 74
64 84 75
62 79 74
64 84 75
62 79 74
62 79 74
62 79 74
62 79 74
62 79 74
64 84 75
64 84 75
62 78 73
54 74 62
54 74 62
54 74 62
58 32 46
49 31 42
49 31 42
49 31 42
49 31 42
49 31 42
49 31 42
49 31 42
57 31 45
57 31 45
57 31 45
57 31 45
57 31 45
57 31 45
57 31 45
57 31 45
49 31 42
49 31 42
57 31 45
49 31 42
49 31 42
50 31 42
50 31 43
50 31 43
57 31 46
50 31 43
50 31 43
57 31 46
57 32 46
57 32 46
122 196 157
122 196 157
115 178 152
122 196 157
115 178 152
115 178 152
122 196 157
122 196 157
122 196 157
122 196 157
122 196 157
115 178 152
115 178 152
115 178 152
115 178 152
54 74 63
52 69 62
54 74 63
117 179 154
123 196 158
123 196 158
123 196 159
123 196 159
67 87 78
67 87 78
65 82 77
66 86 78
66 86 77
64 81 76
66 86 78
58 78 67
117 179 154
117 179 154
117 179 154
117 179 154
124 196 159
124 196 159
124 196 159
117 179 155
58 77 67
57 77 66
55 72 65
55 72 65
57 77 66
57 77 66
57 77 66
54 71 64
54 71 63
54 70 63
54 70 63
54 71 63
54 71 63
54 70 63
53 70 63
122 196 158
123 196 158
94 140 106
94 140 107
101 158 111
56 76 64
56 76 64
56 76 65
116 178 154
116 178 154
116 178 154
116 179 154
116 179 154
123 196 158
123 196 158
123 196 158
116 179 154
116 179 154
117 179 154
117 179 154
117 179 154
123 196 158
117 179 154
117 179 154
123 196 159
123 196 159
123 196 159
117 179 154
117 179 154
117 179 154
58 78 67
56 73 66
59 79 69
58 74 68
61 81 71
119 179 157
119 179 157
125 196 161
119 179 157
125 196 161
119 180 157
61 78 72
61 78 72
61 78 72
63 83 73
63 83 74
63 83 74
106 161 118
94 144 164
94 144 164
94 144 164
94 144 164
94 144 164
94 144 164
94 144 164
94 144 164
94 144 164
94 144 164
94 144 164
94 144 164
94 144 164
94 144 164
94 144 164
94 144 164
94 144 164
94 144 164
94 144 164
94 144 164
94 144 164
94 144 164
94 144 164
94 144 164
94 144 164
94 144 164
94 144 164
94 144 164
94 144 164
94 144 164
94 144 164
94 144 164
94 144 164
94 144 164
94 144 164
94 144 164
94 144 164
94 144 164
94 144 164
94 144 164
94 144 164
94 144 164
94 144 164
94 144 164
94 144 164
94 144 164
94 144 164
94 144 164
94 144 164
94 144 164
94 144 164
94 144 164
94 144 164
94 144 164
125 196 161
125 196 161
125 196 161
125 196 160
119 179 156
119 179 156
125 196 160
119 179 156
118 179 156
125 196 160
125 196 160
125 196 160
125 196 160
118 179 156
118 179 156
118 179 156
118 179 156
118 179 156
118 179 155
118 179 155
118 179 155
118 179 155
124 196 160
124 196 159
124 196 159
118 179 155
105 151 118
105 151 119
112 168 123
112 168 123
64 81 76
66 86 77
66 86 77
110 154 124
67 84 79
66 86 78
66 86 78
66 86 78
116 170 129
110 154 125
110 154 125
74 98 92
73 98 92
73 98 92
73 98 92
71 93 91
71 93 90
122 180 160
110 154 125
67 87 79
67 87 79
67 87 79
116 179 154
116 179 154
116 179 154
116 179 154
116 178 154
123 196 158
123 196 158
123 196 158
116 178 154
116 178 153
123 196 158
123 196 158
123 196 158
116 178 153
116 178 153
116 178 153
116 178 153
116 178 153
122 196 158
122 196 158
122 196 157
122 196 157
116 178 153
116 178 153
116 178 153
116 178 153
115 178 153
122 196 157
122 196 157
115 178 153
115 178 153
115 178 153
115 178 153
115 178 153
115 178 153
122 196 157
122 196 157
122 196 157
122 196 157
122 196 157
115 178 152
122 196 157
122 196 157
115 178 152
122 196 157
122 196 157
122 196 157
122 196 157
122 196 157
115 178 152
99 157 109
99 157 109
99 157 109
102 149 114
110 167 120
123 196 158
116 179 154
123 196 158
123 196 158
64 84 74
64 84 74
64 84 75
63 79 74
64 84 75
64 84 75
63 79 74
63 79 74
63 79 74
64 84 75
64 84 75
63 79 74
64 84 75
63 79 74
63 79 74
63 79 74
63 79 74
64 84 75
123 196 158
123 196 158
54 74 62
54 74 62
54 74 62
50 32 44
57 31 45
49 31 42
49 31 42
49 31 42
49 31 42
49 31 42
49 31 42
57 31 45
57 31 45
57 31 45
57 31 45
49 31 42
49 31 42
57 31 45
49 31 42
57 31 45
49 31 42
49 31 42
50 31 42
50 31 42
50 31 43
50 31 43
57 31 46
50 31 43
57 31 46
50 32 43
57 32 46
50 32 43
57 32 46
114 178 152
114 178 152
114 178 152
114 178 152
121 196 156
121 196 156
121 196 156
121 196 156
121 196 156
115 178 152
115 178 152
53 73 61
51 68 60
53 73 62
53 73 62
54 74 63
54 74 63
55 74 63
123 196 158
123 196 158
116 179 154
116 179 154
116 179 154
116 179 154
123 196 158
123 196 158
123 196 158
123 196 158
116 179 154
117 179 154
117 179 154
117 179 154
123 196 158
123 196 158
123 196 158
123 196 158
117 179 154
61 83 78
61 83 79
61 83 79
57 77 66
57 77 66
62 83 79
62 83 79
62 83 79
57 77 66
54 71 64
54 70 63
54 70 63
54 70 63
54 71 63
54 71 63
54 70 63
53 70 63
53 70 63
53 70 63
55 75 64
54 70 63
54 70 63
56 76 64
56 76 65
54 71 63
56 76 64
55 75 64
94 140 106
101 158 111
55 75 64
55 75 64
116 178 153
116 178 153
116 178 153
116 178 154
116 178 154
123 196 158
116 178 154
116 179 154
123 196 158
54 71 64
55 71 64
55 71 64
55 71 64
55 72 65
57 77 66
57 77 66
57 77 66
58 78 68
59 79 69
97 142 110
125 196 160
125 196 160
125 196 160
125 196 160
125 196 161
61 81 71
61 81 72
60 76 71
61 78 72
61 78 72
63 83 74
63 83 74
61 78 73
94 144 164
94 144 164
94 144 164
94 144 164
94 144 164
94 144 164
94 144 164
94 144 164
94 144 164
94 144 164
94 144 164
94 144 164
94 144 164
94 144 164
94 144 164
94 144 164
94 144 164
94 144 164
94 144 164
94 144 164
94 144 164
94 144 164
94 144 164
94 144 164
94 144 164
94 144 164
94 144 164
94 144 164
94 144 164
94 144 164
94 144 164
94 144 164
94 144 164
94 144 164
94 144 164
94 144 164
94 144 164
94 144 164
94 144 164
94 144 164
94 144 164
94 144 164
94 144 164
94 144 164
94 144 164
94 144 164
94 144 164
94 144 164
94 144 164
94 144 164
94 144 164
94 144 164
94 144 164
125 196 160
119 179 156
119 179 156
118 179 156
118 179 156
125 196 160
125 196 160
125 196 160
118 179 156
118 179 156
118 179 156
118 179 156
118 179 155
124 196 160
118 179 155
124 196 160
124 196 160
124 196 159
124 196 159
118 179 155
118 179 155
124 196 159
124 196 159
124 196 159
124 196 159
124 196 159
105 150 118
111 168 122
105 151 118
105 151 118
106 151 119
112 168 123
112 168 124
125 196 160
113 168 124
110 154 124
69 89 80
65 82 77
65 82 77
65 82 77
66 86 78
110 154 125
122 180 160
122 180 159
122 180 159
122 180 159
67 87 78
67 87 78
67 87 78
67 87 78
110 154 125
66 83 78
66 82 78
67 87 79
56 76 65
56 76 65
56 76 65
54 71 63
116 178 153
116 178 153
122 196 158
122 196 158
122 196 158
122 196 157
122 196 157
122 196 157
122 196 157
116 178 153
116 178 153
122 196 157
122 196 157
115 178 153
115 178 153
115 178 153
115 178 153
115 178 153
122 196 157
122 196 157
115 178 153
122 196 157
115 178 152
115 178 152
115 178 152
115 178 152
122 196 157
122 196 157
122 196 157
122 196 157
122 196 157
122 196 157
115 178 152
115 178 152
115 178 152
121 196 157
121 196 157
121 196 157
121 196 157
121 196 156
115 178 152
115 178 152
115 178 152
115 178 152
102 148 113
53 73 61
53 73 61
53 73 61
53 73 61
102 149 114
116 178 153
116 178 153
123 196 158
116 178 153
123 196 158
116 178 153
116 178 153
123 196 158
116 178 153
64 84 75
64 84 75
63 80 74
63 80 74
63 80 74
64 84 75
64 84 75
69 90 87
69 90 87
70 95 88
70 95 88
70 95 88
116 178 153
122 196 158
122 196 158
122 196 158
54 74 62
54 74 62
52 69 61
50 33 44
49 31 42
49 31 42
49 31 42
49 31 42
57 31 45
49 31 42
49 31 42
57 31 45
57 31 45
57 31 45
57 31 45
49 31 42
57 31 45
57 31 45
57 31 45
57 31 45
50 31 42
50 31 42
50 31 43
57 31 46
50 31 43
50 31 43
57 31 46
50 31 43
50 32 43
57 32 46
57 32 46
57 32 46
57 32 46
121 196 156
121 196 156
121 196 156
121 196 156
114 178 151
121 196 156
114 178 151
114 178 152
52 72 60
52 72 60
52 72 60
99 157 108
53 73 62
53 73 62
54 73 62
54 74 63
55 74 63
53 69 62
116 178 153
123 196 158
123 196 158
123 196 158
123 196 158
116 178 153
123 196 158
54 71 63
54 71 64
54 71 64
54 71 64
56 76 65
54 71 64
56 76 65
56 76 65
55 71 64
55 71 64
55 71 64
55 71 64
54 71 64
123 196 158
116 179 154
123 196 158
123 196 158
116 179 154
61 82 78
61 83 78
61 83 78
54 71 64
54 70 63
54 70 63
54 71 63
54 71 63
54 71 64
54 70 63
53 70 63
53 70 63
53 70 63
54 70 63
54 70 63
56 76 64
56 76 65
56 76 65
56 76 65
56 76 64
55 75 64
55 75 64
55 75 64
55 75 64
54 70 63
55 75 64
55 75 64
116 178 153
116 178 153
101 158 111
94 140 106
101 158 111
53 70 63
53 70 63
54 70 63
54 70 63
55 71 64
57 77 66
57 77 66
57 77 66
55 72 65
58 78 68
58 78 68
60 79 69
125 196 160
125 196 160
125 196 160
125 196 160
58 75 69
58 75 69
60 80 70
59 75 69
60 77 71
61 78 72
63 83 74
63 83 74
63 83 74
63 83 74
94 144 164
94 144 164
94 144 164
94 144 164
94 144 164
94 144 164
94 144 164
94 144 164
94 144 164
94 144 164
94 144 164
94 144 164
94 144 164
94 144 164
94 144 164
94 144 164
94 144 164
94 144 164
94 144 164
94 144 164
94 144 164
94 144 164
94 144 164
94 144 164
94 144 164
94 144 164
94 144 164
94 144 164
94 144 164
94 144 164
94 144 164
94 144 164
94 144 164
94 144 164
94 144 164
94 144 164
94 144 164
94 144 164
94 144 164
94 144 164
94 144 164
94 144 164
94 144 164
94 144 164
94 144 164
94 144 164
94 144 164
94 144 164
94 144 164
94 144 164
94 144 164
118 179 156
125 196 160
125 196 160
125 196 160
118 179 156
124 196 160
118 179 156
118 179 155
118 179 155
124 196 160
124 196 160
124 196 159
124 196 159
118 179 155
118 179 155
124 196 159
124 196 159
117 179 155
117 179 155
124 196 159
124 196 159
124 196 159
124 196 159
117 179 155
117 179 155
117 179 154
117 179 154
111 167 122
105 150 118
111 168 122
112 168 122
105 151 118
106 151 119
112 168 123
125 196 160
125 196 160
125 196 160
125 196 160
125 196 160
71 92 90
71 92 90
70 92 89
122 180 159
65 81 77
66 86 78
66 86 78
66 86 77
116 170 129
67 87 78
65 82 77
67 87 78
67 87 78
110 154 125
67 87 79
66 83 78
67 87 79
56 76 65
56 76 65
56 76 65
122 196 157
122 196 157
122 196 157
122 196 157
115 178 153
115 178 153
115 178 153
115 178 153
115 178 153
122 196 157
122 196 157
122 196 157
122 196 157
115 178 152
115 178 152
115 178 152
115 178 152
115 178 152
122 196 157
115 178 152
115 178 152
115 178 152
122 196 157
121 196 157
121 196 157
121 196 157
121 196 157
115 178 152
115 178 152
115 178 152
115 178 152
115 178 152
121 196 156
121 196 156
121 196 156
121 196 156
114 178 152
114 178 152
114 178 152
114 178 152
101 148 113
53 73 61
53 73 61
53 73 61
53 72 60
102 148 113
53 73 62
53 73 62
53 73 61
53 73 61
102 149 114
122 196 157
122 196 157
116 178 153
122 196 157
116 178 153
122 196 157
116 178 153
116 178 153
122 196 157
122 196 157
122 196 157
116 178 153
122 196 157
115 178 153
122 196 157
115 178 153
115 178 153
122 196 157
122 196 157
115 178 153
122 196 157
115 178 153
59 80 75
59 80 75
59 80 75
54 74 62
54 74 62
54 74 62
51 33 44
49 31 42
49 31 42
49 31 42
49 31 42
49 31 42
57 31 45
57 31 45
57 31 45
49 31 42
49 31 42
49 31 42
49 31 42
57 31 45
50 31 42
50 31 42
57 31 46
57 31 46
57 31 46
57 31 46
57 31 46
50 31 43
57 31 46
50 32 43
50 32 43
50 32 43
57 32 46
50 32 43
50 32 43
50 32 43
49 66 57
49 66 58
49 66 58
49 66 58
51 71 59
51 71 59
51 71 59
51 71 59
50 67 59
52 72 60
52 72 60
53 73 62
53 73 62
52 68 60
54 74 62
59 81 76
59 81 76
116 178 153
122 196 157
122 196 157
116 178 153
122 196 157
53 70 62
53 70 62
53 70 62
53 70 62
54 71 64
54 71 64
54 71 64
54 71 64
56 76 65
56 76 65
55 71 64
57 77 66
55 71 64
55 71 64
55 71 64
54 71 64
54 71 64
54 71 64
54 71 64
54 71 64
54 71 63
123 196 158
62 87 79
62 87 79
60 82 77
54 70 63
54 71 63
54 71 63
54 71 64
54 71 64
54 70 63
55 75 64
53 70 63
53 70 63
54 70 63
54 70 63
54 70 63
56 76 65
56 76 65
56 76 65
56 76 64
55 75 64
55 75 64
55 75 64
55 75 64
56 76 64
55 75 64
55 75 64
55 75 63
55 75 64
55 75 64
55 75 64
53 70 63
53 70 63
53 70 63
54 70 63
55 71 64
55 72 65
57 77 66
57 77 66
57 77 66
57 77 66
58 78 68
58 78 68
118 179 155
124 196 159
124 196 160
124 196 160
124 196 160
124 196 160
124 196 160
59 75 69
59 75 69
60 77 71
61 78 72
61 78 72
63 83 74
63 83 74
63 83 74
94 144 164
94 144 164
94 144 164
94 144 164
94 144 164
94 144 164
94 144 164
94 144 164
94 144 164
94 144 164
94 144 164
94 144 164
94 144 164
94 144 164
94 144 164
94 144 164
94 144 164
94 144 164
94 144 164
94 144 164
94 144 164
94 144 164
94 144 164
94 144 164
94 144 164
94 144 164
94 144 164
94 144 164
94 144 164
94 144 164
94 144 164
94 144 164
94 144 164
94 144 164
94 144 164
94 144 164
94 144 164
94 144 164
94 144 164
94 144 164
94 144 164
94 144 164
94 144 164
94 144 164
94 144 164
94 144 164
94 144 164
94 144 164
94 144 164
124 196 160
124 196 160
118 179 155
118 179 155
124 196 160
124 196 160
124 196 159
124 196 159
118 179 155
124 196 159
124 196 159
117 179 155
117 179 155
117 179 155
124 196 159
124 196 159
124 196 159
124 196 159
124 196 159
124 196 159
123 196 159
117 179 154
117 179 154
123 196 159
123 196 159
117 179 154
117 179 154
110 167 121
111 167 121
104 150 117
105 150 117
111 168 122
112 168 122
105 151 118
106 151 119
118 179 156
124 196 160
118 179 155
124 196 160
124 196 160
118 179 155
118 179 155
124 196 159
124 196 159
110 154 124
66 86 78
66 86 78
64 81 76
66 86 78
110 154 125
68 85 80
65 82 77
67 87 78
67 87 78
110 154 125
68 85 80
124 196 159
124 196 159
123 196 159
54 71 64
52 69 61
52 69 61
52 69 61
52 69 61
122 196 157
122 196 157
122 196 157
122 196 157
122 196 157
115 178 152
115 178 152
122 196 157
122 196 157
121 196 157
121 196 157
121 196 157
121 196 157
121 196 156
115 178 152
115 178 152
115 178 152
115 178 152
114 178 152
121 196 156
121 196 156
114 178 152
121 196 156
114 178 152
114 178 152
121 196 156
121 196 156
121 196 156
114 178 152
114 178 152
114 178 152
114 178 151
101 148 112
50 66 58
50 66 58
52 72 60
52 72 60
101 148 113
51 67 59
53 73 61
53 73 61
53 73 61
101 148 113
53 73 62
51 68 60
53 73 62
53 73 62
102 149 114
115 178 153
122 196 157
115 178 153
115 178 153
122 196 157
122 196 157
122 196 157
122 196 157
54 74 62
52 69 61
54 74 62
52 69 61
52 69 61
54 74 62
54 74 62
54 74 62
52 69 61
52 69 61
52 69 61
52 69 61
52 69 61
122 196 157
122 196 157
122 196 157
115 178 152
115 178 152
115 178 152
58 80 75
51 33 44
57 31 45
57 31 45
49 31 42
57 31 45
49 31 42
57 31 45
57 31 45
49 31 42
49 31 42
49 31 42
50 31 42
50 31 42
50 31 42
57 31 46
57 31 46
57 31 46
50 31 43
50 31 43
50 31 43
57 31 46
57 32 46
57 32 46
50 32 43
50 32 43
50 32 43
50 32 43
50 32 43
50 32 43
50 32 43
49 66 58
49 66 58
49 66 58
49 66 58
51 71 59
51 71 59
51 71 59
52 71 59
52 72 60
53 72 60
53 73 61
53 73 62
54 73 62
54 74 62
54 74 62
115 178 153
115 178 153
115 178 153
115 178 153
115 178 153
122 196 157
122 196 157
93 140 105
53 70 62
53 70 62
53 70 62
56 76 65
54 71 64
56 76 65
56 76 65
56 76 65
56 76 65
55 71 64
55 71 64
55 71 64
55 72 65
55 71 64
54 71 64
54 71 64
54 71 64
54 71 64
54 71 64
54 71 63
54 70 63
54 70 63
54 70 63
56 76 65
54 70 63
94 140 106
123 196 158
62 87 78
62 87 78
62 87 78
55 75 64
53 70 63
54 70 63
56 76 64
56 76 64
56 76 65
56 76 65
56 76 65
56 76 65
56 76 64
55 75 64
55 75 64
55 75 64
56 76 64
56 76 64
55 75 64
55 75 64
55 75 64
53 70 62
53 70 62
55 75 64
55 75 64
53 70 63
54 70 63
54 70 63
57 77 66
55 72 65
57 77 66
57 77 66
57 77 66
57 77 66
117 179 155
124 196 159
117 179 155
124 196 159
124 196 159
124 196 159
124 196 159
57 74 68
57 74 68
59 75 69
60 77 71
60 77 71
126 196 161
120 180 157
126 196 161
120 180 157
120 180 157
120 180 157
120 180 157
94 144 164
94 144 164
94 144 164
94 144 164
94 144 164
94 144 164
94 144 164
94 144 164
94 144 164
94 144 164
94 144 164
94 144 164
94 144 164
94 144 164
94 144 164
94 144 164
94 144 164
94 144 164
94 144 164
94 144 164
94 144 164
94 144 164
94 144 164
94 144 164
94 144 164
94 144 164
94 144 164
94 144 164
94 144 164
94 144 164
94 144 164
94 144 164
94 144 164
94 144 164
94 144 164
94 144 164
94 144 164
94 144 164
94 144 164
94 144 164
94 144 164
94 144 164
94 144 164
94 144 164
94 144 164
124 196 160
118 179 155
118 179 155
118 179 155
118 179 155
124 196 159
117 179 155
124 196 159
124 196 159
117 179 155
117 179 155
117 179 155
124 196 159
124 196 159
117 179 155
117 179 154
117 179 154
117 179 154
117 179 154
123 196 159
123 196 159
123 196 158
123 196 158
110 167 121
57 77 66
55 71 64
55 71 64
55 71 64
55 71 64
110 167 121
111 167 121
104 150 117
105 150 117
111 168 122
111 168 122
105 151 118
118 179 155
124 196 159
124 196 159
124 196 159
124 196 159
117 179 155
117 179 155
124 196 159
124 196 159
124 196 159
124 196 159
117 179 155
124 196 159
66 86 78
66 86 78
116 170 129
69 89 81
123 196 159
123 196 159
123 196 159
123 196 159
123 196 159
61 83 79
61 83 78
63 88 80
54 71 64
52 69 61
52 69 61
52 69 61
52 69 61
51 68 60
51 68 60
51 68 60
51 68 60
53 73 61
53 73 61
53 73 61
53 73 61
51 67 60
114 178 152
114 178 152
114 178 152
114 178 152
121 196 156
121 196 156
121 196 156
114 178 152
121 196 156
114 178 152
121 196 156
114 178 151
114 178 151
114 178 151
121 196 156
121 196 156
114 178 151
121 196 156
114 178 151
114 178 151
114 178 151
114 178 151
114 178 151
101 148 112
52 72 60
52 72 60
52 72 60
52 72 60
101 148 113
51 67 59
53 73 61
53 73 61
53 73 61
99 157 108
53 73 62
51 68 60
53 73 62
53 73 62
102 148 114
122 196 157
115 178 152
115 178 152
115 178 152
122 196 157
122 196 157
93 139 105
93 139 105
52 69 61
52 69 61
52 69 61
52 69 61
52 69 61
54 74 63
54 74 62
52 69 61
54 74 62
52 69 61
52 69 61
52 69 61
52 69 61
51 68 60
53 73 61
53 73 61
51 68 60
51 68 60
121 196 156
59 84 75
51 33 44
57 31 45
57 31 45
57 31 45
57 31 45
57 31 45
57 31 45
57 31 45
50 31 42
50 31 42
50 31 42
50 31 43
50 31 43
50 31 43
50 31 43
50 31 43
57 31 46
57 31 46
57 31 46
57 32 46
57 32 46
57 32 46
57 32 46
50 32 43
57 32 46
57 32 46
50 32 43
50 32 43
50 32 43
50 32 43
49 66 58
49 66 58
49 66 58
49 66 58
49 66 58
51 71 59
49 66 58
52 72 59
50 67 59
51 67 59
53 73 61
115 178 152
115 178 152
122 196 157
115 178 152
122 196 157
122 196 157
122 196 157
122 196 157
122 196 157
52 69 61
52 69 61
52 69 61
53 70 62
53 70 62
53 70 63
54 71 64
54 71 64
56 76 65
56 76 65
56 76 65
57 77 66
57 77 66
55 71 64
55 72 64
55 72 65
55 71 64
54 71 64
54 71 64
54 71 64
54 71 64
54 71 64
54 71 63
54 70 63
54 70 63
54 70 63
56 76 65
54 70 63
53 70 63
53 70 62
53 70 62
55 75 64
53 70 63
53 70 63
116 178 153
122 196 158
122 196 158
122 196 158
122 196 158
116 178 153
62 87 78
60 82 77
60 82 77
55 75 64
55 75 64
56 75 64
56 76 64
56 76 64
55 75 64
55 75 64
55 75 64
55 75 64
55 75 64
55 75 64
53 70 63
54 70 63
54 70 63
54 70 63
61 83 78
63 88 80
61 83 78
61 83 79
63 88 80
117 179 154
123 196 159
123 196 159
123 196 159
123 196 159
124 196 159
56 73 66
56 73 66
56 73 66
57 74 68
59 75 69
125 196 161
125 196 161
125 196 161
119 179 157
119 180 157
119 180 157
119 180 157
126 196 161
126 196 161
126 196 161
120 180 157
94 144 164
94 144 164
94 144 164
94 144 164
94 144 164
94 144 164
94 144 164
94 144 164
94 144 164
94 144 164
94 144 164
94 144 164
94 144 164
94 144 164
94 144 164
94 144 164
94 144 164
94 144 164
94 144 164
94 144 164
94 144 164
94 144 164
94 144 164
94 144 164
94 144 164
94 144 164
94 144 164
94 144 164
94 144 164
94 144 164
94 144 164
94 144 164
94 144 164
94 144 164
94 144 164
94 144 164
94 144 164
94 144 164
94 144 164
94 144 164
94 144 164
124 196 159
124 196 159
124 196 159
124 196 159
117 179 155
117 179 155
117 179 155
117 179 155
117 179 155
117 179 155
117 179 154
123 196 159
123 196 159
123 196 159
117 179 154
117 179 154
123 196 158
123 196 158
123 196 158
123 196 158
123 196 158
123 196 158
123 196 158
123 196 158
110 167 121
110 167 121
55 72 65
55 72 65
55 71 64
55 71 64
55 71 64
110 167 121
111 167 121
104 150 117
105 150 117
105 150 118
124 196 159
117 179 155
124 196 159
124 196 159
124 196 159
117 179 155
124 196 159
117 179 155
117 179 155
124 196 159
123 196 159
96 141 108
96 141 108
111 167 121
111 167 122
106 151 120
66 86 78
102 146 116
55 72 65
55 72 65
55 71 64
55 71 64
123 196 158
63 88 79
63 87 79
63 87 79
63 87 79
60 82 77
62 87 79
54 74 63
52 69 61
52 69 61
51 68 60
51 68 60
51 68 60
51 68 60
51 68 60
53 73 61
53 73 61
53 73 61
52 72 60
52 72 60
52 72 60
52 72 60
52 72 60
114 178 151
114 178 151
114 178 151
114 178 151
114 178 151
121 196 156
121 196 156
121 196 156
114 178 151
49 66 58
49 66 58
49 66 58
49 66 58
51 71 59
51 71 59
51 71 59
51 71 59
51 71 59
51 71 59
101 148 112
50 67 58
50 67 58
52 72 60
52 72 60
101 148 113
53 73 61
53 73 61
51 67 59
53 73 61
53 73 61
115 178 152
115 178 152
115 178 152
115 178 152
121 196 157
115 178 152
121 196 156
115 178 152
121 196 156
51 68 60
51 68 60
51 68 60
51 68 60
109 166 119
52 69 61
52 69 61
52 69 61
52 69 61
52 69 61
54 74 63
54 74 63
54 74 63
52 69 61
52 69 61
52 69 61
52 69 61
51 68 60
53 73 61
53 73 61
51 68 60
51 68 60
52 72 60
50 67 59
51 33 44
49 31 42
57 31 45
57 31 45
57 31 45
50 31 42
50 31 42
50 31 42
50 31 43
50 31 43
57 31 46
50 31 43
50 31 43
50 31 43
50 31 43
50 31 43
57 32 46
50 32 43
57 32 46
50 32 43
57 32 46
57 32 46
50 32 43
57 32 46
50 32 43
50 32 43
57 32 46
50 32 43
50 32 43
50 32 43
49 66 58
49 66 58
49 66 58
49 66 58
52 71 59
52 72 59
52 72 59
52 72 59
59 84 75
59 84 75
114 178 152
114 178 152
121 196 156
121 196 156
121 196 156
121 196 156
51 68 60
51 68 60
51 68 60
51 68 60
52 69 61
52 69 61
52 69 61
53 70 62
55 75 64
62 87 79
62 87 79
62 87 79
123 196 158
123 196 158
116 179 154
116 179 154
116 179 154
123 196 158
61 82 78
63 88 79
63 88 79
54 71 64
56 76 65
54 71 64
54 71 64
54 71 64
54 71 63
54 70 63
54 70 63
54 70 63
54 71 63
54 70 63
53 70 63
53 70 62
53 70 63
53 70 63
53 70 63
53 70 63
53 69 62
55 75 63
53 69 62
55 75 63
55 75 64
53 69 62
122 196 157
122 196 157
122 196 157
122 196 158
116 178 153
60 81 76
60 81 76
60 81 77
60 81 77
53 70 62
55 75 64
55 75 64
55 75 64
55 75 64
53 70 63
54 70 63
54 70 63
54 70 63
123 196 158
123 196 158
123 196 158
116 179 154
101 158 112
101 158 112
57 76 65
57 77 66
55 71 64
55 72 65
55 72 65
55 72 65
56 73 66
57 74 68
58 74 68
125 196 160
119 179 156
119 179 156
119 179 156
119 179 156
119 179 156
61 81 72
62 81 72
62 82 72
60 77 71
60 77 71
60 77 71
94 144 164
94 144 164
94 144 164
94 144 164
94 144 164
94 144 164
94 144 164
94 144 164
94 144 164
94 144 164
94 144 164
94 144 164
94 144 164
94 144 164
94 144 164
94 144 164
94 144 164
94 144 164
94 144 164
94 144 164
94 144 164
94 144 164
94 144 164
94 144 164
94 144 164
94 144 164
94 144 164
94 144 164
94 144 164
94 144 164
94 144 164
94 144 164
94 144 164
94 144 164
94 144 164
94 144 164
94 144 164
94 144 164
94 144 164
117 179 155
117 179 155
117 179 155
124 196 159
124 196 159
124 196 159
117 179 154
123 196 159
123 196 159
117 179 154
117 179 154
117 179 154
117 179 154
117 179 154
117 179 154
111 167 121
57 77 66
57 77 66
57 77 66
57 77 66
57 77 66
55 71 64
56 76 65
54 71 64
54 71 64
54 71 64
110 167 121
110 167 121
60 80 69
55 72 65
55 72 65
55 71 64
55 71 64
110 167 121
111 167 121
111 167 121
105 150 117
117 179 155
117 179 155
117 179 155
123 196 159
123 196 159
123 196 159
123 196 159
123 196 159
123 196 159
111 167 121
58 77 67
56 72 65
55 72 65
55 72 65
55 72 65
111 167 122
111 167 122
118 179 156
118 179 155
55 72 65
55 72 65
55 72 65
95 141 107
54 70 63
54 70 63
54 70 63
54 70 63
123 196 158
62 87 78
62 87 78
52 69 62
52 69 61
52 69 61
51 68 60
51 68 60
51 68 60
51 68 60
51 68 60
53 73 61
53 73 61
53 73 61
50 67 59
52 72 60
52 72 60
50 66 58
114 178 151
114 178 151
98 156 107
91 138 102
98 156 107
51 71 58
49 65 57
49 65 57
49 65 57
98 156 107
54 74 62
49 66 58
49 66 58
49 66 58
49 66 58
51 71 59
51 71 59
51 71 59
51 71 59
49 66 58
101 148 112
52 72 60
52 72 60
52 72 60
50 67 58
52 72 60
57 79 74
57 79 74
57 79 74
114 178 152
114 178 152
121 196 156
121 196 156
121 196 156
121 196 156
51 67 59
51 67 59
53 73 61
51 67 59
51 67 59
53 73 62
51 68 60
51 68 60
51 68 60
109 166 119
52 69 61
52 69 61
52 69 61
52 69 61
54 74 63
52 69 61
54 74 63
54 74 63
52 69 61
54 74 63
54 74 63
54 74 63
51 68 60
51 68 60
51 68 60
51 68 60
51 68 60
53 72 60
50 67 59
59 33 48
57 31 45
50 31 42
57 31 46
57 31 46
50 31 43
57 31 46
50 31 43
50 31 43
57 31 46
57 31 46
50 31 43
50 31 43
57 31 46
57 32 46
50 32 43
50 32 43
57 32 46
57 32 46
57 32 46
50 32 43
57 32 46
57 32 46
57 32 46
50 32 43
50 32 43
50 32 43
57 32 46
50 32 43
50 32 43
49 66 58
49 66 58
51 71 59
49 66 58
52 72 59
52 72 59
52 72 59
52 72 59
121 196 156
121 196 156
121 196 156
121 196 156
50 66 58
52 72 60
50 67 58
50 67 59
50 67 59
51 68 60
51 68 60
51 68 60
52 69 61
52 69 61
52 69 61
62 86 78
122 196 158
122 196 158
116 178 153
116 178 153
122 196 158
116 178 153
123 196 158
123 196 158
123 196 158
123 196 158
123 196 158
60 82 77
116 178 154
116 178 154
123 196 158
62 87 79
62 87 79
62 87 79
54 71 63
54 70 63
54 70 63
54 71 63
56 76 65
54 70 63
53 70 63
53 70 63
53 70 63
53 70 63
55 75 64
53 70 62
53 69 62
53 69 62
53 70 62
53 70 62
53 70 62
53 69 62
52 69 62
54 74 63
52 69 62
53 69 62
53 69 62
53 69 62
122 196 157
61 86 77
61 86 77
61 86 77
59 81 76
59 81 76
116 178 153
116 178 153
116 178 153
122 196 158
122 196 158
122 196 158
123 196 158
116 178 153
116 178 153
116 178 153
116 178 154
116 178 154
57 77 66
55 71 64
55 72 65
55 72 65
57 77 66
55 72 65
56 73 66
58 74 68
125 196 160
125 196 160
125 196 160
125 196 160
104 159 115
104 160 115
60 80 70
60 80 70
62 82 72
60 77 71
62 82 72
62 82 72
60 77 71
94 144 164
94 144 164
94 144 164
94 144 164
94 144 164
94 144 164
94 144 164
94 144 164
94 144 164
94 144 164
94 144 164
94 144 164
94 144 164
94 144 164
94 144 164
94 144 164
94 144 164
94 144 164
94 144 164
94 144 164
94 144 164
94 144 164
94 144 164
94 144 164
94 144 164
94 144 164
94 144 164
94 144 164
94 144 164
94 144 164
94 144 164
94 144 164
94 144 164
94 144 164
94 144 164
94 144 164
94 144 164
94 144 164
94 144 164
117 179 154
117 179 154
123 196 159
123 196 159
117 179 154
117 179 154
117 179 154
117 179 154
57 77 66
56 76 65
56 76 65
56 76 65
56 76 65
110 167 120
104 150 116
104 150 117
57 77 66
57 77 66
57 77 66
57 77 66
55 71 64
57 77 66
56 76 65
54 71 64
54 71 64
54 71 64
110 167 121
110 167 121
60 79 69
55 72 65
55 72 65
55 72 65
55 71 64
55 71 64
111 167 121
117 179 154
123 196 159
123 196 159
123 196 159
117 179 154
111 167 121
55 72 65
55 72 65
55 72 65
55 72 65
111 167 121
111 167 121
56 72 66
56 72 65
56 72 65
57 77 67
55 72 65
111 167 122
111 167 122
124 196 159
118 179 155
124 196 159
55 72 65
55 72 65
54 71 63
54 71 63
54 70 63
54 70 63
116 178 153
61 86 77
61 86 77
61 86 77
61 86 77
61 86 77
61 86 77
51 68 60
51 68 60
51 68 60
51 68 60
51 68 60
53 73 61
53 73 61
53 73 61
50 67 59
52 72 60
52 72 60
52 72 60
51 71 59
51 71 59
51 71 59
51 71 58
51 71 58
49 65 57
49 65 57
49 65 57
49 65 57
51 71 58
107 166 117
49 66 58
52 71 59
49 66 58
49 66 58
49 66 58
51 71 59
51 71 59
51 71 59
51 71 59
101 148 112
52 72 60
52 72 60
50 67 59
52 72 60
52 72 60
114 178 152
114 178 152
121 196 156
121 196 156
92 139 103
50 66 58
50 66 58
50 66 58
50 66 58
51 67 59
51 67 59
51 67 59
51 67 59
51 67 59
54 73 62
51 68 60
51 68 60
53 73 62
109 166 118
61 86 77
61 86 77
61 86 77
61 86 77
59 80 75
59 80 75
59 80 75
61 85 77
61 85 77
61 85 76
61 85 76
61 85 76
51 68 60
51 68 60
51 68 60
51 68 60
51 68 60
51 67 59
51 67 59
51 34 45
57 31 46
57 31 46
57 31 46
57 31 46
50 31 43
57 31 46
57 31 46
50 31 43
50 31 43
50 31 43
50 32 43
50 32 43
50 32 43
50 32 43
50 32 43
57 32 46
57 32 46
57 32 46
57 32 46
57 32 46
57 32 46
57 32 46
50 32 43
50 32 43
57 32 46
57 32 46
50 32 43
50 32 43
50 32 43
121 196 156
114 178 151
114 178 151
121 196 156
114 178 151
114 178 151
114 178 151
121 196 156
114 178 151
114 178 151
121 196 156
121 196 156
121 196 156
52 72 60
52 72 60
50 67 59
92 139 104
53 73 61
53 73 61
53 73 61
52 69 61
52 69 61
94 140 106
122 196 157
122 196 157
122 196 157
116 178 153
100 158 110
55 75 63
55 75 63
55 75 63
53 70 62
53 70 62
55 75 64
53 70 62
55 75 64
55 75 64
55 75 64
53 70 63
116 178 153
60 81 77
60 81 77
62 87 78
60 81 77
62 87 78
60 82 77
62 87 78
62 87 78
53 70 63
53 70 63
53 70 63
53 70 63
54 70 63
53 70 62
53 69 62
53 70 62
53 70 62
53 70 62
53 70 62
53 69 62
52 69 62
54 74 63
52 69 62
55 75 63
53 69 62
52 69 62
52 69 61
52 69 61
54 74 62
52 69 61
52 69 61
52 69 61
122 196 157
122 196 157
122 196 157
122 196 157
116 178 153
116 178 153
122 196 157
116 178 153
122 196 157
55 75 64
53 70 63
54 70 63
55 71 64
57 77 66
55 72 65
55 72 65
55 72 65
55 72 65
56 73 67
124 196 160
124 196 160
124 196 160
58 75 68
60 80 70
60 80 70
60 80 70
60 80 70
59 75 69
60 77 71
60 77 71
60 77 71
60 77 71
60 77 71
94 144 164
94 144 164
94 144 164
94 144 164
94 144 164
94 144 164
94 144 164
94 144 164
94 144 164
94 144 164
94 144 164
94 144 164
94 144 164
94 144 164
94 144 164
94 144 164
94 144 164
94 144 164
94 144 164
94 144 164
94 144 164
94 144 164
94 144 164
94 144 164
94 144 164
94 144 164
94 144 164
94 144 164
94 144 164
94 144 164
94 144 164
94 144 164
94 144 164
94 144 164
94 144 164
94 144 164
94 144 164
94 144 164
94 144 164
123 196 158
123 196 158
117 179 154
116 179 154
116 179 154
116 179 154
104 150 116
104 150 116
57 74 67
57 77 66
56 76 65
56 76 65
56 76 65
56 76 65
104 150 116
104 150 117
58 74 67
57 77 66
57 77 66
57 77 66
57 77 66
57 77 66
55 71 64
55 71 64
54 71 64
54 71 64
54 71 64
110 167 121
59 79 69
55 72 65
57 77 66
55 72 65
55 72 65
55 71 64
95 141 108
95 141 108
95 141 108
54 71 64
54 71 64
110 167 121
111 167 121
57 77 66
55 72 65
55 72 65
55 72 65
55 72 65
111 167 121
60 80 69
58 78 67
56 72 65
56 72 65
55 72 65
111 167 121
111 167 122
124 196 159
124 196 159
124 196 159
55 72 65
55 72 65
55 72 65
54 71 63
54 71 63
54 70 63
53 69 62
53 69 62
53 69 62
122 196 157
60 85 76
60 85 76
58 80 75
51 68 60
53 73 62
51 68 60
51 68 60
51 68 60
51 68 60
53 73 61
51 68 60
60 85 76
52 72 60
52 72 60
52 72 60
51 71 59
51 71 59
51 71 59
49 65 57
51 71 59
49 65 57
49 65 57
49 65 57
49 65 57
51 71 58
107 166 116
50 66 58
50 66 58
49 66 58
49 66 58
49 66 58
51 71 59
51 71 59
49 66 58
51 71 59
101 148 112
121 196 156
114 178 151
114 178 151
114 178 151
121 196 156
121 196 156
121 196 156
121 196 156
114 178 151
50 67 58
50 66 58
50 66 58
52 72 60
50 66 58
51 67 59
51 67 59
53 73 61
53 73 61
51 67 59
52 68 60
52 68 60
52 68 60
52 68 60
93 139 105
115 178 152
122 196 157
122 196 157
115 178 152
122 196 157
122 196 157
115 178 152
122 196 157
122 196 157
60 85 76
58 80 74
58 79 74
60 85 76
60 85 76
60 85 76
60 85 76
60 85 76
51 67 59
51 67 59
51 34 45
50 31 43
57 31 46
57 31 46
57 31 46
57 31 46
57 31 46
50 32 43
50 32 43
57 32 46
57 32 46
50 32 43
50 32 43
50 32 43
50 32 43
50 32 43
57 32 46
57 32 46
50 32 43
50 32 43
57 32 46
57 32 46
57 32 46
50 32 43
50 32 43
50 32 43
50 32 43
50 32 43
50 32 43
50 32 43
120 196 155
113 178 151
120 196 155
113 178 151
113 178 151
51 71 58
51 71 58
49 65 57
51 71 59
49 65 57
49 66 57
49 66 57
49 66 57
52 72 60
50 67 59
50 67 59
51 68 60
53 73 61
51 68 60
93 139 105
115 178 152
122 196 157
122 196 157
115 178 153
122 196 157
115 178 153
115 178 153
115 178 153
53 69 62
55 75 63
55 75 63
53 70 62
53 70 62
53 70 62
53 70 62
53 70 63
55 75 64
53 70 63
55 75 64
55 75 64
55 75 63
55 75 63
55 75 63
55 75 63
53 70 62
53 70 62
55 75 64
53 70 63
53 70 63
62 86 78
60 81 76
60 81 77
62 87 78
53 70 62
53 69 62
53 70 62
53 70 62
53 70 62
53 70 62
53 69 62
52 69 61
54 74 63
53 69 62
53 69 62
53 69 62
52 69 62
52 69 61
52 69 61
52 69 61
52 69 61
52 69 61
52 69 61
52 69 61
122 196 157
122 196 157
122 196 157
100 157 110
121 196 156
121 196 156
121 196 156
121 196 156
121 196 156
114 178 151
114 178 151
114 178 151
114 178 151
114 178 151
121 196 156
121 196 156
121 196 156
114 178 152
121 196 156
114 178 152
121 196 156
114 178 152
114 178 152
114 178 152
60 80 70
60 80 70
61 81 71
62 82 72
60 77 71
60 77 71
60 77 71
94 144 164
94 144 164
94 144 164
94 144 164
94 144 164
94 144 164
94 144 164
94 144 164
94 144 164
94 144 164
94 144 164
94 144 164
94 144 164
94 144 164
94 144 164
94 144 164
94 144 164
94 144 164
94 144 164
94 144 164
94 144 164
94 144 164
94 144 164
94 144 164
94 144 164
94 144 164
94 144 164
94 144 164
94 144 164
94 144 164
94 144 164
94 144 164
94 144 164
94 144 164
94 144 164
94 144 164
94 144 164
94 144 164
94 144 164
94 144 164
56 76 65
56 76 65
56 76 65
56 76 65
56 76 65
56 76 65
104 150 116
104 150 116
59 79 68
57 77 66
57 77 66
56 76 65
56 76 65
56 76 65
110 167 121
110 167 121
58 74 67
57 77 66
57 77 66
57 77 66
57 77 66
57 77 66
55 71 64
55 71 64
55 71 64
54 71 64
56 76 65
110 167 121
117 179 154
123 196 158
123 196 158
116 179 154
116 179 154
110 167 121
55 71 64
55 71 64
55 71 64
55 71 64
54 71 64
110 167 121
111 167 121
55 72 65
55 72 65
55 72 65
55 72 65
57 77 66
111 167 121
60 80 69
56 72 66
56 72 66
58 77 67
56 72 65
111 167 121
123 196 159
64 89 80
64 88 80
64 88 80
63 88 80
63 88 80
63 88 80
54 71 63
54 71 63
54 71 63
53 70 62
53 69 62
53 69 62
52 68 61
52 68 61
52 68 61
52 68 60
121 196 157
121 196 157
121 196 157
121 196 156
115 178 152
115 178 152
57 79 74
57 79 74
57 79 73
52 72 60
52 72 60
52 72 60
51 71 59
51 71 59
51 71 59
51 71 59
51 71 59
49 65 57
51 71 58
49 65 57
49 65 57
49 65 57
107 166 116
58 83 74
58 83 74
56 78 72
58 83 74
58 83 74
56 78 72
56 78 72
58 83 73
114 178 151
121 196 156
121 196 156
114 178 151
121 196 156
121 196 156
49 66 58
49 66 57
49 66 57
49 66 57
49 66 57
55 75 63
52 72 60
50 67 58
50 67 58
50 66 58
55 75 64
51 67 59
51 67 59
51 67 59
51 67 59
122 196 157
121 196 157
121 196 157
121 196 157
115 178 152
115 178 152
115 178 152
115 178 152
115 178 152
115 178 152
121 196 156
121 196 156
121 196 156
115 178 152
115 178 152
115 178 152
115 178 152
115 178 152
115 178 152
57 79 74
59 84 75
57 79 74
57 79 74
59 84 75
51 34 45
57 31 46
57 31 46
50 32 43
57 32 46
57 32 46
50 32 43
57 32 46
50 32 43
50 32 43
50 32 43
57 32 46
57 32 46
57 32 46
57 32 46
50 32 43
50 32 43
50 32 43
57 32 46
50 32 43
50 32 43
50 32 43
50 32 43
50 32 43
57 32 46
57 32 46
58 32 46
58 32 46
58 32 46
58 32 46
120 196 155
113 177 150
97 156 106
97 156 106
97 156 106
51 71 58
51 71 58
49 65 57
51 71 59
49 66 57
49 66 57
49 66 57
51 71 59
50 67 59
50 67 59
50 67 59
60 85 75
60 85 75
121 196 157
121 196 157
51 68 60
51 68 60
52 68 60
52 68 60
54 74 62
52 68 61
52 68 61
54 74 62
55 75 63
55 75 63
53 70 62
55 75 64
53 70 62
53 70 62
55 75 64
55 75 64
55 75 64
53 70 63
56 75 64
55 75 64
55 75 63
55 75 63
55 75 63
55 75 64
53 70 62
55 75 64
53 70 63
53 70 63
53 70 63
53 69 62
55 75 63
53 69 62
55 75 63
53 69 62
53 69 62
61 86 77
59 81 76
61 86 78
62 86 78
53 69 62
52 69 62
53 69 62
55 75 63
53 69 62
53 69 62
52 69 62
52 69 61
52 69 61
54 74 63
52 69 61
52 69 61
52 69 61
52 69 61
52 68 61
52 68 61
52 68 61
52 69 61
49 65 57
48 65 57
113 178 151
120 196 155
120 196 155
120 196 155
114 178 151
114 178 151
114 178 151
114 178 151
114 178 151
114 178 151
121 196 156
121 196 156
121 196 156
121 196 156
121 196 156
121 196 156
121 196 156
121 196 156
121 196 156
121 196 156
114 178 152
114 178 152
114 178 152
114 178 152
114 178 152
121 196 156
121 196 156
121 196 156
121 196 156
121 196 156
94 144 164
94 144 164
94 144 164
94 144 164
94 144 164
94 144 164
94 144 164
94 144 164
94 144 164
94 144 164
94 144 164
94 144 164
94 144 164
94 144 164
94 144 164
94 144 164
94 144 164
94 144 164
94 144 164
94 144 164
94 144 164
94 144 164
94 144 164
94 144 164
94 144 164
94 144 164
94 144 164
94 144 164
94 144 164
94 144 164
94 144 164
94 144 164
94 144 164
94 144 164
94 144 164
54 71 64
56 76 65
56 76 65
56 76 65
56 76 65
56 76 65
104 150 116
104 150 116
59 79 68
55 71 64
57 77 66
57 77 66
56 76 65
56 76 65
104 150 116
104 150 116
58 74 67
61 83 79
61 83 79
63 88 80
63 88 80
61 83 78
61 83 78
63 88 79
63 88 79
123 196 158
110 167 120
56 76 65
54 71 64
54 71 64
54 71 64
54 71 64
110 167 120
104 150 116
59 79 68
55 71 64
55 71 64
55 71 64
55 71 64
110 167 121
111 167 121
60 80 69
55 72 65
57 77 66
55 72 65
55 72 65
111 167 121
123 196 159
123 196 159
123 196 159
123 196 159
117 179 154
117 179 154
117 179 154
117 179 154
117 179 154
123 196 158
63 88 79
63 88 79
63 88 79
54 71 64
54 71 63
56 76 65
53 70 62
53 70 62
53 69 62
52 68 61
52 68 61
52 68 61
51 67 59
51 67 59
51 67 59
51 67 59
51 67 59
121 196 156
59 84 74
59 84 74
59 84 74
57 78 73
57 78 73
56 78 73
56 78 73
51 71 59
51 71 59
51 71 59
49 66 57
51 71 59
49 66 57
49 65 57
49 65 57
51 71 58
49 65 57
121 196 156
114 178 151
114 178 151
120 196 156
120 196 156
114 178 151
114 178 151
114 178 151
114 178 151
114 178 151
120 196 155
91 138 102
91 138 102
91 138 102
48 65 57
51 71 59
49 66 58
51 71 59
49 66 58
49 66 57
55 75 62
50 67 59
50 67 59
52 72 60
50 67 58
55 75 63
59 84 75
59 84 75
115 178 152
115 178 152
121 196 156
114 178 152
114 178 152
114 178 152
51 67 59
51 67 59
53 73 61
53 73 61
53 73 61
51 67 59
51 67 59
53 73 61
51 67 59
53 73 61
53 73 61
53 73 61
53 73 61
53 73 61
121 196 156
114 178 152
57 78 73
57 78 73
57 78 73
57 78 73
52 34 45
57 32 46
57 32 46
50 32 43
50 32 43
50 32 43
57 32 46
50 32 43
57 32 46
50 32 43
57 32 46
57 32 46
57 32 46
57 32 46
57 32 46
57 32 46
57 32 46
50 32 43
50 32 43
50 32 43
50 32 43
50 32 43
50 32 43
57 32 46
58 32 46
58 32 46
58 32 46
58 32 46
50 32 43
50 32 43
113 177 150
50 70 57
50 70 57
50 70 57
50 70 57
51 71 59
51 71 59
51 71 59
49 66 57
49 66 57
49 66 57
49 66 57
51 71 59
50 67 59
50 67 59
50 67 59
99 157 108
99 157 108
92 139 104
50 67 59
92 139 104
52 68 60
52 68 61
54 74 62
52 68 61
54 74 62
52 68 61
54 74 62
55 75 63
53 70 62
53 70 62
53 70 62
53 70 62
53 70 63
55 75 64
55 75 64
55 75 64
56 75 64
56 75 64
55 75 64
55 75 63
55 75 63
55 75 64
55 75 64
55 75 64
53 70 63
53 70 63
53 70 63
53 70 63
53 69 62
53 69 62
53 69 62
53 69 62
55 75 63
53 69 62
52 69 61
122 196 157
61 86 77
54 74 63
54 74 63
61 86 77
59 81 76
61 86 77
61 86 77
61 86 77
52 69 62
52 69 61
52 69 61
52 69 61
52 69 61
52 69 62
52 69 61
52 69 61
54 74 62
52 68 61
113 177 150
120 196 155
120 196 155
120 196 155
120 196 155
113 178 151
113 178 151
113 178 151
113 178 151
113 178 151
120 196 155
120 196 155
120 196 155
120 196 155
120 196 155
114 178 151
114 178 151
121 196 156
114 178 151
114 178 151
114 178 151
121 196 156
121 196 156
121 196 156
121 196 156
121 196 156
114 178 151
114 178 151
114 178 151
114 178 152
114 178 152
121 196 156
121 196 156
121 196 156
121 196 156
121 196 156
94 144 164
94 144 164
94 144 164
121 196 156
121 196 157
94 144 164
94 144 164
94 144 164
94 144 164
94 144 164
94 144 164
94 144 164
94 144 164
94 144 164
94 144 164
94 144 164
94 144 164
94 144 164
94 144 164
94 144 164
94 144 164
94 144 164
94 144 164
94 144 164
94 144 164
94 144 164
94 144 164
94 144 164
94 144 164
94 144 164
94 144 164
94 144 164
94 144 164
55 71 64
54 71 64
56 76 65
56 76 65
56 76 65
56 76 65
110 167 120
104 150 116
59 79 68
57 74 67
57 77 66
55 71 64
55 71 64
56 76 65
56 76 65
117 179 154
117 179 154
116 179 154
116 179 154
116 179 154
123 196 158
116 179 154
123 196 158
123 196 158
123 196 158
110 167 120
104 150 116
57 74 67
54 71 64
54 71 64
56 76 65
54 71 64
104 150 116
110 167 121
59 79 68
55 72 65
55 71 64
57 77 66
55 71 64
55 71 64
111 167 121
60 80 69
64 88 80
63 88 80
63 88 80
123 196 158
123 196 158
117 179 154
117 179 154
117 179 154
123 196 158
123 196 158
123 196 158
123 196 158
123 196 158
116 179 154
123 196 158
116 178 154
116 178 154
123 196 158
60 82 77
62 87 78
62 87 78
53 70 62
55 75 63
53 70 62
52 69 61
52 68 61
52 68 61
51 67 59
53 73 61
51 67 59
51 67 59
92 139 103
98 157 108
50 66 58
50 66 58
49 66 58
121 196 156
58 83 73
58 83 73
58 83 73
56 77 72
56 77 72
56 77 72
56 77 72
56 77 72
58 83 73
57 83 73
120 196 155
114 178 151
120 196 155
113 178 151
113 178 151
113 178 151
113 178 151
113 178 151
113 178 151
120 196 155
120 196 155
120 196 155
107 165 116
49 65 57
51 71 58
48 65 57
48 65 57
48 65 57
49 66 58
49 66 58
49 66 58
49 66 58
49 66 58
55 74 62
50 67 59
52 72 60
50 67 59
50 67 59
121 196 156
114 178 152
121 196 156
92 139 103
99 157 108
99 157 108
52 72 60
50 67 58
52 72 60
53 70 62
53 73 61
53 73 61
53 73 61
53 73 61
51 67 59
51 67 59
51 67 59
51 67 59
53 73 61
53 73 61
51 67 59
53 73 61
53 73 61
50 66 58
52 72 60
52 72 60
52 72 60
50 66 58
50 66 58
50 66 58
50 32 43
57 32 46
50 32 43
50 32 43
50 32 43
50 32 43
57 32 46
57 32 46
57 32 46
50 32 43
57 32 46
57 32 46
57 32 46
57 32 46
50 32 43
50 32 43
57 32 46
57 32 46
50 32 43
50 32 43
50 32 43
50 32 43
58 32 46
58 32 46
58 32 46
58 32 46
58 32 46
58 32 46
160 71 114
118 196 153
118 196 153
118 196 153
118 196 153
118 196 153
111 177 148
111 177 148
111 177 148
111 177 148
118 196 153
49 66 58
51 71 59
51 71 59
121 196 156
121 196 156
121 196 156
121 196 156
50 67 59
51 67 59
51 67 59
52 68 60
52 68 61
52 68 61
52 68 61
52 68 61
54 74 62
54 74 62
93 140 105
59 81 76
60 81 76
62 86 78
62 86 78
62 86 78
62 87 78
62 87 78
60 81 77
60 81 77
60 81 77
60 81 77
55 75 64
55 75 63
55 75 64
55 75 64
55 75 64
53 70 63
53 70 63
53 70 63
53 70 63
53 70 63
53 69 62
53 69 62
53 69 62
55 75 63
53 70 62
53 69 62
52 69 61
52 69 61
52 69 61
52 69 62
55 74 63
52 69 61
52 69 61
115 178 153
61 86 77
61 86 77
61 86 77
52 69 61
54 74 63
52 69 61
52 69 62
53 69 62
52 69 61
52 69 61
52 68 61
48 64 56
47 64 55
47 64 55
120 196 155
120 196 155
120 196 155
113 177 150
120 196 155
120 196 155
113 177 150
113 177 150
113 177 150
120 196 155
113 178 151
113 178 151
113 178 151
113 178 151
113 178 151
120 196 155
120 196 155
120 196 155
120 196 155
120 196 155
114 178 151
120 196 156
114 178 151
114 178 151
114 178 151
114 178 151
114 178 151
121 196 156
121 196 156
121 196 156
121 196 156
114 178 151
114 178 151
114 178 151
114 178 152
114 178 152
114 178 152
114 178 152
121 196 156
121 196 156
121 196 156
94 144 164
94 144 164
94 144 164
94 144 164
94 144 164
94 144 164
94 144 164
94 144 164
94 144 164
94 144 164
94 144 164
94 144 164
94 144 164
94 144 164
94 144 164
94 144 164
94 144 164
94 144 164
94 144 164
94 144 164
94 144 164
94 144 164
94 144 164
94 144 164
94 144 164
94 144 164
55 71 64
55 71 64
56 76 65
54 71 64
56 76 65
56 76 65
56 76 65
104 150 116
57 74 67
61 83 78
63 88 79
116 179 154
116 179 154
116 179 154
123 196 158
123 196 158
123 196 158
123 196 158
123 196 158
110 167 120
54 71 64
54 71 63
54 71 63
54 70 63
56 76 64
110 167 120
110 167 120
59 79 68
54 71 64
54 71 64
54 71 64
56 76 65
54 71 64
110 167 121
57 74 67
55 72 65
55 72 65
55 71 64
55 71 64
55 71 64
117 179 154
123 196 158
123 196 158
123 196 158
123 196 158
116 179 154
123 196 158
101 158 111
101 158 111
101 158 111
56 76 65
54 70 63
54 70 63
56 76 64
56 76 64
56 75 64
55 75 64
55 75 64
116 178 153
116 178 153
61 86 78
59 81 76
59 81 76
61 86 77
61 86 77
61 86 77
61 86 77
52 69 61
54 74 62
52 68 61
51 67 60
51 67 59
51 67 59
50 66 58
50 66 58
50 66 58
52 72 59
120 196 156
120 196 155
120 196 155
114 178 151
120 196 155
113 178 151
120 196 155
120 196 155
113 178 151
120 196 155
120 196 155
113 178 151
113 178 151
120 196 155
50 70 57
50 70 57
48 64 56
48 64 56
50 70 57
50 70 57
48 64 56
48 64 56
48 64 56
48 64 56
107 165 116
51 71 58
49 65 57
49 65 57
49 65 57
49 65 57
54 74 62
49 66 58
49 66 58
49 66 58
49 66 58
108 166 117
121 196 156
121 196 156
121 196 156
121 196 156
50 67 59
50 67 59
50 67 59
50 67 59
50 67 59
52 72 60
52 72 60
50 67 59
52 72 60
101 148 113
53 73 61
53 73 61
53 73 61
53 73 61
51 67 60
53 73 61
51 67 60
51 67 60
53 73 61
53 73 61
53 73 61
53 73 61
53 73 61
50 67 58
52 72 60
52 72 60
50 67 58
50 67 58
50 67 58
50 67 58
50 32 43
50 32 43
50 32 43
50 32 43
50 32 43
50 32 43
50 32 43
57 32 46
57 32 46
57 32 46
57 32 46
57 32 46
57 32 46
57 32 46
50 32 43
50 32 43
57 32 46
50 32 43
57 32 46
50 32 43
50 32 43
50 32 43
58 32 46
58 32 46
58 32 46
58 32 46
50 32 43
58 32 46
160 71 114
118 196 153
118 196 153
111 177 148
111 177 148
118 196 153
111 177 148
111 177 148
111 177 148
118 196 153
118 196 153
118 196 153
118 196 153
118 196 153
111 177 148
111 177 148
118 196 153
118 196 153
111 177 148
118 196 153
118 196 153
118 196 153
54 74 62
52 68 61
52 68 61
54 74 62
54 74 62
54 74 62
115 178 153
115 178 153
115 178 153
115 178 153
122 196 157
122 196 157
122 196 157
122 196 157
122 196 157
116 178 153
61 86 77
61 86 77
61 86 77
59 81 76
59 81 76
60 81 76
60 81 76
62 86 78
62 87 78
62 87 78
62 87 78
53 70 63
53 69 62
55 75 63
53 70 62
53 70 62
53 70 62
53 69 62
52 69 61
52 69 61
52 69 62
53 69 62
53 69 62
52 69 61
52 69 61
54 74 62
122 196 157
115 178 152
115 178 152
115 178 152
122 196 157
122 196 157
60 85 76
61 85 77
61 86 77
47 63 54
119 196 154
119 196 154
113 177 150
119 196 154
120 196 154
120 196 155
113 177 150
113 177 150
113 177 150
113 177 150
113 177 150
120 196 155
120 196 155
120 196 155
120 196 155
120 196 155
113 177 150
113 177 150
113 177 150
113 178 150
113 178 150
120 196 155
120 196 155
120 196 155
120 196 155
120 196 155
113 178 151
113 178 151
114 178 151
114 178 151
114 178 151
120 196 155
120 196 156
121 196 156
114 178 151
114 178 151
114 178 151
121 196 156
121 196 156
121 196 156
121 196 156
121 196 156
114 178 151
114 178 151
114 178 152
114 178 152
114 178 152
121 196 156
121 196 156
121 196 156
121 196 156
115 178 152
94 144 164
94 144 164
94 144 164
94 144 164
94 144 164
94 144 164
94 144 164
94 144 164
94 144 164
94 144 164
94 144 164
94 144 164
94 144 164
94 144 164
94 144 164
94 144 164
94 144 164
94 144 164
94 144 164
55 71 64
55 71 64
56 76 65
56 76 65
56 76 65
56 76 65
56 76 65
116 179 154
116 179 154
116 178 154
123 196 158
123 196 158
94 140 107
56 76 64
54 70 63
53 70 63
55 75 64
53 70 63
110 167 120
110 167 120
54 71 64
56 76 65
54 71 63
54 71 63
54 70 63
94 141 107
110 167 120
59 79 68
55 71 64
54 71 64
54 71 64
54 71 64
54 71 64
110 167 121
63 88 80
63 88 79
123 196 158
123 196 158
123 196 158
116 179 154
116 179 154
116 179 154
116 178 154
116 178 154
110 167 120
56 76 65
54 71 64
54 71 64
56 76 65
56 76 65
54 71 63
56 76 65
54 70 63
54 70 63
56 76 64
56 76 64
56 75 64
116 178 153
116 178 153
115 178 153
100 158 110
93 140 106
52 69 61
54 74 63
52 69 61
54 74 62
60 85 76
60 85 76
60 85 76
60 85 76
51 67 60
51 67 60
51 67 59
50 66 58
50 66 58
50 66 58
50 66 58
49 65 57
51 71 58
49 65 57
49 65 57
48 65 57
50 70 58
50 70 58
50 70 58
50 70 58
113 177 150
113 177 150
120 196 155
113 177 150
113 177 150
51 67 59
50 70 57
50 70 57
50 70 57
50 70 57
48 64 56
48 64 56
48 64 56
48 64 56
48 64 56
107 165 115
49 65 57
49 65 57
51 71 58
49 65 57
49 65 57
54 74 62
58 83 74
58 83 73
58 83 73
121 196 156
49 66 58
49 66 58
49 66 58
49 66 58
49 66 58
50 67 59
50 67 59
50 67 59
50 67 59
52 72 60
50 67 59
52 72 60
52 72 60
50 67 59
101 148 113
53 73 61
53 73 61
53 73 61
53 73 61
51 68 60
51 68 60
51 67 60
51 67 60
53 73 61
53 73 61
53 73 61
53 73 61
51 67 60
52 72 60
52 72 60
52 72 60
50 67 59
52 72 60
50 67 59
50 67 59
50 32 43
50 32 43
57 32 46
50 32 43
50 32 43
50 32 43
57 32 46
50 32 43
57 32 46
57 32 46
57 32 46
57 32 46
57 32 46
57 32 46
50 32 43
50 32 43
50 32 43
50 32 43
50 32 43
50 32 43
50 32 43
50 32 43
58 32 46
58 32 46
58 32 46
58 32 46
50 32 43
58 32 46
160 71 114
118 196 153
118 196 153
111 177 148
111 177 148
118 196 153
111 177 148
118 196 153
118 196 153
111 177 148
111 177 148
118 196 153
111 177 148
118 196 153
111 177 148
111 177 148
111 177 148
111 177 148
118 196 153
118 196 153
118 196 153
118 196 153
118 196 153
60 85 76
60 85 76
58 80 75
115 178 152
115 178 152
115 178 152
54 74 63
52 69 61
54 74 63
52 69 61
52 69 62
53 69 62
53 69 62
53 69 62
52 69 61
122 196 157
122 196 157
122 196 157
122 196 157
115 178 153
115 178 153
59 81 76
59 81 76
61 86 77
61 86 77
61 86 77
61 86 77
61 86 77
61 86 78
61 86 78
61 86 78
62 86 78
53 69 62
54 74 63
52 69 62
52 69 62
53 69 62
53 69 62
52 69 61
52 69 61
54 74 62
53 73 61
121 196 157
121 196 157
122 196 157
122 196 157
122 196 157
115 178 152
60 85 76
91 138 102
47 63 54
46 63 54
46 62 53
119 196 154
119 196 154
112 177 150
119 196 154
112 177 150
119 196 154
112 177 150
119 196 154
119 196 154
120 196 154
113 177 150
113 177 150
113 177 150
113 177 150
113 177 150
120 196 155
120 196 155
120 196 155
120 196 155
120 196 155
120 196 155
113 177 150
113 177 150
113 178 150
113 178 150
113 178 150
120 196 155
120 196 155
120 196 155
120 196 155
120 196 155
113 178 151
113 178 151
120 196 155
120 196 155
114 178 151
120 196 156
121 196 156
121 196 156
121 196 156
121 196 156
121 196 156
114 178 151
114 178 151
114 178 151
114 178 151
114 178 151
121 196 156
121 196 156
121 196 156
121 196 156
121 196 156
94 144 164
94 144 164
94 144 164
94 144 164
94 144 164
94 144 164
94 144 164
94 144 164
94 144 164
94 144 164
94 144 164
94 144 164
94 144 164
94 144 164
94 144 164
94 144 164
94 144 164
63 88 79
61 82 78
116 179 154
116 179 154
116 178 154
116 178 154
116 178 154
123 196 158
123 196 158
123 196 158
122 196 158
110 167 120
58 78 67
54 70 63
54 70 63
54 70 63
55 75 64
55 75 64
110 167 120
103 149 116
57 73 66
54 71 64
54 71 64
54 71 63
54 71 63
54 70 63
110 167 120
59 79 68
55 71 64
63 88 79
63 88 79
63 88 79
63 87 79
54 71 64
54 71 64
54 71 64
54 71 63
56 76 65
56 76 65
56 76 65
56 76 64
56 76 64
56 76 64
103 149 116
104 150 116
56 76 65
56 76 65
56 76 65
56 76 65
56 76 65
54 71 64
54 71 63
54 71 63
56 76 65
54 70 63
56 76 64
56 76 64
55 75 63
55 74 63
54 74 63
52 69 62
54 74 63
52 69 61
52 69 61
52 69 61
54 74 63
60 85 76
60 85 76
60 85 76
58 79 74
51 68 60
51 67 60
51 67 60
52 72 60
50 66 58
50 66 58
112 177 149
112 177 149
112 177 149
112 177 149
112 177 149
112 177 149
119 196 153
119 196 153
111 177 149
111 177 149
111 177 149
111 177 149
111 177 149
118 196 153
111 177 149
118 196 153
50 70 58
50 70 58
50 70 57
50 70 57
50 70 57
48 64 56
48 64 56
48 64 56
48 64 56
90 138 102
49 65 57
49 65 57
49 65 57
49 65 57
49 65 57
120 196 156
120 196 155
114 178 151
120 196 155
120 196 155
49 66 58
49 66 58
49 66 58
49 66 58
49 66 58
55 75 63
50 67 59
50 67 59
50 67 59
50 67 59
52 72 60
52 72 60
52 72 60
52 72 60
101 148 113
57 79 74
57 79 74
57 79 74
57 79 74
59 84 75
59 84 75
59 84 75
59 84 75
115 178 152
57 79 73
57 79 73
57 79 73
57 79 73
52 72 60
52 72 60
52 72 60
52 72 60
50 67 59
50 67 59
52 72 60
50 32 43
50 32 43
50 32 43
50 32 43
50 32 43
50 32 43
50 32 43
57 32 46
57 32 46
57 32 46
57 32 46
57 32 46
57 32 46
57 32 46
50 32 43
58 32 46
50 32 43
50 32 43
50 32 43
50 32 43
50 32 43
50 32 43
50 32 43
58 32 46
58 32 46
58 32 46
58 32 46
58 32 46
118 196 152
118 196 152
118 196 152
118 196 152
118 196 152
118 196 152
118 196 152
118 196 152
111 177 148
111 177 148
111 177 148
111 177 148
111 177 148
118 196 153
118 196 153
118 196 153
118 196 153
118 196 153
111 177 148
111 177 148
118 196 153
111 177 148
111 177 148
111 177 148
118 196 153
118 196 153
118 196 153
118 196 153
118 196 153
53 73 61
52 69 61
54 74 63
52 69 62
55 74 63
55 75 63
53 69 62
53 69 62
52 69 61
54 74 62
52 69 61
52 69 61
52 69 61
54 74 63
54 74 63
52 69 61
54 74 63
54 74 63
115 178 153
115 178 153
59 80 75
59 80 75
59 80 76
61 86 77
61 86 77
61 86 77
61 86 77
52 69 61
52 69 62
55 75 63
53 69 62
53 69 62
52 69 61
52 69 61
54 74 62
53 73 61
51 67 60
51 67 59
121 196 156
121 196 156
121 196 156
115 178 152
45 62 53
112 177 149
119 196 154
119 196 154
119 196 154
119 196 154
112 177 149
119 196 154
112 177 149
112 177 149
112 177 149
119 196 154
119 196 154
119 196 154
119 196 154
119 196 154
119 196 154
112 177 150
112 177 150
113 177 150
113 177 150
120 196 154
120 196 155
120 196 155
120 196 155
120 196 155
120 196 155
120 196 155
120 196 155
120 196 155
113 177 150
113 177 150
120 196 155
113 177 150
113 178 150
113 178 150
113 178 150
113 178 151
120 196 155
120 196 155
120 196 155
120 196 155
120 196 155
120 196 155
114 178 151
114 178 151
114 178 151
114 178 151
114 178 151
121 196 156
121 196 156
121 196 156
121 196 156
121 196 156
114 178 151
114 178 151
114 178 151
114 178 151
121 196 156
114 178 152
94 144 164
94 144 164
94 144 164
94 144 164
94 144 164
94 144 164
94 144 164
94 144 164
94 144 164
94 144 164
94 144 164
94 144 164
94 144 164
94 144 164
56 76 65
56 76 64
56 76 64
56 75 64
55 75 64
53 70 63
55 75 64
55 75 64
53 70 62
53 70 62
110 167 120
110 167 120
110 167 120
54 70 63
54 70 63
54 70 63
54 70 63
53 70 63
110 167 120
110 167 120
59 79 67
54 71 64
54 71 64
56 76 65
54 71 63
54 71 63
103 149 116
123 196 158
123 196 158
123 196 158
116 178 154
123 196 158
103 149 116
59 79 68
56 76 65
54 71 64
54 71 64
54 71 64
54 71 63
56 76 65
56 76 65
56 76 64
56 76 64
103 149 116
110 167 120
57 74 67
56 76 65
56 76 65
54 71 64
56 76 65
54 71 64
54 71 64
54 71 63
54 71 63
54 71 63
56 76 65
56 76 64
56 76 64
55 75 63
55 75 63
53 69 62
54 74 63
52 69 61
52 69 61
52 69 61
52 69 61
51 68 60
51 68 60
51 68 60
121 196 156
121 196 156
57 79 73
57 79 73
57 79 73
50 66 58
112 177 149
111 177 149
111 177 149
118 196 153
111 177 149
118 196 153
118 196 153
118 196 153
118 196 153
118 196 153
111 177 148
111 177 148
111 177 148
111 177 148
111 177 148
111 177 148
97 145 108
119 196 154
119 196 154
119 196 154
48 65 56
111 177 148
118 196 153
118 196 153
111 177 148
118 196 153
111 177 148
57 82 73
57 82 73
120 196 155
120 196 155
120 196 155
49 65 57
49 65 57
49 65 57
49 65 57
49 65 57
54 74 62
51 71 59
49 66 58
49 66 58
51 71 59
55 75 63
50 67 59
50 67 59
50 67 59
50 67 59
52 72 60
52 72 60
50 67 59
52 72 60
99 157 108
121 196 156
121 196 156
121 196 156
121 196 156
50 67 59
52 72 60
50 67 59
50 67 59
121 196 156
59 84 74
59 84 74
59 84 74
59 84 74
57 78 73
57 78 73
57 78 73
56 78 73
59 84 74
59 83 74
58 83 74
50 32 43
57 32 46
50 32 43
50 32 43
50 32 43
57 32 46
50 32 43
57 32 46
57 32 46
57 32 46
50 32 43
58 32 46
58 32 46
58 32 46
58 32 46
50 32 43
50 32 43
50 32 43
50 32 43
58 32 46
58 32 46
50 32 43
58 32 46
58 32 46
58 32 46
58 32 46
58 32 46
58 32 46
110 177 147
110 177 147
110 177 147
117 196 152
117 196 152
117 196 152
110 177 147
117 196 152
110 177 147
110 177 147
110 177 148
110 177 148
118 196 152
110 177 148
110 177 148
118 196 152
118 196 152
118 196 152
118 196 152
110 177 148
110 177 148
118 196 152
110 177 148
110 177 148
110 177 148
111 177 148
111 177 148
111 177 148
111 177 148
111 177 148
118 196 153
111 177 148
118 196 153
111 177 148
118 196 153
53 69 62
53 69 62
52 69 61
52 69 61
54 74 62
52 69 61
52 69 61
54 74 63
54 74 63
52 69 62
53 69 62
54 74 63
54 74 62
54 74 62
54 74 62
52 69 61
54 74 62
54 74 62
115 178 153
58 80 75
59 80 75
59 80 75
61 86 77
61 86 77
61 86 77
61 86 77
61 86 77
54 74 62
54 74 62
53 73 61
51 67 60
51 67 59
52 72 60
114 178 152
114 178 152
89 137 99
45 62 53
45 61 52
119 196 154
112 177 149
119 196 154
112 177 149
112 177 149
112 177 149
119 196 154
119 196 154
119 196 154
119 196 154
112 177 149
112 177 149
119 196 154
112 177 149
112 177 149
112 177 149
119 196 154
119 196 154
119 196 154
119 196 154
119 196 154
119 196 154
119 196 154
119 196 154
113 177 150
113 177 150
113 177 150
120 196 155
120 196 155
120 196 155
120 196 155
120 196 155
120 196 155
120 196 155
120 196 155
120 196 155
120 196 155
113 178 150
120 196 155
113 178 150
120 196 155
120 196 155
120 196 155
113 178 151
113 178 151
120 196 155
113 178 151
113 178 151
120 196 155
120 196 155
120 196 155
121 196 156
121 196 156
121 196 156
114 178 151
121 196 156
121 196 156
121 196 156
121 196 156
121 196 156
94 144 164
94 144 164
94 144 164
94 144 164
94 144 164
94 144 164
94 144 164
94 144 164
94 144 164
94 144 164
94 144 164
94 144 164
56 76 65
54 70 63
56 76 64
56 76 64
56 75 64
53 70 63
53 70 63
53 70 63
53 70 63
53 70 62
110 167 120
110 167 120
110 167 120
54 71 63
56 76 65
56 76 64
54 70 63
54 70 63
53 70 63
103 149 116
57 73 66
63 87 79
60 82 77
62 87 79
123 196 158
123 196 158
54 71 63
56 76 65
54 70 63
54 70 63
54 70 63
110 167 120
110 167 120
59 79 68
54 71 64
54 71 64
54 71 64
54 71 64
56 76 65
56 76 65
54 71 63
56 76 65
56 76 64
56 76 64
103 149 116
57 74 67
56 76 65
56 76 65
56 76 65
56 76 65
56 76 65
54 71 64
54 71 64
54 71 63
56 76 65
56 76 65
60 82 77
60 82 77
55 75 63
53 69 62
55 75 63
55 74 63
54 74 63
54 74 63
52 69 61
52 69 61
51 68 60
119 196 153
119 196 153
111 177 149
111 177 149
111 177 149
118 196 153
118 196 153
118 196 153
118 196 153
118 196 153
118 196 153
118 196 153
118 196 153
111 177 148
111 177 148
111 177 148
111 177 148
111 177 148
118 196 153
118 196 153
118 196 153
118 196 153
118 196 153
111 177 148
111 177 148
111 177 148
118 196 153
118 196 153
111 177 148
118 196 153
118 196 153
118 196 153
118 196 153
118 196 153
118 196 153
120 196 155
120 196 155
120 196 155
113 177 150
113 177 150
49 65 57
49 65 57
49 65 57
49 65 57
49 65 57
107 166 116
52 72 59
50 66 58
49 66 58
49 66 58
108 166 117
59 84 74
121 196 156
121 196 156
121 196 156
114 178 151
114 178 151
114 178 151
114 178 151
121 196 156
121 196 156
121 196 156
121 196 156
121 196 156
50 67 59
50 67 59
50 67 59
50 67 59
121 196 156
121 196 156
121 196 156
121 196 156
121 196 156
114 178 151
98 157 107
98 157 107
51 71 59
56 78 72
56 78 72
56 78 72
50 32 43
57 32 46
50 32 43
50 32 43
57 32 46
50 32 43
49 65 57
49 65 57
49 65 57
117 196 152
117 196 152
117 196 152
117 196 152
117 196 152
117 196 152
110 176 147
110 176 147
117 196 152
117 196 152
110 176 147
117 196 152
117 196 152
117 196 152
117 196 152
117 196 152
117 196 152
117 196 152
117 196 152
117 196 152
117 196 152
110 176 147
117 196 152
110 176 147
110 176 147
110 176 147
117 196 152
110 176 147
117 196 152
117 196 152
117 196 152
117 196 152
117 196 152
110 176 147
110 176 147
110 176 147
110 176 147
110 176 147
110 176 147
117 196 152
117 196 152
117 196 152
117 196 152
117 196 152
110 177 147
110 177 147
110 177 147
118 196 152
110 177 148
110 177 148
118 196 152
118 196 152
110 177 148
118 196 152
118 196 152
53 69 62
52 69 61
52 69 61
52 69 61
52 69 61
52 69 61
54 74 63
52 69 62
53 69 62
55 75 63
54 74 63
54 74 62
54 74 62
54 74 62
52 69 61
54 74 62
54 74 62
53 73 62
53 73 62
53 73 62
52 68 60
54 74 62
115 178 152
115 178 152
58 80 75
58 80 75
58 80 75
54 74 62
51 68 60
114 178 151
114 178 151
121 196 156
44 61 51
118 196 153
118 196 153
111 177 149
111 177 149
118 196 153
119 196 153
112 177 149
112 177 149
112 177 149
112 177 149
112 177 149
119 196 154
119 196 154
119 196 154
119 196 154
119 196 154
119 196 154
112 177 149
119 196 154
119 196 154
112 177 149
119 196 154
119 196 154
119 196 154
119 196 154
119 196 154
112 177 149
119 196 154
112 177 150
119 196 154
112 177 150
112 177 150
119 196 154
119 196 154
113 177 150
113 177 150
120 196 155
113 177 150
113 177 150
113 177 150
113 177 150
120 196 155
120 196 155
120 196 155
113 177 150
113 177 150
113 178 150
120 196 155
113 178 150
113 178 150
120 196 155
120 196 155
120 196 155
120 196 155
120 196 155
113 178 151
113 178 151
114 178 151
114 178 151
114 178 151
120 196 156
121 196 156
121 196 156
114 178 151
121 196 156
121 196 156
94 144 164
94 144 164
94 144 164
94 144 164
94 144 164
94 144 164
94 144 164
94 144 164
94 144 164
94 144 164
56 76 65
56 76 65
56 76 65
56 76 64
56 76 64
54 70 63
53 70 63
53 70 63
53 70 63
53 70 63
53 70 62
110 167 120
110 167 120
57 73 66
54 71 63
54 70 63
54 70 63
54 70 63
54 70 63
110 167 120
123 196 158
123 196 158
123 196 158
123 196 158
103 149 115
110 167 120
57 73 66
54 71 63
54 70 63
54 70 63
54 70 63
54 70 63
110 167 120
110 167 120
54 71 64
54 71 64
54 71 64
54 71 64
54 71 64
56 76 65
56 76 65
56 76 65
56 76 65
54 70 63
103 149 116
61 82 78
61 82 78
60 82 77
116 178 154
116 178 154
123 196 158
123 196 158
123 196 158
123 196 158
116 178 153
60 81 77
60 81 77
60 81 76
55 75 63
55 75 63
55 75 63
55 75 63
111 177 149
111 177 149
111 177 149
118 196 153
118 196 153
118 196 153
111 177 148
111 177 148
111 177 148
111 177 148
111 177 148
118 196 153
118 196 153
111 177 148
111 177 148
118 196 153
118 196 153
111 177 148
111 177 148
111 177 148
111 177 148
111 177 148
118 196 153
118 196 153
118 196 153
118 196 153
118 196 153
118 196 153
111 177 148
118 196 153
118 196 153
118 196 153
118 196 152
118 196 152
110 177 148
110 177 148
110 177 148
110 177 148
118 196 152
118 196 152
118 196 152
118 196 152
117 196 152
117 196 152
110 177 147
54 74 61
49 65 57
51 71 58
49 65 57
51 71 58
107 166 116
58 83 74
58 83 74
58 83 74
58 83 74
114 178 151
114 178 151
114 178 151
114 178 151
114 178 151
51 71 59
51 71 59
51 71 59
51 71 59
51 71 59
49 66 58
49 66 58
51 71 59
49 66 58
50 67 59
50 67 59
50 67 59
50 67 59
49 66 58
51 71 59
49 66 58
49 66 58
49 66 58
51 71 59
51 71 59
51 71 59
51 71 59
114 178 151
114 178 151
114 178 151
55 77 71
55 77 71
57 83 73
57 82 73
117 196 152
117 196 152
110 176 147
110 176 147
117 196 152
117 196 152
110 176 147
110 176 147
110 176 147
110 176 147
110 176 147
117 196 152
117 196 152
117 196 152
110 176 147
110 176 147
110 176 147
110 176 147
110 176 147
110 176 147
110 176 147
110 176 147
117 196 152
117 196 152
117 196 152
117 196 152
117 196 152
117 196 152
110 176 147
110 176 147
110 176 147
110 176 147
117 196 152
110 176 147
117 196 152
110 176 147
117 196 152
117 196 152
110 176 147
110 176 147
110 176 147
117 196 152
117 196 152
110 176 147
110 176 147
117 196 152
110 176 147
110 176 147
110 176 147
110 176 147
117 196 152
117 196 152
117 196 152
117 196 152
117 196 152
117 196 152
117 196 152
117 196 152
110 177 147
110 177 147
110 177 147
52 69 61
52 69 61
52 69 61
52 69 61
54 74 63
54 74 63
55 74 63
55 75 63
55 75 63
54 74 63
54 74 62
54 74 62
54 74 62
52 69 61
54 74 63
54 74 62
53 73 62
53 73 62
54 74 62
54 74 62
54 74 62
53 73 62
53 73 61
115 178 152
58 79 74
58 79 74
112 177 150
112 177 150
112 177 150
119 196 154
119 196 154
44 61 51
44 60 51
88 136 98
111 177 148
118 196 153
118 196 153
118 196 153
111 177 148
118 196 153
118 196 153
118 196 153
118 196 153
111 177 149
111 177 149
112 177 149
112 177 149
112 177 149
112 177 149
112 177 149
119 196 154
119 196 154
112 177 149
119 196 154
119 196 154
119 196 154
112 177 149
112 177 149
112 177 149
112 177 149
112 177 149
119 196 154
119 196 154
119 196 154
119 196 154
119 196 154
119 196 154
112 177 150
112 177 150
119 196 154
119 196 154
119 196 154
119 196 154
120 196 154
120 196 155
120 196 155
120 196 155
120 196 155
113 177 150
113 177 150
113 177 150
113 177 150
113 177 150
113 178 150
120 196 155
113 178 150
120 196 155
113 178 150
120 196 155
113 178 151
113 178 151
120 196 155
113 178 151
120 196 155
120 196 155
114 178 151
114 178 151
114 178 151
114 178 151
114 178 151
94 144 164
94 144 164
94 144 164
94 144 164
94 144 164
94 144 164
94 144 164
94 144 164
56 76 65
56 76 65
56 76 65
56 76 65
56 76 64
54 70 63
54 70 63
53 70 63
55 75 64
53 70 63
53 70 63
110 167 120
110 167 120
60 82 77
62 87 78
62 87 78
123 196 158
123 196 158
103 149 115
54 70 63
53 70 63
53 70 63
55 75 64
53 70 63
110 167 120
110 167 120
110 167 120
54 71 63
54 71 63
54 71 63
54 70 63
54 70 63
110 167 120
110 167 120
59 79 68
54 71 64
54 71 64
54 71 64
54 71 64
56 76 65
56 76 65
60 82 77
60 82 77
60 82 77
123 196 158
123 196 158
123 196 158
123 196 158
123 196 158
53 70 63
53 70 63
53 70 63
53 70 63
122 196 158
61 86 77
61 86 77
61 86 77
61 86 77
59 81 76
59 81 76
59 80 76
118 196 153
111 177 148
111 177 148
118 196 153
118 196 153
111 177 148
118 196 153
118 196 153
111 177 148
111 177 148
118 196 153
118 196 153
111 177 148
111 177 148
111 177 148
118 196 153
111 177 148
118 196 153
118 196 153
118 196 153
118 196 153
111 177 148
111 177 148
111 177 148
111 177 148
111 177 148
118 196 152
110 177 148
118 196 152
118 196 152
118 196 152
118 196 152
118 196 152
117 196 152
110 177 147
117 196 152
110 177 147
110 177 147
110 176 147
110 176 147
110 176 147
117 196 152
117 196 152
117 196 152
117 196 152
103 164 111
54 73 61
49 65 57
49 65 57
49 65 57
49 65 57
107 166 116
121 196 156
121 196 156
121 196 156
121 196 156
114 178 151
114 178 151
114 178 151
114 178 151
114 178 151
52 72 59
52 71 59
52 71 59
52 71 59
52 71 59
49 66 58
49 66 58
49 66 58
49 66 58
50 67 59
50 67 59
50 67 59
50 67 59
49 66 58
49 66 58
49 66 58
49 66 58
49 66 58
51 71 59
51 71 59
51 71 59
51 71 59
49 65 57
51 71 58
51 71 58
49 65 57
51 71 58
113 178 151
113 178 151
117 196 152
117 196 152
117 196 152
117 196 152
117 196 152
110 176 147
110 176 147
110 176 147
117 196 152
117 196 152
110 176 147
110 176 147
110 176 147
117 196 152
117 196 152
117 196 152
117 196 152
110 176 147
117 196 152
117 196 152
117 196 152
117 196 152
117 196 152
110 176 147
110 176 147
110 176 147
110 176 147
110 176 147
117 196 152
117 196 152
117 196 152
117 196 152
117 196 152
110 176 147
117 196 152
110 176 147
110 176 147
110 176 147
110 176 147
117 196 152
117 196 152
117 196 152
117 196 152
110 176 147
117 196 152
110 176 147
110 176 147
110 176 147
117 196 152
110 176 147
117 196 152
110 176 147
117 196 152
117 196 152
117 196 152
117 196 152
117 196 152
110 176 147
110 176 147
117 196 152
110 176 147
110 176 147
61 85 76
61 85 77
61 86 77
61 86 77
59 80 75
59 80 75
59 80 75
59 80 76
59 80 76
54 74 62
52 69 61
54 74 62
54 74 63
54 74 63
54 74 62
53 73 62
54 73 62
54 74 62
54 74 62
54 74 62
53 73 62
53 73 61
51 67 59
121 196 156
48 68 55
48 68 55
112 177 149
112 177 149
112 177 149
112 177 149
44 61 51
44 60 51
44 60 51
46 66 52
111 177 148
111 177 148
111 177 148
118 196 153
118 196 153
118 196 153
118 196 153
111 177 148
111 177 148
118 196 153
111 177 149
111 177 149
111 177 149
111 177 149
111 177 149
111 177 149
112 177 149
119 196 153
119 196 153
119 196 154
119 196 154
119 196 154
112 177 149
112 177 149
112 177 149
112 177 149
112 177 149
112 177 149
119 196 154
119 196 154
112 177 149
112 177 149
119 196 154
112 177 149
119 196 154
119 196 154
119 196 154
119 196 154
119 196 154
119 196 154
112 177 150
112 177 150
113 177 150
113 177 150
113 177 150
113 177 150
113 177 150
120 196 155
120 196 155
120 196 155
113 177 150
120 196 155
113 178 150
113 178 150
120 196 155
113 178 150
120 196 155
120 196 155
120 196 155
120 196 155
120 196 155
113 178 151
113 178 151
113 178 151
113 178 151
120 196 155
114 178 151
115 178 153
115 178 153
115 178 153
94 144 164
94 144 164
94 144 164
57 73 66
56 76 65
56 76 65
56 76 65
56 76 65
56 76 64
54 70 63
56 75 64
53 70 63
53 70 63
53 70 63
110 167 120
122 196 158
122 196 158
116 178 153
116 178 153
116 178 153
110 167 120
103 149 115
56 73 66
54 70 63
53 70 63
53 70 63
53 70 63
53 70 63
110 167 120
110 167 120
54 71 64
54 71 63
54 71 63
54 71 63
56 76 65
110 167 120
110 167 120
123 196 158
123 196 158
123 196 158
123 196 158
116 178 154
116 178 153
116 178 153
116 178 153
116 178 153
122 196 158
122 196 158
122 196 158
122 196 158
122 196 157
103 149 115
55 75 64
53 70 63
53 70 63
122 196 157
122 196 157
122 196 157
118 196 153
118 196 153
111 177 148
118 196 153
118 196 153
111 177 148
111 177 148
111 177 148
111 177 148
111 177 148
111 177 148
118 196 153
111 177 148
118 196 153
118 196 153
118 196 153
118 196 153
111 177 148
111 177 148
111 177 148
118 196 153
111 177 148
111 177 148
118 196 152
118 196 152
110 177 148
118 196 152
118 196 152
118 196 152
110 177 148
110 177 148
110 177 147
110 177 147
117 196 152
110 177 147
110 176 147
117 196 152
110 176 147
110 176 147
110 176 147
117 196 152
117 196 152
117 196 152
117 196 152
117 196 152
110 176 147
110 176 147
110 176 147
110 176 147
110 176 147
110 176 147
117 196 152
117 196 152
117 196 152
110 176 147
117 196 152
110 176 147
114 178 151
114 178 151
113 178 151
113 178 151
113 178 151
51 71 58
51 71 58
51 71 58
51 71 58
51 71 58
50 66 58
50 66 58
50 66 58
50 66 58
52 72 59
52 72 59
50 66 58
52 72 59
50 66 58
59 84 75
59 84 75
59 84 75
59 84 75
59 84 75
49 66 58
52 71 59
49 66 58
52 71 59
52 71 59
52 71 59
50 66 58
52 72 59
51 71 58
49 65 57
51 71 58
51 71 58
49 65 57
50 70 57
48 64 56
43 62 48
117 196 151
109 176 146
117 196 151
109 176 146
109 176 146
117 196 151
117 196 151
117 196 151
117 196 151
117 196 151
117 196 151
109 176 146
109 176 146
109 176 146
109 176 146
117 196 151
109 176 147
117 196 151
117 196 151
117 196 151
117 196 151
117 196 151
109 176 147
117 196 151
109 176 147
117 196 151
109 176 147
109 176 147
109 176 147
117 196 151
117 196 151
117 196 151
117 196 151
117 196 151
109 176 147
117 196 151
117 196 151
110 176 147
110 176 147
117 196 152
117 196 152
117 196 152
110 176 147
110 176 147
117 196 152
117 196 152
117 196 152
117 196 152
117 196 152
117 196 152
117 196 152
110 176 147
110 176 147
110 176 147
110 176 147
110 176 147
110 176 147
117 196 152
117 196 152
117 196 152
117 196 152
117 196 152
93 139 105
93 139 105
52 68 60
52 68 61
122 196 157
60 85 76
60 85 76
60 85 76
60 85 76
58 80 75
59 80 75
59 80 75
59 80 75
54 74 62
54 73 62
54 74 62
54 74 62
54 74 62
54 74 62
53 73 62
53 73 61
112 177 149
112 177 149
112 177 149
112 177 149
112 177 149
119 196 154
119 196 154
45 61 52
44 61 51
44 60 51
46 66 52
46 66 52
45 65 51
111 177 148
111 177 148
111 177 148
94 155 102
94 155 102
95 155 102
111 177 148
111 177 148
111 177 148
111 177 148
111 177 148
111 177 148
118 196 153
118 196 153
111 177 148
118 196 153
118 196 153
111 177 149
111 177 149
111 177 149
111 177 149
112 177 149
112 177 149
119 196 154
119 196 154
119 196 154
119 196 154
119 196 154
119 196 154
112 177 149
112 177 149
119 196 154
112 177 149
112 177 149
119 196 154
119 196 154
119 196 154
119 196 154
119 196 154
119 196 154
119 196 154
112 177 150
112 177 150
112 177 150
112 177 150
112 177 150
119 196 154
120 196 154
120 196 154
120 196 155
120 196 155
120 196 155
113 177 150
113 177 150
120 196 155
113 177 150
113 178 150
113 178 150
113 178 150
113 178 150
113 178 150
113 178 150
113 178 150
50 70 57
50 70 57
50 70 57
50 70 58
115 178 152
115 178 152
115 178 152
115 178 152
115 178 153
121 196 157
60 82 77
62 87 79
60 82 77
60 82 77
62 87 78
62 87 78
62 87 78
122 196 158
122 196 158
116 178 153
116 178 153
116 178 153
116 178 153
122 196 157
103 149 115
103 149 115
109 167 119
110 167 120
56 73 66
54 70 63
56 75 64
53 70 63
53 70 63
55 75 64
110 167 120
110 167 120
59 79 67
63 87 79
62 87 79
62 87 79
62 87 79
116 178 154
116 178 153
116 178 153
116 178 153
116 178 153
103 149 115
55 75 64
55 75 64
55 75 64
53 70 62
53 70 62
53 70 62
55 75 63
53 70 62
53 69 62
109 167 119
110 167 120
54 70 63
54 70 63
53 70 63
52 69 62
52 69 61
111 177 148
118 196 153
118 196 153
118 196 153
118 196 153
118 196 153
111 177 148
118 196 153
118 196 153
111 177 148
118 196 153
118 196 153
118 196 153
118 196 153
111 177 148
118 196 153
111 177 148
118 196 152
118 196 152
118 196 152
118 196 152
110 177 148
118 196 152
110 177 148
110 177 147
110 177 147
110 177 147
110 176 147
110 176 147
117 196 152
117 196 152
110 176 147
117 196 152
117 196 152
110 176 147
110 176 147
110 176 147
110 176 147
110 176 147
110 176 147
117 196 152
110 176 147
117 196 152
110 176 147
117 196 152
117 196 152
110 176 147
110 176 147
117 196 152
110 176 147
117 196 152
110 176 147
117 196 152
117 196 152
117 196 152
117 196 152
117 196 152
103 164 110
113 178 151
113 178 151
113 178 151
113 177 151
113 177 150
51 71 58
51 71 58
51 71 58
51 71 58
51 71 58
50 66 58
52 72 59
52 72 59
52 72 59
52 72 59
50 66 58
50 66 58
52 72 59
50 66 58
121 196 156
59 84 74
57 78 73
59 84 74
56 78 73
50 66 58
50 66 58
50 66 58
50 66 58
50 66 58
52 72 59
52 72 59
52 72 59
51 71 59
51 71 58
51 71 58
51 71 58
51 71 58
50 70 57
110 177 148
43 63 48
109 176 146
109 176 146
109 176 146
109 176 146
109 176 146
109 176 146
109 176 146
116 196 151
116 196 151
109 176 146
109 176 146
109 176 146
109 176 146
109 176 146
109 176 146
109 176 146
109 176 146
116 196 151
116 196 151
109 176 146
116 196 151
109 176 146
109 176 146
116 196 151
116 196 151
116 196 151
116 196 151
117 196 151
109 176 146
109 176 146
109 176 146
109 176 146
117 196 151
109 176 146
109 176 146
117 196 151
117 196 151
117 196 151
109 176 146
117 196 151
109 176 146
109 176 146
109 176 147
109 176 147
109 176 147
117 196 151
117 196 151
109 176 147
117 196 151
117 196 151
117 196 151
117 196 151
110 176 147
110 176 147
110 176 147
110 176 147
110 176 147
117 196 152
117 196 152
117 196 152
117 196 152
117 196 152
117 196 152
52 68 60
52 68 61
52 68 61
51 68 60
122 196 157
122 196 157
122 196 157
122 196 157
115 178 152
122 196 157
58 80 75
58 80 75
58 80 75
54 74 62
58 80 75
58 80 75
58 80 75
54 74 62
53 73 62
51 68 60
47 67 53
112 177 149
112 177 149
112 177 149
119 196 154
119 196 154
112 177 149
45 61 52
44 61 51
44 60 51
46 66 52
46 66 52
45 65 51
45 65 51
43 59 50
45 65 51
45 65 52
45 65 52
46 65 52
45 65 51
111 177 148
118 196 153
111 177 148
111 177 148
111 177 148
111 177 148
118 196 153
118 196 153
118 196 153
118 196 153
111 177 148
118 196 153
111 177 148
111 177 148
111 177 149
111 177 149
111 177 149
111 177 149
111 177 149
119 196 153
119 196 153
119 196 153
119 196 154
112 177 149
112 177 149
112 177 149
119 196 154
119 196 154
112 177 149
112 177 149
112 177 149
112 177 149
112 177 149
112 177 149
112 177 149
119 196 154
119 196 154
119 196 154
119 196 154
119 196 154
112 177 150
112 177 150
112 177 150
112 177 150
113 177 150
113 177 150
113 177 150
120 196 155
120 196 155
120 196 155
113 177 150
120 196 155
113 177 150
113 178 150
113 178 150
113 178 150
113 178 150
113 178 150
50 70 58
50 70 58
115 178 152
115 178 152
122 196 157
122 196 157
122 196 157
106 165 115
107 165 115
116 178 153
116 178 153
122 196 158
122 196 158
122 196 157
116 178 153
116 178 153
116 178 153
122 196 157
122 196 157
122 196 157
122 196 157
102 149 114
103 149 115
103 149 115
109 167 119
103 149 115
58 78 67
54 70 63
54 70 63
54 70 63
54 70 63
53 70 63
110 167 120
110 167 120
123 196 158
123 196 158
123 196 158
123 196 158
116 178 153
116 178 153
116 178 153
116 178 153
116 178 153
103 149 115
103 149 115
55 75 64
53 70 63
55 75 64
55 75 64
55 75 64
53 70 62
53 70 62
53 70 62
53 70 62
118 196 153
111 177 148
111 177 148
111 177 148
118 196 153
111 177 148
118 196 153
118 196 153
118 196 153
111 177 148
111 177 148
111 177 148
118 196 153
118 196 153
118 196 153
118 196 153
118 196 152
118 196 152
118 196 152
110 177 148
110 177 148
110 177 148
110 177 148
117 196 152
117 196 152
117 196 152
117 196 152
117 196 152
117 196 152
110 176 147
110 176 147
110 176 147
110 176 147
110 176 147
110 176 147
117 196 152
117 196 152
117 196 152
110 176 147
117 196 152
117 196 152
117 196 152
117 196 152
110 176 147
117 196 152
117 196 152
117 196 152
117 196 152
117 196 152
110 176 147
110 176 147
110 176 147
110 176 147
117 196 152
117 196 152
117 196 152
117 196 151
117 196 151
109 176 147
109 176 147
109 176 147
109 176 147
109 176 147
109 176 147
103 164 110
50 70 57
50 70 57
50 70 57
50 70 57
50 70 57
51 71 58
51 71 58
51 71 58
51 71 58
51 71 58
56 78 73
58 83 74
56 78 72
56 78 72
56 78 72
58 83 74
58 83 74
121 196 156
121 196 156
114 178 151
56 78 72
56 78 72
56 78 72
56 78 72
58 83 73
58 83 73
58 83 73
58 83 73
56 78 72
56 78 72
56 78 72
56 77 72
56 77 72
51 71 58
109 176 146
109 176 146
109 176 146
109 176 146
109 176 146
109 176 146
116 196 151
116 196 151
116 196 151
116 196 151
116 196 151
116 196 151
116 196 151
109 176 146
109 176 146
116 196 151
116 196 151
109 176 146
116 196 151
116 196 151
116 196 151
116 196 151
109 176 146
109 176 146
109 176 146
116 196 151
109 176 146
109 176 146
109 176 146
116 196 151
116 196 151
116 196 151
116 196 151
116 196 151
116 196 151
109 176 146
109 176 146
109 176 146
109 176 146
109 176 146
109 176 146
109 176 146
116 196 151
109 176 146
116 196 151
116 196 151
116 196 151
116 196 151
109 176 146
109 176 146
109 176 146
109 176 146
109 176 146
109 176 146
117 196 151
109 176 146
109 176 146
109 176 146
117 196 151
109 176 146
117 196 151
117 196 151
117 196 151
117 196 151
117 196 151
109 176 147
109 176 147
109 176 147
109 176 147
117 196 151
52 68 61
54 74 62
51 68 60
51 68 60
51 68 60
51 68 60
51 68 60
51 68 60
51 68 60
121 196 157
111 177 148
122 196 157
122 196 157
115 178 152
58 79 74
58 80 74
111 177 148
111 177 148
111 177 148
111 177 148
111 177 148
111 177 149
118 196 153
118 196 153
118 196 153
53 79 68
54 79 68
44 61 51
44 60 51
46 66 52
46 66 52
45 65 51
45 65 51
45 65 51
45 65 52
45 65 52
46 65 52
46 65 52
45 65 51
45 65 51
45 65 51
45 65 51
45 65 51
45 65 51
45 65 51
45 65 51
94 154 102
111 177 148
111 177 148
118 196 153
118 196 153
118 196 153
118 196 153
111 177 148
111 177 148
111 177 148
118 196 153
118 196 153
111 177 148
111 177 149
111 177 149
111 177 149
111 177 149
111 177 149
119 196 153
119 196 153
119 196 154
119 196 154
119 196 154
119 196 154
112 177 149
112 177 149
119 196 154
112 177 149
112 177 149
119 196 154
119 196 154
119 196 154
119 196 154
119 196 154
119 196 154
119 196 154
112 177 149
112 177 150
112 177 150
112 177 150
112 177 150
119 196 154
119 196 154
120 196 154
120 196 154
120 196 155
120 196 155
120 196 155
97 156 105
97 156 105
97 156 105
49 69 56
97 156 105
121 196 156
115 178 152
115 178 152
115 178 152
121 196 157
106 165 115
107 165 115
100 147 111
108 166 117
115 178 153
115 178 153
115 178 153
122 196 157
122 196 157
122 196 157
122 196 157
122 196 157
122 196 157
109 166 119
109 166 119
103 149 115
103 149 115
103 149 115
103 149 115
58 78 67
62 87 79
62 87 78
62 87 78
62 87 78
123 196 158
116 178 153
116 178 153
116 178 153
116 178 153
116 178 153
103 149 115
55 75 64
55 75 63
55 75 63
55 75 63
55 75 63
103 149 115
103 149 115
55 75 64
55 75 64
55 75 64
55 75 64
55 75 64
53 70 62
53 70 62
53 70 62
118 196 153
118 196 153
118 196 153
118 196 153
118 196 153
118 196 153
111 177 148
111 177 148
111 177 148
111 177 148
111 177 148
111 177 148
118 196 152
118 196 152
118 196 152
110 177 148
110 177 148
110 177 148
110 177 147
117 196 152
110 177 147
117 196 152
117 196 152
117 196 152
110 176 147
110 176 147
117 196 152
110 176 147
110 176 147
117 196 152
110 176 147
117 196 152
117 196 152
117 196 152
117 196 152
110 176 147
110 176 147
110 176 147
110 176 147
110 176 147
110 176 147
117 196 152
117 196 152
117 196 152
117 196 152
117 196 152
110 176 147
110 176 147
110 176 147
109 176 147
109 176 147
109 176 147
109 176 147
117 196 151
117 196 151
117 196 151
117 196 151
117 196 151
117 196 151
117 196 151
117 196 151
109 176 146
109 176 146
116 196 151
109 176 146
95 144 105
118 196 152
48 65 56
50 70 58
48 65 56
48 65 56
51 71 59
49 65 57
51 71 59
51 71 59
51 71 59
114 178 151
114 178 151
121 196 156
121 196 156
114 178 151
121 196 156
121 196 156
121 196 156
121 196 156
114 178 151
114 178 151
114 178 151
114 178 151
98 156 107
91 138 102
49 65 57
49 65 57
49 65 57
120 196 155
57 83 73
57 83 73
57 82 73
57 82 73
55 77 71
109 176 146
109 176 146
109 176 146
109 176 146
109 176 146
109 176 146
116 196 151
116 196 151
116 196 151
109 176 146
116 196 151
116 196 151
109 176 146
116 196 151
116 196 151
109 176 146
109 176 146
109 176 146
109 176 146
116 196 151
109 176 146
116 196 151
116 196 151
116 196 151
109 176 146
109 176 146
109 176 146
116 196 151
116 196 151
116 196 151
109 176 146
109 176 146
116 196 151
109 176 146
109 176 146
109 176 146
116 196 151
116 196 151
116 196 151
116 196 151
116 196 151
109 176 146
109 176 146
109 176 146
109 176 146
109 176 146
116 196 151
116 196 151
116 196 151
116 196 151
116 196 151
116 196 151
116 196 151
109 176 146
109 176 146
109 176 146
109 176 146
109 176 146
109 176 146
116 196 151
116 196 151
116 196 151
116 196 151
116 196 151
117 196 151
109 176 146
109 176 146
117 196 151
117 196 151
109 176 146
109 176 146
118 196 153
118 196 153
118 196 153
118 196 153
118 196 153
111 177 148
118 196 153
118 196 153
111 177 148
111 177 148
118 196 153
112 177 149
119 196 154
119 196 154
119 196 154
46 66 52
111 177 148
111 177 148
111 177 148
111 177 148
111 177 148
111 177 148
111 177 148
53 78 67
51 73 66
53 78 68
53 78 68
44 60 51
46 66 52
46 66 52
45 65 51
45 65 51
45 65 52
45 65 52
43 60 50
46 66 52
46 65 52
45 65 51
45 65 51
45 65 51
45 65 51
45 65 51
45 65 51
45 65 51
45 65 51
45 65 51
45 65 51
111 177 148
111 177 148
111 177 148
111 177 148
111 177 148
111 177 148
118 196 153
118 196 153
118 196 153
118 196 153
118 196 153
118 196 153
111 177 148
111 177 148
111 177 148
111 177 148
111 177 149
118 196 153
118 196 153
111 177 149
111 177 149
119 196 153
112 177 149
112 177 149
119 196 154
119 196 154
119 196 154
119 196 154
119 196 154
119 196 154
112 177 149
112 177 149
112 177 149
112 177 149
112 177 149
119 196 154
119 196 154
119 196 154
119 196 154
119 196 154
119 196 154
119 196 154
112 177 150
112 177 150
112 177 150
113 177 150
113 177 150
49 69 56
49 69 56
49 69 56
114 178 152
121 196 156
121 196 156
121 196 156
121 196 156
121 196 156
119 196 154
119 196 154
119 196 154
106 165 114
106 165 114
122 196 157
115 178 153
122 196 157
115 178 152
122 196 157
115 178 152
102 148 114
109 166 118
102 149 114
102 149 114
103 149 115
109 167 119
103 149 115
110 167 120
123 196 158
122 196 158
122 196 158
122 196 158
122 196 158
116 178 153
116 178 153
116 178 153
116 178 153
115 178 153
109 167 119
103 149 115
55 75 64
55 75 64
55 75 63
55 75 63
55 75 63
103 149 115
103 149 115
58 78 67
55 75 64
53 70 63
55 75 64
55 75 64
53 70 63
53 70 62
111 177 148
111 177 148
111 177 148
111 177 148
111 177 148
111 177 148
111 177 148
110 177 148
110 177 148
118 196 152
118 196 152
118 196 152
110 177 147
110 177 147
117 196 152
117 196 152
110 176 147
110 176 147
110 176 147
110 176 147
110 176 147
117 196 152
117 196 152
117 196 152
110 176 147
110 176 147
110 176 147
110 176 147
110 176 147
117 196 152
117 196 152
117 196 152
117 196 152
117 196 152
117 196 152
117 196 152
110 176 147
117 196 152
110 176 147
110 176 147
110 176 147
109 176 147
109 176 147
117 196 151
117 196 151
109 176 147
109 176 147
109 176 146
117 196 151
117 196 151
109 176 146
117 196 151
117 196 151
117 196 151
109 176 146
109 176 146
109 176 146
109 176 146
109 176 146
109 176 146
116 196 151
116 196 151
109 176 146
116 196 151
116 196 151
116 196 151
95 144 105
110 176 147
118 196 153
98 146 108
50 70 58
50 70 58
56 77 72
56 77 72
56 77 72
114 178 151
114 178 151
51 71 59
110 176 147
51 71 59
49 65 57
49 65 57
49 65 57
51 71 59
49 65 57
49 65 57
51 71 58
51 71 58
51 71 58
51 71 58
51 71 58
51 71 58
49 65 57
49 65 57
51 71 58
110 176 147
110 176 147
110 176 147
110 176 147
110 176 147
110 176 147
109 176 146
109 176 146
92 153 98
92 153 98
92 153 98
41 61 46
116 196 151
109 176 146
109 176 146
109 176 146
109 176 146
109 176 146
116 196 151
116 196 151
116 196 151
116 196 151
116 196 151
116 196 151
109 176 146
109 176 146
109 176 146
116 196 151
109 176 146
109 176 146
116 196 151
109 176 146
116 196 151
116 196 151
116 196 151
116 196 151
109 176 146
109 176 146
109 176 146
116 196 151
109 176 146
109 176 146
116 196 151
116 196 151
116 196 151
116 196 151
109 176 146
116 196 151
109 176 146
109 176 146
109 176 146
109 176 146
109 176 146
109 176 146
116 196 151
116 196 151
116 196 151
116 196 151
116 196 151
116 196 151
109 176 146
109 176 146
109 176 146
109 176 146
116 196 151
116 196 151
109 176 146
109 176 146
109 176 146
116 196 151
109 176 146
109 176 146
42 62 47
42 62 47
42 62 47
42 62 48
42 62 48
110 177 148
110 177 148
118 196 152
110 177 148
118 196 152
118 196 152
111 177 148
118 196 152
111 177 148
118 196 153
111 177 148
118 196 153
119 196 154
119 196 154
119 196 154
46 66 52
45 65 52
118 196 153
111 177 148
111 177 148
118 196 153
118 196 153
118 196 153
111 177 148
53 78 67
51 72 66
51 72 66
51 72 66
46 66 52
46 65 52
45 65 51
45 65 52
45 65 52
46 65 52
46 66 52
46 66 52
46 65 52
45 65 51
45 65 51
45 65 51
45 65 51
45 65 51
45 65 51
45 65 51
45 65 52
45 65 51
45 65 51
45 65 51
45 65 51
45 65 51
45 65 51
45 65 51
45 65 51
45 65 51
94 154 102
111 177 148
111 177 148
111 177 148
111 177 148
111 177 148
118 196 153
118 196 153
118 196 153
118 196 153
118 196 153
118 196 153
111 177 148
111 177 148
111 177 149
111 177 149
111 177 149
111 177 149
119 196 153
112 177 149
119 196 153
119 196 154
119 196 154
119 196 154
112 177 149
112 177 149
119 196 154
112 177 149
112 177 149
112 177 149
119 196 154
119 196 154
119 196 154
119 196 154
119 196 154
119 196 154
112 177 149
112 177 150
112 177 150
112 177 150
112 177 150
112 177 150
49 69 56
114 178 151
121 196 156
114 178 151
121 196 156
121 196 156
121 196 156
119 196 154
119 196 154
106 165 114
106 165 114
106 165 114
120 196 155
107 166 116
122 196 157
115 178 152
115 178 152
102 148 114
102 148 114
109 166 118
109 166 119
109 166 119
102 149 115
103 149 115
109 167 119
116 178 153
116 178 153
116 178 153
116 178 153
116 178 153
55 72 65
55 75 63
55 75 63
54 74 63
54 74 63
54 74 63
103 149 115
103 149 115
55 75 64
55 75 64
55 75 64
55 75 64
55 75 63
103 149 115
103 149 115
56 73 66
60 82 77
60 82 77
60 81 77
60 81 77
62 87 78
111 177 148
111 177 148
118 196 152
110 177 148
110 177 148
118 196 152
118 196 152
117 196 152
110 177 147
117 196 152
117 196 152
117 196 152
117 196 152
110 176 147
117 196 152
110 176 147
110 176 147
110 176 147
117 196 152
117 196 152
110 176 147
117 196 152
110 176 147
110 176 147
117 196 152
117 196 152
117 196 152
117 196 152
117 196 152
117 196 152
110 176 147
117 196 152
110 176 147
110 176 147
110 176 147
109 176 147
117 196 151
117 196 151
117 196 151
117 196 151
117 196 151
117 196 151
109 176 146
109 176 146
117 196 151
109 176 146
116 196 151
116 196 151
109 176 146
116 196 151
109 176 146
116 196 151
116 196 151
116 196 151
109 176 146
109 176 146
109 176 146
109 176 146
109 176 146
109 176 146
116 196 151
109 176 146
116 196 151
116 196 151
109 176 146
116 196 151
102 163 109
95 144 105
117 196 152
117 196 152
117 196 152
117 196 152
117 196 152
110 176 147
110 176 147
110 176 147
110 176 147
110 176 147
110 176 147
117 196 152
51 71 59
51 71 59
51 71 59
51 71 59
49 66 57
49 66 57
49 66 57
51 71 59
51 71 59
49 65 57
51 71 59
51 71 59
49 65 57
49 65 57
49 65 57
49 66 57
110 176 147
110 176 147
110 176 147
110 176 147
110 176 147
110 176 147
41 61 46
41 61 46
41 61 46
41 61 46
41 61 46
41 61 46
108 176 146
108 176 146
108 176 146
108 176 146
108 176 146
108 176 146
108 176 146
108 176 146
108 176 146
116 196 150
116 196 150
116 196 150
116 196 150
108 176 146
108 176 146
108 176 146
116 196 150
108 176 146
108 176 146
116 196 150
108 176 146
108 176 146
116 196 150
116 196 150
116 196 150
108 176 146
108 176 146
116 196 150
108 176 146
108 176 146
116 196 151
109 176 146
109 176 146
109 176 146
109 176 146
109 176 146
116 196 151
116 196 151
109 176 146
116 196 151
116 196 151
116 196 151
116 196 151
109 176 146
109 176 146
109 176 146
109 176 146
109 176 146
109 176 146
116 196 151
116 196 151
116 196 151
116 196 151
116 196 151
116 196 151
116 196 151
109 176 146
109 176 146
109 176 146
116 196 151
109 176 146
42 62 47
42 62 48
42 62 48
42 62 48
117 196 152
117 196 152
110 177 147
110 177 147
117 196 152
110 177 147
110 177 147
118 196 152
118 196 152
118 196 152
110 177 148
110 177 148
118 196 152
112 177 149
46 66 52
46 66 52
46 65 52
43 59 50
87 135 97
118 196 153
118 196 153
118 196 153
118 196 153
111 177 148
111 177 148
111 177 148
52 78 67
52 78 67
50 72 65
50 72 66
43 60 50
45 65 52
46 65 52
46 66 52
46 66 52
46 66 52
46 65 52
45 65 51
45 65 51
45 65 51
45 65 51
45 65 51
45 65 51
45 65 52
45 65 52
45 65 51
45 65 51
45 65 51
45 65 51
45 65 51
45 65 51
45 65 51
45 65 51
45 65 51
45 65 51
45 65 51
118 196 153
111 177 148
111 177 148
118 196 153
111 177 148
111 177 148
118 196 153
118 196 153
118 196 153
111 177 148
111 177 148
118 196 153
111 177 148
111 177 148
118 196 153
111 177 148
118 196 153
111 177 149
111 177 149
118 196 153
111 177 149
111 177 149
119 196 153
112 177 149
119 196 154
119 196 154
119 196 154
119 196 154
119 196 154
119 196 154
112 177 149
112 177 149
112 177 149
112 177 149
119 196 154
112 177 149
46 62 53
48 68 55
46 62 53
48 68 55
114 178 151
121 196 156
121 196 156
121 196 156
121 196 156
121 196 156
121 196 156
98 146 109
99 146 109
106 165 114
106 165 114
106 165 114
106 165 114
107 166 116
121 196 156
115 178 152
114 178 152
114 178 152
114 178 152
114 178 152
114 178 152
101 148 113
109 167 119
116 178 153
115 178 153
115 178 153
115 178 153
115 178 153
109 166 119
103 149 115
55 72 65
53 69 62
55 75 63
55 75 63
55 74 63
54 74 63
103 149 115
103 149 115
58 78 66
55 75 64
55 75 64
55 75 64
55 75 64
55 75 63
103 149 115
111 177 148
111 177 148
110 177 148
110 177 148
110 177 148
118 196 152
118 196 152
110 177 147
117 196 152
117 196 152
117 196 152
110 176 147
117 196 152
110 176 147
110 176 147
110 176 147
110 176 147
117 196 152
110 176 147
117 196 152
110 176 147
110 176 147
117 196 152
110 176 147
110 176 147
110 176 147
110 176 147
117 196 152
110 176 147
117 196 152
117 196 152
117 196 152
117 196 152
110 176 147
117 196 151
109 176 147
109 176 147
109 176 147
109 176 147
109 176 146
109 176 146
117 196 151
109 176 146
117 196 151
116 196 151
116 196 151
116 196 151
116 196 151
116 196 151
109 176 146
109 176 146
109 176 146
109 176 146
116 196 151
116 196 151
116 196 151
116 196 151
116 196 151
109 176 146
109 176 146
109 176 146
116 196 151
109 176 146
109 176 146
116 196 151
116 196 151
109 176 146
116 196 151
109 176 146
109 176 146
109 176 146
116 196 151
102 163 109
95 144 105
117 196 152
117 196 152
117 196 152
117 196 152
117 196 152
117 196 152
117 196 152
117 196 152
117 196 152
117 196 152
110 176 147
96 144 105
110 176 147
117 196 152
117 196 152
117 196 152
110 176 147
49 66 57
49 66 57
51 71 59
51 71 59
51 71 59
51 71 59
109 176 147
117 196 151
109 176 147
117 196 151
117 196 151
117 196 151
117 196 151
117 196 151
117 196 151
117 196 151
117 196 151
41 61 46
39 55 45
41 61 46
41 61 46
41 61 46
41 61 46
41 61 46
108 176 145
91 153 98
91 153 98
91 153 98
40 60 45
40 60 45
116 196 150
108 176 145
108 176 145
116 196 150
108 176 145
108 176 145
116 196 150
116 196 150
116 196 150
116 196 150
116 196 150
116 196 150
108 176 145
108 176 145
108 176 145
108 176 145
108 176 145
108 176 145
116 196 150
116 196 150
116 196 150
108 176 145
116 196 150
116 196 150
108 176 145
108 176 145
108 176 145
116 196 150
108 176 145
108 176 145
116 196 150
116 196 150
116 196 150
116 196 150
116 196 150
108 176 146
108 176 146
108 176 146
108 176 146
108 176 146
109 176 146
109 176 146
109 176 146
116 196 151
116 196 151
116 196 151
116 196 151
116 196 151
109 176 146
109 176 146
109 176 146
116 196 151
109 176 146
92 153 98
92 153 99
42 62 48
42 62 48
42 62 48
117 196 152
117 196 152
117 196 152
110 176 147
110 176 147
110 176 147
110 176 147
110 177 147
117 196 152
110 177 147
117 196 152
110 177 147
117 196 152
117 196 152
46 66 53
46 66 52
46 65 52
43 59 50
43 59 50
42 59 49
43 59 49
43 59 49
43 59 49
43 59 50
43 59 50
118 196 153
111 177 148
52 77 66
52 77 66
52 77 66
50 72 65
50 72 65
50 72 65
50 72 65
50 72 65
50 72 65
51 72 66
45 65 51
45 65 51
45 65 51
45 65 51
45 65 51
45 65 51
45 65 52
45 65 52
45 65 51
45 65 51
45 65 51
45 65 51
45 65 51
45 65 51
45 65 51
45 65 51
45 65 51
45 65 51
45 65 51
45 65 51
44 64 50
45 64 50
45 65 51
45 65 51
43 59 49
45 65 51
45 65 51
111 177 148
111 177 148
111 177 148
111 177 148
111 177 148
111 177 148
118 196 153
118 196 153
118 196 153
118 196 153
118 196 153
118 196 153
111 177 148
111 177 149
111 177 149
118 196 153
111 177 149
111 177 149
119 196 153
119 196 153
119 196 154
119 196 154
119 196 154
119 196 154
112 177 149
112 177 149
112 177 149
112 177 149
112 177 149
112 177 149
48 68 55
46 62 54
113 178 151
120 196 155
114 178 151
120 196 156
121 196 156
121 196 156
121 196 156
98 146 109
106 165 114
99 146 109
106 165 114
106 165 114
106 165 114
120 196 155
120 196 155
120 196 155
106 165 115
114 178 152
121 196 156
101 148 112
101 148 113
108 166 117
122 196 157
122 196 157
122 196 157
122 196 157
122 196 157
109 166 119
102 149 114
102 149 115
103 149 115
55 75 63
55 75 63
55 75 63
55 75 63
55 74 63
103 149 115
103 149 115
58 78 66
62 87 78
60 81 76
60 81 76
59 81 76
110 177 148
110 177 148
110 177 148
110 177 148
110 177 147
110 177 147
117 196 152
117 196 152
110 176 147
117 196 152
117 196 152
110 176 147
110 176 147
110 176 147
110 176 147
110 176 147
110 176 147
110 176 147
117 196 152
117 196 152
117 196 152
117 196 152
110 176 147
117 196 152
110 176 147
117 196 152
110 176 147
110 176 147
110 176 147
109 176 147
109 176 147
109 176 147
117 196 151
117 196 151
109 176 146
109 176 146
109 176 146
117 196 151
117 196 151
116 196 151
116 196 151
116 196 151
116 196 151
116 196 151
109 176 146
116 196 151
109 176 146
109 176 146
116 196 151
116 196 151
116 196 151
116 196 151
116 196 151
116 196 151
116 196 151
109 176 146
109 176 146
109 176 146
109 176 146
109 176 146
109 176 146
116 196 151
109 176 146
116 196 151
116 196 151
116 196 151
116 196 151
116 196 151
109 176 146
109 176 146
109 176 146
109 176 146
108 176 146
108 176 146
102 163 109
95 144 105
110 176 147
110 176 147
110 176 147
110 176 147
110 176 147
117 196 151
117 196 151
117 196 151
109 176 147
109 176 147
117 196 151
109 176 147
109 176 147
109 176 147
117 196 151
109 176 147
109 176 147
118 196 152
51 71 59
49 66 57
51 71 59
51 71 59
49 66 57
109 176 146
109 176 146
109 176 146
109 176 146
109 176 146
117 196 151
109 176 146
117 196 151
117 196 151
109 176 146
109 176 146
41 61 46
39 55 45
41 61 46
41 61 46
41 61 46
41 61 46
41 61 46
40 60 45
40 60 45
40 60 45
40 60 45
40 60 45
38 54 44
108 176 145
108 176 145
108 176 145
108 176 145
108 176 145
115 196 150
115 196 150
115 196 150
115 196 150
115 196 150
108 176 145
115 196 150
108 176 145
115 196 150
108 176 145
115 196 150
108 176 145
108 176 145
108 176 145
108 176 145
116 196 150
116 196 150
116 196 150
116 196 150
116 196 150
116 196 150
108 176 145
108 176 145
108 176 145
116 196 150
116 196 150
116 196 150
108 176 145
108 176 145
108 176 145
108 176 145
108 176 145
108 176 145
116 196 150
116 196 150
116 196 150
116 196 150
108 176 145
116 196 150
108 176 145
108 176 146
108 176 146
108 176 146
108 176 146
41 61 46
41 61 46
41 61 46
41 61 46
41 61 46
42 62 48
42 62 48
42 62 48
42 62 48
117 196 152
110 176 147
117 196 152
110 176 147
117 196 152
117 196 152
117 196 152
110 176 147
117 196 152
42 58 48
42 58 48
42 58 49
42 58 49
42 58 49
46 66 53
46 66 52
46 65 52
43 59 50
43 59 50
43 59 49
45 65 51
43 59 49
43 59 50
43 59 50
43 59 50
43 59 49
87 135 97
118 196 152
118 196 153
118 196 153
118 196 153
118 196 153
111 177 148
111 177 148
50 72 65
52 77 66
52 78 67
50 72 65
45 65 51
45 65 51
45 65 51
45 65 51
45 65 52
45 65 52
45 65 52
45 65 51
45 65 51
45 65 51
45 65 51
45 65 51
45 65 51
45 65 51
45 65 51
45 65 51
45 65 51
45 65 51
45 65 51
44 64 50
45 65 51
45 65 51
45 65 51
45 65 51
45 65 51
45 65 51
45 65 51
111 177 148
111 177 148
111 177 148
111 177 148
111 177 148
111 177 148
111 177 148
118 196 153
111 177 148
111 177 148
118 196 153
111 177 148
118 196 153
111 177 148
111 177 148
111 177 148
111 177 148
111 177 149
111 177 149
118 196 153
119 196 153
119 196 153
112 177 149
95 155 103
88 136 98
95 155 103
47 66 53
47 67 53
45 61 52
47 67 53
89 137 100
113 178 151
113 178 151
113 178 151
120 196 155
120 196 155
91 138 102
48 65 56
98 146 109
99 146 109
99 146 109
106 165 114
99 146 110
106 165 114
106 165 115
106 165 115
106 165 115
106 165 115
121 196 156
114 178 151
114 178 151
121 196 156
114 178 151
114 178 151
107 166 116
101 148 112
119 196 154
109 166 118
109 166 119
109 166 119
109 167 119
109 167 119
56 72 65
55 75 63
55 75 63
55 75 63
55 75 63
55 74 63
103 149 115
116 178 153
116 178 153
116 178 153
116 178 153
110 177 147
110 177 147
117 196 152
110 176 147
110 176 147
110 176 147
117 196 152
110 176 147
117 196 152
110 176 147
117 196 152
117 196 152
117 196 152
110 176 147
110 176 147
117 196 152
117 196 152
117 196 152
117 196 152
117 196 152
110 176 147
110 176 147
110 176 147
110 176 147
109 176 147
117 196 151
109 176 147
117 196 151
117 196 151
117 196 151
117 196 151
109 176 146
109 176 146
109 176 146
109 176 146
109 176 146
109 176 146
109 176 146
116 196 151
116 196 151
116 196 151
116 196 151
109 176 146
109 176 146
116 196 151
109 176 146
109 176 146
116 196 151
109 176 146
109 176 146
116 196 151
116 196 151
109 176 146
109 176 146
109 176 146
116 196 151
109 176 146
109 176 146
109 176 146
109 176 146
109 176 146
109 176 146
109 176 146
109 176 146
116 196 150
116 196 150
108 176 146
116 196 150
108 176 146
91 153 98
84 133 93
91 153 98
41 61 46
41 60 45
91 153 98
102 163 109
95 144 105
109 176 147
109 176 147
117 196 151
109 176 146
109 176 146
109 176 146
117 196 151
117 196 151
109 176 146
117 196 151
117 196 151
109 176 146
109 176 146
109 176 146
116 196 151
109 176 146
109 176 146
117 196 152
56 77 72
56 77 72
56 77 72
56 77 72
56 77 72
116 196 151
116 196 151
116 196 151
116 196 151
116 196 151
116 196 151
116 196 151
116 196 151
116 196 151
47 69 61
47 69 61
41 61 46
41 61 46
39 55 45
41 61 46
41 61 46
41 61 46
41 61 46
40 60 45
40 60 45
40 60 45
40 60 45
40 60 45
40 60 45
108 176 145
108 176 145
108 176 145
115 196 150
83 133 92
91 153 97
40 60 44
108 176 145
108 176 145
108 176 145
108 176 145
108 176 145
108 176 145
108 176 145
115 196 150
108 176 145
108 176 145
115 196 150
115 196 150
115 196 150
115 196 150
108 176 145
115 196 150
115 196 150
108 176 145
115 196 150
115 196 150
108 176 145
115 196 150
115 196 150
108 176 145
108 176 145
108 176 145
115 196 150
108 176 145
108 176 145
108 176 145
108 176 145
108 176 145
116 196 150
116 196 150
116 196 150
116 196 150
116 196 150
108 176 145
108 176 145
108 176 145
108 176 145
108 176 145
108 176 145
41 61 46
41 61 46
41 61 46
41 61 46
42 62 48
42 62 48
42 62 48
42 62 48
110 176 147
117 196 152
110 176 147
117 196 152
110 176 147
117 196 152
117 196 152
117 196 152
117 196 152
117 196 152
42 58 49
42 58 49
42 58 49
42 59 49
51 72 66
46 66 52
43 60 50
43 59 50
43 59 50
43 59 49
43 59 49
43 59 50
43 59 50
43 59 50
43 59 50
43 59 49
42 59 49
42 59 49
42 59 49
42 59 49
42 59 49
42 59 49
43 59 49
87 135 97
118 196 153
52 77 66
52 77 66
52 77 66
52 77 66
50 72 65
50 72 65
50 72 65
50 72 65
50 72 65
52 78 67
45 65 51
45 65 51
45 65 51
45 65 51
45 65 51
45 65 51
45 65 51
45 65 51
45 65 51
45 65 51
45 65 51
45 65 51
45 65 51
45 65 51
45 65 51
45 65 51
43 59 50
45 65 51
45 65 51
45 65 51
44 64 50
44 64 50
42 59 49
44 64 50
44 64 50
45 65 51
45 65 51
45 65 51
43 59 49
45 65 51
43 59 50
43 59 50
43 59 50
45 65 51
45 65 52
46 65 52
46 66 52
46 66 52
46 66 52
44 60 51
44 60 51
44 60 51
44 60 51
44 61 51
46 66 53
46 66 53
47 67 53
45 61 52
47 67 53
47 67 53
113 178 150
113 178 150
113 178 150
120 196 155
113 178 151
120 196 155
120 196 155
120 196 155
105 165 114
99 146 109
99 146 109
106 165 114
106 165 114
106 165 114
119 196 154
113 177 150
119 196 154
119 196 154
119 196 154
119 196 154
119 196 154
119 196 154
112 177 149
112 177 149
112 177 149
119 196 154
99 146 109
109 166 118
109 166 118
109 166 119
102 149 114
109 167 119
58 77 66
59 81 76
61 86 77
59 81 76
59 81 76
116 178 153
122 196 157
122 196 157
122 196 157
122 196 157
44 64 50
44 64 50
44 64 50
42 58 48
42 58 48
42 58 48
110 176 147
110 176 147
110 176 147
117 196 152
110 176 147
110 176 147
117 196 152
117 196 152
117 196 152
117 196 152
110 176 147
117 196 152
110 176 147
109 176 147
109 176 147
109 176 147
109 176 147
109 176 147
109 176 146
117 196 151
117 196 151
117 196 151
116 196 151
116 196 151
116 196 151
109 176 146
109 176 146
109 176 146
109 176 146
109 176 146
109 176 146
116 196 151
116 196 151
116 196 151
116 196 151
116 196 151
116 196 151
116 196 151
109 176 146
116 196 151
116 196 151
116 196 151
116 196 151
116 196 151
109 176 146
109 176 146
109 176 146
109 176 146
109 176 146
116 196 151
116 196 151
108 176 146
116 196 150
116 196 150
116 196 150
116 196 150
116 196 150
108 176 145
108 176 145
108 176 145
108 176 145
108 176 145
116 196 150
41 61 46
41 61 46
41 61 46
41 61 46
41 61 46
41 61 46
41 61 46
95 144 104
117 196 151
117 196 151
116 196 151
116 196 151
116 196 151
116 196 151
109 176 146
109 176 146
116 196 151
116 196 151
109 176 146
109 176 146
109 176 146
116 196 151
116 196 151
109 176 146
109 176 146
116 196 151
117 196 152
110 176 147
117 196 152
117 196 152
117 196 152
117 196 152
116 196 151
109 176 146
116 196 151
116 196 151
116 196 151
109 176 146
109 176 146
47 68 61
47 68 61
47 68 61
47 68 61
41 61 46
41 61 46
41 61 46
39 55 45
41 61 46
41 61 46
41 61 46
40 60 45
40 60 45
40 60 45
40 60 45
41 60 45
41 60 45
40 60 44
40 60 44
40 60 44
40 60 44
40 60 44
40 60 44
40 60 44
108 176 145
108 176 145
108 176 145
108 176 145
108 176 145
108 176 145
108 176 145
115 195 150
115 195 150
115 195 150
115 195 150
115 195 150
108 176 145
108 176 145
108 176 145
108 176 145
108 176 145
115 196 150
108 176 145
115 196 150
108 176 145
108 176 145
108 176 145
108 176 145
115 196 150
115 196 150
108 176 145
108 176 145
108 176 145
108 176 145
108 176 145
115 196 150
108 176 145
108 176 145
108 176 145
108 176 145
108 176 145
108 176 145
40 60 45
40 60 45
40 60 45
40 60 45
38 54 44
91 153 98
41 61 46
41 61 46
41 61 47
42 62 48
42 62 48
48 69 62
109 176 147
117 196 151
117 196 151
117 196 151
110 176 147
117 196 152
117 196 152
41 57 47
41 57 47
41 57 47
41 57 47
41 57 47
42 58 49
42 59 49
87 135 97
53 78 67
53 78 67
43 60 50
43 59 50
43 59 50
43 59 49
43 59 50
43 59 50
43 59 50
43 59 50
43 59 50
43 59 49
42 59 49
42 59 49
42 59 49
42 59 49
42 59 49
43 59 49
43 59 49
42 59 49
42 59 49
118 196 152
118 196 152
118 196 152
118 196 152
111 177 148
118 196 153
111 177 148
50 72 65
52 77 66
50 72 65
50 72 65
50 72 65
45 65 51
45 65 51
45 65 51
45 65 51
45 65 51
45 65 51
45 65 51
45 65 51
45 65 51
45 65 51
45 65 51
45 65 51
45 65 51
45 65 51
45 65 51
45 65 51
45 65 51
45 65 51
44 64 50
44 64 50
42 59 49
44 64 50
45 65 51
45 65 51
45 65 51
43 59 49
43 59 50
43 59 50
45 65 51
45 65 51
45 65 51
45 65 52
46 65 52
43 60 50
46 66 52
46 66 52
46 66 52
44 60 51
46 66 52
46 66 53
44 61 51
44 61 51
46 66 53
47 67 53
47 67 53
47 67 53
47 67 53
47 67 54
113 178 150
113 178 150
113 178 150
113 178 150
113 178 150
120 196 155
120 196 155
113 178 150
98 146 109
99 146 109
99 146 109
99 146 109
106 165 114
119 196 154
119 196 154
119 196 154
119 196 154
119 196 154
119 196 154
112 177 149
112 177 149
112 177 149
112 177 149
112 177 149
98 146 109
98 146 109
99 146 109
99 146 109
100 147 111
114 178 152
109 166 119
103 149 115
115 178 153
115 178 153
115 178 153
115 178 153
111 177 149
111 177 149
118 196 153
111 177 149
111 177 149
111 177 148
111 177 148
44 64 50
44 64 50
44 64 50
44 64 50
110 176 147
110 176 147
110 176 147
110 176 147
110 176 147
117 196 152
117 196 152
117 196 152
110 176 147
117 196 151
109 176 147
117 196 151
109 176 147
117 196 151
117 196 151
117 196 151
117 196 151
109 176 146
116 196 151
109 176 146
109 176 146
109 176 146
109 176 146
109 176 146
109 176 146
116 196 151
109 176 146
116 196 151
109 176 146
116 196 151
116 196 151
109 176 146
116 196 151
109 176 146
109 176 146
116 196 151
109 176 146
109 176 146
116 196 151
116 196 151
109 176 146
109 176 146
116 196 151
116 196 151
108 176 146
108 176 146
108 176 146
108 176 146
116 196 150
108 176 145
108 176 145
116 196 150
116 196 150
116 196 150
116 196 150
108 176 145
108 176 145
108 176 145
108 176 145
108 176 145
108 176 145
108 176 145
116 196 150
94 143 103
41 61 46
41 61 46
41 61 46
41 61 46
41 61 46
41 61 46
41 61 46
94 144 104
116 196 151
116 196 151
109 176 146
116 196 151
116 196 151
109 176 146
109 176 146
116 196 151
109 176 146
116 196 151
109 176 146
109 176 146
116 196 151
116 196 151
116 196 151
116 196 151
116 196 151
109 176 146
117 196 152
117 196 152
110 176 147
117 196 152
117 196 152
117 196 152
85 134 94
85 134 94
85 134 94
41 61 46
39 55 45
41 61 46
116 196 151
46 68 61
46 68 61
48 74 62
46 68 60
46 68 60
46 68 60
48 74 62
46 68 60
46 68 60
46 68 60
41 61 46
41 60 45
41 60 45
41 60 45
41 60 45
41 61 46
41 61 46
40 60 44
40 60 44
40 60 44
40 60 44
40 60 44
40 60 45
40 60 45
108 176 145
115 195 150
108 176 145
108 176 145
108 176 145
108 176 145
108 176 145
115 195 150
108 176 145
108 176 145
108 176 145
108 176 145
108 176 145
108 176 145
115 195 150
115 195 150
108 176 145
115 195 150
115 195 150
108 176 145
108 176 145
108 176 145
108 176 145
108 176 145
115 196 150
108 176 145
115 196 150
115 196 150
115 196 150
115 196 150
108 176 145
115 196 150
108 176 145
115 196 150
115 196 150
108 176 145
108 176 145
108 176 145
38 54 43
38 54 43
40 60 45
40 60 45
40 60 45
41 61 46
41 61 46
41 61 47
41 61 47
47 69 62
109 176 146
109 176 146
117 196 151
109 176 146
117 196 151
117 196 151
117 196 151
117 196 151
117 196 151
41 57 47
41 57 47
41 57 47
41 57 47
41 57 47
42 59 49
42 59 49
52 77 66
50 72 65
52 78 67
52 78 67
43 59 50
43 59 50
43 59 50
43 59 50
43 59 50
43 59 50
43 59 50
43 59 50
43 59 49
42 59 49
42 59 49
42 59 49
42 59 49
43 59 49
43 59 49
43 59 49
42 59 49
42 59 49
42 58 48
42 58 48
42 58 49
42 58 49
42 59 49
42 59 49
42 59 49
118 196 152
118 196 153
52 77 66
52 77 66
52 77 66
52 77 66
50 72 65
50 72 65
50 72 65
50 72 65
50 72 65
50 72 65
45 65 51
45 65 51
45 65 51
45 65 51
45 65 51
43 59 50
43 59 50
45 65 51
45 65 51
45 65 51
45 65 51
44 64 50
42 59 49
42 59 49
45 65 51
45 65 51
45 65 51
45 65 51
43 59 50
43 59 50
43 59 50
43 59 50
45 65 51
43 60 50
43 60 50
46 66 52
46 66 52
46 66 52
46 66 52
44 60 51
46 66 52
44 60 51
44 61 51
44 61 51
44 61 51
47 67 53
47 67 53
47 67 53
45 61 52
47 67 54
113 178 150
48 68 55
49 68 55
49 69 56
49 69 56
49 69 56
47 63 55
47 63 55
47 64 55
98 146 109
105 165 114
99 146 109
112 177 150
112 177 149
112 177 149
112 177 149
119 196 154
112 177 149
119 196 154
119 196 154
119 196 154
112 177 149
119 196 154
119 196 154
112 177 149
112 177 149
112 177 149
112 177 149
112 177 149
112 177 149
98 146 108
98 146 108
113 177 150
120 196 155
120 196 155
120 196 154
111 177 148
111 177 148
111 177 148
111 177 148
111 177 148
118 196 153
118 196 153
118 196 153
44 64 50
44 64 50
42 58 49
43 63 49
43 63 49
43 63 49
43 63 49
43 63 49
43 63 48
109 176 147
109 176 147
109 176 146
109 176 146
109 176 146
109 176 146
109 176 146
109 176 146
116 196 151
109 176 146
116 196 151
116 196 151
116 196 151
109 176 146
109 176 146
109 176 146
109 176 146
109 176 146
109 176 146
109 176 146
116 196 151
109 176 146
116 196 151
109 176 146
116 196 151
116 196 151
109 176 146
109 176 146
116 196 151
109 176 146
109 176 146
109 176 146
116 196 151
116 196 150
116 196 150
108 176 146
116 196 150
116 196 150
116 196 150
108 176 145
116 196 150
108 176 145
116 196 150
108 176 145
108 176 145
116 196 150
108 176 145
108 176 145
108 176 145
108 176 145
108 176 145
108 176 145
40 60 45
40 60 45
40 60 45
40 60 45
40 60 45
40 60 45
94 143 102
41 58 47
41 61 46
41 61 46
41 61 46
41 61 46
41 61 46
41 61 46
94 144 104
109 176 146
109 176 146
109 176 146
116 196 151
109 176 146
116 196 151
109 176 146
116 196 151
116 196 151
116 196 151
116 196 151
116 196 151
39 56 45
39 56 45
39 56 45
39 56 45
39 56 45
39 55 45
96 144 105
117 196 152
117 196 152
110 176 147
117 196 152
50 76 64
39 55 45
39 55 45
39 55 45
39 55 45
39 55 45
39 55 45
116 196 151
116 196 151
116 196 151
116 196 151
116 196 151
116 196 151
109 176 146
46 68 60
48 74 62
46 68 60
46 68 60
46 68 60
41 61 46
41 61 46
41 61 46
41 61 46
41 61 46
41 61 46
40 60 44
40 60 44
40 60 45
40 60 45
40 60 45
40 60 45
40 60 45
39 59 43
39 59 43
39 59 44
39 59 44
39 59 44
37 53 42
39 59 44
107 176 145
107 176 145
107 176 145
107 176 145
107 176 145
107 176 145
115 195 150
107 176 145
115 195 150
107 176 145
115 195 150
115 195 150
115 195 150
108 176 145
108 176 145
108 176 145
108 176 145
108 176 145
108 176 145
115 195 150
115 195 150
115 195 150
115 195 150
108 176 145
115 196 150
115 196 150
108 176 145
108 176 145
108 176 145
115 196 150
108 176 145
108 176 145
40 60 45
40 60 45
38 54 44
40 60 45
41 61 46
41 61 47
41 61 47
41 61 47
109 176 146
116 196 151
109 176 146
109 176 146
109 176 146
116 196 151
116 196 151
116 196 151
116 196 151
109 176 146
117 196 151
41 57 47
41 57 47
41 57 47
42 59 49
42 59 49
42 59 49
118 196 153
52 77 66
52 77 66
52 77 66
50 72 65
50 72 65
52 77 66
52 77 66
50 72 65
52 78 67
52 78 67
43 59 50
43 59 49
42 59 49
42 59 49
42 59 49
43 59 49
43 59 49
43 59 49
43 59 49
42 59 49
42 59 49
42 58 48
42 58 49
42 58 49
42 59 49
42 59 49
42 59 49
42 59 49
42 58 49
118 196 152
110 177 148
118 196 152
118 196 152
118 196 152
118 196 153
111 177 148
111 177 148
52 77 66
50 72 65
50 72 65
50 72 65
45 65 51
43 59 49
45 65 51
45 65 51
45 65 51
45 65 51
45 65 51
45 65 51
45 65 51
45 65 51
44 64 50
44 64 50
45 65 51
45 65 51
45 65 51
45 65 51
45 65 51
43 59 50
43 59 50
45 65 51
43 60 50
43 60 50
43 60 50
46 66 52
46 66 52
46 66 52
46 66 52
46 66 52
44 60 51
44 60 51
44 61 51
46 66 53
44 61 51
47 67 53
47 67 53
47 67 53
45 61 52
47 67 54
45 61 52
112 178 150
113 178 150
113 178 150
49 69 56
49 69 56
47 63 55
47 63 55
47 64 55
47 64 55
98 146 109
99 146 109
112 177 149
112 177 149
112 177 149
112 177 149
112 177 149
112 177 149
112 177 149
119 196 154
119 196 154
119 196 154
119 196 154
119 196 154
112 177 149
112 177 149
112 177 149
111 177 149
111 177 149
111 177 149
98 146 108
98 146 108
98 146 108
119 196 154
119 196 154
119 196 154
111 177 148
111 177 148
111 177 148
118 196 153
118 196 153
118 196 153
111 177 148
111 177 148
118 196 153
44 64 50
44 64 50
44 64 50
44 64 50
43 63 49
43 63 49
41 57 47
43 63 49
109 176 146
109 176 146
116 196 151
109 176 146
109 176 146
109 176 146
109 176 146
116 196 151
116 196 151
116 196 151
109 176 146
109 176 146
116 196 151
109 176 146
109 176 146
109 176 146
109 176 146
109 176 146
109 176 146
109 176 146
116 196 151
109 176 146
109 176 146
109 176 146
109 176 146
109 176 146
109 176 146
116 196 150
116 196 150
116 196 150
116 196 150
108 176 145
116 196 150
108 176 145
108 176 145
116 196 150
108 176 145
108 176 145
116 196 150
116 196 150
108 176 145
116 196 150
116 196 150
115 196 150
115 196 150
115 196 150
115 196 150
108 176 145
108 176 145
115 196 150
108 176 145
108 176 145
94 143 102
40 60 45
40 60 45
40 60 45
40 60 45
40 60 45
40 60 45
91 153 97
41 58 47
41 61 46
41 61 46
41 61 46
41 61 46
41 61 46
41 61 46
94 143 104
116 196 151
116 196 151
109 176 146
109 176 146
109 176 146
109 176 146
109 176 146
116 196 151
116 196 151
109 176 146
116 196 151
116 196 151
39 56 45
39 56 45
39 56 45
39 56 45
39 56 45
39 56 45
110 176 147
110 176 147
48 70 62
50 75 64
48 70 62
48 70 62
39 56 45
41 61 47
39 56 45
39 56 45
41 61 47
41 61 47
116 196 150
116 196 150
116 196 150
84 133 93
84 133 93
84 133 93
116 196 150
48 73 61
48 73 61
48 73 61
48 73 61
46 67 60
46 67 60
46 67 60
46 67 60
46 67 60
46 67 60
46 67 60
40 60 45
40 60 45
40 60 45
40 60 45
40 60 45
40 60 45
40 60 45
37 53 42
39 59 44
39 59 44
39 59 44
39 59 44
39 59 44
39 59 44
107 176 144
107 176 144
107 176 144
115 195 149
107 176 144
107 176 144
107 176 144
115 195 149
115 195 149
115 195 149
115 195 149
115 195 149
115 195 149
115 195 149
115 195 149
107 176 144
90 152 96
90 152 96
90 152 96
37 53 42
39 59 43
37 53 42
37 53 42
37 53 42
37 53 42
37 53 42
39 59 44
39 59 44
39 59 44
39 59 44
39 59 44
39 59 44
40 60 45
40 60 45
40 60 45
40 60 45
46 68 61
46 68 61
46 68 61
109 176 146
116 196 151
116 196 151
116 196 151
116 196 151
109 176 146
116 196 151
40 56 46
40 56 46
40 56 46
40 56 46
40 56 46
41 57 47
41 57 47
41 58 48
51 77 65
117 196 152
118 196 152
118 196 152
110 177 148
49 71 64
49 71 64
50 71 64
50 71 64
50 71 65
50 71 65
52 77 66
52 77 66
52 77 66
52 77 66
43 59 49
42 59 49
42 59 49
43 59 49
43 59 49
43 59 49
43 59 50
43 59 49
42 59 49
42 59 49
42 58 49
42 58 49
42 59 49
42 59 49
42 59 49
42 59 49
42 59 49
42 58 49
42 58 48
42 58 48
42 58 48
42 58 48
42 58 48
42 58 49
44 64 50
42 58 49
118 196 152
52 77 66
52 77 66
50 71 64
52 77 66
52 77 66
50 72 65
50 72 65
50 72 65
50 72 65
52 78 66
50 72 65
45 65 51
45 65 51
44 64 50
45 64 50
45 65 51
45 65 51
45 65 51
43 59 50
43 59 50
43 59 50
43 59 50
43 60 50
43 60 50
43 60 50
46 66 52
46 66 52
46 66 52
46 66 52
46 66 52
46 66 52
44 60 51
44 61 51
44 61 51
44 61 51
44 61 52
47 67 53
47 67 53
47 67 53
47 67 53
47 67 54
96 155 104
119 196 154
112 177 150
112 178 150
112 178 150
112 178 150
49 69 56
47 64 55
49 69 56
47 64 55
112 177 149
119 196 154
112 177 149
112 177 149
119 196 154
119 196 154
119 196 154
112 177 149
112 177 149
112 177 149
112 177 149
119 196 153
111 177 149
119 196 153
118 196 153
118 196 153
118 196 153
118 196 153
118 196 153
105 164 113
98 146 108
98 146 108
98 146 108
119 196 154
119 196 154
118 196 153
118 196 153
118 196 153
118 196 153
118 196 153
118 196 153
111 177 148
118 196 153
50 72 65
50 72 65
52 77 66
44 64 50
44 64 50
42 59 49
43 63 49
43 63 49
43 63 49
92 153 99
92 153 99
42 62 47
42 62 47
42 62 47
42 62 47
42 62 47
116 196 151
109 176 146
109 176 146
116 196 151
109 176 146
109 176 146
116 196 151
116 196 151
116 196 151
116 196 151
116 196 151
116 196 151
109 176 146
109 176 146
109 176 146
116 196 150
116 196 150
116 196 150
116 196 150
108 176 145
116 196 150
108 176 145
116 196 150
116 196 150
116 196 150
116 196 150
108 176 145
108 176 145
108 176 145
108 176 145
108 176 145
108 176 145
108 176 145
115 196 150
115 196 150
115 196 150
108 176 145
115 196 150
115 196 150
108 176 145
108 176 145
108 176 145
108 176 145
108 176 145
108 176 145
108 176 145
94 143 102
40 60 45
40 60 45
40 60 45
40 60 45
40 60 45
40 60 45
40 60 45
41 58 47
41 61 46
41 61 46
41 61 46
41 61 46
41 61 46
41 61 46
116 196 151
109 176 146
109 176 146
109 176 146
109 176 146
109 176 146
116 196 150
108 176 146
116 196 150
116 196 150
84 133 93
84 133 93
84 133 93
39 56 45
39 56 45
39 56 45
39 56 45
39 56 45
39 56 45
109 176 147
109 176 147
48 69 62
50 75 63
47 69 62
47 69 62
39 56 45
39 56 45
39 56 45
39 56 45
39 56 45
39 56 45
38 55 44
38 55 44
38 55 44
38 55 44
38 55 44
38 55 44
108 176 145
108 176 145
116 196 150
116 196 150
116 196 150
116 196 150
108 176 145
108 176 145
47 73 61
47 73 61
45 67 59
45 67 59
40 60 45
40 60 45
40 60 45
40 60 45
40 60 45
40 60 45
40 60 45
39 59 44
37 53 42
37 53 42
39 59 44
37 53 42
39 59 44
39 59 44
38 58 43
38 58 43
38 58 43
38 58 43
38 58 43
38 58 43
38 58 43
36 52 41
36 52 41
36 52 41
36 52 41
36 53 42
36 53 42
39 59 43
39 59 43
39 59 43
36 53 42
39 59 43
37 53 42
39 59 43
37 53 42
37 53 42
37 53 42
37 53 42
39 59 44
37 53 42
39 59 44
39 59 44
39 59 44
37 53 42
39 59 44
39 59 44
38 54 44
38 54 44
40 60 45
40 60 45
116 196 151
109 176 146
109 176 146
109 176 146
109 176 146
109 176 146
109 176 146
116 196 151
116 196 151
109 176 146
116 196 151
40 56 46
40 56 46
42 62 48
40 56 46
41 57 48
41 58 48
41 58 48
117 196 152
117 196 152
117 196 152
110 177 147
117 196 152
110 177 147
117 196 152
110 177 147
110 177 148
110 177 148
110 177 148
118 196 152
52 77 66
52 77 66
52 77 66
52 77 66
42 59 49
52 77 66
52 77 66
50 72 65
52 77 66
52 77 66
43 59 49
42 59 49
42 59 49
42 58 49
42 59 49
42 59 49
42 59 49
42 59 49
42 59 49
42 59 49
42 58 49
42 58 48
42 58 48
44 64 50
42 58 48
42 58 49
42 58 49
42 58 49
42 58 49
42 58 48
118 196 152
118 196 152
118 196 152
118 196 152
118 196 153
118 196 153
111 177 148
118 196 153
50 71 65
50 72 65
52 77 66
52 77 66
45 65 51
45 64 50
45 65 51
45 65 51
45 65 51
45 65 51
45 65 51
43 59 50
43 59 50
43 60 50
43 60 50
43 60 50
43 60 50
44 60 50
51 73 66
51 73 66
53 79 68
51 73 66
51 73 67
51 73 67
52 73 67
54 79 68
54 79 68
54 79 68
54 79 68
52 74 67
52 74 67
54 79 69
112 177 149
112 177 149
112 177 149
45 62 53
48 67 54
48 68 54
48 68 55
47 64 55
49 69 56
47 64 55
47 64 55
119 196 154
112 177 149
112 177 149
119 196 154
112 177 149
112 177 149
112 177 149
119 196 153
119 196 153
118 196 153
118 196 153
118 196 153
118 196 153
118 196 153
118 196 153
118 196 153
118 196 153
118 196 153
104 164 112
105 164 113
98 146 108
98 146 108
98 146 108
105 165 113
118 196 153
118 196 153
118 196 153
118 196 153
118 196 153
118 196 153
118 196 153
50 71 65
50 71 65
50 71 65
50 71 64
49 71 64
44 64 50
44 64 50
49 71 64
43 63 49
43 63 49
43 63 49
43 63 49
42 62 47
42 62 47
42 62 47
42 62 47
42 62 47
109 176 146
109 176 146
109 176 146
109 176 146
116 196 151
109 176 146
109 176 146
116 196 151
116 196 151
116 196 151
116 196 151
116 196 150
116 196 150
108 176 146
116 196 150
108 176 145
108 176 145
108 176 145
108 176 145
116 196 150
116 196 150
116 196 150
116 196 150
108 176 145
116 196 150
115 196 150
115 196 150
108 176 145
115 196 150
108 176 145
108 176 145
115 196 150
115 196 150
108 176 145
108 176 145
115 196 150
108 176 145
108 176 145
108 176 145
108 176 145
39 59 44
39 59 44
39 59 44
39 59 44
39 59 44
39 59 44
39 59 44
93 143 102
40 60 45
40 60 45
40 60 45
40 60 45
40 60 45
40 60 45
40 60 45
94 143 103
46 68 60
46 68 60
46 68 60
46 68 60
116 196 150
108 176 146
116 196 150
116 196 150
116 196 150
116 196 150
108 176 145
108 176 145
39 55 44
39 55 44
39 55 44
39 55 44
39 55 44
39 55 44
39 55 44
39 56 45
39 56 45
39 56 45
39 56 45
39 56 45
39 56 45
117 196 151
116 196 151
47 69 62
49 75 63
49 75 63
47 69 62
39 56 45
39 56 45
39 56 45
39 56 45
39 56 45
39 56 45
38 55 44
38 55 44
38 55 44
38 55 44
38 55 44
38 55 44
115 196 150
115 196 150
108 176 145
108 176 145
108 176 145
108 176 145
108 176 145
108 176 145
45 67 59
47 73 60
47 73 60
47 73 60
47 73 60
47 73 60
45 67 59
45 67 59
45 67 59
47 73 60
45 67 59
39 59 44
39 59 44
39 59 44
37 53 42
39 59 44
37 53 42
39 59 44
38 58 43
38 58 43
36 52 41
38 58 43
38 58 43
38 58 43
38 58 43
36 52 41
36 52 41
36 53 42
36 53 42
36 53 42
36 53 42
39 59 43
39 59 43
39 59 43
39 59 43
39 59 43
37 53 42
39 59 43
37 53 42
39 59 44
37 53 42
39 59 44
37 53 42
37 53 42
39 59 44
39 59 44
39 59 44
39 59 44
37 53 42
39 59 44
38 54 44
38 54 44
38 55 44
38 55 44
108 176 146
108 176 146
116 196 151
116 196 151
109 176 146
92 153 98
84 133 93
92 153 98
39 55 45
41 61 46
39 55 45
39 55 45
40 56 46
40 56 46
40 56 46
51 76 64
51 76 65
117 196 152
110 176 147
117 196 152
110 176 147
117 196 152
117 196 152
110 177 147
117 196 152
110 177 147
117 196 152
110 177 147
117 196 152
110 177 147
117 196 152
49 71 64
49 71 64
49 71 64
52 77 66
52 77 66
52 77 66
52 77 66
52 77 66
52 77 66
52 77 66
42 59 49
42 59 49
42 59 49
42 59 49
42 59 49
42 59 49
42 59 49
42 59 49
42 59 49
42 58 49
42 58 48
42 58 48
42 58 48
42 58 49
42 58 49
42 58 49
42 59 49
42 58 49
42 58 48
42 58 48
118 196 152
110 177 148
118 196 152
86 135 96
86 135 96
42 58 48
86 135 96
118 196 153
52 77 66
52 77 66
52 77 66
52 77 66
52 77 66
50 72 65
50 72 65
50 72 65
50 72 65
50 72 65
50 72 65
50 72 65
53 78 67
53 78 67
53 78 67
53 78 67
53 78 67
51 72 66
51 73 66
51 73 66
53 78 67
51 73 66
53 78 68
51 73 66
119 196 154
119 196 154
119 196 154
119 196 154
119 196 154
112 177 149
112 177 149
119 196 154
119 196 154
119 196 154
119 196 154
112 177 149
48 68 55
47 64 55
47 64 55
47 64 55
47 64 55
47 64 55
119 196 154
112 177 149
119 196 153
119 196 153
111 177 149
111 177 149
118 196 153
111 177 149
111 177 148
111 177 148
118 196 153
118 196 153
111 177 148
118 196 153
88 136 98
88 136 98
104 164 112
104 164 112
104 164 112
105 164 112
98 146 108
105 165 113
98 146 108
43 60 50
43 59 50
43 59 50
43 59 50
43 59 50
43 59 50
118 196 152
52 77 66
49 71 64
52 77 66
51 77 66
51 77 65
49 71 64
49 71 64
49 71 64
49 71 64
43 63 49
43 63 49
43 63 49
43 63 49
42 62 48
42 62 47
42 62 47
42 62 47
109 176 146
109 176 146
109 176 146
109 176 146
116 196 151
109 176 146
108 176 146
108 176 146
108 176 146
108 176 145
108 176 145
108 176 145
108 176 145
108 176 145
116 196 150
116 196 150
108 176 145
108 176 145
116 196 150
116 196 150
108 176 145
108 176 145
108 176 145
108 176 145
108 176 145
115 196 150
115 196 150
115 196 150
108 176 145
115 196 150
115 196 150
108 176 145
115 195 150
108 176 145
115 195 150
115 195 150
108 176 145
108 176 145
115 195 150
108 176 145
93 143 102
40 59 44
37 54 43
37 53 43
39 59 44
39 59 44
37 53 43
39 59 44
93 143 102
40 60 45
40 60 45
40 60 45
40 60 45
40 60 45
40 60 45
40 60 45
94 143 103
116 196 150
108 176 145
108 176 145
108 176 145
108 176 145
108 176 145
108 176 145
116 196 150
116 196 150
108 176 145
116 196 150
108 176 145
44 64 49
39 55 44
39 55 44
39 55 44
39 55 44
39 55 44
39 55 44
40 56 45
42 62 47
39 56 45
39 56 45
39 56 45
39 56 45
116 196 151
116 196 151
49 74 63
49 74 63
49 74 63
47 69 61
39 56 45
39 56 45
39 56 45
39 56 45
39 56 45
39 56 45
39 55 44
39 55 44
39 55 44
39 55 44
39 55 44
39 55 44
38 54 43
38 54 43
38 54 43
38 54 43
38 54 43
38 54 43
115 196 150
115 196 150
47 72 60
47 72 60
45 66 59
47 72 60
45 66 59
47 72 60
45 66 59
47 72 60
45 66 59
45 66 59
45 66 59
37 53 42
39 59 44
37 53 42
37 53 42
37 53 42
39 59 44
39 59 44
38 58 43
38 58 43
38 58 43
38 58 43
38 58 43
39 58 43
39 58 43
36 53 42
36 53 42
39 59 43
39 59 43
36 53 42
39 59 43
37 53 42
39 59 43
39 59 43
39 59 43
39 59 43
39 59 43
39 59 43
39 59 44
37 53 42
37 53 42
37 53 42
37 53 42
37 53 42
37 53 42
39 59 44
39 59 44
37 53 42
37 53 43
39 59 44
45 67 59
48 73 61
108 176 145
116 196 150
108 176 145
41 61 46
41 61 46
41 61 46
41 61 46
41 61 46
41 61 46
41 61 46
39 55 45
41 61 46
39 55 45
39 55 45
40 56 46
40 56 46
40 57 46
110 176 147
117 196 152
110 176 147
117 196 152
110 176 147
110 176 147
117 196 152
110 176 147
117 196 152
110 177 147
110 177 147
117 196 152
117 196 152
117 196 152
117 196 152
117 196 152
110 177 147
110 177 147
117 196 152
110 177 147
110 177 147
110 177 148
118 196 152
49 71 64
52 77 66
52 77 66
52 77 66
42 59 49
42 59 49
42 59 49
52 77 66
52 77 66
52 77 66
43 59 49
42 59 49
42 58 49
42 58 48
44 64 50
42 58 49
42 58 49
42 58 49
42 59 49
42 59 49
42 58 49
42 58 48
42 58 48
44 64 49
42 58 48
44 64 50
42 58 48
44 64 50
42 58 48
42 58 48
42 58 48
118 196 152
111 177 148
118 196 153
118 196 153
118 196 153
118 196 153
111 177 148
111 177 148
111 177 148
111 177 148
118 196 153
111 177 148
111 177 148
118 196 153
118 196 153
118 196 153
118 196 153
118 196 153
118 196 153
111 177 148
111 177 148
111 177 149
111 177 149
119 196 153
111 177 149
112 177 149
119 196 153
112 177 149
119 196 154
112 177 149
112 177 149
112 177 149
95 155 103
95 155 103
95 155 103
46 66 53
47 67 53
56 82 71
57 82 72
55 76 70
55 76 70
57 82 72
111 177 149
118 196 153
111 177 149
111 177 149
118 196 153
118 196 153
118 196 153
118 196 153
118 196 153
104 164 112
44 60 51
44 60 51
44 60 51
44 60 51
44 60 51
46 66 52
44 60 51
104 164 112
104 164 112
105 164 112
105 164 113
98 146 108
98 146 108
43 60 50
43 60 50
43 59 50
43 59 50
43 59 50
110 177 148
117 196 152
117 196 152
117 196 152
117 196 152
117 196 152
110 176 147
117 196 152
49 70 64
49 70 63
51 76 65
49 70 63
43 63 49
43 63 49
43 63 49
42 62 48
42 62 48
42 62 47
42 62 47
41 61 46
41 61 46
41 61 46
41 61 46
39 55 44
41 61 46
108 176 145
108 176 145
116 196 150
108 176 145
108 176 145
108 176 145
116 196 150
108 176 145
115 196 150
115 196 150
115 196 150
115 196 150
115 196 150
108 176 145
108 176 145
108 176 145
108 176 145
108 176 145
108 176 145
115 195 150
115 195 150
115 195 150
115 195 150
115 195 150
115 195 150
108 176 145
108 176 145
108 176 145
108 176 145
108 176 145
108 176 145
108 176 145
108 176 145
107 176 145
93 143 102
37 54 43
40 60 44
40 59 44
40 59 44
39 59 44
39 59 44
39 59 44
93 143 102
41 57 47
40 60 45
40 60 45
40 60 45
40 60 45
38 54 44
40 60 45
108 176 145
108 176 145
108 176 145
108 176 145
116 196 150
116 196 150
116 196 150
84 133 93
84 133 93
38 54 43
38 54 43
38 54 43
38 54 43
101 163 108
39 55 44
39 55 44
39 55 44
39 55 44
39 55 44
39 55 44
49 74 63
49 74 63
49 74 62
49 74 62
49 74 62
116 196 151
109 176 146
109 176 146
47 68 61
47 68 61
49 74 62
49 74 62
49 74 62
49 74 62
46 68 61
49 74 62
46 68 61
49 74 62
39 55 44
39 55 44
39 55 44
39 55 44
39 55 44
39 55 44
38 54 43
38 54 43
38 54 43
38 54 43
40 60 45
38 54 43
37 53 43
108 176 145
115 195 150
115 195 150
115 195 150
115 195 150
115 195 150
108 176 145
108 176 145
44 66 58
47 72 60
44 66 58
47 72 60
39 59 44
39 59 44
39 59 44
44 66 58
47 72 60
44 66 58
39 59 44
38 58 43
36 52 41
38 58 43
39 58 43
36 53 41
39 59 43
36 53 42
39 59 43
39 59 43
36 53 42
36 53 42
39 59 43
39 59 43
39 59 43
39 59 43
37 53 42
39 59 43
39 59 43
39 59 44
37 53 42
37 53 42
39 59 44
39 59 44
37 53 42
37 53 42
37 53 42
37 53 42
39 59 44
39 59 44
39 59 44
37 53 43
37 53 43
115 196 150
115 196 150
108 176 145
108 176 145
108 176 145
41 61 46
41 61 46
41 61 46
41 61 46
41 61 46
39 55 45
39 55 45
39 55 45
39 55 45
41 61 46
40 56 46
40 56 46
40 57 46
40 57 46
117 196 152
117 196 152
117 196 152
117 196 152
110 176 147
117 196 152
110 176 147
110 176 147
93 154 100
93 154 100
93 154 100
41 57 47
41 57 47
41 58 48
41 58 48
41 58 48
44 64 49
44 64 49
44 64 49
44 64 50
44 64 50
44 64 50
42 58 48
42 58 48
42 58 49
42 58 49
42 59 49
42 59 49
42 58 49
52 77 66
52 77 66
52 77 66
52 77 66
52 77 66
42 59 49
42 58 49
42 58 48
44 64 50
42 58 49
42 58 49
42 59 49
42 59 49
42 59 49
42 58 49
42 58 48
42 58 48
42 58 48
44 64 50
44 64 50
44 64 50
42 58 48
42 58 49
42 58 48
42 58 48
42 58 48
86 135 96
118 196 152
110 177 148
118 196 152
118 196 153
111 177 148
118 196 153
111 177 148
111 177 148
111 177 148
87 135 96
94 154 101
44 64 50
111 177 148
118 196 153
111 177 148
118 196 153
118 196 153
111 177 148
118 196 153
111 177 148
118 196 153
118 196 153
118 196 153
118 196 153
119 196 153
111 177 149
111 177 149
112 177 149
112 177 149
112 177 149
112 177 149
46 66 53
44 61 51
44 61 52
88 136 99
54 76 70
113 178 150
113 178 150
120 196 155
113 178 151
118 196 153
111 177 148
118 196 153
118 196 153
118 196 153
118 196 153
111 177 148
111 177 148
104 164 112
97 145 108
49 69 55
44 60 51
44 60 51
44 60 51
44 60 51
44 60 51
44 60 51
97 145 107
104 164 112
105 164 112
98 146 108
98 146 108
112 177 149
119 196 153
43 60 50
43 60 50
43 59 50
87 135 96
42 58 48
42 58 48
42 58 48
42 58 48
42 58 48
117 196 152
117 196 152
51 76 65
51 76 65
51 76 64
50 76 64
48 70 63
48 70 63
48 70 63
48 70 63
50 76 64
42 62 48
42 62 48
42 62 48
39 55 45
41 61 46
41 61 46
39 55 45
41 61 46
108 176 145
108 176 145
108 176 145
108 176 145
108 176 145
108 176 145
108 176 145
115 196 150
115 196 150
108 176 145
115 196 150
115 196 150
115 196 150
115 196 150
108 176 145
115 195 150
108 176 145
115 195 150
108 176 145
108 176 145
108 176 145
83 133 92
83 133 92
83 133 92
37 53 42
37 53 42
39 59 44
37 53 42
39 59 43
37 53 42
39 59 43
39 59 43
37 53 42
39 59 43
37 53 42
93 143 102
40 57 46
37 54 43
40 60 44
37 54 43
40 59 44
37 54 43
39 59 44
93 143 102
41 57 47
48 73 61
45 67 59
45 67 59
47 73 61
108 176 145
108 176 145
115 196 150
115 196 150
108 176 145
115 196 150
115 196 150
115 196 150
101 163 107
38 54 43
38 54 43
38 54 43
38 54 43
38 54 43
38 54 43
101 163 108
39 55 45
39 55 45
39 55 45
39 55 44
41 61 46
39 55 44
49 74 62
49 74 62
116 196 151
116 196 151
116 196 151
116 196 151
116 196 151
109 176 146
116 196 151
109 176 146
116 196 151
109 176 146
116 196 151
116 196 151
48 74 62
48 74 62
48 74 62
48 74 62
39 55 44
39 55 44
39 55 44
39 55 44
39 55 44
39 55 44
38 54 43
38 54 43
38 54 43
38 54 43
38 54 43
38 54 43
37 54 43
39 59 44
37 53 42
37 53 42
37 53 42
37 53 42
39 59 44
108 176 145
115 195 150
46 72 59
46 72 59
46 72 59
46 72 59
46 72 59
44 66 58
44 66 58
46 72 59
44 66 58
44 66 58
44 66 58
39 58 43
39 58 43
39 59 43
36 53 42
39 59 43
39 59 43
39 59 43
39 59 43
39 59 43
37 53 42
37 53 42
39 59 43
37 53 42
37 53 42
39 59 43
39 59 43
39 59 44
39 59 44
39 59 44
37 53 42
37 53 42
37 53 42
37 53 42
37 53 42
37 53 42
39 59 44
39 59 44
39 59 44
39 59 44
39 59 44
40 59 44
40 60 44
108 176 145
108 176 145
91 153 97
83 133 92
91 153 97
40 60 45
41 61 46
41 61 46
41 61 46
39 55 45
39 55 45
39 55 45
39 55 45
41 61 46
41 61 46
49 75 63
47 69 62
109 176 146
117 196 151
40 57 47
40 57 47
41 57 47
41 57 47
41 57 47
43 63 48
43 63 49
43 63 49
43 63 49
43 63 49
43 63 49
41 57 47
41 58 48
41 58 48
41 58 48
41 58 48
44 64 49
44 64 49
44 64 50
44 64 50
44 64 50
44 64 50
42 58 48
42 58 49
42 58 49
42 59 49
42 59 49
42 59 49
42 58 49
42 58 48
118 196 152
51 77 65
51 77 65
52 77 66
52 77 66
52 77 66
44 64 50
42 58 49
42 58 49
42 59 49
42 59 49
42 59 49
42 59 49
42 58 49
42 58 48
42 58 48
42 58 48
42 58 48
44 64 50
44 64 50
42 58 49
42 58 49
42 58 48
42 58 48
42 58 48
41 58 48
44 63 49
41 58 48
44 64 49
42 58 48
42 58 48
42 58 48
44 64 50
44 64 50
44 64 50
44 64 50
42 59 49
45 64 50
44 64 50
44 64 50
111 177 148
118 196 153
118 196 153
111 177 148
111 177 148
111 177 148
118 196 153
118 196 153
118 196 153
118 196 153
118 196 153
118 196 153
111 177 149
119 196 153
111 177 149
119 196 153
119 196 153
112 177 149
119 196 154
47 67 53
113 178 150
113 178 150
120 196 155
113 178 150
113 178 150
113 178 150
111 177 148
118 196 153
88 136 98
88 136 98
87 136 98
43 60 50
87 136 97
104 164 112
104 164 112
104 164 112
49 69 55
44 60 51
44 60 51
46 66 52
44 60 51
44 60 51
44 60 51
88 136 98
104 164 112
105 164 112
105 164 113
118 196 153
111 177 149
53 79 68
43 60 50
43 60 50
43 60 50
42 58 49
42 58 49
42 58 49
42 58 48
42 58 48
117 196 152
110 176 147
117 196 152
110 176 147
110 176 147
117 196 152
110 176 147
117 196 152
48 70 62
48 70 62
48 69 62
48 69 62
42 62 48
42 62 48
42 62 48
41 61 46
41 61 46
39 55 45
41 61 46
91 153 97
84 133 92
38 54 43
40 60 45
40 60 45
38 54 43
40 60 45
40 60 44
37 54 43
37 54 43
37 54 43
40 60 44
37 54 43
37 54 43
37 53 43
39 59 44
39 59 44
37 53 43
37 53 42
37 53 42
39 59 44
39 59 44
37 53 42
39 59 44
37 53 42
37 53 42
37 53 42
39 59 44
37 53 42
37 53 42
39 59 43
39 59 43
39 59 43
37 53 42
39 59 43
39 59 43
93 143 102
40 57 46
40 60 44
40 60 44
37 54 43
37 54 43
40 60 44
37 54 43
93 143 102
108 176 145
108 176 145
115 196 150
108 176 145
108 176 145
115 196 150
108 176 145
115 196 150
115 196 150
115 196 150
115 196 150
115 196 150
115 196 150
101 163 107
38 54 44
38 54 44
38 54 44
38 54 44
38 54 43
38 54 43
101 163 108
39 55 45
39 55 45
39 55 45
39 55 45
39 55 45
39 55 45
109 176 146
109 176 146
116 196 151
116 196 151
109 176 146
116 196 151
109 176 146
109 176 146
116 196 151
109 176 146
116 196 151
109 176 146
109 176 146
109 176 146
46 68 60
46 68 60
48 73 62
48 73 61
46 68 60
48 73 61
48 73 61
48 73 61
48 73 61
48 73 61
38 54 43
38 54 43
38 54 43
38 54 43
38 54 43
38 54 43
37 54 43
39 59 44
37 53 42
37 53 42
37 53 42
37 53 42
37 53 42
115 195 149
115 195 149
107 176 144
115 195 149
115 195 149
115 195 149
107 176 144
107 176 144
46 72 59
44 66 58
44 66 58
46 72 59
44 66 58
39 59 43
39 59 43
39 59 43
39 59 43
39 59 43
39 59 43
39 59 43
37 53 42
39 59 43
37 53 42
37 53 42
39 59 43
46 72 59
44 66 58
44 66 58
44 66 58
44 66 58
44 66 58
44 66 58
46 72 60
44 66 58
46 72 60
44 66 58
47 72 60
47 72 60
47 72 60
44 66 58
44 66 58
44 66 58
44 66 58
108 176 145
108 176 145
40 60 44
40 60 44
38 54 43
40 60 45
38 54 43
40 60 45
39 55 45
41 61 46
41 61 46
39 55 45
41 61 46
41 61 46
41 61 46
39 55 45
39 55 45
116 196 151
116 196 151
109 176 146
117 196 151
117 196 151
41 57 47
41 57 47
41 57 47
41 57 47
43 63 49
43 63 49
43 63 49
43 63 49
43 63 49
41 57 48
41 58 48
41 58 48
41 58 48
41 58 48
41 58 48
44 64 49
44 64 50
44 64 50
44 64 50
44 64 50
42 58 48
42 58 49
42 58 49
42 59 49
42 59 49
42 59 49
42 59 49
42 58 49
42 58 48
44 64 49
44 64 50
42 58 48
42 58 48
42 58 48
44 64 50
42 58 48
51 77 66
52 77 66
52 77 66
52 77 66
52 77 66
52 77 66
42 58 49
42 58 48
42 58 48
42 58 48
42 58 48
42 58 48
42 58 49
42 58 49
42 58 49
42 58 48
42 58 48
42 58 48
41 58 48
44 64 49
42 58 48
42 58 48
42 58 48
44 64 50
42 58 48
44 64 50
42 58 49
44 64 50
44 64 50
44 64 50
45 64 50
44 64 50
44 64 50
44 64 50
118 196 153
111 177 148
118 196 153
111 177 148
111 177 148
111 177 148
118 196 153
111 177 148
118 196 153
118 196 153
118 196 153
118 196 153
111 177 148
87 135 97
94 154 102
45 65 51
45 65 51
43 60 50
45 65 52
113 178 150
120 196 155
120 196 155
120 196 155
120 196 155
113 178 150
44 60 51
44 60 51
44 60 51
44 60 50
43 60 50
43 60 50
43 60 50
104 164 112
104 164 112
104 164 112
49 69 55
44 61 51
44 60 51
44 60 51
44 60 51
44 60 51
44 60 51
44 60 51
104 164 112
105 164 112
118 196 153
118 196 153
51 73 66
51 73 66
45 65 52
43 60 50
43 60 50
42 58 49
42 58 49
42 58 49
42 58 49
117 196 152
117 196 152
117 196 152
117 196 152
117 196 152
117 196 152
110 176 147
109 176 147
48 69 62
48 69 62
50 75 63
50 75 63
50 75 63
47 69 62
47 69 62
47 69 62
47 69 62
41 61 46
41 61 46
41 61 46
41 61 46
40 60 45
40 60 45
40 60 45
40 60 45
40 60 45
38 54 43
40 60 45
38 54 43
37 54 43
37 54 43
40 60 44
37 54 43
37 54 43
37 54 43
39 59 44
39 59 44
39 59 44
39 59 44
39 59 44
37 53 42
39 59 44
37 53 42
39 59 44
37 53 42
37 53 42
37 53 42
37 53 42
39 59 44
37 53 42
39 59 44
39 59 44
39 59 43
39 59 43
39 59 43
39 59 43
93 143 102
40 57 46
40 60 44
40 60 44
37 54 43
40 60 44
40 60 44
37 54 43
40 60 44
108 176 145
108 176 145
108 176 145
108 176 145
108 176 145
108 176 145
91 153 97
83 133 92
37 53 43
37 53 43
37 53 43
37 53 43
37 53 42
101 163 107
38 54 44
38 54 44
38 54 44
38 54 44
38 54 44
38 54 44
101 163 108
48 74 62
48 74 62
48 74 62
48 74 62
109 176 146
116 196 151
108 176 146
108 176 146
108 176 146
108 176 146
108 176 146
108 176 146
116 196 150
116 196 150
116 196 150
116 196 150
116 196 150
108 176 145
108 176 145
108 176 145
48 73 61
116 196 150
108 176 145
108 176 145
116 196 150
116 196 150
48 73 61
48 73 61
48 73 61
48 73 61
38 54 43
38 54 43
38 54 43
38 54 43
38 54 43
38 54 44
38 54 43
37 53 42
37 53 42
37 53 42
37 53 42
39 59 44
37 53 42
36 53 42
115 195 149
115 195 149
90 152 96
90 152 96
90 152 96
36 52 41
38 58 43
39 58 43
39 58 43
39 59 43
36 53 42
39 59 43
39 59 43
44 65 57
44 65 57
46 71 59
44 65 57
46 71 59
44 65 57
46 71 59
44 66 57
46 71 59
46 72 59
46 72 59
46 72 59
46 72 59
44 66 58
44 66 58
44 66 58
44 66 58
44 66 58
44 66 58
46 72 59
107 176 145
115 196 150
115 196 150
108 176 145
108 176 145
115 196 150
108 176 145
108 176 145
108 176 145
108 176 145
108 176 145
115 196 150
38 54 43
38 54 43
40 60 45
40 60 45
40 60 45
41 61 46
41 61 46
41 61 46
39 55 45
39 55 45
41 61 46
39 55 45
41 61 47
41 61 47
109 176 146
109 176 146
109 176 146
116 196 151
85 134 94
85 134 94
41 57 47
41 57 47
41 57 47
43 63 49
43 63 49
43 63 49
43 63 49
43 63 49
41 58 48
41 58 48
41 58 48
41 58 48
42 58 48
42 58 48
44 64 50
44 64 50
44 64 50
44 64 50
44 64 50
42 58 49
42 58 49
42 59 49
42 59 49
42 59 49
42 59 49
42 59 49
42 58 49
42 58 48
44 64 50
42 58 48
42 58 48
42 58 48
42 58 49
42 58 49
42 58 48
42 58 48
118 196 152
118 196 152
49 71 64
51 77 66
52 77 66
52 77 66
42 58 48
42 58 48
42 58 48
42 58 48
42 58 49
42 58 49
42 59 49
42 58 49
42 58 48
42 58 48
42 58 48
41 58 48
42 58 48
44 64 50
42 58 48
42 58 48
42 58 48
44 64 50
44 64 50
44 64 50
44 64 50
44 64 50
45 65 51
45 64 50
44 64 50
44 64 50
44 64 50
44 64 50
42 58 48
44 64 50
44 64 50
44 64 50
44 64 50
44 64 50
44 64 50
111 177 148
111 177 148
111 177 148
111 177 148
118 196 153
118 196 153
111 177 148
45 65 51
45 65 52
45 65 52
113 178 150
113 178 150
120 196 155
113 178 150
120 196 155
120 196 155
120 196 155
44 60 51
44 60 51
44 60 51
44 60 51
44 60 51
44 60 50
43 60 50
104 164 112
104 164 112
104 164 112
49 69 55
49 69 56
46 66 53
44 61 51
44 60 51
44 60 51
46 66 52
44 60 51
104 164 112
118 196 153
53 78 67
51 72 66
53 78 67
51 72 66
53 78 67
43 60 50
43 60 50
45 65 52
42 59 49
42 58 49
42 58 49
41 57 47
41 57 47
41 57 47
41 57 47
41 57 47
109 176 147
117 196 151
50 75 63
50 75 63
47 69 62
49 75 63
49 75 63
49 75 63
47 69 61
47 69 61
47 69 61
49 74 63
41 61 46
41 61 46
41 61 46
41 61 46
40 60 45
40 60 45
40 60 45
40 60 45
40 60 45
40 60 45
38 54 43
38 54 43
38 54 43
38 54 43
37 54 43
37 54 43
40 60 44
37 54 43
40 60 44
37 54 43
37 53 43
39 59 44
39 59 44
39 59 44
39 59 44
37 53 42
37 53 42
37 53 42
37 53 42
37 53 42
37 53 42
37 53 42
39 59 44
39 59 44
37 53 42
39 59 44
39 59 44
39 59 44
39 59 43
93 143 102
40 57 46
45 67 59
45 66 59
45 66 59
47 72 60
108 176 145
108 176 145
93 143 102
37 54 43
40 60 44
40 60 44
40 60 44
40 59 44
40 59 44
40 59 44
37 54 43
37 53 43
37 53 43
39 59 44
39 59 44
37 53 43
101 163 107
38 54 44
38 54 44
38 54 44
38 54 44
38 54 44
38 54 44
101 163 108
116 196 150
116 196 150
116 196 150
116 196 150
116 196 150
116 196 150
108 176 145
108 176 145
108 176 145
108 176 145
116 196 150
108 176 145
108 176 145
116 196 150
116 196 150
116 196 150
108 176 145
116 196 150
108 176 145
108 176 145
108 176 145
108 176 145
108 176 145
108 176 145
116 196 150
116 196 150
47 73 61
47 73 61
38 54 44
38 54 44
47 73 61
45 67 59
47 73 61
45 67 59
47 73 61
47 73 61
38 54 43
37 53 42
39 59 44
37 53 42
37 53 42
37 53 43
37 53 43
36 53 42
36 52 41
36 52 41
36 52 41
39 58 43
36 52 41
39 58 43
39 59 43
36 53 42
39 59 43
39 59 43
39 59 43
39 59 43
39 59 43
107 175 144
107 175 144
107 175 144
107 175 144
107 175 144
115 195 149
107 176 144
115 195 149
115 195 149
115 195 149
115 195 149
115 195 149
115 195 149
107 176 144
107 176 144
107 176 144
107 176 144
107 176 144
107 176 144
107 176 144
115 195 149
115 195 149
107 176 144
107 176 144
107 176 144
115 196 149
115 196 149
107 176 145
107 176 145
115 196 150
83 132 91
90 152 96
39 59 43
40 60 45
38 54 43
40 60 45
46 68 60
48 74 62
48 74 62
46 68 60
48 74 62
46 68 60
48 74 62
49 74 62
109 176 146
116 196 151
109 176 146
39 56 45
39 56 45
40 56 46
40 56 46
40 56 46
41 57 47
41 57 47
41 57 47
43 63 49
43 63 49
43 63 49
43 63 49
43 63 49
41 58 48
41 58 48
41 58 48
42 58 48
42 58 48
42 58 48
44 64 50
44 64 50
44 64 50
44 64 50
44 64 50
42 58 49
42 59 49
42 59 49
42 59 49
42 59 49
42 59 49
42 59 49
42 58 49
42 58 48
42 58 48
42 58 48
42 58 48
42 58 49
42 58 49
42 58 49
42 58 48
42 58 48
41 58 48
86 135 96
41 58 48
41 58 48
42 58 48
42 58 48
42 58 48
42 58 48
52 77 66
52 77 66
52 77 66
52 77 66
50 71 65
52 77 66
42 58 48
42 58 48
42 58 48
42 58 48
42 58 48
44 64 50
42 58 48
44 64 50
42 58 49
42 58 49
42 59 49
42 59 49
44 64 50
45 65 51
45 65 51
45 64 50
44 64 50
44 64 50
44 64 50
44 64 50
44 64 50
42 58 49
44 64 50
44 64 50
44 64 50
44 64 50
44 64 50
44 64 50
44 64 50
118 196 153
111 177 148
111 177 148
111 177 148
111 177 148
111 177 148
111 177 148
46 65 52
112 178 150
113 178 150
113 178 150
113 178 150
113 178 150
120 196 155
120 196 155
49 69 55
44 60 51
44 60 51
44 60 51
44 60 51
44 60 51
44 60 50
43 60 50
104 164 112
104 164 112
49 69 55
49 69 56
53 78 68
53 78 68
53 78 68
53 78 67
118 196 153
118 196 153
118 196 153
51 72 66
51 72 66
50 72 65
50 72 65
52 78 67
52 78 67
50 72 65
52 77 66
52 77 66
42 59 49
42 59 49
42 58 49
41 57 47
41 57 47
41 57 47
41 57 47
117 196 151
117 196 151
116 196 151
116 196 151
116 196 151
109 176 146
116 196 151
109 176 146
109 176 146
47 68 61
49 74 62
47 68 61
49 74 62
41 61 46
41 61 46
41 61 46
41 61 46
40 60 45
40 60 45
38 54 43
38 54 43
40 60 45
40 60 45
40 60 45
40 60 45
38 54 43
38 54 43
38 54 43
38 54 43
40 60 44
40 60 44
40 60 44
40 60 44
40 60 44
40 59 44
39 59 44
39 59 44
39 59 44
37 53 43
39 59 44
39 59 44
39 59 44
37 53 42
37 53 42
37 53 42
37 53 42
39 59 44
39 59 44
39 59 44
37 53 42
39 59 44
39 59 44
93 143 102
108 176 145
108 176 145
108 176 145
108 176 145
108 176 145
108 176 145
108 176 145
93 143 102
40 60 44
40 60 44
40 60 44
40 60 44
40 60 44
40 60 44
40 60 44
40 60 44
40 59 44
37 54 43
37 54 43
37 53 43
37 53 43
101 163 107
38 54 44
38 54 44
38 54 44
38 54 44
38 54 44
38 54 44
101 163 108
116 196 150
116 196 150
108 176 145
116 196 150
116 196 150
116 196 150
91 153 98
91 153 98
91 153 98
40 60 45
40 60 45
38 54 44
38 54 44
38 54 44
38 54 44
38 54 44
38 54 44
40 60 45
40 60 45
40 60 45
40 60 45
40 60 45
40 60 45
40 60 45
38 54 44
38 54 44
38 54 44
38 54 44
38 54 44
38 54 44
47 73 60
47 73 60
45 67 59
47 73 60
45 67 59
47 73 60
47 73 60
37 53 43
37 53 43
37 53 43
39 59 44
39 59 44
37 53 43
36 53 42
36 52 41
39 58 43
36 53 41
36 53 42
39 59 43
39 59 43
36 53 42
39 59 43
39 59 43
39 59 43
39 59 43
39 59 43
39 59 43
107 175 144
107 175 144
107 175 144
107 175 144
107 175 144
115 195 149
107 175 144
115 195 149
115 195 149
107 175 144
107 175 144
107 175 144
107 175 144
115 195 149
107 175 144
115 195 149
107 175 144
115 195 149
115 195 149
115 195 149
107 176 144
107 176 144
107 176 144
107 176 144
107 176 144
107 176 144
107 176 144
39 59 43
39 59 43
39 59 43
39 59 43
37 53 42
83 133 92
40 60 45
40 60 45
38 54 43
46 68 60
116 196 151
109 176 146
109 176 146
116 196 151
116 196 151
116 196 151
116 196 151
116 196 151
116 196 151
116 196 151
40 56 45
40 56 46
42 62 47
40 56 46
41 57 47
41 57 47
41 57 47
43 63 49
43 63 49
43 63 49
43 63 49
43 63 49
43 63 49
41 58 48
41 58 48
51 76 65
51 76 65
51 76 65
51 77 65
49 71 64
49 71 64
49 71 64
49 71 64
49 71 64
52 77 66
52 77 66
52 77 66
52 77 66
52 77 66
52 77 66
42 59 49
42 58 49
42 58 48
42 58 48
42 58 48
42 58 49
42 58 49
42 58 49
42 58 49
42 58 48
42 58 48
41 58 48
41 58 48
44 64 49
42 58 48
42 58 48
42 58 48
42 58 48
42 58 48
41 58 48
118 196 153
51 77 65
52 77 66
52 77 66
52 77 66
50 71 64
42 58 48
42 58 48
42 58 48
44 64 50
42 58 48
42 58 48
42 58 49
44 64 50
42 59 49
44 64 50
42 59 49
42 59 49
45 65 51
45 65 51
45 64 50
44 64 50
44 64 50
44 64 50
44 64 50
44 64 50
44 64 50
44 64 50
44 64 50
42 59 49
44 64 50
44 64 50
44 64 50
44 64 50
44 64 50
94 154 101
111 177 148
118 196 153
118 196 153
118 196 153
111 177 148
118 196 153
119 197 154
119 197 154
119 197 154
120 197 154
120 197 154
120 197 154
120 197 155
49 69 55
44 60 51
44 60 51
44 60 51
44 60 51
44 60 51
44 60 51
44 60 50
97 145 107
104 164 112
53 78 67
53 78 67
118 196 153
118 196 153
111 177 148
118 196 153
118 196 153
111 177 148
118 196 153
111 177 148
111 177 148
118 196 153
111 177 148
118 196 153
118 196 153
52 77 66
52 77 66
52 77 66
42 59 49
42 59 49
42 59 49
41 57 47
41 57 47
41 57 47
41 57 47
85 134 94
85 134 94
40 56 46
40 56 46
40 56 46
40 56 46
116 196 151
116 196 151
49 74 62
49 74 62
49 74 62
49 74 62
46 68 61
48 74 62
46 68 60
46 68 60
46 68 60
40 60 45
38 54 44
38 54 44
40 60 45
40 60 45
40 60 45
40 60 45
38 54 43
38 54 43
38 54 43
38 54 43
40 60 45
38 54 43
40 60 44
37 54 43
40 60 44
40 60 44
40 60 44
40 59 44
40 59 44
37 53 43
39 59 44
39 59 44
37 53 43
39 59 44
37 53 42
37 53 42
37 53 42
37 53 42
39 59 44
37 53 42
39 59 44
39 59 44
39 59 44
39 59 44
39 59 44
108 176 145
108 176 145
108 176 145
108 176 145
108 176 145
115 195 150
108 176 145
93 143 102
40 60 45
40 60 44
40 60 44
40 60 44
37 54 43
40 60 44
37 54 43
37 54 43
40 60 44
40 60 44
37 54 43
37 54 43
37 54 43
101 163 107
48 73 61
45 67 59
48 73 61
45 67 59
116 196 150
116 196 150
101 163 108
38 54 44
38 54 44
38 54 44
38 54 44
38 54 44
38 54 44
40 60 45
40 60 45
40 60 45
40 60 45
40 60 45
40 60 45
38 54 44
38 54 44
38 54 44
38 54 44
38 54 44
38 54 44
40 60 45
40 60 45
40 60 45
40 60 45
40 60 45
40 60 45
38 54 44
38 54 44
38 54 44
38 54 44
38 54 44
38 54 44
37 54 43
108 176 145
47 72 60
47 72 60
47 72 60
47 72 60
47 72 60
39 59 44
37 53 43
37 53 43
37 53 43
37 53 43
37 54 43
37 53 42
39 59 43
36 53 42
39 59 43
36 53 42
39 59 43
36 53 42
36 53 42
39 59 43
36 53 42
39 59 43
39 59 43
39 59 43
39 59 43
38 58 42
38 58 42
38 58 42
38 58 42
36 52 41
38 58 42
38 58 42
107 175 144
107 175 144
107 175 144
114 195 149
107 175 144
107 175 144
107 175 144
107 175 144
115 195 149
107 175 144
115 195 149
115 195 149
115 195 149
115 195 149
115 195 149
107 175 144
107 175 144
107 176 144
107 176 144
107 176 144
39 59 43
39 59 43
37 53 42
39 59 43
37 53 42
40 60 45
40 60 45
40 60 45
38 54 43
108 176 145
108 176 145
108 176 145
108 176 146
108 176 146
108 176 146
116 196 150
109 176 146
109 176 146
116 196 151
84 133 93
84 133 93
42 62 47
42 62 47
40 56 46
50 76 64
50 76 64
50 76 64
50 76 64
48 70 63
48 70 63
48 70 63
48 70 63
48 70 63
49 70 63
51 76 65
51 76 65
51 76 65
51 76 65
51 76 65
51 76 65
49 71 64
49 71 64
110 177 148
49 71 64
49 71 64
51 77 65
51 77 66
52 77 66
52 77 66
52 77 66
52 77 66
42 58 49
42 58 48
42 58 48
42 58 49
42 58 49
42 58 49
42 59 49
42 58 49
42 58 48
42 58 48
41 58 48
41 58 48
44 64 49
42 58 48
42 58 48
42 58 48
42 58 48
42 58 48
41 58 48
41 58 48
111 177 148
118 196 153
51 77 65
51 77 65
52 77 65
52 77 66
44 64 50
52 77 66
52 77 66
50 71 64
52 77 66
52 77 66
52 77 66
50 72 65
52 78 66
50 72 65
50 72 65
50 72 65
50 72 65
45 64 50
44 64 50
44 64 50
44 64 50
42 58 48
44 64 50
42 58 49
44 64 50
44 64 50
45 65 51
44 64 50
44 64 50
44 64 50
44 64 50
44 64 50
42 58 48
42 58 48
118 197 153
118 197 153
118 197 153
118 197 153
118 197 153
118 197 153
118 197 153
112 178 150
119 197 154
119 197 154
119 197 154
112 178 150
49 69 55
49 69 55
44 60 51
44 60 51
44 60 51
44 60 51
44 60 51
44 60 51
104 164 112
118 196 153
118 196 153
111 177 148
118 196 153
118 196 153
118 196 153
111 177 148
111 177 148
118 196 153
111 177 148
111 177 148
118 196 153
118 196 153
111 177 148
50 71 65
50 71 64
50 71 64
49 71 64
49 71 64
51 77 66
51 77 65
49 71 64
51 77 65
41 57 47
41 57 47
41 57 47
40 56 46
40 56 46
40 56 46
40 56 46
40 56 46
116 196 151
116 196 151
49 74 62
48 74 62
109 176 146
116 196 151
116 196 151
109 176 146
109 176 146
46 68 60
48 73 61
46 68 60
46 67 60
40 60 45
40 60 45
40 60 45
40 60 45
38 54 43
38 54 43
40 60 45
38 54 43
40 60 45
40 60 45
38 54 43
38 54 43
38 54 43
38 54 43
37 54 43
37 54 43
40 60 44
37 54 43
40 60 44
40 59 44
37 54 43
39 59 44
37 53 43
47 72 60
47 72 60
44 66 58
44 66 58
47 72 60
44 66 58
44 66 58
44 66 58
44 66 58
44 66 58
115 195 150
93 143 102
39 59 44
39 59 44
39 59 44
39 59 44
39 59 44
39 59 43
37 53 42
93 143 102
38 54 43
40 60 45
38 54 43
38 54 43
38 54 43
40 60 44
40 60 44
40 60 44
37 54 43
40 60 44
37 54 43
40 60 44
37 54 43
101 163 107
115 196 150
115 196 150
115 196 150
108 176 145
115 196 150
115 196 150
101 163 108
38 54 44
38 54 44
38 54 44
38 54 44
38 54 44
38 54 44
40 60 45
40 60 45
40 60 45
40 60 45
40 60 45
40 60 45
38 54 44
38 54 44
38 54 44
38 54 44
38 54 44
38 54 44
40 60 45
40 60 45
40 60 45
40 60 45
40 60 45
40 60 45
38 54 44
38 54 44
38 54 44
38 54 44
38 54 44
38 54 44
38 54 43
37 53 43
37 53 43
39 59 44
37 53 43
39 59 44
37 53 43
47 72 60
44 66 58
44 66 58
47 72 60
47 72 60
47 72 60
37 53 42
36 53 42
39 59 43
36 53 42
39 59 43
36 53 42
36 53 42
39 59 43
39 59 43
39 59 43
39 59 43
37 53 42
39 59 43
39 59 43
38 58 42
38 58 42
36 52 41
38 58 42
38 58 42
38 58 42
38 58 42
38 58 42
114 195 149
107 175 144
107 175 144
107 175 144
114 195 149
107 175 144
107 175 144
114 195 149
107 175 144
114 195 149
114 195 149
107 175 144
114 195 149
107 175 144
107 175 144
115 195 149
107 175 144
107 175 144
115 196 149
107 175 144
39 59 43
37 53 42
37 53 42
39 59 44
47 73 61
45 67 59
45 67 59
108 176 145
108 176 145
116 196 150
116 196 150
116 196 150
116 196 150
116 196 150
116 196 150
41 61 46
41 61 46
39 55 44
39 55 44
39 55 44
40 56 46
40 56 46
42 62 47
117 196 152
117 196 152
117 196 152
117 196 152
117 196 152
110 176 147
110 177 147
110 177 147
110 177 147
110 177 147
110 177 147
117 196 152
117 196 152
117 196 152
117 196 152
117 196 152
117 196 152
110 177 147
110 177 147
110 177 147
49 71 64
49 71 64
51 77 65
51 77 65
51 77 65
51 77 65
49 71 64
49 71 64
52 77 66
52 77 66
52 77 66
52 77 66
52 77 66
52 77 66
42 58 49
42 58 48
42 58 48
41 58 48
42 58 48
42 58 48
42 58 48
42 58 48
44 64 50
42 58 48
42 58 48
42 58 48
41 58 48
41 58 48
41 58 48
44 63 49
41 58 48
42 58 48
42 58 48
42 58 48
41 58 48
52 77 66
49 71 64
50 71 64
52 77 66
52 77 66
52 77 66
50 72 65
52 77 66
50 72 65
52 78 66
50 72 65
50 72 65
44 64 50
44 64 50
44 64 50
44 64 50
44 64 50
42 59 49
44 64 50
42 59 49
45 65 51
44 64 50
44 64 50
44 64 50
44 64 50
44 64 50
42 58 48
42 58 48
41 58 48
41 58 48
118 197 153
118 197 153
118 197 153
118 197 153
118 197 153
118 197 153
118 197 153
119 197 154
119 197 154
88 136 98
49 69 55
49 69 55
53 78 67
53 78 67
53 78 67
53 78 67
53 78 67
118 196 153
111 177 148
111 177 148
118 196 153
111 177 148
111 177 148
111 177 148
111 177 148
118 196 153
118 196 153
118 196 153
118 196 152
111 177 148
118 196 152
110 177 148
52 77 66
49 71 64
49 71 64
49 71 64
49 71 64
117 196 152
117 196 152
49 71 64
51 76 65
51 76 65
41 58 48
41 57 47
41 57 47
40 56 46
42 62 47
40 56 46
40 56 46
116 196 151
116 196 151
116 196 151
116 196 151
116 196 151
116 196 151
116 196 151
108 176 146
108 176 146
48 73 61
46 67 60
48 73 61
46 67 60
45 67 60
40 60 45
48 73 61
45 67 59
45 67 59
45 67 59
45 67 59
45 67 59
47 73 61
47 73 60
47 73 60
45 67 59
45 67 59
45 67 59
47 72 60
45 66 59
45 66 59
45 66 59
45 66 58
47 72 60
44 66 58
47 72 60
47 72 60
47 72 60
47 72 60
46 72 60
46 72 60
44 66 58
44 66 58
44 66 58
46 72 59
107 176 145
107 176 145
107 176 145
107 176 144
93 143 102
39 59 44
39 59 44
37 53 42
39 59 44
39 59 44
39 59 44
39 59 44
93 143 102
40 60 45
40 60 45
40 60 45
38 54 43
38 54 43
40 60 45
40 60 45
40 60 45
38 54 43
37 54 43
37 54 43
37 54 43
37 54 43
83 133 92
115 196 150
115 196 150
115 196 150
115 196 150
115 196 150
115 196 150
101 163 108
38 55 44
38 55 44
38 55 44
38 55 44
38 55 44
38 54 44
40 60 45
40 60 45
40 60 45
40 60 45
40 60 45
40 60 45
38 54 44
38 54 44
38 54 44
38 54 44
38 54 44
38 54 44
40 60 45
40 60 45
40 60 45
40 60 45
40 60 45
40 60 45
38 54 44
38 54 44
38 54 44
38 54 44
38 54 44
38 54 44
38 54 43
37 54 43
37 54 43
37 54 43
40 59 44
37 54 43
37 54 43
115 195 150
108 176 145
46 72 59
46 72 59
46 72 59
44 66 58
37 53 42
36 53 42
36 53 42
37 53 42
37 53 42
37 53 42
37 53 42
37 53 42
39 59 43
39 59 43
37 53 42
39 59 43
39 59 43
39 59 43
38 58 42
38 58 42
38 58 42
38 58 42
38 58 42
38 58 42
38 58 43
38 58 42
107 175 144
114 195 149
89 152 95
89 152 95
37 57 42
35 51 40
35 51 40
114 195 149
107 175 144
107 175 144
107 175 144
107 175 144
107 175 144
107 175 144
38 58 42
36 52 41
38 58 42
38 58 42
38 58 42
38 58 42
39 59 44
39 59 44
39 59 44
39 59 44
45 67 59
108 176 145
108 176 145
108 176 145
108 176 145
116 196 150
116 196 150
116 196 150
116 196 150
108 176 145
116 196 150
116 196 150
39 55 44
39 55 44
39 55 44
39 55 44
40 56 46
40 56 46
40 56 46
117 196 151
117 196 151
117 196 151
117 196 152
117 196 152
117 196 152
85 134 95
93 154 100
43 63 48
43 63 48
43 63 48
41 57 47
41 57 47
41 57 47
41 57 47
41 57 47
43 63 49
41 57 47
43 63 49
43 63 49
44 63 49
44 64 49
44 64 49
93 154 100
110 177 148
49 71 64
49 71 64
49 71 64
49 71 64
51 77 65
51 77 66
52 77 66
52 77 66
52 77 66
52 77 66
42 58 48
42 58 48
42 58 48
44 64 50
42 58 48
42 58 48
42 58 48
44 64 50
42 58 48
42 58 48
42 58 48
41 58 48
43 63 49
44 63 49
41 58 48
42 58 48
42 58 48
42 58 48
42 58 48
41 58 48
41 58 48
111 177 148
118 197 153
118 197 153
118 197 153
118 197 153
111 177 148
118 197 153
111 177 148
50 72 65
52 77 66
50 72 65
50 72 65
50 72 65
44 64 50
44 64 50
44 64 50
44 64 50
45 64 51
51 72 65
45 65 51
45 64 50
44 64 50
44 64 50
44 64 50
44 64 50
42 58 48
42 58 48
41 58 48
41 58 48
41 58 48
86 135 96
118 197 153
118 197 153
111 177 148
118 197 153
111 177 148
111 177 148
118 197 153
118 197 153
53 78 67
53 78 67
53 78 67
111 177 148
111 177 148
111 177 148
118 196 153
111 177 148
111 177 148
111 177 148
118 196 153
118 196 153
111 177 148
118 196 153
118 196 152
118 196 152
118 196 152
110 177 148
118 196 152
118 196 152
110 177 147
117 196 152
117 196 152
110 176 147
110 176 147
110 176 147
110 176 147
117 196 152
49 70 63
51 76 65
51 76 65
49 70 63
41 58 48
41 58 48
41 57 48
41 57 47
42 62 48
40 56 46
40 56 46
41 61 46
39 55 45
39 55 44
39 55 44
41 61 46
39 55 44
39 55 44
41 61 46
41 61 46
38 55 44
41 61 46
38 55 44
40 60 45
45 67 59
45 67 59
45 67 59
45 67 59
45 67 59
45 67 59
45 67 59
47 73 60
47 72 60
47 72 60
45 66 59
47 72 60
47 72 60
115 195 150
108 176 145
108 176 145
108 176 145
108 176 145
115 195 150
108 176 145
108 176 145
108 176 145
108 176 145
115 195 150
115 195 150
115 195 150
107 176 145
115 195 149
107 176 144
107 176 144
115 195 149
107 176 144
107 176 144
107 176 144
115 195 149
93 143 102
39 59 44
39 59 44
39 59 44
39 59 44
39 59 44
39 59 44
39 59 44
93 143 102
41 57 46
45 67 59
45 67 59
45 67 59
45 67 59
45 67 59
45 67 59
47 73 60
47 72 60
47 72 60
47 72 60
47 72 60
115 196 150
101 163 107
37 54 43
37 54 43
37 54 43
40 60 44
40 60 44
37 54 43
101 163 108
38 55 44
38 55 44
38 55 44
38 55 44
38 55 44
38 55 44
41 60 45
40 60 45
40 60 45
40 60 45
40 60 45
40 60 45
38 55 44
38 55 44
38 55 44
38 55 44
38 55 44
38 55 44
40 60 45
40 60 45
40 60 45
40 60 45
40 60 45
40 60 45
38 55 44
38 55 44
38 55 44
38 55 44
38 55 44
38 55 44
38 54 44
37 54 43
37 54 43
37 54 43
37 54 43
37 54 43
37 54 43
115 195 149
107 176 145
46 72 59
46 72 59
39 59 43
37 53 42
37 53 42
46 72 59
46 72 59
46 72 59
44 66 58
46 72 59
46 72 59
44 66 58
44 66 58
44 66 58
44 66 58
46 72 59
46 72 59
46 72 59
38 58 42
38 58 42
38 58 42
38 58 43
38 58 43
38 58 43
36 52 41
38 58 42
37 57 41
35 51 40
37 57 42
37 57 42
37 57 42
37 57 42
38 57 42
37 57 41
107 175 144
107 175 144
107 175 144
107 175 144
107 175 144
107 175 144
38 58 42
36 52 41
38 58 42
36 52 41
38 58 42
38 58 42
39 59 44
37 53 42
39 59 44
37 53 42
108 176 145
108 176 145
108 176 145
108 176 145
108 176 145
115 196 150
108 176 145
115 196 150
115 196 150
115 196 150
116 196 150
116 196 150
39 55 44
39 55 44
39 55 44
39 55 45
49 75 63
117 196 151
117 196 151
117 196 151
109 176 146
109 176 147
109 176 147
109 176 147
109 176 147
110 176 147
43 63 48
43 63 48
43 63 48
41 57 47
41 57 47
41 57 47
41 57 47
41 57 47
41 57 47
41 57 48
43 63 49
43 63 49
44 63 49
44 64 49
44 64 49
44 64 49
43 63 49
93 154 100
110 177 147
110 177 147
110 177 148
49 71 64
49 71 64
49 71 64
51 77 65
51 77 65
51 77 65
52 77 66
52 77 66
52 77 66
42 58 48
44 64 50
44 64 50
44 64 50
42 58 49
44 64 50
42 58 48
42 58 48
42 58 48
41 58 48
44 63 49
41 58 48
44 64 49
44 64 50
42 58 48
42 58 48
42 58 48
41 58 48
41 58 48
41 57 47
111 177 148
111 177 148
111 177 148
111 177 148
111 177 148
118 197 153
118 197 153
118 197 153
118 197 153
50 71 64
52 77 66
50 72 65
52 77 66
50 72 65
50 72 65
52 78 66
52 78 67
50 72 65
50 72 65
51 72 65
44 64 50
44 64 50
44 64 50
41 57 47
111 177 148
118 197 153
111 177 148
118 197 153
111 177 148
84 133 93
117 197 152
117 197 152
117 197 152
117 197 152
117 197 152
117 197 152
110 177 147
110 177 147
118 196 153
118 196 153
118 196 153
118 196 153
118 196 153
111 177 148
118 196 153
111 177 148
111 177 148
118 196 153
111 177 148
110 177 148
118 196 152
110 177 148
87 135 97
87 135 97
87 135 96
42 59 49
42 58 49
44 64 50
44 64 50
44 64 50
44 64 50
44 64 50
44 64 50
44 64 50
42 58 48
42 58 48
42 58 48
41 58 48
41 58 48
41 58 48
50 76 64
50 76 64
50 76 64
50 75 64
40 56 46
40 56 46
40 56 46
39 55 45
41 61 46
39 55 45
41 61 46
39 55 44
39 55 44
41 61 46
41 61 46
41 61 46
41 61 46
41 61 46
41 61 46
38 55 44
108 176 145
108 176 145
108 176 145
108 176 145
108 176 145
108 176 145
108 176 145
115 196 150
115 195 150
115 195 150
115 195 150
115 195 150
108 176 145
108 176 145
115 195 150
115 195 150
108 176 145
108 176 145
115 195 150
115 195 150
115 195 150
115 195 149
115 195 149
115 195 149
107 176 144
107 176 144
107 176 144
39 58 43
36 52 41
38 58 43
38 58 43
36 52 41
38 58 43
38 58 43
93 142 101
93 143 102
39 59 44
39 59 44
39 59 44
37 53 42
37 53 42
39 59 44
39 59 44
93 143 102
45 67 59
45 67 59
45 67 59
47 72 60
45 66 59
45 66 59
45 66 59
47 72 60
47 72 60
115 195 150
115 195 150
108 176 145
115 195 150
101 163 107
38 54 43
38 54 43
40 60 44
40 60 44
37 54 43
37 54 43
101 163 107
38 55 44
38 55 44
38 55 44
38 55 44
38 55 44
38 55 44
41 61 46
41 61 46
41 61 46
41 61 46
41 61 46
41 60 45
38 55 44
38 55 44
38 55 44
38 55 44
48 73 61
48 73 61
46 67 60
46 67 60
46 67 60
46 67 60
46 67 60
46 67 60
48 73 61
48 73 61
48 73 61
48 73 61
48 73 61
48 73 61
48 73 61
37 54 43
37 54 43
37 54 43
40 60 44
37 54 43
37 54 43
37 53 42
39 59 43
37 53 42
37 53 42
39 59 43
39 59 43
37 53 42
46 71 59
46 71 59
46 71 59
46 71 59
46 71 59
46 71 59
44 65 57
46 71 59
44 65 57
44 65 57
44 65 57
44 65 57
46 71 59
38 58 43
36 52 41
38 58 43
38 58 43
36 52 41
38 58 43
38 58 43
38 58 42
35 51 40
35 51 40
37 57 42
35 51 40
35 51 40
38 58 42
38 58 42
37 57 41
107 175 144
107 175 144
107 175 144
107 175 144
107 175 144
107 175 144
107 175 144
38 58 42
38 58 42
38 58 42
38 58 42
38 58 42
46 72 60
47 72 60
44 66 58
108 176 145
115 196 150
108 176 145
115 196 150
108 176 145
115 196 150
115 196 150
108 176 145
40 60 44
37 54 43
40 60 44
38 54 43
38 54 43
41 61 46
39 55 45
39 55 45
84 134 93
116 196 151
116 196 151
116 196 151
117 196 151
109 176 146
109 176 146
109 176 146
109 176 146
109 176 146
109 176 147
43 63 48
41 57 47
43 63 48
43 63 49
41 57 47
41 57 47
41 57 47
41 57 47
41 57 48
41 58 48
43 63 49
44 63 49
44 64 49
44 64 49
44 64 50
44 64 49
43 63 49
43 63 49
43 63 49
43 63 49
43 63 49
41 57 47
43 63 49
43 63 49
43 63 49
110 177 148
49 71 64
49 71 64
49 71 64
49 71 64
49 71 64
52 77 66
52 77 66
52 77 66
52 77 66
52 77 66
52 77 66
42 58 48
42 58 48
41 58 48
41 58 48
44 64 49
42 58 48
44 64 50
42 58 48
42 58 48
42 58 48
41 58 48
41 58 48
41 57 47
43 63 49
43 63 49
111 177 148
111 177 148
111 177 148
118 197 153
111 177 148
118 197 153
118 197 153
118 197 153
118 197 153
118 197 153
111 178 148
118 197 153
111 178 148
111 178 148
50 72 65
52 78 66
50 72 65
50 72 65
50 72 65
44 64 50
44 64 50
41 57 47
40 57 47
40 57 46
118 197 153
118 197 153
118 197 153
39 55 44
38 55 44
117 197 152
117 197 152
117 197 152
117 197 152
117 197 152
110 177 147
117 197 152
43 60 50
43 60 50
43 60 50
43 59 50
43 59 50
45 65 51
45 65 51
45 65 51
45 65 51
45 65 51
45 65 51
45 65 51
43 59 49
42 59 49
42 59 49
42 59 49
42 59 49
42 59 49
42 59 49
44 64 50
44 64 50
44 64 50
44 64 50
44 64 50
44 64 50
44 64 50
42 58 48
42 58 48
42 58 48
42 58 48
42 58 48
117 196 152
48 70 62
50 75 64
48 69 62
50 75 64
40 56 46
42 62 48
40 56 46
42 62 48
41 61 46
41 61 46
41 61 46
41 61 46
39 55 44
39 55 44
39 55 44
41 61 46
41 61 46
38 55 44
41 61 46
108 176 145
108 176 145
108 176 145
108 176 145
91 153 97
91 153 97
91 153 97
108 176 145
108 176 145
108 176 145
108 176 145
108 176 145
115 195 150
108 176 145
115 195 150
115 195 150
115 195 150
115 195 149
107 176 144
115 195 149
107 176 144
107 176 144
107 176 144
107 176 144
107 176 144
107 176 144
115 195 149
107 175 144
39 56 45
39 59 43
36 53 42
39 58 43
38 58 43
38 58 43
36 52 41
38 58 43
93 143 102
40 56 45
37 53 42
39 59 44
39 59 44
39 59 44
37 53 42
39 59 44
93 143 102
108 176 145
108 176 145
115 195 150
108 176 145
115 195 150
108 176 145
115 195 150
115 195 150
115 195 150
115 195 150
115 195 150
115 195 150
115 195 150
101 163 107
38 54 43
40 60 45
38 54 43
38 54 43
38 54 43
40 60 45
101 163 107
48 73 61
48 73 61
48 73 61
48 73 61
48 73 61
48 73 61
46 67 60
46 67 60
46 67 60
45 67 60
45 67 60
45 67 60
48 73 61
48 73 61
48 73 61
48 73 61
48 73 61
48 73 61
45 67 59
45 67 59
45 67 59
45 67 59
45 67 59
45 67 59
45 67 59
47 73 61
47 73 61
47 73 61
47 73 61
47 73 61
47 73 61
40 60 44
37 54 43
40 60 44
38 54 43
38 54 43
38 54 43
37 53 42
37 53 42
37 53 42
37 53 42
37 53 42
39 59 43
37 53 42
115 195 149
107 175 144
107 175 144
46 71 59
46 71 59
46 71 59
43 65 57
43 65 57
43 65 57
43 65 57
46 71 59
43 65 57
46 71 59
38 58 43
38 58 43
38 58 43
38 58 43
38 58 43
44 65 57
44 65 57
38 58 42
35 51 40
35 51 40
38 57 42
38 58 42
38 58 42
35 52 40
38 58 42
37 57 41
37 57 41
114 195 149
114 195 149
114 195 149
114 195 149
106 175 144
107 175 144
114 195 149
38 58 42
38 58 42
38 58 42
38 58 42
46 72 59
115 196 150
108 176 145
108 176 145
108 176 145
115 196 150
115 196 150
108 176 145
115 196 150
115 196 150
115 196 150
40 60 44
40 60 44
38 54 43
38 54 43
40 60 45
41 61 46
41 61 46
39 55 45
116 196 151
116 196 151
116 196 151
116 196 151
116 196 151
116 196 151
109 176 146
85 134 94
85 134 94
42 62 47
42 62 47
42 62 47
43 63 48
43 63 49
43 63 49
41 57 47
43 63 49
41 57 47
41 58 48
41 58 48
41 58 48
44 63 49
44 64 49
44 64 49
42 58 48
44 64 50
44 64 49
43 63 49
43 63 49
43 63 49
43 63 49
43 63 49
41 57 47
41 58 48
43 63 49
43 63 49
43 63 49
110 177 148
110 177 148
111 177 148
49 71 64
49 71 64
49 71 64
51 77 65
52 77 65
52 77 66
52 77 66
52 77 66
52 77 66
42 58 48
41 58 48
42 58 48
42 58 48
42 58 48
42 58 48
42 58 48
42 58 48
42 58 48
41 58 48
41 58 48
41 57 48
43 63 49
43 63 49
43 63 48
118 197 153
111 177 148
111 177 148
111 177 148
118 197 153
118 197 153
118 197 153
118 197 153
118 197 153
118 197 153
111 178 148
118 197 153
118 197 153
111 178 148
111 178 148
50 72 65
50 72 65
50 72 65
52 78 66
41 57 47
41 57 47
40 57 47
40 57 46
40 57 46
118 197 153
118 197 153
39 55 44
38 55 44
38 55 44
38 55 44
117 197 152
117 197 152
110 177 147
117 197 152
110 177 147
43 60 50
43 60 50
43 60 50
43 60 50
43 59 50
43 59 50
45 65 51
45 65 51
45 65 51
45 65 51
45 65 51
45 65 51
45 65 51
43 59 49
42 59 49
42 59 49
42 59 49
42 59 49
42 59 49
42 59 49
44 64 50
44 64 50
44 64 50
44 64 50
44 64 50
44 64 50
44 64 50
42 58 48
42 58 48
42 58 48
117 196 151
50 75 64
50 75 64
40 57 47
40 57 46
40 57 46
47 69 62
49 75 63
49 75 63
49 75 63
39 55 45
41 61 46
39 55 45
39 55 45
39 55 45
39 55 45
41 61 46
41 61 46
41 61 46
41 61 46
41 61 46
40 60 44
40 60 44
40 60 44
40 59 44
40 59 44
39 59 44
108 176 145
108 176 145
115 195 150
115 195 150
108 176 145
107 176 145
107 176 145
115 195 149
115 195 149
107 176 144
115 195 149
115 195 149
107 176 144
115 195 149
107 176 144
115 195 149
107 175 144
107 175 144
107 175 144
107 175 144
107 175 144
93 142 101
39 56 45
39 59 43
39 59 43
36 53 42
39 59 43
39 58 43
36 52 41
38 58 43
93 143 101
40 56 45
39 59 44
37 53 43
39 59 44
39 59 44
37 53 42
39 59 44
83 133 92
115 195 150
108 176 145
115 195 150
115 195 150
115 195 150
115 195 150
37 53 42
37 53 42
37 53 42
39 59 44
37 53 42
37 53 42
39 59 44
101 163 107
38 54 43
40 60 45
38 54 43
38 54 43
40 60 45
38 54 43
101 163 107
48 73 61
48 73 61
48 73 61
116 196 150
116 196 150
116 196 150
108 176 145
108 176 145
108 176 145
108 176 145
108 176 145
108 176 145
116 196 150
116 196 150
116 196 150
115 196 150
115 196 150
115 196 150
108 176 145
108 176 145
108 176 145
108 176 145
45 67 59
45 67 59
45 67 59
47 73 60
47 73 60
47 73 60
47 73 60
47 73 60
47 73 60
38 54 43
40 60 45
47 73 60
47 73 60
47 73 60
47 73 60
37 53 42
37 53 42
39 59 43
37 53 42
37 53 42
37 53 42
39 59 44
36 52 41
36 52 41
38 58 42
36 52 41
36 52 41
36 52 41
36 52 41
115 195 149
115 195 149
45 71 58
45 71 58
45 71 58
45 71 58
45 71 58
43 65 57
43 65 57
46 71 58
46 71 58
43 65 57
43 65 57
38 58 42
38 57 42
38 58 42
38 58 42
38 58 42
38 58 42
38 58 42
35 52 40
37 57 41
35 51 39
114 195 148
106 175 143
114 195 148
106 175 143
114 195 148
114 195 148
114 195 148
38 58 42
38 58 42
38 58 43
38 58 43
107 176 144
107 176 144
115 196 149
107 176 145
108 176 145
108 176 145
115 196 150
115 196 150
108 176 145
115 196 150
115 196 150
115 196 150
38 54 43
38 54 43
38 54 43
38 54 43
48 74 62
48 74 62
116 196 151
116 196 151
39 55 45
39 55 45
39 55 45
39 56 45
39 56 45
42 62 47
42 62 47
39 56 45
42 62 47
40 56 46
42 62 47
43 63 49
43 63 49
43 63 49
43 63 49
41 57 47
41 58 48
41 58 48
41 58 48
41 58 48
44 64 49
44 64 49
44 64 50
44 64 50
44 64 50
44 64 49
43 63 49
43 63 49
43 63 49
43 63 49
43 63 49
43 63 49
43 63 49
44 63 49
43 63 49
43 63 49
43 63 48
110 177 148
110 177 148
111 177 148
49 71 64
49 71 64
49 71 64
51 77 65
51 77 65
49 71 64
49 71 64
49 71 64
50 71 64
52 77 66
52 77 66
52 77 66
52 77 66
52 77 66
52 77 66
42 58 48
42 58 48
41 58 48
41 58 48
43 63 49
43 63 49
43 63 49
43 63 48
43 63 48
85 134 95
118 197 153
118 197 153
118 197 153
118 197 153
118 197 153
118 197 153
111 178 148
111 178 148
111 178 148
111 178 148
111 178 148
111 178 148
111 178 148
118 197 153
52 77 66
52 77 66
52 78 66
110 177 147
118 197 152
118 197 152
110 177 148
118 197 152
110 177 148
39 55 44
39 55 44
38 55 44
38 55 44
38 55 44
38 54 44
84 133 93
117 197 152
117 197 152
117 197 152
43 60 50
43 60 50
43 60 50
43 60 50
43 60 50
43 60 50
45 65 51
45 65 51
45 65 51
45 65 51
45 65 51
45 65 51
45 65 51
43 59 49
43 59 49
43 59 49
42 59 49
42 59 49
42 59 49
42 59 49
44 64 50
44 64 50
44 64 50
44 64 50
44 64 50
44 64 50
44 64 50
42 58 48
42 58 48
42 58 48
41 57 47
41 57 47
40 57 47
40 57 47
40 57 47
49 75 63
47 69 61
49 75 63
49 75 63
47 69 61
39 55 45
39 55 45
39 55 45
39 55 45
39 55 45
39 55 45
39 55 45
41 61 46
41 61 46
39 55 44
41 61 46
40 60 44
40 60 44
40 60 44
40 60 44
40 60 44
115 195 150
115 195 150
107 176 145
107 176 144
107 176 144
107 176 144
107 176 144
115 195 149
115 195 149
107 176 144
115 195 149
115 195 149
115 195 149
115 195 149
115 195 149
107 175 144
107 175 144
107 175 144
107 175 144
107 175 144
115 195 149
107 175 144
93 142 101
39 56 45
39 59 43
39 59 43
39 59 43
39 59 43
39 59 43
36 53 42
39 58 43
93 143 101
40 56 45
44 66 58
44 66 58
44 66 58
108 176 145
108 176 145
108 176 145
108 176 145
115 195 150
108 176 145
115 195 150
115 195 150
115 195 150
107 176 145
39 59 44
37 53 42
37 53 42
37 53 42
37 53 42
37 53 42
37 53 42
101 163 107
38 54 43
38 54 43
38 54 43
40 60 45
38 54 43
38 54 43
84 133 92
116 196 150
116 196 150
116 196 150
115 196 150
115 196 150
115 196 150
108 176 145
108 176 145
108 176 145
108 176 145
108 176 145
108 176 145
115 196 150
91 153 97
84 133 92
38 54 43
38 54 43
40 60 45
40 60 45
40 60 45
40 60 45
40 60 45
38 54 43
38 54 43
40 60 45
108 176 145
45 66 59
45 66 59
45 66 59
45 66 59
45 66 59
47 72 60
47 72 60
47 72 60
47 72 60
47 72 60
47 72 60
37 53 42
37 53 42
39 59 44
37 53 42
39 59 44
37 53 42
37 53 42
36 52 41
36 52 41
36 52 41
36 52 41
36 52 41
36 52 41
36 52 41
107 175 144
114 195 149
114 195 149
114 195 149
114 195 149
114 195 149
114 195 149
114 195 149
107 175 144
43 65 57
43 65 57
43 65 57
45 71 58
45 71 58
35 52 40
38 58 42
38 58 42
35 52 40
38 58 42
38 58 42
38 58 42
37 57 41
35 51 39
34 50 39
114 195 148
114 195 148
106 175 143
114 195 148
114 195 148
114 195 148
106 175 143
36 52 41
38 58 43
44 65 57
115 196 149
115 196 149
115 196 149
115 196 149
115 196 149
115 196 149
36 53 42
36 53 42
36 53 42
36 53 42
37 53 42
37 53 42
40 60 45
38 54 43
38 54 43
38 54 43
116 196 151
116 196 151
116 196 151
116 196 151
116 196 151
41 61 47
39 56 45
39 56 45
39 56 45
39 56 45
40 56 45
42 62 47
42 62 47
42 62 47
42 62 47
43 63 49
49 70 63
51 76 65
51 76 65
51 76 65
51 76 65
49 71 64
51 76 65
49 71 64
49 71 64
51 77 65
49 71 64
49 71 64
49 71 64
44 64 49
43 63 49
43 63 49
43 63 49
41 57 47
43 63 49
41 58 48
44 63 49
44 64 49
43 63 49
43 63 49
43 63 48
41 57 47
43 63 48
43 63 49
41 57 47
43 63 49
43 63 49
43 63 49
111 177 148
111 177 148
49 71 64
49 71 64
49 71 64
49 71 64
52 77 66
52 77 66
52 77 66
52 77 66
52 77 66
52 77 66
52 77 66
41 58 48
41 58 48
43 63 49
43 63 49
43 63 49
43 63 48
43 63 48
40 57 47
40 57 46
111 178 148
118 197 153
118 197 153
118 197 153
111 178 148
111 178 148
118 197 153
111 178 148
111 178 148
118 197 153
111 178 148
111 178 148
111 178 148
118 197 153
118 197 153
85 134 94
39 56 45
85 134 94
118 197 152
110 178 147
110 178 147
110 178 148
83 133 92
117 197 151
117 197 151
117 197 151
117 197 151
117 197 152
117 197 152
117 197 152
110 177 147
110 177 147
44 60 50
43 60 50
43 60 50
43 60 50
43 60 50
43 60 50
43 60 50
45 65 51
45 65 51
45 65 51
45 65 51
45 65 51
45 65 51
45 65 51
43 59 49
43 59 49
43 59 49
42 59 49
42 59 49
42 59 49
44 64 50
44 64 50
44 64 50
44 64 50
44 64 50
44 64 50
44 64 50
42 58 48
42 58 48
42 58 48
41 57 47
41 57 47
41 57 47
41 57 47
116 196 151
109 176 146
49 74 63
49 74 63
49 74 63
47 68 61
39 55 45
41 61 46
39 55 45
39 55 45
39 55 45
41 61 46
41 61 46
41 61 46
39 55 45
41 61 46
39 55 44
40 60 45
40 60 45
37 54 43
40 60 44
40 60 44
115 195 149
115 195 149
107 176 144
107 176 144
90 152 96
90 152 96
38 58 43
107 175 144
107 175 144
107 175 144
107 175 144
107 175 144
107 175 144
107 175 144
38 58 42
38 58 42
38 58 42
38 58 42
36 52 41
36 52 41
38 58 42
38 58 42
93 142 101
93 142 101
39 59 43
39 59 43
39 59 43
39 59 43
39 59 43
39 59 43
39 59 43
93 142 101
108 176 145
108 176 145
108 176 145
108 176 145
115 195 150
107 176 145
107 176 145
115 195 149
115 195 149
107 176 144
115 195 149
115 195 149
115 195 149
115 195 149
42 62 47
37 53 42
37 53 42
39 59 44
37 53 42
39 59 44
37 53 42
101 163 107
47 73 61
47 73 61
47 73 61
47 73 61
47 73 61
47 73 60
115 196 150
108 176 145
108 176 145
108 176 145
108 176 145
108 176 145
108 176 145
40 60 45
38 54 43
40 60 45
40 60 45
40 60 45
40 60 45
38 54 43
38 54 43
38 54 43
38 54 43
38 54 43
38 54 43
40 60 45
40 60 45
38 54 43
40 60 45
40 60 45
40 60 45
40 60 45
108 176 145
108 176 145
108 176 145
44 66 58
44 66 58
44 66 58
47 72 60
47 72 60
47 72 60
47 72 60
47 72 60
47 72 60
37 53 42
37 53 42
37 53 42
39 59 44
37 53 42
37 53 42
37 53 42
36 52 41
36 52 41
38 58 43
38 58 43
36 52 41
36 52 41
36 52 41
35 52 40
114 195 149
114 195 149
107 175 144
114 195 149
107 175 144
114 195 149
107 175 144
107 175 144
45 71 58
43 65 56
43 65 56
43 65 56
43 65 56
43 65 56
45 71 58
43 65 57
43 65 57
45 71 58
43 65 57
43 65 57
37 57 41
35 51 39
34 50 39
114 195 148
114 195 148
114 195 148
114 195 148
106 175 143
106 175 143
106 175 143
114 195 148
114 195 148
114 196 148
114 196 148
106 175 143
114 196 148
106 175 143
115 196 149
115 196 149
115 196 149
36 53 42
36 53 42
37 53 42
37 53 42
113 196 148
113 196 148
113 196 148
113 196 148
113 196 148
113 196 148
116 196 151
116 196 151
116 196 151
116 196 151
41 61 47
39 56 45
39 56 45
39 56 45
42 62 47
42 62 47
40 56 46
42 62 47
40 56 46
48 70 63
48 70 63
48 70 63
48 70 63
51 76 64
51 76 65
51 76 65
51 76 65
51 76 65
51 76 65
110 177 148
110 177 148
49 71 64
49 71 64
49 71 64
49 71 64
43 63 49
43 63 49
43 63 49
43 63 49
41 58 48
44 63 49
44 64 49
44 64 49
43 63 49
43 63 49
43 63 48
43 63 48
41 57 47
43 63 49
41 57 47
43 63 49
41 57 47
43 63 49
43 63 48
111 177 148
111 177 148
111 177 148
111 177 148
49 71 64
49 71 64
49 71 64
52 77 66
52 77 66
52 77 66
52 77 66
52 77 66
52 77 66
41 58 48
43 63 49
43 63 49
43 63 49
43 63 48
43 63 48
40 57 47
40 57 46
40 56 46
118 197 153
118 197 153
118 197 153
111 178 148
118 197 153
118 197 153
118 197 153
111 178 148
118 197 153
111 178 148
111 178 148
111 178 148
118 197 153
111 178 148
39 56 45
39 56 45
39 56 45
39 55 45
118 197 152
110 178 147
118 197 152
37 54 43
37 54 43
109 177 146
109 177 146
109 177 147
117 197 151
109 177 147
117 197 152
110 177 147
110 177 147
44 60 51
44 60 50
43 60 50
43 60 50
43 60 50
43 60 50
43 60 50
45 65 51
45 65 51
45 65 51
45 65 51
45 65 51
45 65 51
45 65 51
43 59 49
43 59 49
43 59 49
43 59 49
43 59 49
42 59 49
42 59 49
44 64 50
44 64 50
44 64 50
44 64 50
44 64 50
44 64 50
44 64 50
42 58 48
51 76 65
43 63 48
41 57 47
41 57 47
41 57 47
85 134 94
39 56 45
39 56 45
42 61 47
39 56 45
39 56 45
49 74 62
46 68 61
48 74 62
48 74 62
46 68 60
48 74 62
48 74 62
46 68 60
46 68 60
46 68 60
46 68 60
46 67 60
38 54 43
40 60 45
40 60 44
37 54 43
39 59 43
39 59 43
39 59 43
39 58 43
39 58 43
36 52 41
107 175 144
107 175 144
107 175 144
115 195 149
107 175 144
107 175 144
107 175 144
92 142 101
39 55 44
38 58 42
38 58 42
38 58 42
38 58 42
38 58 42
36 52 41
38 58 42
93 142 101
93 142 101
37 53 42
37 53 42
37 53 42
37 53 42
37 53 42
36 53 42
39 59 43
93 142 101
107 176 145
115 195 149
107 176 144
115 195 149
107 176 144
107 176 144
115 195 149
107 176 144
115 195 149
115 195 149
83 132 91
83 132 91
38 58 43
100 162 106
42 62 47
37 53 42
37 53 42
39 59 44
37 53 42
37 53 42
39 59 44
101 163 107
47 73 60
47 73 60
47 73 60
115 196 150
115 196 150
115 196 150
108 176 145
108 176 145
108 176 145
108 176 145
108 176 145
108 176 145
108 176 145
40 60 45
40 60 45
38 54 43
38 54 43
40 60 45
40 60 45
38 54 43
38 54 43
38 54 43
38 54 43
38 54 43
38 54 43
38 54 43
38 54 43
38 54 43
40 60 45
38 54 43
40 60 45
40 60 45
108 176 145
108 176 145
108 176 145
44 66 58
44 66 58
44 66 58
46 72 60
115 195 150
37 53 42
37 53 42
37 53 42
37 53 42
46 72 60
46 72 59
46 72 59
46 72 59
46 72 59
46 72 59
46 72 59
36 52 41
36 52 41
36 52 41
36 52 41
38 58 43
36 52 41
38 58 43
35 52 40
107 175 144
107 175 144
107 175 144
107 175 144
107 175 144
107 175 144
114 195 149
114 195 149
43 64 56
43 64 56
45 70 58
45 70 58
45 70 58
43 64 56
43 64 56
43 64 56
114 195 148
114 195 148
114 195 148
114 195 148
114 195 148
114 195 148
106 175 143
106 175 143
114 195 148
105 175 142
113 195 147
105 175 142
105 175 142
113 195 147
113 195 147
113 195 147
113 195 147
105 175 142
113 195 147
113 195 147
105 175 142
113 195 147
113 196 147
105 175 142
105 175 142
105 175 142
113 196 148
105 175 142
113 196 148
113 196 148
113 196 148
113 196 148
113 196 148
113 196 148
106 175 143
38 54 44
40 60 45
38 55 44
91 153 98
39 56 45
42 62 47
40 56 46
42 62 47
42 62 47
42 62 47
40 56 46
42 62 47
117 196 152
110 177 147
110 177 147
117 196 152
110 177 147
117 196 152
117 196 152
117 196 152
117 196 152
117 196 152
118 196 152
110 177 147
110 177 148
51 76 65
49 71 64
49 71 64
51 77 65
43 63 49
41 58 48
43 63 49
49 71 64
49 71 64
50 71 64
44 64 49
43 63 49
43 63 49
43 63 49
43 63 49
43 63 49
43 63 49
43 63 49
43 63 49
43 63 49
43 63 49
43 63 49
43 63 48
93 154 100
111 177 148
93 154 100
86 134 95
43 63 48
43 63 48
43 63 49
111 178 148
111 178 148
50 71 64
50 71 64
50 71 64
50 71 64
43 63 49
43 63 49
43 63 49
43 63 48
41 57 47
40 57 47
40 57 46
40 56 46
40 56 46
85 134 94
111 178 148
111 178 148
111 178 148
111 178 148
111 178 148
118 197 153
118 197 153
118 197 153
118 197 153
118 197 153
111 178 148
52 77 65
39 56 45
39 56 45
39 56 45
39 55 45
39 55 45
84 134 94
38 54 43
37 54 43
37 54 43
37 53 43
83 133 92
117 197 151
117 197 151
117 197 151
109 177 147
117 197 152
117 197 152
47 63 54
44 60 51
44 60 50
43 60 50
43 60 50
43 60 50
43 60 50
45 65 52
50 72 65
50 72 65
50 72 65
50 72 65
50 72 65
50 72 65
52 77 66
52 77 66
52 77 66
52 77 66
52 77 66
52 77 66
49 71 64
49 71 64
49 71 64
49 71 64
49 71 64
49 71 64
49 71 64
51 76 65
51 76 65
51 76 65
51 76 65
43 63 49
43 63 48
41 57 47
42 62 47
40 56 45
42 62 47
42 62 47
39 56 45
39 56 45
48 74 62
48 74 62
48 74 62
46 68 60
48 73 61
48 73 61
48 73 61
46 67 60
46 67 60
46 67 60
46 67 60
45 67 60
40 60 45
40 60 45
38 54 43
38 54 43
39 59 43
39 59 43
39 59 43
39 59 43
39 59 43
39 58 43
107 175 144
107 175 144
107 175 144
107 175 144
107 175 144
114 195 149
107 175 144
92 142 101
39 55 44
38 58 43
38 58 43
38 58 42
38 58 42
38 58 42
36 52 41
38 58 42
92 142 101
93 142 101
44 66 58
44 66 58
44 66 58
44 66 58
44 66 58
46 72 59
107 176 144
107 176 144
107 176 144
115 195 149
115 195 149
107 176 144
107 176 144
115 195 149
42 62 46
36 53 41
36 52 41
36 52 41
38 58 43
36 52 41
36 52 41
100 162 106
42 62 47
39 59 44
37 53 42
39 59 44
37 53 42
39 59 44
39 59 44
101 163 107
115 196 150
115 196 150
115 196 150
115 195 150
115 195 150
115 195 150
108 176 145
108 176 145
108 176 145
108 176 145
108 176 145
108 176 145
108 176 145
40 60 45
40 60 45
40 60 45
38 54 43
40 60 45
40 60 45
38 54 43
40 60 45
40 60 45
38 54 43
40 60 45
40 60 45
38 54 43
40 60 45
40 60 45
40 60 45
40 60 45
40 60 45
40 60 45
39 59 44
39 59 44
39 59 44
37 53 42
39 59 44
39 59 44
37 53 42
37 53 42
37 53 42
39 59 44
39 59 44
37 53 42
37 53 42
46 72 59
46 72 59
46 72 59
46 72 59
46 72 59
46 72 59
36 52 41
36 52 41
36 52 41
36 52 41
38 58 43
38 58 43
36 52 41
35 52 40
107 175 144
107 175 144
107 175 144
107 175 144
107 175 144
114 195 149
114 195 149
114 195 149
114 195 149
114 195 149
114 195 149
114 195 149
113 195 147
113 195 147
113 195 147
113 195 147
113 195 147
105 175 142
105 175 142
113 195 147
105 175 142
105 175 142
105 175 142
105 175 142
105 175 142
105 175 142
105 175 142
105 175 142
105 175 142
113 195 147
113 195 147
113 195 147
113 195 147
113 195 147
113 195 147
113 195 147
105 175 142
113 195 147
113 196 147
105 175 142
105 175 142
105 175 142
105 175 142
113 196 148
105 175 142
113 196 148
105 175 142
113 196 148
113 196 148
113 196 148
113 196 148
106 175 143
38 55 44
38 55 44
42 62 47
40 56 45
40 56 46
42 62 47
40 56 46
42 62 47
42 62 47
40 56 46
42 62 48
110 177 147
117 196 152
117 196 152
117 196 152
117 196 152
117 196 152
40 57 47
43 63 48
41 57 47
41 57 47
41 57 47
41 57 47
118 196 152
118 196 152
51 76 65
51 76 65
51 76 65
51 76 65
49 71 64
49 71 64
51 77 65
49 71 64
49 71 64
49 71 64
43 63 49
43 63 49
43 63 49
43 63 49
43 63 49
43 63 49
43 63 49
43 63 49
43 63 49
43 63 49
43 63 49
43 63 48
43 63 48
43 63 48
43 63 48
43 63 48
41 57 47
41 57 47
43 63 49
43 63 48
111 178 148
111 178 148
49 71 64
50 71 64
50 71 64
50 71 64
50 71 64
43 63 49
43 63 48
41 57 47
40 57 47
40 57 46
40 56 46
40 56 46
42 62 47
42 62 47
118 197 153
111 178 148
111 178 148
111 178 148
110 178 147
110 178 147
110 178 147
110 178 147
117 197 152
110 178 147
117 197 152
117 197 152
118 197 152
118 197 152
118 197 152
118 197 152
48 69 62
38 54 43
37 54 43
37 54 43
37 53 43
37 53 42
37 53 42
117 197 151
117 197 151
117 197 152
110 177 147
117 197 152
53 78 67
53 78 67
53 78 67
52 78 67
52 78 67
52 78 67
50 72 65
50 72 65
50 72 65
50 72 65
50 71 65
50 71 65
50 71 65
52 77 66
52 77 66
52 77 66
52 77 66
51 77 66
117 196 152
110 177 147
110 176 147
110 176 147
110 176 147
49 71 64
49 71 64
49 70 63
51 76 65
51 76 65
51 76 65
51 76 65
51 76 64
41 57 47
43 63 49
41 57 47
40 56 46
40 56 46
42 62 47
39 56 45
39 56 45
116 196 151
108 176 146
116 196 150
46 67 60
46 67 60
48 73 61
48 73 61
45 67 60
45 67 60
45 67 59
45 67 59
45 67 59
45 67 59
40 60 45
38 54 43
40 60 45
38 54 43
39 59 43
37 53 42
39 59 43
39 59 43
36 53 42
107 175 144
107 175 144
107 175 144
114 195 149
107 175 144
107 175 144
107 175 144
92 142 100
92 142 101
39 55 44
38 58 43
38 58 43
36 52 41
38 58 43
38 58 42
38 58 42
38 58 42
92 142 101
93 142 101
44 66 58
46 72 59
44 65 57
107 176 144
115 195 149
107 176 144
107 176 144
107 176 144
115 195 149
107 175 144
115 195 149
115 195 149
115 195 149
115 195 149
100 162 106
36 53 42
36 53 42
39 59 43
39 58 43
36 52 41
36 52 41
36 52 41
101 162 107
37 53 43
39 59 44
37 53 43
37 53 43
37 53 43
37 53 43
37 53 42
83 133 92
91 153 97
37 53 42
39 59 44
39 59 44
37 53 42
39 59 44
39 59 44
37 53 42
39 59 44
37 53 42
39 59 44
39 59 44
38 54 44
40 60 45
40 60 45
40 60 45
38 54 43
40 60 45
38 54 43
40 60 45
40 60 45
40 60 45
38 54 43
38 54 43
38 54 43
40 60 45
38 54 43
40 60 45
40 60 45
40 60 45
40 60 45
39 59 44
37 53 42
39 59 44
39 59 44
37 53 42
39 59 44
37 53 42
39 59 44
37 53 42
39 59 44
39 59 44
39 59 44
37 53 42
46 71 59
46 71 59
46 71 59
46 71 59
46 71 59
46 71 59
36 52 41
36 52 41
38 58 43
36 52 41
38 58 43
38 58 43
36 52 41
36 52 40
114 195 149
107 175 144
114 195 149
107 175 144
114 195 149
114 195 149
114 195 149
114 195 149
114 195 149
114 195 149
107 175 144
114 195 149
31 47 35
113 195 147
113 195 147
113 195 147
113 195 147
113 195 147
113 195 147
113 195 147
105 175 142
105 175 142
105 175 142
105 175 142
105 175 142
105 175 142
105 175 142
105 175 142
113 195 147
113 195 147
113 195 147
113 195 147
113 195 147
105 175 142
113 195 147
113 195 147
113 195 147
113 196 147
105 175 142
105 175 142
105 175 142
105 175 142
105 175 142
105 175 142
113 196 147
113 196 147
113 196 148
113 196 148
113 196 148
113 196 148
113 196 148
106 175 143
41 61 46
38 55 44
47 69 61
49 75 63
49 75 63
49 75 63
47 69 62
47 69 62
47 69 62
110 177 147
110 177 147
110 177 147
117 196 152
117 196 152
117 196 152
117 196 152
110 177 147
117 196 152
41 57 47
41 57 47
41 57 47
41 57 47
41 57 47
41 57 47
118 196 152
118 196 152
118 196 152
118 197 152
118 197 152
111 177 148
111 177 148
111 177 148
49 71 64
49 71 64
49 71 64
49 71 64
43 63 49
43 63 49
43 63 49
41 57 47
43 63 49
43 63 49
43 63 49
43 63 49
43 63 49
43 63 49
43 63 48
43 63 48
43 63 48
43 63 48
43 63 49
43 63 49
43 63 49
43 63 49
43 63 48
43 63 48
111 178 148
111 178 148
49 71 64
49 71 64
50 71 64
50 71 64
50 71 64
43 63 48
41 57 47
40 57 47
40 57 46
40 56 46
40 56 46
42 62 47
42 62 47
42 62 47
111 178 148
118 197 153
40 60 45
40 60 45
110 178 147
110 178 147
110 178 147
110 178 147
110 178 147
110 178 147
110 178 147
118 197 152
118 197 152
118 197 152
47 69 62
84 133 92
117 197 151
117 197 151
117 197 151
117 197 151
117 197 151
117 197 151
117 197 151
117 197 151
109 177 147
109 177 147
110 177 147
118 196 153
118 196 153
118 196 153
118 196 153
118 196 153
111 177 148
111 177 148
111 177 148
111 177 148
110 177 148
110 177 148
110 177 148
118 196 152
117 196 152
117 196 152
117 196 152
117 196 152
117 196 152
110 176 147
110 176 147
110 176 147
110 176 147
49 70 63
49 70 63
49 70 63
51 76 65
51 76 64
50 76 64
50 76 64
48 70 63
48 70 63
50 76 64
50 76 64
50 75 64
50 75 64
40 56 46
40 56 46
40 56 46
84 133 93
84 133 93
38 55 44
38 55 44
38 55 44
38 54 44
38 54 44
116 196 150
116 196 150
47 73 61
47 73 61
45 67 59
47 73 61
45 67 59
45 67 59
45 67 59
47 73 60
47 72 60
45 66 59
39 59 43
37 53 42
37 53 42
114 195 149
114 195 149
107 175 144
114 195 149
114 195 149
114 195 149
114 195 149
114 195 149
100 162 105
92 142 101
92 142 101
38 58 43
38 58 43
38 58 43
36 52 41
38 58 43
38 58 43
36 52 41
38 58 42
93 142 101
115 195 149
107 176 144
115 195 149
107 175 144
107 175 144
107 175 144
115 195 149
115 195 149
107 175 144
115 195 149
107 175 144
107 175 144
115 195 149
100 162 106
100 162 106
39 59 43
39 59 43
36 53 42
36 53 42
36 53 42
36 53 42
39 59 43
101 162 107
47 72 60
47 72 60
47 72 60
47 72 60
115 195 150
115 195 150
101 163 107
37 53 43
37 53 43
37 53 43
37 53 43
37 53 42
37 53 42
39 59 44
39 59 44
39 59 44
39 59 44
39 59 44
39 59 44
39 59 44
40 60 45
40 60 45
40 60 45
40 60 45
40 60 45
40 60 45
40 60 45
38 54 44
38 54 44
38 54 44
40 60 45
38 54 44
40 60 45
40 60 45
45 67 59
45 67 59
45 67 59
45 67 59
45 67 59
39 59 44
39 59 44
39 59 44
39 59 44
39 59 44
39 59 44
37 53 42
37 53 42
37 53 42
39 59 44
39 59 44
37 53 42
37 53 42
107 176 144
107 176 144
43 65 57
43 65 57
43 65 57
43 65 57
46 71 59
46 71 59
46 71 59
46 71 59
46 71 59
46 71 59
46 71 59
36 52 41
37 57 41
106 175 143
114 195 148
114 195 148
114 195 148
114 195 148
114 195 148
114 195 148
106 175 143
106 175 143
106 175 143
106 175 143
31 48 35
112 195 147
112 195 147
112 195 147
113 195 147
113 195 147
105 175 142
113 195 147
113 195 147
105 175 142
105 175 142
113 195 147
113 195 147
105 175 142
105 175 142
105 175 142
105 175 142
105 175 142
113 195 147
113 195 147
113 195 147
113 195 147
113 195 147
113 195 147
113 196 147
105 175 142
105 175 142
113 196 147
105 175 142
113 196 147
105 175 142
113 196 147
113 196 147
113 196 147
105 175 142
105 175 142
105 175 142
113 196 148
105 175 142
105 175 142
106 175 142
113 196 148
113 196 148
106 175 143
113 196 148
113 196 148
106 175 143
113 196 148
113 196 148
109 177 147
110 177 147
110 177 147
110 177 147
117 196 152
117 196 152
117 196 152
117 196 152
117 196 152
117 196 152
41 57 47
43 63 49
43 63 49
41 57 47
41 57 47
40 57 46
110 177 147
118 197 152
118 197 152
118 197 152
118 197 152
118 197 153
111 177 148
111 177 148
43 63 48
43 63 48
43 63 49
41 57 47
49 71 64
49 71 64
49 71 64
52 77 66
52 77 66
52 77 66
43 63 49
43 63 49
43 63 49
43 63 48
41 57 47
43 63 48
43 63 49
43 63 49
43 63 49
43 63 49
43 63 49
43 63 48
43 63 48
43 63 48
85 134 95
118 197 153
51 77 65
52 77 65
52 77 65
52 77 66
52 77 66
41 57 47
40 57 47
40 57 46
40 56 46
40 56 46
42 62 47
42 62 47
42 62 47
42 62 47
42 61 47
40 60 45
40 60 45
40 60 45
117 197 152
117 198 152
110 178 147
117 198 152
110 178 147
110 178 147
118 198 152
118 198 152
110 178 147
118 198 152
36 53 42
36 52 41
109 178 146
117 197 151
109 178 146
117 197 151
117 197 151
109 178 146
117 197 151
117 197 151
117 197 152
110 178 147
118 196 153
118 196 153
118 196 153
118 196 153
111 177 148
110 177 148
110 177 148
110 177 148
94 154 101
94 154 101
94 154 101
42 58 49
44 64 50
42 58 49
42 58 49
44 64 50
42 58 48
42 58 48
42 58 48
42 58 48
44 64 50
44 64 49
44 64 49
44 64 49
110 176 147
110 176 147
48 70 63
48 70 63
48 70 63
48 70 63
50 75 64
50 75 64
50 75 64
50 75 64
50 75 64
40 56 46
40 56 46
40 56 46
41 61 46
38 55 44
38 55 44
38 55 44
38 55 44
38 55 44
116 196 150
115 196 150
45 67 59
47 73 60
47 73 60
47 73 60
108 176 145
108 176 145
108 176 145
47 72 60
45 66 59
45 66 58
47 72 60
39 59 43
39 59 43
37 53 42
114 195 149
114 195 149
114 195 149
114 195 149
107 175 144
114 195 149
114 195 149
99 162 105
100 162 105
92 142 101
92 142 101
39 55 44
38 58 43
36 52 41
38 58 43
38 58 43
38 58 43
38 58 43
38 58 43
115 195 149
107 175 144
107 175 144
107 175 144
115 195 149
115 195 149
107 175 144
107 175 144
107 175 144
107 175 144
114 195 149
114 195 149
107 175 144
107 175 144
100 162 106
100 162 106
37 53 42
36 53 42
36 53 42
36 53 42
39 59 43
39 59 43
36 53 42
101 162 107
115 195 150
115 195 150
115 195 150
115 195 150
115 195 150
115 195 150
101 163 107
37 53 43
39 59 44
37 53 43
39 59 44
39 59 44
37 53 43
39 59 44
39 59 44
39 59 44
39 59 44
39 59 44
39 59 44
39 59 44
45 67 59
45 67 59
45 67 59
45 67 59
45 67 59
47 73 61
45 67 59
47 73 61
47 73 61
47 73 61
45 67 59
47 73 61
47 73 61
45 67 59
45 67 59
45 67 59
47 73 61
45 67 59
45 67 59
39 59 44
37 53 42
39 59 44
39 59 44
39 59 44
37 53 42
39 59 44
37 53 43
37 53 43
37 53 43
37 53 43
37 53 43
37 53 42
107 175 144
107 175 144
43 65 57
43 65 57
43 65 57
43 65 57
43 65 57
46 71 58
46 71 58
46 71 58
46 71 58
46 71 58
46 71 58
36 52 41
37 57 41
114 195 148
114 195 148
114 195 148
114 195 148
114 195 148
106 175 143
114 195 148
114 195 148
106 175 143
33 49 37
105 175 142
31 48 35
31 47 35
105 175 142
112 195 147
112 195 147
105 175 142
105 175 142
112 195 147
112 195 147
112 195 147
112 195 147
105 175 142
113 195 147
113 195 147
113 195 147
113 195 147
113 195 147
113 195 147
105 175 142
105 175 142
105 175 142
105 175 142
105 175 142
105 175 142
105 175 142
105 175 142
113 196 147
113 196 147
113 196 147
105 175 142
105 175 142
113 196 147
113 196 147
113 196 147
113 196 147
105 175 142
113 196 147
105 175 142
105 175 142
105 175 142
105 175 142
113 196 148
106 175 142
113 196 148
113 196 148
106 175 143
113 196 148
113 196 148
106 175 143
113 196 148
109 177 147
109 177 147
110 177 147
110 177 147
85 134 94
85 134 94
40 56 46
40 56 46
40 56 46
41 57 47
41 57 47
41 57 47
41 57 47
41 57 47
40 57 46
42 62 48
40 57 46
40 57 46
43 63 48
40 57 47
41 57 47
41 57 47
43 63 48
43 63 48
43 63 49
43 63 49
43 63 49
43 63 49
51 77 65
49 71 64
49 71 64
49 71 64
50 71 64
50 71 64
43 63 49
43 63 49
43 63 48
43 63 48
43 63 49
43 63 49
43 63 49
43 63 49
43 63 49
43 63 49
43 63 48
43 63 48
43 63 48
40 57 46
40 56 46
118 197 153
51 77 65
52 77 65
52 77 65
52 77 65
52 77 66
40 57 47
40 57 46
40 56 46
111 178 148
111 178 148
111 178 148
111 178 148
118 198 153
91 153 98
40 60 45
40 60 45
40 60 45
40 60 44
91 153 97
110 178 147
117 198 152
110 178 147
110 178 147
110 178 147
110 178 147
110 178 147
118 198 152
36 53 42
36 52 41
36 52 41
36 52 41
117 198 151
109 178 146
117 198 151
117 198 151
117 198 151
117 198 152
109 178 147
117 198 152
111 177 148
111 177 148
110 177 148
97 145 106
45 65 51
45 65 51
43 59 49
45 65 51
42 59 49
44 64 50
44 64 50
42 59 49
42 59 49
42 58 49
42 58 49
42 58 49
42 58 48
42 58 48
44 64 50
44 64 50
44 64 50
44 64 50
44 64 50
110 176 147
110 176 147
110 176 147
48 70 62
48 70 62
48 69 62
48 69 62
50 75 64
50 75 63
50 75 63
50 75 63
50 75 63
40 56 46
40 56 46
40 56 46
40 56 46
39 55 44
39 55 44
38 55 44
38 55 44
108 176 145
115 196 150
108 176 145
115 196 150
115 196 150
115 196 150
115 196 150
115 195 150
115 195 150
47 72 60
44 66 58
44 66 58
44 66 58
44 66 58
39 59 44
39 59 43
114 195 149
114 195 149
114 195 149
107 175 144
114 195 149
114 195 149
114 195 149
114 195 149
99 162 105
100 162 105
92 142 101
92 142 101
39 55 44
46 71 59
46 71 59
46 71 59
43 65 57
43 65 57
107 175 144
107 175 144
115 195 149
115 195 149
115 195 149
115 195 149
107 175 144
114 195 149
114 195 149
114 195 149
107 175 144
114 195 149
107 175 144
114 195 149
107 175 144
107 175 144
100 162 106
100 162 106
37 53 42
37 53 42
37 53 42
37 53 42
37 53 42
36 53 42
36 53 42
115 195 150
115 195 150
115 195 150
115 195 149
115 195 149
115 195 149
115 195 149
101 163 107
40 59 44
40 59 44
37 54 43
37 54 43
37 53 43
39 59 44
39 59 44
39 59 44
39 59 44
39 59 44
39 59 44
39 59 44
39 59 44
45 67 59
45 67 59
45 67 59
45 67 59
45 67 59
115 196 150
108 176 145
115 196 150
115 196 150
115 196 150
115 196 150
115 196 150
115 196 150
115 196 150
45 67 59
45 67 59
45 67 59
45 67 59
45 67 59
37 53 43
39 59 44
39 59 44
39 59 44
39 59 44
39 59 44
37 53 43
37 53 43
37 53 43
37 53 43
37 53 43
37 53 43
37 53 43
107 175 144
107 175 144
107 175 144
107 175 144
107 175 144
107 175 144
107 175 144
115 195 149
115 195 149
45 71 58
45 71 58
45 71 58
45 71 58
45 71 58
37 57 41
114 195 148
114 195 148
114 195 148
106 175 143
114 195 148
112 195 147
112 195 147
112 195 147
112 195 147
112 195 147
112 195 147
112 195 147
112 195 147
105 175 142
105 175 142
105 175 142
105 175 142
105 175 142
105 175 142
105 175 142
105 175 142
105 175 142
105 175 142
112 195 147
112 195 147
112 195 147
112 195 147
113 195 147
105 175 142
105 175 142
105 175 142
105 175 142
105 175 142
105 175 142
105 175 142
113 196 147
113 196 147
113 196 147
113 196 147
113 196 147
105 175 142
113 196 147
105 175 142
113 196 147
105 175 142
113 196 147
105 175 142
105 175 142
113 196 147
113 196 147
105 175 142
113 196 147
113 196 148
113 196 148
113 196 148
113 196 148
113 196 148
113 196 148
113 196 148
106 175 143
113 196 148
113 196 148
41 61 47
39 56 45
39 56 45
42 62 47
40 56 46
40 56 46
40 56 46
40 56 46
41 57 47
41 57 47
43 63 49
41 57 47
41 57 47
40 57 47
42 62 48
40 57 46
40 57 47
40 57 47
41 57 47
43 63 48
43 63 48
43 63 49
41 57 47
41 57 47
43 63 49
43 63 49
43 63 49
43 63 48
111 178 148
111 178 148
49 71 64
49 71 64
50 71 64
52 77 66
50 71 64
43 63 48
43 63 49
43 63 49
43 63 49
43 63 49
43 63 49
43 63 49
43 63 49
43 63 49
43 63 48
43 63 48
40 57 46
40 56 46
40 56 46
118 198 153
119 198 153
51 77 65
52 77 65
52 77 65
52 77 65
52 77 66
41 61 46
41 61 46
111 178 148
111 178 148
111 178 148
111 178 148
40 60 45
117 198 152
110 178 147
117 198 152
110 178 147
110 178 147
117 198 152
117 198 152
110 178 147
118 198 152
118 198 152
110 178 147
118 198 152
36 53 42
36 53 42
36 52 41
36 52 41
36 52 41
36 52 41
117 198 151
117 198 151
117 198 151
109 178 147
109 178 147
117 198 152
117 198 152
110 177 148
110 177 148
104 164 111
104 164 111
46 62 52
43 59 49
45 65 51
45 65 51
42 59 49
45 65 51
45 64 50
44 64 50
42 59 49
44 64 50
42 58 49
42 58 49
42 58 49
42 58 49
42 58 48
44 64 50
44 64 50
44 64 50
110 176 147
110 176 147
110 176 147
48 69 62
48 69 62
48 69 62
48 69 62
50 75 63
50 75 63
42 62 48
42 62 48
40 56 46
40 56 46
49 75 63
49 75 63
49 74 63
49 74 63
39 55 44
41 61 46
39 55 44
38 55 44
108 176 145
115 196 150
108 176 145
108 176 145
108 176 145
108 176 145
108 176 145
115 195 150
47 72 60
46 72 60
46 72 60
46 72 59
44 66 58
44 66 58
46 72 59
114 195 149
114 195 149
114 195 149
106 175 143
114 195 149
106 175 143
106 175 143
114 195 148
114 195 148
114 195 148
114 195 148
114 195 148
106 175 143
114 195 148
114 195 148
114 195 148
107 175 144
107 175 144
107 175 144
107 175 144
114 195 149
114 195 149
107 175 144
114 195 149
114 195 149
107 175 144
107 175 144
107 175 144
107 175 144
107 175 144
114 195 149
107 175 144
114 195 149
107 175 144
92 142 100
92 142 101
100 162 106
46 72 59
46 72 59
46 72 59
46 72 59
46 72 59
46 72 59
115 195 149
37 53 42
37 53 42
39 59 43
39 59 43
36 53 42
39 59 43
36 53 42
101 162 107
37 54 43
37 54 43
37 54 43
37 54 43
37 54 43
37 54 43
37 54 43
37 54 43
37 54 43
40 59 44
40 59 44
39 59 44
37 53 43
108 176 145
108 176 145
108 176 145
108 176 145
108 176 145
108 176 145
115 196 150
115 196 150
115 196 150
115 196 150
115 196 150
108 176 145
115 196 150
108 176 145
45 66 59
45 66 59
47 72 60
47 72 60
47 72 60
45 66 58
45 66 58
45 66 58
45 66 58
44 66 58
44 66 58
47 72 60
47 72 60
47 72 60
47 72 60
47 72 60
47 72 60
44 66 58
107 175 144
107 175 144
107 175 144
90 152 95
82 132 90
90 152 95
38 58 42
107 175 144
107 175 144
43 65 56
43 65 56
43 65 56
43 65 56
43 65 56
37 57 41
34 50 38
114 195 148
114 195 148
114 195 148
114 195 148
112 195 147
112 195 147
112 195 147
112 195 147
112 195 147
112 195 147
112 195 147
112 195 147
104 175 141
104 175 141
104 175 141
105 175 141
112 195 147
105 175 141
105 175 141
105 175 141
105 175 142
112 195 147
112 195 147
112 195 147
112 195 147
112 195 147
112 195 147
105 175 142
105 175 142
105 175 142
105 175 142
105 175 142
105 175 142
105 175 142
105 175 142
113 196 147
105 175 142
105 175 142
113 196 147
113 196 147
113 196 147
113 196 147
105 175 142
105 175 142
113 196 147
113 196 147
113 196 147
105 175 142
105 175 142
105 175 142
105 175 142
105 175 142
105 175 142
113 196 148
113 196 148
106 175 142
113 196 148
113 196 148
113 196 148
113 196 148
113 196 148
106 176 143
42 62 47
114 196 148
106 176 143
114 196 148
114 196 148
114 196 148
106 176 143
114 196 148
51 77 65
51 77 65
41 57 47
41 57 47
40 57 47
40 57 47
40 57 47
40 57 47
41 57 47
41 57 47
41 57 47
43 63 49
43 63 49
43 63 49
41 57 47
41 57 47
43 63 49
43 63 49
43 63 48
43 63 48
118 197 153
118 197 153
51 77 65
52 77 65
49 71 64
52 77 66
52 77 66
50 71 64
50 72 64
52 77 66
50 72 65
50 72 65
50 72 65
43 63 49
43 63 49
43 63 48
40 57 47
40 57 46
40 56 46
40 56 46
40 56 46
119 198 153
119 198 153
51 77 65
49 71 64
49 71 64
49 71 64
41 61 46
41 61 46
41 61 46
41 61 46
111 178 148
39 59 43
39 59 43
110 178 147
110 178 147
110 178 147
110 178 147
110 178 147
110 178 147
110 178 147
110 178 147
110 178 147
118 198 152
110 178 147
49 75 62
36 53 42
36 53 42
36 52 41
36 52 41
36 52 41
117 198 151
117 198 151
117 198 151
117 198 152
117 198 152
109 178 147
110 178 147
117 198 152
110 177 147
96 145 106
96 145 106
97 145 106
46 62 52
45 65 51
45 65 51
45 65 51
45 65 51
45 65 51
45 65 51
45 64 50
44 64 50
42 59 49
44 64 50
42 59 49
42 58 49
44 64 50
42 58 49
44 64 50
44 64 50
44 64 50
43 63 48
43 63 48
43 63 48
43 63 48
43 63 48
43 63 48
40 57 47
40 57 46
42 62 48
40 56 46
40 56 46
40 56 46
49 74 63
49 74 63
49 74 63
49 74 62
49 74 62
41 61 46
39 55 44
39 55 44
108 176 145
108 176 145
108 176 145
108 176 145
108 176 145
108 176 145
108 176 145
115 195 150
114 195 149
114 195 149
114 195 149
107 175 144
114 195 149
114 195 149
114 195 149
114 195 149
113 195 148
105 175 142
113 195 148
105 175 142
105 175 142
105 175 142
105 175 142
105 175 142
105 175 142
105 175 142
113 195 147
113 195 147
113 195 147
113 195 147
113 195 147
113 195 147
113 195 147
113 195 147
98 161 103
107 175 144
107 175 144
114 195 149
114 195 149
114 195 149
114 195 149
114 195 149
114 195 149
107 175 144
107 175 144
107 175 144
107 175 144
114 195 149
107 175 144
107 175 144
92 142 100
92 142 101
100 162 106
46 72 59
46 72 59
46 72 59
115 195 149
115 195 149
115 195 149
115 195 149
39 59 43
37 53 42
37 53 42
37 53 42
37 53 42
37 53 42
37 53 42
101 162 107
37 54 43
40 60 44
37 54 43
37 54 43
37 54 43
40 60 44
40 60 44
40 60 44
40 60 44
37 54 43
45 66 59
45 66 59
45 66 59
115 196 150
115 196 150
115 195 150
115 195 150
115 195 150
115 195 150
43 62 47
37 54 43
37 54 43
37 54 43
37 54 43
37 54 43
40 59 44
115 195 150
47 72 60
44 66 58
47 72 60
47 72 60
47 72 60
44 66 58
44 66 58
44 66 58
44 66 58
44 66 58
44 66 58
46 72 60
44 66 58
46 72 60
46 72 60
46 72 60
46 72 60
46 72 60
38 58 42
38 58 42
35 52 40
38 58 42
38 58 42
38 58 42
38 58 42
107 175 144
107 175 144
43 64 56
43 64 56
43 64 56
43 64 56
43 64 56
37 57 41
34 50 39
106 175 143
106 175 143
106 175 143
106 175 143
112 195 146
112 195 146
112 195 146
112 195 146
112 195 146
112 195 146
112 195 146
112 195 147
112 195 147
112 195 147
104 175 141
104 175 141
112 195 147
104 175 141
104 175 141
104 175 141
104 175 141
112 195 147
112 195 147
112 195 147
112 195 147
112 195 147
112 195 147
112 195 147
112 195 147
105 175 142
105 175 142
105 175 142
105 175 142
105 175 142
105 175 142
105 175 142
105 175 142
105 175 142
113 196 147
113 196 147
113 196 147
113 196 147
113 196 147
113 196 147
113 196 147
105 175 142
113 196 147
113 196 147
105 175 142
113 196 147
113 196 147
113 196 147
113 196 147
105 175 142
105 175 142
105 175 142
106 175 142
106 175 143
106 175 143
113 196 148
106 176 143
106 176 143
114 196 148
114 196 148
114 196 148
114 196 148
114 196 148
114 196 148
106 176 143
114 196 148
114 196 148
51 77 65
51 77 65
41 57 47
40 57 47
40 57 47
43 63 48
43 63 48
41 57 47
41 57 47
43 63 49
43 63 49
41 57 47
43 63 49
43 63 49
41 58 48
43 63 49
43 63 49
43 63 48
43 63 48
40 57 46
118 197 153
118 197 153
51 77 65
52 77 65
52 77 65
52 77 65
52 77 66
50 71 64
50 71 64
52 77 66
52 77 66
50 72 65
50 72 65
43 63 49
39 55 45
118 198 153
118 198 153
118 198 153
118 198 153
119 198 153
119 198 153
111 178 148
111 178 148
49 71 64
49 71 64
49 71 64
41 61 46
41 61 46
41 61 46
41 61 46
40 60 45
39 59 43
39 59 43
39 59 43
110 178 147
110 178 147
110 178 147
118 198 152
118 198 152
110 178 147
118 198 152
110 178 147
118 198 152
118 198 152
47 69 61
35 51 40
109 178 146
117 198 151
117 198 151
117 198 151
117 198 151
117 198 151
117 198 152
117 198 152
110 178 147
110 178 147
110 178 147
110 178 147
96 145 106
96 145 106
96 145 106
97 145 106
46 62 52
45 65 51
43 59 50
45 65 51
45 65 51
45 65 51
43 59 49
45 65 51
42 59 49
42 59 49
42 59 49
42 59 49
42 59 49
42 58 49
42 58 49
42 58 49
44 64 50
42 58 48
41 57 47
43 63 48
43 63 48
43 63 48
43 63 48
40 57 47
40 57 47
43 62 48
40 57 46
42 62 48
40 57 46
40 56 46
49 74 62
49 74 62
49 74 62
49 74 62
49 74 62
113 195 148
113 195 148
113 195 148
113 195 148
106 175 143
106 175 143
106 175 143
113 195 148
106 175 143
106 175 143
106 175 143
106 175 143
113 195 148
113 195 148
106 175 143
113 195 148
113 195 148
113 195 148
113 195 148
113 195 147
105 175 142
113 195 147
105 175 142
105 175 142
105 175 142
105 175 142
105 175 142
105 175 142
113 195 147
105 175 142
105 175 142
113 195 147
113 195 147
113 195 147
113 195 147
105 175 142
113 195 147
98 161 103
114 195 149
107 175 144
107 175 144
107 175 144
107 175 144
114 195 149
107 175 144
114 195 149
114 195 149
114 195 149
114 195 149
114 195 149
107 175 144
114 195 149
114 195 149
92 142 100
92 142 101
100 162 106
115 195 149
115 195 149
115 195 149
115 195 149
115 195 149
115 195 149
46 71 59
42 62 46
39 59 43
37 53 42
39 59 43
37 53 42
37 53 42
37 53 42
101 162 107
47 72 60
47 72 60
45 66 59
47 72 60
47 72 60
47 72 60
47 72 60
45 66 58
45 66 58
45 66 58
108 176 145
108 176 145
108 176 145
115 195 150
115 195 150
115 195 150
115 195 150
115 195 150
108 176 145
101 163 107
37 54 43
37 54 43
37 54 43
37 54 43
37 54 43
37 54 43
46 72 60
46 72 59
46 72 59
46 72 59
46 72 59
115 195 150
108 176 145
108 176 145
115 195 150
44 66 58
44 66 58
44 66 58
44 66 58
44 66 58
46 72 59
46 72 59
46 72 59
46 72 59
46 72 59
38 58 42
38 58 42
38 58 42
38 58 42
38 58 42
38 58 42
38 58 42
37 57 41
107 175 144
42 64 56
42 64 56
42 64 56
42 64 56
42 64 56
105 175 142
105 175 142
105 175 142
105 175 142
113 195 147
113 195 147
30 46 34
112 195 146
112 195 146
112 195 146
112 195 146
112 195 146
104 175 141
112 195 146
112 195 146
104 175 141
104 175 141
104 175 141
104 175 141
104 175 141
104 175 141
104 175 141
104 175 141
104 175 141
112 195 147
112 195 147
112 195 147
112 195 147
112 195 147
105 175 141
105 175 141
105 175 142
112 196 147
112 196 147
105 175 142
112 196 147
105 175 142
112 196 147
113 196 147
113 196 147
105 175 142
105 175 142
113 196 147
105 175 142
105 175 142
113 196 147
105 175 142
105 175 142
105 175 142
113 196 147
113 196 147
113 196 147
113 196 147
105 175 142
113 196 147
113 196 147
113 196 147
105 175 142
105 175 142
113 196 148
106 175 143
106 176 143
106 176 143
113 196 148
106 176 143
114 196 148
114 196 148
114 196 148
106 176 143
114 196 148
114 196 148
114 197 148
114 197 148
106 176 143
51 76 65
51 77 65
40 57 47
41 57 47
41 57 47
43 63 48
41 57 47
41 57 47
43 63 49
43 63 49
43 63 49
41 57 48
43 63 49
50 72 65
43 63 49
43 63 49
43 63 48
43 63 48
40 57 46
40 56 46
118 198 153
118 198 153
118 198 153
119 198 153
119 198 153
119 198 153
119 198 153
112 178 149
112 178 149
50 72 64
50 72 64
50 72 65
50 72 65
39 55 45
39 55 45
118 198 153
118 198 153
118 198 153
119 198 153
119 198 153
119 198 153
119 198 153
111 179 149
49 71 64
111 178 148
118 198 153
111 178 148
111 178 148
111 178 148
48 70 62
39 59 44
39 59 43
39 59 43
39 59 43
118 198 152
110 178 147
110 178 147
110 178 147
110 178 147
110 178 147
118 198 152
110 178 147
118 198 152
35 51 40
35 51 40
35 51 40
117 198 151
109 178 146
117 198 152
117 198 152
117 198 152
110 178 147
110 178 147
117 198 152
117 198 152
110 178 147
110 178 147
42 58 49
96 145 106
96 145 106
97 145 106
46 62 52
46 62 52
43 59 50
45 65 51
43 59 49
45 65 51
45 65 51
45 65 51
45 65 51
42 59 49
42 59 49
42 59 49
44 64 50
44 64 50
42 59 49
42 58 49
44 64 50
49 71 64
41 57 47
41 57 47
41 57 47
43 63 48
41 57 47
41 57 47
43 63 48
40 57 47
40 57 47
40 57 47
40 57 46
114 195 148
114 195 148
113 195 148
113 195 148
113 195 148
113 195 148
113 195 148
113 195 148
106 175 143
106 175 143
106 175 143
106 175 143
106 175 143
113 195 148
106 175 143
106 175 143
106 175 143
105 175 142
113 195 148
113 195 148
113 195 148
113 195 147
113 195 147
113 195 147
113 195 147
105 175 142
105 175 142
113 195 147
105 175 142
105 175 142
105 175 142
105 175 142
105 175 142
105 175 142
113 195 147
113 195 147
113 195 147
113 195 147
113 195 147
105 175 142
113 195 147
113 195 147
98 161 103
98 161 103
113 195 148
106 175 143
106 175 143
107 175 144
107 175 144
107 175 144
107 175 144
107 175 144
114 195 149
114 195 149
114 195 149
114 195 149
114 195 149
106 175 143
99 162 105
92 142 100
39 55 44
115 195 149
115 195 149
115 195 149
115 195 149
46 71 58
46 71 58
45 71 58
41 61 46
42 62 46
37 53 42
37 53 42
37 53 42
39 59 43
37 53 42
39 59 43
100 162 107
47 72 60
47 72 60
47 72 60
108 176 145
115 195 150
47 72 60
44 66 58
44 66 58
44 66 58
44 66 58
44 66 58
44 66 58
44 66 58
46 72 60
46 72 60
46 72 59
46 72 59
46 72 59
46 72 59
101 163 107
40 60 44
40 60 44
37 54 43
37 54 43
40 60 44
37 54 43
44 66 58
46 72 59
46 72 59
46 72 59
44 66 58
115 195 149
107 176 145
107 176 145
90 152 96
90 152 96
39 59 43
39 59 43
39 59 43
44 66 58
44 66 58
44 66 58
44 66 58
44 66 58
44 66 58
38 58 42
38 58 42
38 58 42
38 58 42
38 58 42
38 58 42
38 58 42
37 57 42
107 175 144
107 175 144
42 64 56
105 175 142
105 175 142
105 175 142
113 195 147
105 175 142
105 175 142
105 175 142
105 175 142
113 195 147
30 46 34
112 195 146
112 195 146
112 195 146
104 175 141
104 175 141
104 175 141
104 175 141
112 195 146
104 175 141
112 195 146
112 195 146
112 195 146
112 195 146
112 195 146
112 195 146
112 195 146
112 195 146
104 175 141
104 175 141
104 175 141
104 175 141
104 175 141
104 175 141
104 175 141
104 175 141
112 196 147
112 196 147
105 175 142
112 196 147
112 196 147
105 175 142
112 196 147
112 196 147
113 196 147
105 175 142
113 196 147
105 175 142
105 175 142
113 196 147
105 175 142
105 175 142
105 175 142
113 196 147
113 196 147
113 196 147
113 196 147
113 196 147
113 196 147
113 196 147
105 175 142
113 196 148
105 175 142
105 175 142
106 176 142
106 176 143
106 176 143
106 176 143
106 176 143
106 176 143
106 176 143
114 196 148
114 196 148
114 197 148
114 197 148
106 176 143
114 197 148
114 197 148
114 197 148
49 71 63
49 71 63
51 77 65
51 77 65
51 77 65
52 77 65
52 77 65
52 77 66
52 77 66
50 71 64
50 72 64
50 72 65
52 77 66
50 72 65
43 63 49
43 63 48
41 57 47
40 57 46
40 56 46
40 56 46
85 134 94
119 198 153
111 178 148
111 178 148
111 178 149
111 178 149
112 178 149
119 198 154
119 198 154
50 72 64
52 77 66
39 56 45
39 55 45
39 55 45
39 55 45
118 198 153
119 198 153
119 198 153
119 198 153
119 198 153
119 198 153
119 198 153
40 60 45
40 60 44
118 198 153
111 179 148
111 179 148
48 69 62
39 59 44
39 59 44
39 59 43
39 59 43
39 59 43
39 58 43
38 58 43
110 178 147
118 198 152
118 198 152
110 178 147
118 198 152
118 198 152
118 198 152
35 51 40
35 51 40
35 51 40
35 51 40
35 51 40
117 198 152
117 198 152
110 178 147
117 198 152
117 198 152
117 198 152
117 198 152
117 198 152
117 198 152
44 64 50
96 145 106
96 145 106
97 145 106
46 62 52
46 62 52
50 72 65
50 72 65
50 71 65
50 71 65
52 77 66
50 71 64
52 77 66
52 77 66
51 77 66
51 77 66
51 77 65
51 77 65
51 77 65
49 71 64
51 76 65
49 71 64
49 70 64
41 57 47
43 63 49
43 63 48
41 57 47
43 63 48
43 63 48
43 63 48
40 57 47
40 57 47
113 195 148
106 175 143
113 195 148
113 195 148
106 175 143
106 175 143
106 175 143
113 195 148
113 195 148
113 195 148
106 175 143
113 195 148
106 175 143
106 175 143
105 175 142
105 175 142
105 175 142
113 195 148
113 195 147
113 195 147
105 175 142
105 175 142
113 195 147
105 175 142
105 175 142
113 195 147
105 175 142
113 195 147
105 175 142
105 175 142
105 175 142
105 175 142
105 175 142
113 195 147
113 195 147
113 195 147
105 175 142
105 175 142
113 195 147
113 195 147
113 195 147
113 195 147
113 195 147
98 161 103
98 161 103
106 175 143
113 195 148
98 161 104
107 175 144
105 175 142
105 175 142
106 175 143
114 195 149
114 195 148
106 175 143
114 195 148
114 195 148
106 175 143
106 175 143
99 162 105
92 142 100
39 55 44
107 175 144
107 175 144
43 65 57
43 65 57
43 65 57
43 65 57
43 65 57
41 61 46
42 62 46
37 53 42
37 53 42
37 53 42
37 53 42
37 53 42
39 59 44
37 53 42
115 195 150
115 195 150
47 72 60
46 72 60
44 66 58
46 72 60
44 66 58
44 66 58
44 66 58
44 66 58
44 66 58
44 66 58
44 66 58
46 72 59
46 72 59
46 72 59
37 53 42
37 53 42
37 53 42
101 163 107
40 60 45
38 54 43
38 54 43
38 54 43
38 54 43
38 54 43
39 59 43
37 53 42
37 53 42
37 53 42
37 53 42
37 53 42
39 59 43
37 53 42
39 59 43
39 59 43
37 53 42
39 59 43
39 59 43
44 65 57
44 65 57
44 65 57
46 71 59
44 65 57
44 65 57
38 58 42
36 52 41
38 58 42
38 58 42
38 58 42
36 52 41
36 52 41
37 57 42
114 195 149
114 195 149
44 70 57
105 175 142
113 195 147
112 195 146
112 195 146
112 195 146
112 195 146
112 195 146
112 195 146
112 195 146
112 195 146
104 174 141
104 174 141
104 174 141
104 174 141
112 195 146
104 175 141
104 175 141
112 195 146
104 175 141
112 195 146
112 195 146
112 195 146
112 195 146
112 195 146
112 195 146
112 195 146
112 195 146
104 175 141
104 175 141
104 175 141
112 195 146
104 175 141
104 175 141
104 175 141
104 175 141
104 175 141
112 196 147
112 196 147
112 196 147
112 196 147
112 196 147
112 196 147
112 196 147
112 196 147
105 175 142
105 175 142
105 175 142
105 175 142
105 175 142
105 175 142
105 175 142
105 175 142
105 175 142
113 196 147
113 196 147
113 196 147
113 196 147
113 196 147
113 196 147
113 196 147
113 196 147
105 175 142
105 176 142
106 176 142
106 176 143
113 196 148
106 176 143
113 196 148
106 176 143
106 176 143
114 197 148
106 176 143
106 176 143
114 197 148
114 197 148
114 197 148
114 197 148
106 176 143
114 197 148
114 197 149
114 197 149
114 197 149
114 197 149
114 197 149
107 177 144
115 197 149
107 177 144
52 77 66
50 71 64
52 77 66
50 72 64
50 72 65
50 72 65
43 63 48
41 57 47
40 57 47
40 56 46
40 56 46
42 62 47
92 153 99
111 178 148
119 198 153
111 178 149
111 179 149
112 179 149
112 179 149
119 198 154
119 198 154
50 72 64
39 56 45
39 55 45
39 55 45
39 55 45
39 55 44
119 198 153
111 179 148
111 179 148
111 179 149
111 179 149
111 179 149
40 60 45
40 60 45
40 60 44
111 179 148
111 179 148
38 58 42
110 178 147
118 198 152
110 178 147
110 178 147
110 178 147
110 179 147
110 179 147
110 179 147
118 199 152
118 199 152
118 199 152
118 199 152
49 74 62
49 75 62
35 51 40
35 51 40
35 51 40
35 51 40
35 51 40
35 51 40
117 198 152
117 198 152
117 198 152
110 178 147
117 198 152
117 198 152
117 198 152
117 198 152
42 59 49
44 64 50
96 145 106
97 145 106
46 62 52
50 71 65
50 71 65
50 71 64
50 71 64
49 71 64
49 71 64
51 77 66
51 77 65
51 77 65
117 196 152
117 196 152
110 176 147
117 196 152
110 176 147
110 176 147
49 70 63
49 70 63
51 76 65
43 63 49
43 63 49
43 63 49
43 63 49
41 57 47
43 63 48
41 57 47
41 57 47
113 195 148
106 175 143
113 195 148
113 195 148
113 195 148
106 175 143
113 195 148
113 195 148
113 195 148
106 175 143
106 175 143
106 175 142
105 175 142
105 175 142
105 175 142
105 175 142
113 195 147
105 175 142
113 195 147
113 195 147
113 195 147
113 195 147
105 175 142
113 195 147
113 195 147
113 195 147
105 175 142
105 175 142
105 175 142
105 175 142
105 175 142
105 175 142
113 195 147
113 195 147
113 195 147
105 175 142
113 195 147
105 175 142
105 175 142
105 175 142
105 175 142
113 195 147
113 195 147
113 195 147
113 195 147
112 195 147
105 175 142
105 175 142
112 195 147
112 195 147
112 195 147
112 195 147
106 175 143
114 195 148
114 195 148
114 195 148
114 195 148
106 175 143
106 175 143
106 175 143
99 162 105
100 162 105
39 55 44
43 65 57
43 65 57
43 65 57
43 65 57
43 65 57
43 65 56
43 65 56
39 55 44
42 62 46
37 53 42
37 53 42
39 59 44
37 53 42
46 72 60
46 72 60
46 72 59
44 66 58
44 66 58
44 66 58
44 66 58
46 72 59
44 66 58
37 53 42
39 59 43
39 59 43
39 59 43
37 53 42
39 59 43
39 59 43
37 53 42
37 53 42
37 53 42
39 59 43
39 59 43
37 53 42
42 62 47
40 60 45
40 60 45
40 60 45
40 60 45
38 54 43
38 54 43
37 53 42
39 59 43
37 53 42
37 53 42
37 53 42
37 53 42
39 59 43
39 59 43
39 59 43
39 59 43
39 59 43
39 59 43
39 59 43
107 175 144
107 175 144
43 65 57
43 65 57
43 65 57
43 65 57
38 58 42
38 58 42
38 58 42
38 58 42
38 58 42
38 58 42
38 58 42
38 57 42
114 195 148
114 195 148
106 175 143
105 175 142
105 175 142
104 174 141
112 195 146
112 195 146
112 195 146
112 195 146
112 195 146
104 174 141
112 195 146
112 195 146
104 174 141
104 174 141
112 195 146
104 174 141
104 174 141
104 174 141
104 175 141
104 175 141
112 195 146
112 195 146
112 195 146
112 195 146
112 195 146
112 195 146
112 195 146
112 195 146
112 195 146
104 175 141
104 175 141
104 175 141
104 175 141
104 175 141
104 175 141
104 175 141
104 175 141
104 175 141
112 196 147
112 196 147
104 175 141
105 175 141
105 175 141
112 196 147
105 175 142
112 196 147
105 175 142
105 175 142
105 175 142
105 175 142
105 175 142
113 196 147
105 175 142
105 175 142
105 175 142
113 196 147
113 196 147
113 196 147
113 196 147
113 196 147
105 175 142
105 175 142
105 175 142
113 196 148
113 196 148
113 196 148
106 176 143
113 196 148
113 196 148
114 196 148
114 197 148
114 197 148
106 176 143
114 197 148
106 176 143
106 176 143
106 176 143
114 197 148
106 176 143
106 176 143
114 197 149
107 176 143
107 176 144
114 197 149
114 197 149
115 197 149
115 197 149
107 177 144
115 197 149
50 71 64
50 71 64
50 71 64
50 72 64
50 72 64
50 72 65
41 57 47
40 57 47
40 56 46
40 56 46
42 62 47
42 62 47
42 62 47
111 179 149
111 179 149
112 179 149
112 179 149
112 179 149
112 179 149
119 198 154
119 198 154
39 56 45
39 55 45
39 55 45
39 55 45
39 55 44
41 61 46
111 179 148
111 179 149
111 179 149
112 179 149
49 71 63
40 60 45
40 60 45
40 60 44
40 59 44
39 59 44
38 58 42
38 58 42
110 179 147
110 179 147
110 179 147
110 179 147
118 199 152
110 179 147
110 179 147
110 179 147
118 199 152
118 199 152
49 74 62
47 68 60
35 52 40
35 51 40
117 199 152
117 199 152
117 199 152
117 199 152
117 199 152
117 199 152
117 199 152
117 199 152
110 178 147
110 178 147
110 178 147
110 178 147
110 178 147
44 64 50
44 64 50
96 145 106
97 145 106
110 177 148
110 177 148
110 177 148
110 177 148
110 177 147
110 177 147
110 177 147
117 196 152
110 176 147
117 196 152
117 196 152
117 196 152
117 196 152
110 176 147
110 176 147
49 70 63
48 70 63
48 70 63
48 70 63
48 70 63
43 63 49
43 63 49
48 70 63
48 70 63
48 70 62
48 70 62
109 176 146
113 195 148
113 195 148
113 195 148
113 195 148
106 175 143
113 195 148
113 195 148
106 175 142
113 195 148
105 175 142
105 175 142
105 175 142
105 175 142
113 195 147
113 195 147
113 195 147
105 175 142
105 175 142
105 175 142
105 175 142
105 175 142
105 175 142
105 175 142
113 195 147
105 175 142
113 195 147
113 195 147
113 195 147
113 195 147
113 195 147
105 175 142
113 195 147
113 195 147
105 175 142
105 175 142
105 175 142
113 195 147
105 175 142
105 175 142
105 175 142
105 175 142
112 195 147
105 175 142
112 195 147
112 195 147
112 195 147
105 175 142
112 195 147
112 195 147
112 195 147
112 195 147
97 161 102
97 161 102
106 175 143
106 175 143
106 175 143
114 195 148
106 175 143
106 175 143
91 142 99
99 162 105
40 60 44
43 65 56
43 65 56
43 65 56
43 65 56
43 65 56
43 65 56
43 64 56
38 54 43
39 55 44
100 162 106
46 72 59
46 72 59
46 72 59
46 72 59
46 72 59
46 72 59
44 66 58
44 66 58
44 66 58
44 66 58
44 66 58
44 66 58
44 66 58
39 59 44
39 59 44
39 59 44
39 59 44
37 53 42
39 59 44
39 59 44
37 53 42
37 53 42
37 53 42
39 59 44
39 59 44
37 53 42
42 62 47
45 67 59
47 73 60
47 73 60
45 67 59
47 73 60
47 73 60
37 53 42
37 53 42
37 53 42
37 53 42
39 59 44
39 59 44
37 53 42
39 59 44
37 53 42
39 59 44
37 53 42
39 59 44
39 59 44
107 175 144
107 175 144
43 65 57
45 71 58
45 71 58
45 71 58
45 71 58
43 65 57
43 65 57
43 65 57
43 65 57
43 65 57
43 65 57
38 58 42
114 195 148
114 195 148
105 175 142
33 53 37
112 195 147
29 45 33
112 195 146
112 195 146
112 195 146
112 195 146
112 195 146
112 195 146
112 195 146
112 195 146
104 174 141
104 174 141
104 174 141
104 174 141
104 174 141
104 174 141
104 174 141
104 174 141
104 174 141
112 195 146
112 195 146
112 195 146
104 175 141
112 195 146
112 195 146
112 195 146
112 195 146
104 175 141
104 175 141
112 195 146
104 175 141
104 175 141
104 175 141
104 175 141
104 175 141
104 175 141
112 196 147
112 196 147
112 196 147
104 175 141
112 196 147
105 175 141
105 175 141
105 175 142
105 175 142
112 196 147
113 196 147
113 196 147
113 196 147
113 196 147
105 175 142
113 196 147
113 196 147
105 175 142
105 175 142
105 175 142
105 175 142
105 175 142
105 175 142
105 175 142
105 176 142
105 176 142
113 196 148
113 196 148
113 196 148
113 196 148
113 197 148
114 197 148
114 197 148
114 197 148
114 197 148
106 176 143
106 176 143
106 176 143
106 176 143
106 176 143
106 176 143
106 176 143
106 176 143
114 197 149
107 177 144
114 197 149
114 197 149
115 197 149
115 197 149
115 197 149
115 197 149
115 198 149
119 198 153
52 77 66
52 77 66
52 77 66
52 77 66
52 78 66
40 57 47
40 56 46
40 56 46
42 62 47
42 62 47
42 62 47
41 61 47
111 179 149
119 198 154
112 179 149
112 179 149
112 179 149
112 179 149
119 198 154
39 56 45
39 56 45
39 55 45
39 55 45
39 55 45
41 61 46
41 61 46
91 153 98
112 179 149
90 152 96
111 179 148
111 179 148
111 179 148
111 179 148
118 199 153
111 179 148
38 58 42
38 58 42
38 58 42
38 57 42
110 179 147
110 179 147
110 179 147
110 179 147
118 199 152
110 179 147
118 199 152
118 199 153
118 199 153
118 199 153
34 50 39
81 131 89
117 199 152
117 199 152
117 199 152
117 199 152
117 199 152
117 199 152
117 199 152
110 179 147
110 179 147
110 179 147
110 179 147
110 179 147
110 179 147
45 65 51
45 64 50
96 145 106
110 177 148
110 177 148
117 196 152
110 177 147
110 176 147
117 196 152
117 196 152
42 58 48
42 58 48
42 58 48
42 58 48
42 58 48
42 58 48
117 196 152
110 176 147
51 76 64
50 76 64
50 76 64
50 76 64
50 76 64
48 70 63
48 70 63
113 195 148
113 195 148
113 195 148
113 195 148
113 195 148
106 175 143
106 175 143
106 175 143
106 175 143
106 175 142
105 175 142
105 175 142
105 175 142
113 195 148
113 195 147
113 195 147
113 195 147
105 175 142
113 195 147
105 175 142
113 195 147
113 195 147
105 175 142
105 175 142
113 195 147
105 175 142
105 175 142
105 175 142
105 175 142
105 175 142
105 175 142
113 195 147
113 195 147
113 195 147
113 195 147
113 195 147
113 195 147
113 195 147
113 195 147
105 175 142
105 175 142
105 175 142
113 195 147
105 175 142
105 175 142
105 175 142
105 175 142
105 175 142
112 195 147
105 175 142
112 195 147
105 175 142
112 195 147
105 175 141
112 195 147
112 195 147
104 175 141
97 161 102
97 161 102
113 195 147
113 195 147
106 175 143
106 175 143
106 175 143
106 175 143
91 142 99
99 162 105
40 60 44
43 64 56
43 64 56
45 70 58
45 70 58
45 70 58
45 70 58
45 70 58
38 54 43
39 55 44
100 162 106
115 195 150
46 72 59
46 72 59
46 72 59
46 72 59
46 72 59
44 66 58
44 65 57
44 65 57
44 65 57
44 65 57
44 65 57
44 65 57
40 56 45
37 53 42
39 59 44
39 59 44
37 53 42
37 53 42
39 59 44
37 53 42
37 53 42
39 59 44
39 59 44
37 53 42
37 53 42
37 53 42
47 72 60
45 67 59
45 67 59
47 72 60
47 72 60
47 72 60
37 53 42
37 53 42
37 53 42
37 53 42
37 53 42
37 53 42
39 59 44
39 59 44
37 53 42
39 59 44
39 59 44
37 53 42
39 59 44
115 195 149
115 195 149
45 71 58
45 71 58
45 71 58
45 71 58
43 65 57
43 65 57
43 65 57
43 65 57
105 175 142
112 195 147
105 175 142
105 175 142
105 175 142
112 195 147
105 175 142
105 175 142
112 195 147
29 46 33
112 195 146
112 195 146
112 195 146
112 195 146
112 195 146
112 195 146
112 195 146
112 195 146
104 174 141
112 195 146
104 174 141
112 195 146
104 174 141
104 174 141
104 174 141
104 174 141
104 174 141
112 195 146
104 174 141
104 175 141
112 195 146
112 195 146
104 175 141
104 175 141
104 175 141
104 175 141
112 195 146
112 195 146
104 175 141
112 196 146
112 196 146
112 196 146
112 196 146
112 196 146
104 175 141
104 175 141
104 175 141
104 175 141
104 175 141
104 175 141
112 196 147
105 175 141
105 175 142
112 196 147
112 196 147
113 196 147
113 196 147
113 196 147
113 196 147
105 175 142
113 196 147
113 196 147
105 175 142
105 175 142
105 175 142
113 196 147
105 175 142
113 196 147
105 176 142
105 176 142
105 176 142
113 196 148
113 197 148
113 197 148
113 197 148
114 197 148
114 197 148
114 197 148
114 197 148
114 197 148
106 176 143
106 176 143
106 176 143
106 176 143
114 197 148
106 176 143
114 197 149
107 177 144
114 197 149
114 197 149
115 197 149
115 197 149
115 198 149
115 198 149
115 198 149
115 198 149
115 198 149
119 198 154
52 77 66
52 77 66
52 77 66
52 78 66
52 78 66
40 57 46
40 56 46
42 62 47
42 62 47
42 62 47
41 61 47
39 55 45
112 179 149
119 198 154
119 199 154
119 199 154
52 77 65
52 77 65
39 56 45
39 56 45
39 55 45
39 55 45
41 61 46
41 61 46
41 61 46
41 60 45
40 60 45
39 59 43
39 59 43
118 199 153
118 199 153
111 179 148
118 199 153
38 58 42
38 58 42
38 58 42
38 58 42
38 57 42
37 57 42
110 179 147
110 179 147
118 199 152
110 179 148
110 179 148
111 179 148
118 199 153
111 179 148
36 52 41
34 50 39
34 50 39
34 50 39
110 179 147
117 199 152
117 199 152
110 179 147
117 199 152
117 199 152
117 199 152
117 199 152
117 199 152
117 199 152
117 199 152
110 179 147
110 177 148
110 177 148
117 196 152
110 177 147
117 196 152
117 196 152
117 196 152
117 196 152
117 196 152
103 164 111
42 58 48
42 58 48
42 58 48
44 64 50
44 64 50
110 176 147
117 196 152
50 76 64
50 76 64
50 76 64
113 195 148
113 195 148
113 195 148
113 195 148
106 175 143
106 175 143
113 195 148
113 195 148
113 195 148
106 175 143
106 175 143
106 175 142
105 175 142
105 175 142
105 175 142
113 195 147
105 175 142
113 195 147
113 195 147
113 195 147
105 175 142
113 195 147
113 195 147
113 195 147
113 195 147
113 195 147
105 175 142
105 175 142
105 175 142
105 175 142
105 175 142
105 175 142
105 175 142
105 175 142
105 175 142
105 175 142
113 195 147
113 195 147
113 195 147
113 195 147
113 195 147
113 195 147
113 195 147
112 195 147
112 195 147
112 195 147
105 175 142
105 175 142
105 175 142
105 175 142
105 175 142
112 195 147
105 175 142
112 195 147
112 195 147
112 195 147
112 195 147
112 195 147
112 195 147
112 195 147
112 195 147
97 161 102
97 161 102
97 161 102
113 195 147
113 195 147
98 161 103
106 175 143
106 175 143
91 141 99
91 141 99
99 162 105
40 60 44
45 70 58
45 70 58
45 70 57
45 70 57
45 70 57
45 70 57
45 70 57
38 54 43
39 55 44
46 72 59
46 71 59
46 71 59
46 71 59
46 71 59
44 65 57
46 71 59
44 65 57
44 65 57
43 65 57
43 65 57
43 65 57
43 65 57
43 65 57
40 56 45
39 59 44
39 59 44
37 53 42
37 53 42
37 53 42
39 59 44
37 53 42
37 53 42
37 53 42
39 59 44
37 53 42
37 53 42
37 53 42
115 195 150
47 72 60
47 72 60
47 72 60
47 72 60
47 72 60
37 53 42
39 59 44
37 53 42
39 59 44
37 53 42
37 53 42
39 59 44
39 59 44
39 59 44
39 59 44
39 59 44
39 59 44
37 53 42
114 195 149
114 195 149
114 195 149
114 195 149
114 195 149
114 195 149
114 195 149
107 175 144
114 195 148
114 195 148
105 175 141
105 175 141
105 175 141
105 175 141
105 175 141
105 175 141
105 175 141
105 175 141
105 175 141
30 46 33
112 195 146
112 195 146
112 195 146
112 195 146
104 174 141
104 174 141
104 174 141
104 174 141
104 174 141
112 195 146
104 174 141
112 195 146
104 174 141
112 195 146
112 195 146
112 195 146
112 195 146
112 195 146
104 174 141
112 195 146
104 174 141
104 175 141
104 175 141
104 175 141
104 175 141
104 175 141
112 195 146
112 195 146
112 196 146
112 196 146
112 196 146
112 196 146
104 175 141
104 175 141
112 196 146
112 196 146
112 196 146
104 175 141
104 175 141
104 175 141
104 175 141
104 175 141
105 175 141
105 175 141
112 196 147
112 196 147
113 196 147
113 196 147
113 196 147
113 196 147
113 196 147
113 196 147
113 196 147
105 175 142
105 175 142
113 196 147
105 176 142
113 196 147
105 176 142
105 176 142
105 176 142
113 197 148
113 197 148
113 197 148
113 197 148
114 197 148
114 197 148
114 197 148
114 197 148
114 197 148
106 176 143
106 176 143
106 176 143
106 176 143
106 176 143
106 177 143
107 177 143
107 177 144
107 177 144
107 177 144
115 198 149
115 198 149
115 198 149
115 198 149
115 198 149
107 177 144
107 177 144
115 198 149
112 179 149
52 77 66
52 77 66
52 77 66
52 78 66
50 72 65
42 62 48
42 62 47
42 62 47
42 62 47
41 61 47
39 55 45
39 55 45
119 199 154
112 179 149
52 77 65
52 77 65
52 77 65
52 77 65
39 56 45
39 55 45
39 55 45
41 61 46
112 179 149
112 179 149
112 179 149
112 179 149
39 59 43
39 59 43
39 58 43
111 179 148
111 179 148
47 69 61
38 58 42
110 179 147
118 199 152
110 179 147
110 179 147
118 199 152
110 179 148
118 199 153
118 199 153
111 179 148
118 199 153
118 199 153
118 199 153
49 74 62
34 50 39
34 50 39
34 50 39
34 50 39
34 50 38
117 199 152
118 199 152
110 179 147
118 199 152
118 199 152
118 199 152
118 199 152
118 199 152
118 199 152
118 199 152
110 179 147
110 177 147
117 196 152
117 196 152
117 196 152
117 196 152
117 196 152
110 176 147
117 196 152
103 164 111
103 164 111
42 58 49
44 64 50
42 58 48
42 58 48
117 196 152
110 176 147
117 196 152
117 196 152
117 196 152
113 195 148
113 195 148
113 195 148
113 195 148
113 195 148
113 195 148
113 195 148
113 195 148
113 195 148
105 175 142
105 175 142
105 175 142
113 195 148
105 175 142
105 175 142
105 175 142
105 175 142
105 175 142
113 195 147
113 195 147
113 195 147
113 195 147
113 195 147
113 195 147
113 195 147
113 195 147
113 195 147
105 175 142
105 175 142
105 175 142
105 175 142
105 175 142
105 175 142
105 175 142
113 195 147
105 175 142
113 195 147
113 195 147
105 175 142
105 175 142
105 175 142
112 195 147
112 195 147
112 195 147
105 175 142
105 175 142
105 175 142
112 195 147
112 195 147
112 195 147
105 175 141
105 175 141
105 175 141
104 175 141
104 175 141
104 175 141
104 175 141
104 175 141
104 175 141
112 195 147
104 175 141
112 195 146
112 195 146
112 195 146
112 195 146
112 195 146
104 175 141
112 195 146
104 175 141
112 195 146
112 195 146
106 175 143
106 175 143
106 175 143
43 69 55
41 63 54
41 63 54
41 62 54
44 70 57
44 70 57
44 70 57
41 60 45
39 55 44
46 71 59
44 65 57
44 65 57
43 65 57
43 65 57
43 65 57
46 71 59
46 71 59
46 71 59
46 71 58
46 71 58
46 71 58
45 71 58
45 71 58
40 56 45
37 53 42
39 59 44
39 59 44
39 59 44
37 53 42
39 59 44
39 59 44
37 53 42
37 53 42
39 59 44
37 53 42
39 59 44
37 53 42
115 195 150
47 72 60
47 72 60
47 72 60
44 66 58
44 66 58
47 72 60
47 72 60
46 72 60
46 72 60
46 72 60
46 72 60
46 72 60
44 66 58
44 66 58
44 66 58
44 66 58
44 66 58
44 66 58
114 195 149
114 195 149
114 195 149
114 195 149
114 195 149
114 195 149
114 195 149
107 175 144
114 195 148
114 195 148
104 175 141
112 195 146
112 195 146
112 195 146
112 195 146
112 195 146
104 174 141
112 195 146
112 195 146
112 195 146
104 174 141
104 174 141
104 174 141
104 174 141
104 174 141
112 195 146
112 195 146
104 174 141
112 195 146
112 195 146
112 195 146
112 195 146
112 195 146
112 195 146
112 195 146
112 195 146
112 195 146
112 195 146
104 174 141
104 174 141
112 195 146
104 174 141
104 175 141
104 175 141
104 175 141
104 175 141
112 195 146
112 196 146
112 196 146
112 196 146
112 196 146
112 196 146
112 196 146
112 196 146
112 196 146
112 196 146
104 175 141
112 196 146
104 175 141
104 175 141
104 175 141
104 175 141
112 196 147
105 175 141
112 196 147
105 175 142
112 196 147
113 196 147
105 175 142
105 175 142
113 196 147
113 196 147
113 196 147
105 175 142
105 175 142
105 176 142
105 176 142
105 176 142
113 196 147
105 176 142
105 176 142
106 176 142
113 197 148
106 176 143
114 197 148
106 176 143
114 197 148
114 197 148
114 197 148
114 197 148
106 176 143
114 197 148
106 176 143
114 197 148
114 197 149
114 197 149
114 197 149
114 197 149
115 198 149
115 198 149
107 177 144
107 177 144
115 198 149
107 177 144
115 198 149
107 177 144
107 177 144
107 177 144
107 177 144
112 179 149
50 71 64
52 77 66
50 72 64
50 72 64
50 72 65
42 62 47
42 62 47
42 62 47
41 61 47
39 55 45
39 55 45
39 55 45
37 53 42
119 199 153
119 199 153
119 199 153
119 199 153
119 199 153
119 199 153
119 199 154
112 179 149
112 179 149
112 179 149
112 179 149
39 59 44
39 59 43
39 59 43
39 59 43
38 58 43
111 179 148
37 57 41
118 199 152
110 179 147
110 179 147
110 179 148
111 179 148
111 179 148
111 179 148
118 199 153
118 199 153
118 199 153
111 179 148
118 199 153
49 74 62
47 68 60
34 50 39
34 50 39
34 50 39
34 50 39
34 50 38
34 50 38
81 131 89
110 179 147
118 199 152
110 179 147
118 199 152
118 199 152
118 199 152
118 199 152
110 179 147
110 179 147
110 176 147
117 196 152
117 196 152
117 196 152
110 176 147
117 196 152
117 196 152
103 164 110
103 164 111
96 145 106
47 67 53
42 58 49
44 64 50
117 196 152
117 196 152
117 196 152
86 134 95
86 134 95
106 175 143
106 175 143
113 195 148
113 195 148
113 195 148
113 195 148
113 195 148
113 195 148
105 175 142
113 195 148
105 175 142
105 175 142
105 175 142
113 195 147
105 175 142
105 175 142
105 175 142
105 175 142
113 195 147
113 195 147
105 175 142
105 175 142
113 195 147
113 195 147
105 175 142
113 195 147
113 195 147
105 175 142
105 175 142
105 175 142
105 175 142
105 175 142
105 175 142
113 195 147
105 175 142
105 175 142
113 195 147
112 195 147
105 175 142
105 175 142
105 175 142
105 175 142
112 195 147
105 175 142
105 175 142
112 195 147
112 195 147
112 195 147
112 195 147
112 195 147
112 195 147
112 195 147
112 195 147
112 195 147
104 175 141
104 175 141
104 175 141
104 175 141
104 175 141
104 175 141
104 175 141
104 175 141
104 175 141
112 195 146
112 195 146
112 195 146
112 195 146
112 195 146
112 195 146
112 195 146
112 195 146
112 195 146
97 161 102
106 175 143
106 175 143
41 62 54
41 62 54
43 68 55
36 52 40
44 70 57
44 70 57
40 60 44
40 60 45
105 175 142
43 65 57
43 65 57
43 65 57
43 65 57
43 65 57
43 65 57
43 65 57
45 71 58
45 71 58
45 71 58
45 71 58
45 71 58
45 71 58
41 61 45
40 56 45
44 66 58
44 66 58
47 72 60
44 66 58
44 66 58
44 66 58
47 72 60
47 72 60
47 72 60
46 72 60
46 72 60
46 72 60
44 66 58
44 66 58
44 66 58
44 66 58
44 66 58
44 66 58
44 66 58
46 72 59
46 72 59
46 72 59
46 72 59
46 72 59
46 72 59
46 72 59
44 66 58
44 66 58
44 66 58
44 66 58
44 66 58
46 72 59
107 175 144
107 175 144
107 175 144
107 175 144
107 175 144
107 175 144
107 175 144
114 195 149
114 195 148
105 175 142
104 175 141
29 45 32
111 195 146
111 195 146
111 195 146
104 174 140
111 195 146
111 195 146
111 195 146
111 195 146
111 195 146
104 174 141
104 174 141
104 174 141
104 174 141
111 195 146
104 174 141
104 174 141
104 174 141
112 195 146
112 195 146
112 195 146
112 195 146
112 195 146
112 195 146
112 195 146
112 195 146
112 195 146
104 174 141
104 174 141
104 174 141
104 174 141
104 174 141
104 175 141
104 175 141
104 175 141
112 195 146
112 196 146
112 196 146
104 175 141
112 196 146
104 175 141
112 196 146
112 196 146
112 196 146
112 196 146
104 175 141
104 175 141
104 175 141
104 175 141
104 175 141
104 175 141
104 175 141
105 175 141
105 175 141
112 196 147
112 196 147
113 196 147
113 196 147
113 196 147
113 196 147
105 175 142
113 196 147
113 196 147
113 196 147
113 196 147
113 196 147
113 196 147
113 197 147
113 197 148
113 197 148
113 197 148
113 197 148
106 176 143
106 176 143
106 176 143
106 176 143
106 176 143
106 176 143
106 176 143
106 176 143
106 176 143
114 197 148
114 197 149
114 197 149
114 198 149
114 198 149
114 198 149
115 198 149
115 198 149
115 198 149
107 177 144
107 177 144
107 177 144
107 177 144
107 177 144
115 198 150
108 178 144
108 178 145
108 178 145
116 198 151
109 178 146
109 178 146
109 178 146
109 178 146
117 199 151
109 178 146
117 199 151
39 56 45
39 55 45
39 55 45
39 55 45
37 53 42
37 53 42
119 199 153
119 199 153
119 199 153
119 199 153
119 199 154
119 199 154
119 199 154
112 180 149
112 180 149
49 70 63
39 59 44
39 59 43
39 59 43
39 59 43
38 58 43
38 58 43
37 57 41
37 57 41
89 152 94
111 179 148
111 179 148
111 179 148
111 179 148
111 180 148
111 180 148
118 200 153
118 200 153
111 180 148
118 200 153
47 68 60
34 51 39
34 50 39
34 50 39
34 50 39
34 50 39
34 50 38
34 50 38
34 50 38
34 50 38
110 179 147
110 179 147
110 179 147
118 200 152
110 179 147
110 179 147
110 179 147
110 179 147
42 58 48
42 58 48
41 58 48
41 58 48
41 58 48
41 58 48
103 164 110
103 164 110
103 164 111
96 145 106
45 61 52
42 59 49
42 58 49
44 64 50
41 57 47
41 57 47
41 57 47
106 175 143
113 195 148
113 195 148
113 195 148
105 175 142
113 195 148
105 175 142
113 195 148
113 195 147
105 175 142
113 195 147
105 175 142
105 175 142
105 175 142
105 175 142
105 175 142
105 175 142
105 175 142
105 175 142
105 175 142
113 195 147
105 175 142
105 175 142
105 175 142
105 175 142
105 175 142
113 195 147
113 195 147
113 195 147
113 195 147
105 175 142
105 175 142
113 195 147
113 195 147
113 195 147
112 195 147
112 195 147
112 195 147
105 175 142
105 175 142
105 175 142
112 195 147
105 175 142
112 195 147
105 175 141
112 195 147
105 175 141
112 195 147
112 195 147
112 195 147
104 175 141
112 195 147
112 195 147
112 195 146
104 175 141
104 175 141
104 175 141
104 175 141
104 175 141
104 175 141
104 175 141
104 175 141
104 175 141
112 195 146
112 195 146
112 195 146
112 195 146
112 195 146
112 195 146
112 195 146
112 195 146
112 195 146
97 161 101
97 161 101
113 195 147
113 195 147
105 175 142
105 175 142
105 175 142
112 195 147
105 175 142
105 175 142
105 175 142
105 175 142
90 140 97
43 65 57
43 65 57
43 65 57
43 65 57
43 65 57
43 65 57
45 71 58
45 71 58
45 71 58
45 71 58
45 71 58
45 71 58
45 71 58
41 61 45
40 56 45
44 66 58
44 66 58
44 66 58
44 66 58
44 66 58
44 66 58
46 72 59
46 72 59
46 72 59
46 72 59
46 72 59
46 72 59
46 72 59
44 66 58
44 66 58
44 66 58
46 72 59
44 66 58
44 66 58
115 195 149
115 195 149
115 195 149
115 195 149
115 195 149
115 195 149
115 195 149
44 66 58
44 66 58
44 66 58
44 66 58
44 66 58
44 66 58
37 57 41
107 175 144
107 175 144
107 175 144
107 175 144
107 175 144
107 175 144
114 195 149
113 195 148
105 175 142
33 52 35
29 45 32
103 174 140
111 195 146
111 195 146
111 195 146
111 195 146
111 195 146
111 195 146
111 195 146
111 195 146
104 174 140
104 174 140
111 195 146
104 174 140
104 174 140
104 174 140
104 174 140
104 174 140
104 174 140
111 195 146
104 174 141
111 195 146
112 195 146
112 195 146
112 195 146
112 195 146
112 195 146
112 195 146
104 174 141
104 174 141
112 195 146
112 195 146
104 175 141
104 175 141
104 175 141
112 196 146
104 175 141
112 196 146
112 196 146
112 196 146
112 196 146
112 196 146
112 196 146
112 196 146
112 196 146
112 196 146
104 175 141
112 196 146
112 196 146
104 175 141
112 196 147
112 196 147
112 196 147
112 196 147
112 196 147
105 175 142
113 196 147
105 175 142
105 175 142
105 175 142
105 175 142
105 175 142
105 175 142
105 176 142
105 176 142
113 197 147
113 197 147
113 197 147
113 197 148
113 197 148
113 197 148
113 197 148
113 197 148
106 176 143
106 176 143
106 176 143
106 176 143
106 176 143
106 176 143
106 177 143
106 177 143
106 177 143
114 198 149
114 198 149
114 198 149
114 198 149
115 198 149
115 198 149
115 198 149
115 198 149
115 198 149
107 177 144
115 198 149
107 177 144
107 178 144
108 178 144
115 198 150
108 178 145
108 178 145
109 178 146
109 178 146
109 178 146
117 199 151
109 178 146
109 178 146
117 199 151
117 199 151
117 199 151
119 199 154
119 199 154
119 199 154
37 53 42
37 53 42
111 179 148
111 179 148
118 199 153
118 199 153
118 199 153
118 200 153
118 200 153
119 200 153
119 200 153
111 180 148
111 180 148
119 200 153
111 180 148
111 180 148
111 180 148
37 57 41
37 57 41
37 57 41
37 57 41
36 56 40
111 180 148
111 180 148
111 180 148
118 200 153
111 180 148
111 180 148
111 180 148
111 180 148
111 180 148
119 200 153
34 51 39
34 50 39
34 50 39
34 50 39
34 50 39
34 50 38
34 50 38
34 50 38
36 56 40
36 56 40
110 179 147
110 179 147
110 179 147
110 179 147
118 200 152
110 179 147
110 179 147
42 58 48
42 58 48
42 58 48
42 58 48
44 64 49
41 58 48
44 63 49
103 164 110
103 164 111
96 145 106
47 67 53
47 67 53
44 64 50
42 58 49
43 63 49
41 57 47
41 57 47
113 195 148
105 175 142
105 175 142
105 175 142
105 175 142
105 175 142
105 175 142
105 175 142
105 175 142
113 195 147
105 175 142
113 195 147
113 195 147
113 195 147
113 195 147
113 195 147
113 195 147
113 195 147
105 175 142
105 175 142
105 175 142
105 175 142
105 175 142
105 175 142
105 175 142
105 175 142
105 175 142
113 195 147
113 195 147
113 195 147
113 195 147
112 195 147
112 195 147
112 195 147
112 195 147
112 195 147
105 175 142
112 195 147
105 175 142
105 175 142
105 175 141
105 175 141
105 175 141
104 175 141
104 175 141
112 195 147
112 195 147
112 195 147
112 195 147
112 195 146
112 195 146
112 195 146
104 175 141
112 195 146
104 175 141
104 175 141
104 175 141
112 195 146
104 174 141
104 174 141
112 195 146
104 174 141
104 174 141
112 195 146
112 195 146
104 174 141
112 195 146
112 195 146
112 195 146
112 195 146
112 195 146
112 195 146
97 161 101
97 161 101
112 195 147
112 195 147
105 175 142
105 175 142
105 175 142
105 175 142
105 175 142
105 175 142
105 175 142
105 175 142
90 140 97
43 65 57
43 65 57
43 65 57
43 65 57
43 65 56
43 65 56
45 71 58
45 71 58
45 71 58
35 51 40
35 51 40
35 51 40
35 51 40
41 61 45
40 56 45
44 66 58
44 66 58
44 66 58
44 66 58
44 66 58
44 66 58
46 72 59
46 72 59
46 72 59
46 72 59
46 72 59
46 72 59
46 72 59
44 66 58
44 66 58
44 66 58
46 72 59
44 66 58
44 66 57
115 195 149
115 195 149
115 195 149
107 176 144
115 195 149
115 195 149
115 195 149
115 195 149
44 65 57
46 71 59
46 71 59
46 71 59
46 71 59
37 57 41
107 175 144
104 175 141
104 175 141
104 175 141
104 175 141
104 175 141
104 175 141
104 175 141
104 175 141
104 175 141
29 45 33
111 195 146
111 195 146
111 195 146
103 174 140
111 195 146
111 195 146
111 195 146
111 195 146
111 195 146
103 174 140
103 174 140
103 174 140
103 174 140
103 174 140
103 174 140
104 174 140
104 174 140
104 174 140
111 195 146
111 195 146
104 174 140
111 195 146
111 195 146
104 174 140
111 195 146
112 195 146
104 174 141
104 174 141
104 174 141
112 195 146
112 195 146
112 195 146
112 195 146
112 196 146
112 196 146
112 196 146
112 196 146
104 175 141
104 175 141
104 175 141
104 175 141
104 175 141
104 175 141
112 196 146
104 175 141
112 196 146
112 196 146
112 196 146
112 196 146
112 196 146
112 196 147
112 196 147
112 196 147
112 196 147
105 175 141
112 196 147
105 175 142
105 175 142
113 196 147
105 175 142
105 175 142
105 176 142
113 196 147
113 197 147
105 176 142
105 176 142
113 197 147
113 197 148
113 197 148
113 197 148
113 197 148
114 197 148
106 176 143
106 176 143
106 176 143
106 176 143
106 176 143
106 177 143
106 177 143
106 177 143
106 177 143
107 177 143
107 177 144
114 198 149
107 177 144
115 198 149
115 198 149
115 198 149
115 198 149
107 177 144
107 177 144
107 178 144
107 178 144
108 178 144
108 178 145
108 178 145
108 178 145
108 178 145
108 178 145
117 199 151
109 178 146
109 179 146
117 199 151
109 179 146
117 199 151
117 199 151
109 179 146
117 199 152
110 179 147
110 179 147
111 179 148
111 179 148
111 179 148
111 179 148
118 200 153
118 200 153
111 180 148
119 200 153
119 200 153
119 200 153
119 200 153
111 180 148
119 200 153
111 180 148
111 180 148
111 180 148
48 69 61
37 57 41
37 57 41
37 57 41
37 57 41
36 56 40
36 56 40
119 200 153
119 200 153
111 180 148
111 180 148
111 180 148
111 180 148
111 180 148
111 180 148
119 200 153
34 51 39
34 50 39
34 50 39
34 50 39
34 50 39
34 50 39
34 50 38
34 50 38
36 56 40
36 56 40
36 56 39
88 151 94
110 180 147
110 180 147
110 180 147
110 180 147
110 180 147
42 58 48
42 58 48
42 58 48
42 58 48
42 58 48
42 58 48
41 58 48
113 195 148
113 195 148
113 195 148
113 195 148
113 195 148
106 175 143
113 195 148
113 195 148
113 195 148
105 175 142
105 175 142
105 175 142
105 175 142
113 195 147
105 175 142
105 175 142
105 175 142
105 175 142
105 175 142
113 195 147
113 195 147
113 195 147
113 195 147
113 195 147
113 195 147
113 195 147
113 195 147
105 175 142
113 195 147
105 175 142
113 195 147
105 175 142
105 175 142
105 175 142
105 175 142
105 175 142
113 195 147
113 195 147
112 195 147
112 195 147
112 195 147
112 195 147
105 175 142
112 195 147
112 195 147
105 175 142
105 175 141
105 175 141
105 175 141
104 175 141
104 175 141
104 175 141
104 175 141
104 175 141
112 195 147
112 195 146
112 195 146
112 195 146
112 195 146
104 175 141
112 195 146
104 175 141
112 195 146
112 195 146
104 174 141
104 174 141
104 174 141
104 174 141
104 174 141
104 174 141
104 174 141
104 174 141
112 195 146
112 195 146
104 174 141
112 195 146
104 174 141
112 195 146
112 195 146
112 195 146
104 174 141
112 195 146
112 195 146
112 195 146
112 195 146
112 195 146
104 174 141
112 195 146
104 174 141
112 195 146
112 195 146
105 175 142
105 175 141
105 175 141
90 140 97
113 195 147
90 141 98
45 71 58
45 71 58
45 71 58
45 70 58
35 52 40
35 52 40
35 52 40
38 58 42
35 52 40
35 52 40
38 58 42
41 61 45
44 66 58
44 66 58
44 66 58
46 72 59
44 66 58
44 66 58
44 66 58
46 72 59
46 71 59
46 71 59
44 65 57
44 65 57
44 65 57
44 65 57
44 65 57
46 71 59
46 71 59
46 71 59
46 71 59
46 71 59
107 176 144
107 176 144
107 176 144
107 176 144
107 176 144
107 176 144
107 176 144
115 195 149
46 71 59
43 65 57
46 71 59
46 71 59
46 71 59
38 57 42
106 175 143
104 174 141
104 174 141
104 174 141
104 174 141
104 174 141
112 195 146
104 174 141
104 174 141
104 174 141
29 45 33
111 195 146
111 195 146
111 195 146
111 195 146
111 195 146
103 174 140
111 195 146
111 195 146
111 195 146
103 174 140
103 174 140
103 174 140
111 195 146
111 195 146
111 195 146
111 195 146
111 195 146
103 174 140
103 174 140
111 195 146
103 174 140
104 174 140
104 174 140
104 174 140
104 174 140
104 174 140
104 174 140
104 174 141
112 195 146
112 195 146
112 195 146
112 195 146
112 196 146
112 196 146
104 175 141
112 196 146
112 196 146
104 175 141
104 175 141
104 175 141
104 175 141
104 175 141
104 175 141
104 175 141
104 175 141
104 175 141
104 175 141
112 196 146
104 175 141
112 196 146
112 196 147
104 175 141
112 196 147
112 196 147
112 196 147
105 175 142
105 175 142
105 175 142
113 196 147
105 175 142
105 176 142
105 176 142
105 176 142
105 176 142
113 197 147
113 197 147
113 197 147
113 197 148
113 197 148
113 197 148
113 197 148
114 197 148
114 197 148
106 176 143
106 176 143
114 197 148
106 177 143
114 197 148
106 177 143
106 177 143
106 177 143
107 177 143
114 198 149
115 198 149
115 198 149
115 198 149
115 198 149
115 198 149
107 177 144
115 198 149
107 178 144
107 178 144
115 199 150
108 178 145
108 178 145
108 178 145
108 178 145
108 178 145
108 178 145
116 199 150
109 179 146
109 179 146
109 179 146
109 179 146
109 179 146
109 179 146
110 179 147
110 179 147
110 179 147
111 179 148
118 200 153
111 180 148
111 180 148
111 180 148
111 180 148
119 200 153
119 200 153
119 200 153
119 200 153
119 200 153
119 200 153
119 200 153
119 200 154
119 200 154
112 180 149
112 180 149
48 69 61
37 57 41
37 57 41
111 180 148
111 180 148
111 180 148
111 180 148
111 180 148
119 200 153
119 200 153
119 200 153
111 180 148
119 200 153
119 200 153
111 180 148
49 75 62
47 69 60
34 50 39
34 50 39
34 50 39
34 50 39
34 50 39
34 50 38
36 56 40
36 56 40
36 56 40
36 56 39
36 56 39
36 56 39
118 200 153
111 180 148
111 180 148
111 180 148
44 64 50
42 58 48
44 64 50
42 58 48
42 58 48
42 58 48
113 195 148
113 195 148
113 195 148
106 175 143
113 195 148
113 195 148
113 195 148
105 175 142
113 195 148
105 175 142
105 175 142
105 175 142
105 175 142
113 195 147
113 195 147
105 175 142
105 175 142
105 175 142
113 195 147
113 195 147
113 195 147
113 195 147
113 195 147
105 175 142
113 195 147
113 195 147
105 175 142
105 175 142
105 175 142
113 195 147
105 175 142
105 175 142
105 175 142
113 195 147
105 175 142
105 175 142
112 195 147
112 195 147
112 195 147
112 195 147
112 195 147
112 195 147
112 195 147
112 195 147
112 195 147
105 175 141
105 175 141
104 175 141
104 175 141
104 175 141
104 175 141
104 175 141
104 175 141
104 175 141
104 175 141
112 195 146
112 195 146
112 195 146
112 195 146
112 195 146
112 195 146
112 195 146
112 195 146
104 174 141
112 195 146
112 195 146
112 195 146
104 174 141
112 195 146
112 195 146
112 195 146
112 195 146
112 195 146
104 174 141
104 174 141
104 174 141
104 174 141
104 174 141
104 174 141
104 174 141
104 174 141
104 174 141
112 195 146
104 174 141
112 195 146
112 195 146
112 195 146
104 174 141
112 195 146
112 195 146
112 195 146
96 160 101
104 175 141
112 195 147
89 140 97
90 140 97
113 195 147
90 141 98
45 70 58
45 70 58
45 70 58
45 70 58
36 52 41
36 52 41
35 52 40
35 52 40
38 58 42
35 52 40
35 52 40
41 61 45
46 71 59
46 71 59
46 71 59
46 71 59
44 65 57
46 71 59
46 71 59
44 65 57
44 65 57
44 65 57
44 65 57
43 65 57
43 65 57
43 65 57
46 71 59
46 71 59
46 71 59
43 65 57
46 71 59
46 71 59
107 175 144
107 175 144
107 175 144
107 175 144
107 175 144
107 175 144
107 175 144
115 195 149
46 71 58
46 71 58
45 71 58
45 71 58
45 71 58
35 52 40
114 195 148
32 52 35
104 174 141
104 174 141
104 174 141
104 174 141
111 195 145
111 195 145
111 195 145
111 195 145
111 195 145
103 174 140
111 195 145
103 174 140
103 174 140
103 174 140
103 174 140
103 174 140
103 174 140
111 195 145
103 174 140
111 195 145
111 195 145
111 195 146
111 195 146
111 195 146
103 174 140
111 195 146
111 195 146
111 195 146
103 174 140
103 174 140
103 174 140
103 174 140
103 174 140
103 174 140
104 174 140
104 174 140
104 174 140
111 195 146
111 195 146
111 195 146
112 195 146
112 196 146
112 196 146
112 196 146
112 196 146
112 196 146
104 175 141
104 175 141
104 175 141
104 175 141
104 175 141
112 196 146
104 175 141
104 175 141
104 175 141
112 196 146
112 196 146
112 196 146
112 196 146
112 196 146
112 196 147
112 196 147
112 196 147
112 196 147
105 175 142
105 175 142
105 175 142
113 196 147
105 176 142
105 176 142
105 176 142
105 176 142
105 176 142
105 176 142
113 197 147
113 197 148
113 197 148
113 197 148
106 176 143
114 197 148
114 197 148
114 197 148
114 197 148
106 177 143
106 177 143
106 177 143
106 177 143
106 177 143
106 177 143
107 177 143
107 177 144
107 177 144
107 177 144
107 177 144
115 198 149
107 177 144
107 178 144
107 178 144
107 178 144
107 178 144
108 178 144
115 199 150
116 199 150
116 199 150
116 199 150
116 199 150
116 199 150
116 199 150
116 199 150
116 199 151
109 179 146
109 179 146
109 179 146
110 179 146
110 179 147
117 200 152
110 179 147
110 179 147
110 179 147
111 180 148
111 180 148
111 180 148
110 180 147
110 180 147
110 180 147
110 180 147
110 180 147
119 200 153
111 180 148
119 200 154
119 200 154
119 200 154
112 180 149
119 200 154
112 180 149
36 56 39
111 180 148
111 180 148
119 201 153
111 180 148
111 180 148
111 180 148
111 180 148
111 180 148
119 201 153
119 201 153
119 201 153
119 201 154
119 201 154
49 75 62
49 75 62
49 75 62
49 75 62
34 50 39
34 50 39
34 50 39
34 50 39
34 50 38
36 56 40
36 56 40
36 56 40
36 56 40
36 56 39
36 56 39
36 55 39
111 180 148
111 180 148
111 180 148
44 64 50
42 58 48
42 58 48
42 58 48
42 58 48
113 195 148
113 195 148
113 195 148
113 195 148
113 195 148
105 175 142
113 195 148
113 195 147
113 195 147
113 195 147
105 175 142
105 175 142
105 175 142
113 195 147
105 175 142
105 175 142
105 175 142
105 175 142
113 195 147
105 175 142
113 195 147
113 195 147
105 175 142
113 195 147
113 195 147
113 195 147
113 195 147
105 175 142
113 195 147
105 175 142
105 175 142
105 175 142
105 175 142
105 175 142
112 195 147
112 195 147
105 175 142
112 195 147
112 195 147
112 195 147
112 195 147
112 195 147
112 195 147
112 195 147
112 195 147
104 175 141
104 175 141
112 195 147
112 195 147
112 195 147
112 195 146
112 195 146
112 195 146
112 195 146
112 195 146
104 175 141
104 175 141
112 195 146
104 174 141
104 174 141
104 174 141
104 174 141
104 174 141
104 174 141
112 195 146
112 195 146
112 195 146
112 195 146
112 195 146
112 195 146
112 195 146
112 195 146
112 195 146
104 174 141
104 174 141
104 174 141
104 174 141
104 174 141
104 174 141
104 174 141
104 174 141
104 174 141
104 174 141
112 195 146
112 195 146
112 195 146
112 195 146
112 195 146
112 195 146
112 195 146
112 195 146
112 195 146
96 160 101
112 195 147
112 195 147
104 175 141
112 195 146
104 175 141
104 175 141
104 175 141
104 175 141
104 175 141
104 175 141
104 175 141
36 52 41
36 52 41
36 52 41
36 52 41
36 52 41
36 52 41
36 52 41
46 71 59
46 71 59
46 71 59
46 71 59
46 71 59
46 71 59
46 71 59
43 65 57
43 65 57
43 65 57
43 65 57
43 65 57
43 65 57
46 71 58
46 71 58
45 71 58
45 71 58
45 71 58
45 71 58
45 71 58
107 175 144
115 195 149
107 175 144
107 175 144
107 175 144
107 175 144
107 175 144
115 195 149
115 195 149
45 71 58
45 71 58
45 71 58
45 71 58
45 71 58
114 195 148
32 52 35
111 195 145
111 195 145
111 195 145
111 195 145
111 195 145
111 195 145
111 195 145
111 195 145
111 195 145
111 195 145
103 174 140
103 174 140
103 174 140
103 174 140
103 174 140
103 174 140
103 174 140
103 174 140
103 174 140
111 195 145
111 195 145
111 195 145
111 195 145
111 195 145
111 195 145
111 195 145
111 195 145
111 195 146
103 174 140
103 174 140
111 195 146
103 174 140
103 174 140
103 174 140
103 174 140
103 174 140
111 195 146
111 195 146
111 195 146
111 195 146
111 196 146
111 196 146
112 196 146
112 196 146
112 196 146
112 196 146
112 196 146
104 175 141
104 175 141
104 175 141
104 175 141
104 175 141
104 175 141
104 175 141
104 175 141
112 196 146
112 196 146
112 196 146
112 196 146
112 196 146
112 196 147
112 196 147
104 175 141
112 196 147
112 196 147
105 175 142
105 175 142
105 176 142
105 176 142
113 197 147
105 176 142
105 176 142
105 176 142
105 176 142
113 197 147
113 197 148
105 176 142
106 176 142
106 176 143
106 176 143
106 176 143
106 176 143
106 177 143
106 177 143
114 198 148
114 198 148
114 198 148
114 198 149
114 198 149
107 177 144
115 198 149
115 198 149
115 198 149
107 177 144
107 178 144
107 178 144
107 178 144
107 178 144
107 178 144
108 178 145
108 178 145
108 178 145
116 199 150
116 199 150
116 199 150
108 178 145
116 199 150
116 199 150
116 199 151
116 200 151
116 200 151
117 200 152
117 200 152
117 200 152
117 200 152
118 200 152
118 200 152
118 200 152
118 200 152
118 200 152
110 180 147
110 180 147
110 180 147
110 180 147
111 180 148
111 180 148
111 180 148
111 180 148
112 180 149
119 201 154
112 180 149
119 201 154
112 181 149
112 181 149
36 56 40
36 56 39
36 56 39
111 181 148
111 181 148
111 181 148
111 181 148
111 181 148
111 181 148
112 181 149
119 201 154
119 201 154
119 201 154
119 201 154
49 75 62
49 75 62
49 75 62
49 75 62
49 75 62
49 75 62
34 50 39
34 50 39
34 50 39
36 56 40
36 56 40
36 56 40
36 56 40
36 56 40
36 56 39
36 56 39
36 55 39
35 55 39
35 55 39
35 55 39
44 64 50
42 58 49
42 58 49
44 64 50
113 195 148
106 175 142
113 195 148
113 195 148
113 195 148
113 195 147
113 195 147
113 195 147
113 195 147
105 175 142
113 195 147
105 175 142
105 175 142
105 175 142
105 175 142
105 175 142
113 195 147
113 195 147
105 175 142
113 195 147
113 195 147
105 175 142
105 175 142
113 195 147
113 195 147
105 175 142
113 195 147
113 195 147
105 175 142
105 175 142
105 175 142
105 175 142
105 175 142
105 175 142
112 195 147
105 175 142
105 175 142
105 175 142
112 195 147
105 175 141
105 175 141
105 175 141
104 175 141
104 175 141
104 175 141
104 175 141
112 195 147
112 195 146
104 175 141
112 195 146
112 195 146
112 195 146
112 195 146
112 195 146
112 195 146
104 174 141
104 174 141
104 174 141
104 174 141
104 174 141
104 174 141
104 174 141
104 174 141
104 174 141
104 174 141
112 195 146
112 195 146
112 195 146
112 195 146
112 195 146
112 195 146
112 195 146
112 195 146
112 195 146
104 174 141
112 195 146
112 195 146
104 174 141
104 174 141
104 174 141
104 174 141
104 174 141
104 174 141
112 195 146
112 195 146
112 195 146
112 195 146
112 195 146
111 195 146
111 195 146
111 195 146
111 195 146
111 195 146
96 160 101
104 175 141
112 195 146
104 175 141
104 175 141
104 175 141
104 175 141
104 175 141
104 175 141
104 175 141
104 175 141
104 174 141
44 70 57
44 70 57
44 70 57
44 70 57
44 70 57
40 60 44
36 52 41
46 71 59
46 71 59
46 71 59
46 71 58
46 71 58
46 71 58
45 71 58
43 65 57
43 65 57
43 65 57
43 65 57
43 65 57
43 65 57
45 71 58
45 71 58
45 71 58
45 71 58
45 71 58
45 71 58
45 71 58
107 175 144
107 175 144
107 175 144
114 195 149
114 195 149
114 195 149
114 195 149
107 175 144
107 175 144
43 65 56
43 65 56
43 65 56
113 195 148
113 195 148
113 195 147
32 52 35
28 44 31
111 195 145
111 195 145
111 195 145
111 195 145
111 195 145
111 195 145
111 195 145
111 195 145
111 195 145
103 174 140
103 174 140
103 174 140
103 174 140
103 174 140
103 174 140
103 174 140
103 174 140
103 174 140
111 195 145
111 195 145
111 195 145
111 195 145
111 195 145
111 195 145
103 174 140
103 174 140
111 195 145
103 174 140
103 174 140
103 174 140
103 174 140
103 174 140
111 195 146
103 174 140
103 174 140
103 174 140
103 174 140
111 195 146
104 174 140
111 196 146
111 196 146
104 175 140
112 196 146
112 196 146
112 196 146
112 196 146
104 175 141
112 196 146
104 175 141
104 175 141
112 196 146
104 175 141
104 175 141
104 175 141
104 175 141
112 196 146
112 196 146
112 196 146
112 196 146
104 175 141
104 175 141
104 175 141
105 175 141
105 175 141
105 175 142
113 196 147
113 197 147
113 197 147
113 197 147
113 197 147
113 197 147
113 197 147
113 197 147
113 197 147
105 176 142
106 176 142
106 176 142
106 176 143
106 176 143
106 176 143
106 177 143
106 177 143
106 177 143
114 198 148
114 198 148
114 198 149
107 177 143
107 177 144
115 198 149
115 198 149
115 198 149
115 198 149
115 198 149
107 178 144
107 178 144
107 178 144
115 199 150
108 178 145
108 178 145
108 178 145
108 178 145
108 178 145
116 199 150
116 199 150
116 199 150
116 200 151
116 200 151
116 200 151
116 200 151
117 200 151
117 200 151
117 200 152
118 200 152
118 200 152
110 180 147
118 200 152
118 200 152
118 200 152
118 200 152
118 200 153
111 180 147
111 180 148
111 180 148
111 180 148
111 180 148
111 180 148
119 201 153
111 180 148
112 181 149
112 181 149
112 181 149
112 181 149
112 181 149
36 56 40
36 56 39
36 56 39
35 55 39
119 201 154
112 181 149
112 181 149
112 181 149
119 201 154
112 181 149
112 181 149
112 181 149
112 181 149
119 201 154
119 201 154
47 69 60
49 75 62
47 69 60
50 75 62
50 75 62
50 75 62
34 50 39
34 50 39
36 56 40
36 56 40
36 56 40
36 56 40
36 56 40
36 56 39
36 56 39
36 55 39
35 55 39
35 55 39
36 55 39
51 77 65
51 77 65
51 76 65
113 195 148
105 175 142
105 175 142
113 195 147
113 195 147
113 195 147
113 195 147
113 195 147
113 195 147
113 195 147
105 175 142
105 175 142
105 175 142
105 175 142
113 195 147
105 175 142
113 195 147
113 195 147
113 195 147
113 195 147
105 175 142
105 175 142
105 175 142
105 175 142
105 175 142
105 175 142
105 175 142
105 175 142
112 195 147
112 195 147
112 195 147
112 195 147
112 195 147
112 195 147
112 195 147
112 195 147
112 195 147
105 175 141
112 195 147
104 175 141
104 175 141
104 175 141
104 175 141
104 175 141
104 175 141
104 175 141
104 175 141
112 195 146
112 195 146
112 195 146
112 195 146
112 195 146
104 175 141
112 195 146
112 195 146
112 195 146
104 174 141
104 174 141
112 195 146
104 174 141
104 174 141
104 174 141
104 174 141
104 174 141
104 174 141
112 195 146
104 174 141
112 195 146
112 195 146
112 195 146
112 195 146
112 195 146
112 195 146
112 195 146
112 195 146
112 195 146
104 174 141
104 174 141
104 174 141
104 174 141
104 174 141
104 174 141
104 174 141
104 174 141
111 195 146
111 195 146
111 195 146
111 195 146
111 195 146
111 195 146
111 195 146
111 195 146
111 195 146
96 160 100
96 160 101
97 161 101
112 195 146
104 175 141
104 175 141
104 174 141
104 174 141
104 174 141
104 174 141
112 195 146
104 174 141
89 140 96
113 195 147
105 175 142
44 70 57
44 70 57
44 70 57
40 60 44
36 52 41
45 71 58
45 71 58
45 71 58
45 71 58
45 71 58
45 71 58
43 65 57
45 71 58
45 71 58
45 71 58
45 71 58
45 71 58
45 71 58
43 65 57
43 65 57
43 65 56
43 65 56
43 65 56
43 65 56
43 65 56
114 195 149
114 195 149
114 195 149
114 195 149
114 195 149
114 195 149
114 195 149
113 195 147
104 174 141
104 174 141
104 174 141
104 174 141
104 174 141
104 174 141
104 174 141
104 174 141
28 44 31
111 195 145
111 195 145
111 195 145
111 195 145
111 195 145
111 195 145
103 174 140
103 174 140
111 195 145
103 174 140
103 174 140
103 174 140
103 174 140
103 174 140
103 174 140
103 174 140
103 174 140
103 174 140
103 174 140
111 195 145
111 195 145
111 195 145
111 195 145
111 195 145
111 195 145
111 195 145
111 195 145
111 195 145
103 174 140
111 195 145
103 174 140
111 195 145
103 174 140
103 174 140
103 174 140
103 174 140
103 174 140
111 195 146
111 196 146
103 174 140
111 196 146
111 196 146
111 196 146
104 175 140
104 175 141
104 175 141
104 175 141
112 196 146
112 196 146
112 196 146
112 196 146
112 196 146
112 196 146
112 196 146
112 196 146
104 175 141
104 175 141
112 196 146
104 175 141
112 196 146
104 175 141
104 175 141
105 175 141
105 175 141
105 175 142
113 197 147
113 197 147
113 197 147
113 197 147
113 197 147
113 197 147
113 197 147
113 197 147
113 197 148
113 197 148
106 176 142
106 176 143
106 176 143
114 197 148
106 177 143
106 177 143
106 177 143
106 177 143
106 177 143
114 198 149
114 198 149
114 198 149
115 198 149
107 177 144
115 198 149
115 198 149
115 199 149
107 178 144
107 178 144
107 178 144
108 178 144
108 178 145
108 178 145
116 199 150
108 178 145
108 178 145
108 179 145
108 179 145
116 200 150
116 200 151
109 179 145
116 200 151
117 200 151
117 200 151
117 200 151
117 200 151
109 179 146
118 200 152
118 200 152
118 200 152
118 201 152
118 201 152
118 201 153
118 201 153
118 201 153
118 201 153
111 180 148
111 180 148
111 180 148
111 181 148
119 201 153
111 181 148
111 181 148
111 181 148
112 181 149
112 181 149
48 70 61
50 76 63
36 56 40
36 56 39
36 56 39
36 55 39
35 55 39
112 181 149
112 181 149
112 181 149
112 181 149
112 181 149
120 202 154
112 181 149
112 181 149
120 202 154
120 202 154
120 202 154
47 69 61
50 75 62
50 75 62
50 75 62
50 75 62
50 75 62
50 75 62
36 56 40
36 56 40
36 56 40
36 56 40
36 56 40
36 56 39
36 56 39
36 56 39
35 55 39
36 55 39
36 56 39
113 195 148
113 195 148
105 175 142
105 175 142
105 175 142
105 175 142
113 195 147
105 175 142
105 175 142
105 175 142
105 175 142
105 175 142
105 175 142
113 195 147
113 195 147
113 195 147
113 195 147
113 195 147
113 195 147
105 175 142
113 195 147
105 175 142
105 175 142
105 175 142
105 175 142
105 175 142
105 175 142
113 195 147
105 175 142
105 175 142
112 195 147
112 195 147
105 175 142
112 195 147
112 195 147
112 195 147
112 195 147
112 195 147
112 195 147
104 175 141
104 175 141
104 175 141
104 175 141
104 175 141
104 175 141
112 195 146
104 175 141
104 175 141
104 175 141
112 195 146
112 195 146
112 195 146
112 195 146
112 195 146
104 174 141
112 195 146
112 195 146
112 195 146
104 174 141
104 174 141
104 174 141
104 174 141
104 174 141
104 174 141
104 174 141
104 174 141
104 174 141
104 174 141
112 195 146
112 195 146
112 195 146
112 195 146
104 174 141
112 195 146
112 195 146
112 195 146
112 195 146
104 174 141
104 174 141
104 174 141
104 174 141
104 174 141
104 174 141
104 174 141
104 174 141
104 174 141
104 174 140
111 195 146
111 195 146
111 195 146
104 174 140
111 195 146
103 174 140
111 195 146
103 174 140
103 174 140
96 160 100
96 160 101
97 161 101
104 174 141
104 174 141
104 174 141
104 174 141
104 174 141
104 174 141
104 174 141
104 174 141
104 174 141
89 140 96
113 195 147
90 140 97
44 70 57
44 70 57
44 70 57
40 60 44
43 68 55
42 68 55
42 68 55
42 68 55
42 68 55
43 65 57
43 65 57
43 65 56
45 71 58
45 71 58
45 71 58
45 71 58
45 71 58
45 71 58
43 65 56
43 65 56
43 65 56
43 65 56
43 64 56
43 64 56
43 64 56
114 195 149
114 195 149
114 195 149
114 195 149
114 195 149
114 195 149
114 195 149
104 174 141
104 174 141
112 195 146
104 174 141
112 195 146
104 174 141
104 174 141
104 174 141
112 195 146
28 44 32
111 195 145
111 195 145
111 195 145
111 195 145
111 195 145
103 174 140
111 195 145
111 195 145
103 174 140
103 174 140
103 174 140
103 174 140
103 174 140
103 174 140
103 174 140
111 195 145
103 174 140
103 174 140
103 174 140
111 195 145
111 195 145
111 195 145
103 174 140
111 195 145
111 195 145
111 195 145
103 174 140
103 174 140
111 195 145
111 195 145
111 195 145
111 195 145
111 195 145
103 174 140
111 195 145
111 195 145
111 195 146
111 196 146
103 174 140
103 174 140
103 174 140
103 175 140
104 175 140
104 175 140
104 175 140
104 175 141
104 175 141
104 175 141
104 175 141
112 196 146
104 175 141
112 196 146
112 196 146
104 175 141
112 196 146
112 196 146
104 175 141
104 175 141
104 175 141
104 175 141
104 175 141
104 175 141
105 175 141
105 175 141
105 176 142
105 176 142
113 197 147
113 197 147
113 197 147
113 197 147
113 197 147
113 197 147
113 197 147
105 176 142
113 197 148
113 197 148
106 176 143
106 177 143
106 177 143
106 177 143
106 177 143
106 177 143
106 177 143
106 177 143
106 177 143
114 198 149
115 198 149
115 198 149
115 198 149
115 199 149
115 199 149
115 199 149
115 199 149
115 199 150
108 178 144
108 178 145
108 178 145
108 178 145
108 178 145
108 179 145
108 179 145
108 179 145
108 179 145
109 179 145
116 200 151
117 200 151
117 200 151
117 200 151
117 200 151
117 200 151
117 200 151
117 200 151
109 180 146
118 201 152
118 201 152
118 201 153
118 201 153
118 201 153
118 201 153
119 201 153
111 181 148
111 181 148
111 181 148
111 181 148
111 181 148
111 181 148
111 181 148
119 201 154
111 181 148
112 181 149
112 181 149
48 70 61
36 56 40
36 56 40
36 56 39
36 56 39
36 55 39
35 55 39
35 55 39
112 181 149
120 202 154
120 202 154
120 202 154
120 202 154
120 202 154
120 202 154
120 202 154
120 202 154
112 181 149
112 181 149
47 69 61
47 69 61
48 69 61
48 69 61
48 69 61
50 76 62
48 69 61
36 56 40
36 56 40
36 56 40
36 56 40
36 56 39
36 56 39
36 56 39
36 56 39
36 56 39
33 50 38
113 195 147
105 175 142
105 175 142
105 175 142
105 175 142
105 175 142
113 195 147
105 175 142
105 175 142
105 175 142
113 195 147
105 175 142
113 195 147
113 195 147
113 195 147
113 195 147
113 195 147
113 195 147
105 175 142
105 175 142
105 175 142
105 175 142
113 195 147
113 195 147
105 175 142
105 175 142
105 175 142
112 195 147
105 175 142
112 195 147
112 195 147
112 195 147
105 175 142
112 195 147
112 195 147
112 195 147
112 195 147
112 195 147
112 195 147
104 175 141
112 195 147
104 175 141
104 175 141
104 175 141
104 175 141
104 175 141
104 175 141
104 175 141
112 195 146
112 195 146
112 195 146
112 195 146
112 195 146
112 195 146
112 195 146
112 195 146
112 195 146
112 195 146
104 174 141
104 174 141
104 174 141
104 174 141
112 195 146
104 174 141
104 174 141
104 174 141
104 174 141
104 174 141
112 195 146
112 195 146
112 195 146
112 195 146
112 195 146
104 174 141
104 174 141
104 174 141
104 174 141
112 195 146
112 195 146
111 195 146
111 195 146
111 195 146
111 195 146
111 195 146
111 195 146
111 195 146
104 174 140
111 195 146
103 174 140
103 174 140
111 195 146
103 174 140
103 174 140
103 174 140
103 174 140
103 174 140
88 139 95
96 160 101
97 161 101
104 174 141
104 174 141
104 174 141
104 174 141
104 174 141
104 174 141
104 174 141
104 174 141
112 195 146
89 140 96
89 140 97
90 140 97
104 174 141
104 174 141
104 174 141
104 174 141
112 195 146
104 174 141
42 68 55
42 68 55
42 68 55
43 65 56
43 65 56
45 71 58
45 71 58
45 71 58
45 70 58
45 70 58
45 70 58
41 63 54
43 64 56
43 64 56
43 64 56
43 64 56
43 64 56
43 64 56
43 64 56
106 175 143
106 175 143
106 175 143
106 175 143
106 175 143
106 175 143
106 175 143
104 174 141
112 195 146
112 195 146
104 174 141
112 195 146
104 174 141
104 174 141
104 174 141
104 174 141
28 44 32
111 195 145
111 195 145
111 195 145
111 195 145
111 195 145
111 195 145
111 195 145
111 195 145
111 195 145
103 174 140
111 195 145
111 195 145
111 195 145
111 195 145
111 195 145
111 195 145
111 195 145
111 195 145
111 195 145
111 195 145
103 174 140
103 174 140
103 174 140
103 174 140
103 174 140
103 174 140
103 174 140
103 174 140
111 195 145
111 195 145
111 195 145
111 195 145
111 195 145
103 174 140
111 195 145
103 174 140
111 196 145
111 196 145
103 174 140
103 174 140
103 174 140
103 175 140
103 175 140
104 175 140
104 175 140
104 175 140
112 196 146
112 196 146
112 196 146
112 196 146
112 196 146
112 196 146
112 196 146
112 196 146
112 196 146
112 196 146
112 196 146
104 175 141
104 175 141
104 175 141
104 175 141
104 175 141
105 175 141
105 176 142
113 197 147
105 176 142
105 176 142
105 176 142
113 197 147
113 197 147
113 197 147
113 197 147
113 197 148
113 197 148
113 197 148
114 197 148
114 198 148
106 177 143
106 177 143
114 198 148
106 177 143
106 177 143
106 177 143
106 177 143
107 177 143
107 177 144
115 198 149
115 199 149
115 199 149
115 199 149
107 178 144
115 199 149
115 199 150
115 199 150
116 199 150
108 178 145
108 178 145
108 179 145
108 179 145
116 200 150
108 179 145
116 200 151
116 200 151
117 200 151
117 200 151
109 179 146
109 179 146
117 200 151
109 180 146
109 180 146
109 180 146
110 180 146
110 180 147
110 180 147
118 201 153
118 201 153
119 201 153
119 201 153
119 201 153
119 201 153
119 201 153
119 201 153
119 202 153
111 181 148
111 181 148
112 181 148
119 202 154
119 202 154
119 202 154
119 202 154
120 202 154
112 181 149
36 56 40
36 56 40
36 56 40
36 56 39
36 55 39
35 55 39
35 55 39
33 49 37
120 202 154
120 202 154
120 202 154
120 202 155
112 182 149
120 202 155
120 202 155
113 182 150
120 202 155
113 182 150
113 182 150
113 182 150
48 70 61
50 76 62
48 70 61
48 70 61
48 70 61
48 70 61
36 56 40
36 56 40
36 56 40
36 56 39
36 56 39
36 56 39
36 56 39
36 56 39
36 56 40
105 175 142
113 195 147
113 195 147
105 175 142
105 175 142
105 175 142
105 175 142
113 195 147
105 175 142
113 195 147
113 195 147
113 195 147
105 175 142
113 195 147
113 195 147
113 195 147
113 195 147
113 195 147
113 195 147
105 175 142
105 175 142
105 175 142
105 175 142
105 175 142
105 175 142
105 175 142
105 175 142
105 175 142
105 175 142
105 175 142
112 195 147
105 175 141
112 195 147
112 195 147
104 175 141
112 195 147
112 195 147
112 195 147
104 175 141
104 175 141
112 195 146
104 175 141
104 175 141
104 175 141
112 195 146
112 195 146
104 174 141
104 174 141
112 195 146
112 195 146
112 195 146
112 195 146
112 195 146
112 195 146
112 195 146
112 195 146
112 195 146
112 195 146
112 195 146
104 174 141
104 174 141
112 195 146
104 174 141
112 195 146
112 195 146
112 195 146
112 195 146
112 195 146
104 174 141
104 174 141
104 174 141
104 174 141
104 174 141
104 174 141
104 174 141
104 174 141
111 195 146
104 174 140
111 195 146
104 174 140
104 174 140
111 195 146
111 195 146
111 195 146
111 195 146
111 195 146
111 195 146
103 174 140
111 195 146
103 174 140
111 195 146
103 174 140
103 174 140
103 174 140
103 174 140
111 195 145
88 139 95
96 160 101
97 161 101
104 174 141
112 195 146
112 195 146
104 174 141
112 195 146
112 195 146
112 195 146
112 195 146
112 195 146
112 195 146
104 174 141
104 174 141
104 174 141
104 174 141
104 174 141
104 174 141
104 174 141
112 195 146
42 68 54
113 195 147
113 195 147
43 69 56
41 63 54
41 63 54
41 63 54
41 63 54
41 63 54
41 63 54
104 175 141
104 175 141
104 175 141
104 175 141
104 175 141
104 175 141
104 175 141
104 175 141
112 195 147
112 195 147
112 195 147
112 195 147
112 195 147
112 195 147
104 175 141
112 195 147
104 174 141
104 174 141
112 195 146
104 174 141
104 174 141
104 174 141
104 174 141
104 174 141
104 174 141
28 44 32
28 44 31
28 44 31
28 44 31
30 50 32
28 44 31
28 44 31
28 44 31
28 44 31
28 44 31
28 44 31
111 195 145
111 195 145
111 195 145
111 195 145
111 195 145
103 174 140
111 195 145
111 195 145
111 195 145
103 174 140
111 195 145
111 195 145
103 174 140
103 174 140
103 174 140
103 174 140
103 174 140
103 174 140
103 174 140
111 195 145
111 195 145
111 195 145
111 195 145
111 195 145
103 174 140
111 195 145
111 196 145
111 196 145
111 196 145
103 174 140
103 174 140
103 175 140
103 175 140
103 175 140
104 175 140
104 175 140
104 175 140
112 196 146
112 196 146
112 196 146
112 196 146
112 196 146
112 196 146
112 196 146
112 196 146
112 196 146
112 196 146
112 196 146
104 175 141
104 175 141
104 175 141
104 175 141
105 176 141
105 176 142
105 176 142
105 176 142
105 176 142
113 197 147
113 197 147
113 197 147
113 197 147
113 197 147
113 197 148
113 197 148
113 197 148
114 198 148
106 177 143
106 177 143
114 198 148
106 177 143
114 198 148
106 177 143
106 177 143
107 177 143
107 177 144
115 199 149
115 199 149
115 199 149
107 178 144
115 199 149
107 178 144
107 178 144
108 178 144
108 178 145
108 178 145
108 179 145
116 200 150
116 200 150
116 200 150
116 200 151
116 200 151
116 200 151
117 200 151
117 200 151
109 180 146
109 180 146
117 201 151
117 201 151
109 180 146
110 180 146
117 201 152
110 180 147
110 180 147
110 180 147
110 180 147
111 181 148
111 181 148
111 181 148
111 181 148
111 181 148
111 181 148
111 181 148
112 181 148
112 181 149
119 202 154
119 202 154
120 202 154
120 202 154
120 202 154
120 202 154
120 202 154
120 202 154
120 202 154
36 56 40
36 56 40
36 56 39
36 56 39
35 55 39
35 55 39
33 49 37
33 49 37
80 131 88
120 202 155
120 202 155
120 202 155
120 202 155
120 202 155
120 202 155
113 182 150
120 202 155
113 182 150
113 182 150
113 182 150
48 70 61
50 76 63
48 70 61
48 70 61
50 76 63
48 70 61
36 56 40
36 56 40
36 56 40
36 56 39
36 56 39
36 56 39
36 56 40
36 56 40
105 175 142
105 175 142
105 175 142
113 195 147
105 175 142
113 195 147
105 175 142
105 175 142
113 195 147
113 195 147
113 195 147
113 195 147
113 195 147
105 175 142
113 195 147
105 175 142
113 195 147
113 195 147
105 175 142
105 175 142
105 175 142
105 175 142
105 175 142
105 175 142
105 175 142
105 175 142
105 175 142
105 175 141
112 195 147
112 195 147
112 195 147
112 195 147
112 195 147
112 195 147
112 195 147
112 195 146
112 195 146
104 175 141
104 175 141
104 175 141
112 195 146
104 175 141
112 195 146
104 174 141
112 195 146
112 195 146
112 195 146
104 174 141
104 174 141
104 174 141
112 195 146
104 174 141
112 195 146
104 174 141
104 174 141
104 174 141
104 174 141
112 195 146
112 195 146
112 195 146
112 195 146
112 195 146
112 195 146
112 195 146
112 195 146
112 195 146
104 174 141
104 174 141
104 174 141
112 195 146
104 174 141
104 174 141
104 174 141
104 174 140
104 174 140
104 174 140
111 195 146
111 195 146
111 195 146
111 195 146
111 195 146
111 195 146
111 195 146
111 195 146
111 195 146
111 195 146
103 174 140
103 174 140
103 174 140
103 174 140
103 174 140
103 174 140
103 174 140
103 174 140
103 174 140
88 139 95
88 139 95
96 160 101
96 161 101
112 195 146
112 195 146
112 195 146
112 195 146
112 195 146
112 195 146
112 195 146
112 195 146
112 195 146
104 174 141
112 195 146
112 195 146
104 174 141
104 174 141
112 195 146
104 174 141
104 174 141
104 174 141
104 175 141
112 195 147
112 195 147
112 195 147
104 175 141
112 195 147
112 195 147
112 195 147
112 195 147
112 195 147
104 175 141
104 175 141
104 175 141
104 175 141
104 175 141
104 175 141
104 175 141
104 175 141
112 195 146
112 195 146
104 175 141
112 195 146
112 195 146
112 195 146
112 195 146
112 195 146
104 174 140
104 174 140
104 174 140
104 174 140
104 174 140
104 174 140
111 195 146
104 174 140
104 174 140
29 45 32
28 44 31
28 44 31
28 44 31
28 44 31
28 44 31
28 44 31
28 44 31
28 44 31
28 44 31
28 44 31
103 174 140
111 195 145
111 195 145
111 195 145
111 195 145
103 174 140
111 195 145
111 195 145
103 174 140
103 174 140
103 174 140
103 174 140
103 174 140
103 174 140
103 174 140
111 195 145
103 174 140
103 174 140
103 174 140
111 195 145
111 195 145
111 195 145
111 195 145
111 195 145
111 195 145
103 174 140
111 196 145
103 174 140
111 196 145
111 196 145
103 174 140
103 175 140
103 175 140
103 175 140
111 196 146
111 196 146
112 196 146
104 175 141
112 196 146
112 196 146
112 196 146
112 196 146
112 196 146
112 196 146
112 196 146
112 196 146
112 196 146
112 196 146
104 175 141
104 175 141
104 175 141
104 175 141
112 197 147
105 176 142
105 176 142
113 197 147
105 176 142
105 176 142
113 197 147
113 197 147
105 176 142
113 197 148
105 176 142
106 176 142
106 177 143
106 177 143
106 177 143
114 198 148
106 177 143
114 198 148
114 198 148
114 198 149
114 198 149
115 198 149
115 199 149
115 199 149
115 199 149
107 178 144
107 178 144
107 178 144
107 178 144
108 178 145
108 178 145
108 179 145
108 179 145
108 179 145
108 179 145
108 179 145
116 200 151
116 200 151
117 200 151
117 200 151
117 200 151
117 201 151
117 201 151
117 201 151
109 180 146
117 201 152
110 180 147
110 180 147
110 180 147
110 180 147
110 181 147
110 181 147
118 202 152
110 181 147
111 181 148
111 181 148
111 181 148
112 181 148
112 181 149
112 181 149
112 182 149
112 182 149
112 182 149
120 202 154
120 202 154
120 202 154
120 202 154
120 203 154
120 203 154
120 203 155
120 203 155
120 203 155
36 56 40
36 56 39
36 56 39
35 55 39
33 49 37
33 49 37
33 49 37
33 49 37
33 49 37
121 203 155
121 203 155
121 203 155
121 203 155
121 203 155
121 203 155
121 203 155
121 203 155
121 203 155
113 182 150
121 203 155
50 76 63
48 70 61
48 70 61
48 70 61
50 76 63
50 76 63
51 76 63
36 56 40
36 56 39
36 56 39
36 56 40
36 56 40
36 56 40
113 195 147
113 195 147
105 175 142
113 195 147
105 175 142
105 175 142
105 175 142
105 175 142
105 175 142
113 195 147
113 195 147
105 175 142
113 195 147
113 195 147
105 175 142
113 195 147
112 195 147
105 175 142
105 175 142
105 175 142
105 175 142
105 175 142
105 175 142
112 195 147
105 175 141
112 195 147
112 195 147
104 175 141
104 175 141
104 175 141
104 175 141
104 175 141
104 175 141
104 175 141
104 175 141
104 175 141
104 175 141
112 195 146
112 195 146
104 174 141
112 195 146
112 195 146
112 195 146
112 195 146
112 195 146
112 195 146
104 174 141
104 174 141
104 174 141
112 195 146
104 174 141
112 195 146
104 174 141
104 174 141
104 174 141
104 174 141
112 195 146
112 195 146
104 174 141
112 195 146
112 195 146
112 195 146
112 195 146
112 195 146
112 195 146
112 195 146
104 174 141
104 174 141
104 174 141
104 174 140
111 195 146
104 174 140
111 195 146
104 174 140
104 174 140
103 174 140
111 195 146
103 174 140
111 195 146
111 195 146
111 195 146
103 174 140
103 174 140
111 195 146
111 195 146
103 174 140
103 174 140
111 195 145
103 174 140
103 174 140
103 174 140
103 174 140
103 174 140
111 195 145
103 174 140
88 139 95
88 139 95
96 160 101
112 195 146
112 195 146
112 195 146
112 195 146
104 174 141
112 195 146
112 195 146
112 195 146
112 195 146
112 195 146
104 174 141
104 174 141
104 174 141
104 174 141
104 174 141
104 174 141
104 174 141
112 195 146
88 140 95
104 175 141
104 175 141
112 195 147
112 195 147
112 195 147
112 195 146
112 195 146
104 175 141
112 195 146
112 195 146
104 175 141
104 175 141
104 175 141
104 175 141
104 175 141
104 175 141
104 175 141
112 195 146
112 195 146
112 195 146
112 195 146
112 195 146
112 195 146
112 195 146
112 195 146
112 195 146
31 51 34
104 174 140
104 174 140
104 174 140
111 195 146
111 195 146
111 195 146
111 195 146
111 195 146
39 65 50
28 44 31
28 44 31
28 44 31
28 44 31
28 44 31
28 44 31
28 44 31
28 44 31
28 44 31
28 44 31
111 195 145
111 195 145
111 195 145
111 195 145
111 195 145
111 195 145
103 174 140
111 195 145
111 195 145
111 195 145
103 174 140
111 195 145
103 174 140
111 195 145
111 195 145
103 174 140
103 174 140
103 174 140
103 174 140
111 195 145
111 195 145
111 195 145
111 195 145
111 195 145
111 196 145
111 196 145
111 196 145
111 196 145
103 174 140
103 174 140
103 174 140
103 175 140
103 175 140
103 175 140
103 175 140
104 175 140
104 175 140
104 175 140
104 175 141
112 196 146
112 196 146
112 196 146
112 196 146
112 196 146
112 196 146
112 196 146
104 175 141
104 175 141
104 175 141
104 175 141
112 197 147
104 176 141
112 197 147
113 197 147
113 197 147
105 176 142
113 197 147
113 197 147
105 176 142
105 176 142
105 176 142
105 176 142
106 176 142
114 198 148
106 177 143
106 177 143
106 177 143
106 177 143
114 198 148
106 177 143
114 198 149
114 198 149
115 199 149
115 199 149
107 178 144
107 178 144
115 199 149
115 199 149
107 178 144
115 199 150
108 178 145
108 179 145
108 179 145
108 179 145
108 179 145
116 200 150
116 200 151
116 200 151
117 200 151
117 200 151
117 201 151
117 201 151
117 201 151
117 201 151
117 201 152
117 201 152
117 201 152
110 180 147
118 201 152
110 181 147
110 181 147
110 181 147
110 181 147
118 202 153
111 181 147
111 181 148
111 181 148
112 181 149
112 182 149
112 182 149
112 182 149
112 182 149
112 182 149
120 203 154
112 182 149
112 182 149
120 203 154
120 203 155
120 203 155
120 203 155
120 203 155
120 203 155
120 203 155
113 182 150
113 183 150
36 56 39
36 56 39
35 55 39
33 49 37
33 49 37
33 49 37
33 49 37
33 49 37
33 49 37
121 203 155
113 183 150
113 183 150
121 203 155
121 203 155
121 203 155
113 183 150
121 203 155
113 183 150
121 203 155
113 183 150
51 76 63
51 76 63
48 70 62
48 70 62
51 76 63
48 70 62
48 70 62
36 56 39
36 56 40
36 56 40
36 56 40
51 76 63
105 175 142
105 175 142
105 175 142
105 175 142
105 175 142
113 195 147
113 195 147
113 195 147
105 175 142
113 195 147
105 175 142
105 175 142
105 175 142
105 175 142
105 175 142
105 175 142
105 175 142
112 195 147
112 195 147
112 195 147
105 175 142
112 195 147
112 195 147
112 195 147
104 175 141
112 195 147
104 175 141
104 175 141
104 175 141
104 175 141
104 175 141
104 175 141
104 175 141
104 175 141
104 175 141
104 175 141
112 195 146
112 195 146
112 195 146
104 174 141
112 195 146
112 195 146
112 195 146
112 195 146
112 195 146
112 195 146
104 174 141
104 174 141
104 174 141
104 174 141
104 174 141
112 195 146
104 174 141
104 174 141
104 174 141
104 174 141
112 195 146
112 195 146
112 195 146
112 195 146
112 195 146
112 195 146
112 195 146
111 195 146
111 195 146
104 174 141
104 174 140
104 174 140
104 174 140
104 174 140
104 174 140
111 195 146
103 174 140
103 174 140
103 174 140
111 195 146
111 195 146
111 195 146
111 195 146
111 195 146
111 195 146
111 195 145
103 174 140
111 195 145
111 195 145
103 174 140
103 174 140
103 174 140
103 174 140
103 174 140
103 174 140
103 174 140
103 174 140
103 174 140
111 195 145
88 139 95
88 139 95
96 160 101
112 195 146
112 195 146
112 195 146
104 174 141
112 195 146
112 195 146
112 195 146
112 195 146
112 195 146
104 174 141
104 174 141
104 174 141
104 174 141
104 174 141
112 195 146
104 174 141
112 195 146
104 174 141
88 140 95
104 175 141
112 195 146
112 195 146
112 195 146
112 195 146
112 195 146
112 195 146
112 195 146
112 195 146
112 195 146
104 175 141
104 175 141
104 175 141
104 175 141
104 175 141
104 175 141
112 195 146
103 174 140
103 174 140
103 174 140
103 174 140
111 195 146
103 174 140
103 174 140
111 195 146
103 174 140
103 174 140
111 195 146
111 195 146
111 195 146
111 195 146
111 195 146
111 195 146
39 65 50
36 58 49
36 58 49
28 44 31
28 44 31
28 44 31
28 44 31
28 44 31
28 44 31
30 50 32
28 44 31
28 44 31
28 44 31
111 195 145
111 195 145
111 195 145
111 195 145
111 195 145
111 195 145
111 195 145
111 195 145
111 195 145
111 195 145
103 174 140
103 174 140
103 174 140
103 174 140
103 174 140
103 174 140
103 174 140
111 195 145
111 195 145
103 174 140
111 195 145
111 195 145
111 195 145
111 195 145
111 196 145
111 196 145
111 196 145
111 196 145
103 174 140
103 174 140
111 196 145
103 175 140
111 196 146
111 196 146
111 196 146
103 175 140
111 196 146
112 196 146
112 196 146
104 175 141
104 175 141
104 175 141
104 175 141
104 175 141
112 196 146
104 175 141
104 175 141
104 175 141
104 175 141
112 197 147
112 197 147
105 176 141
113 197 147
113 197 147
113 197 147
113 197 147
113 197 147
113 197 147
113 197 147
113 197 147
105 176 142
105 176 142
106 177 142
106 177 143
106 177 143
114 198 148
106 177 143
106 177 143
106 177 143
106 177 143
114 198 149
115 199 149
107 178 144
115 199 149
107 178 144
115 199 149
115 199 149
115 199 150
108 178 144
108 178 145
108 179 145
108 179 145
108 179 145
108 179 145
108 179 145
108 179 145
109 179 145
109 179 146
117 201 151
117 201 151
117 201 151
117 201 151
117 201 152
117 201 152
117 201 152
118 201 152
118 201 152
118 202 152
110 181 147
110 181 147
110 181 147
110 181 147
111 181 147
111 181 148
111 181 148
119 202 153
111 182 148
111 182 148
112 182 149
112 182 149
112 182 149
112 182 149
112 182 149
112 182 149
112 182 149
113 182 150
113 182 150
120 203 155
121 203 155
121 203 155
121 203 155
113 183 150
121 203 155
121 203 155
113 183 150
121 203 155
36 56 39
36 55 39
33 49 38
33 49 37
33 49 37
33 49 37
33 49 37
33 49 37
32 49 37
121 204 156
121 204 156
121 204 156
121 204 156
114 183 151
114 183 151
80 131 88
80 131 88
33 49 37
121 203 156
114 183 151
51 76 63
51 76 63
51 76 63
49 70 62
51 77 63
51 77 63
51 77 63
49 70 62
51 77 63
49 70 62
51 77 63
113 195 147
105 175 142
113 195 147
113 195 147
105 175 142
113 195 147
105 175 142
105 175 142
105 175 142
105 175 142
105 175 142
105 175 142
105 175 142
105 175 142
112 195 147
105 175 142
112 195 147
112 195 147
112 195 147
112 195 147
112 195 147
112 195 147
112 195 147
104 175 141
112 195 147
112 195 146
112 195 146
104 175 141
104 175 141
104 175 141
104 175 141
104 175 141
104 175 141
112 195 146
112 195 146
112 195 146
112 195 146
112 195 146
112 195 146
112 195 146
112 195 146
112 195 146
112 195 146
112 195 146
112 195 146
104 174 141
104 174 141
104 174 141
104 174 141
104 174 141
104 174 141
104 174 141
104 174 141
104 174 141
104 174 141
112 195 146
112 195 146
112 195 146
112 195 146
112 195 146
111 195 146
111 195 146
111 195 146
111 195 146
111 195 146
104 174 140
104 174 140
104 174 140
103 174 140
103 174 140
103 174 140
103 174 140
103 174 140
103 174 140
103 174 140
111 195 146
111 195 146
111 195 145
111 195 145
103 174 140
111 195 145
111 195 145
111 195 145
103 174 140
103 174 140
111 195 145
111 195 145
111 195 145
111 195 145
111 195 145
111 195 145
103 174 140
111 195 145
111 195 145
96 160 100
88 139 95
88 139 95
96 160 101
104 174 141
104 174 141
112 195 146
112 195 146
112 195 146
112 195 146
112 195 146
112 195 146
112 195 146
104 174 141
104 174 141
104 174 141
104 174 141
111 195 146
104 174 141
104 174 141
104 174 140
111 195 146
104 174 140
104 174 140
104 174 140
104 174 140
104 174 140
104 174 140
111 195 146
111 195 146
104 174 140
112 195 146
104 175 141
104 174 141
104 174 141
104 174 141
104 174 141
104 174 141
104 174 141
104 174 141
111 195 146
103 174 140
103 174 140
111 195 146
111 195 146
103 174 140
111 195 146
111 195 146
103 174 140
111 195 146
111 195 146
111 195 146
111 195 146
111 195 146
39 64 50
39 64 50
39 64 50
36 58 49
36 58 49
28 44 31
28 44 31
28 44 31
28 44 31
28 44 31
28 44 31
28 44 31
28 44 31
28 44 31
28 44 31
111 195 145
111 195 145
111 195 145
111 195 145
111 195 145
111 195 145
111 195 145
111 195 145
111 195 145
111 195 145
103 174 140
103 174 140
103 174 140
111 195 145
103 174 140
111 195 145
103 174 140
111 195 145
103 174 140
103 174 140
103 174 140
103 174 140
103 174 140
103 174 140
103 174 140
103 174 140
103 174 140
103 174 140
103 174 140
111 196 145
103 175 140
111 196 145
111 196 145
111 196 146
111 196 146
111 196 146
111 196 146
112 196 146
112 196 146
112 196 146
112 196 146
104 175 141
104 175 141
104 175 141
104 175 141
104 175 141
104 175 141
104 175 141
104 175 141
104 176 141
112 197 147
112 197 147
113 197 147
113 197 147
113 197 147
105 176 142
105 176 142
105 176 142
113 197 147
113 197 147
105 176 142
106 177 142
106 177 143
106 177 143
106 177 143
114 198 148
106 177 143
106 177 143
106 177 143
114 199 149
115 199 149
115 199 149
115 199 149
115 199 149
115 199 149
115 199 149
115 199 150
108 178 144
116 200 150
108 179 145
108 179 145
108 179 145
108 179 145
116 200 151
108 179 145
109 179 146
109 180 146
109 180 146
109 180 146
117 201 151
117 201 151
117 201 152
117 201 152
118 201 152
118 202 152
118 202 152
118 202 152
118 202 152
118 202 153
110 181 147
111 181 148
111 181 148
111 181 148
111 182 148
111 182 148
111 182 148
111 182 148
111 182 148
86 150 90
120 203 154
112 182 149
113 182 149
113 183 150
113 183 150
113 183 150
113 183 150
113 183 150
113 183 150
121 204 155
121 204 155
121 204 155
121 204 155
121 204 155
121 204 156
121 204 156
114 183 150
121 204 156
33 49 38
33 49 38
33 49 37
33 49 37
33 49 37
33 49 37
33 49 37
32 49 37
32 49 37
33 49 37
35 55 38
33 49 37
33 49 37
33 49 37
33 49 37
33 49 37
33 49 37
33 49 37
122 204 156
122 204 156
114 183 151
51 77 63
51 77 63
51 77 63
51 77 64
51 77 64
49 71 62
49 71 62
51 77 64
49 71 62
113 195 147
113 195 147
113 195 147
105 175 142
113 195 147
105 175 142
113 195 147
105 175 142
105 175 142
105 175 142
105 175 142
105 175 142
105 175 142
112 195 147
105 175 142
112 195 147
112 195 147
112 195 147
104 175 141
112 195 147
112 195 147
112 195 147
104 175 141
112 195 146
112 195 146
104 175 141
104 175 141
104 175 141
104 175 141
104 175 141
104 174 141
104 174 141
104 174 141
112 195 146
104 174 141
112 195 146
112 195 146
112 195 146
112 195 146
112 195 146
112 195 146
104 174 141
112 195 146
112 195 146
112 195 146
104 174 141
104 174 141
104 174 141
104 174 141
104 174 141
104 174 141
112 195 146
104 174 141
104 174 141
104 174 141
112 195 146
111 195 146
104 174 141
111 195 146
111 195 146
111 195 146
111 195 146
111 195 146
111 195 146
103 174 140
103 174 140
103 174 140
103 174 140
103 174 140
111 195 146
111 195 146
103 174 140
111 195 146
111 195 145
103 174 140
103 174 140
103 174 140
103 174 140
103 174 140
103 174 140
103 174 140
103 174 140
103 174 140
103 174 140
111 195 145
111 195 145
111 195 145
111 195 145
111 195 145
111 195 145
103 174 140
111 195 145
111 195 145
111 195 145
96 160 100
88 139 95
88 139 95
88 140 95
112 195 146
112 195 146
104 174 141
112 195 146
104 174 141
112 195 146
111 195 146
104 174 141
104 174 141
111 195 146
111 195 146
111 195 146
111 195 146
111 195 146
111 195 146
111 195 146
111 195 146
111 195 146
104 174 140
103 174 140
103 174 140
111 195 146
103 174 140
103 174 140
103 174 140
103 174 140
103 174 140
88 139 95
104 174 141
104 174 141
112 195 146
112 195 146
112 195 146
112 195 146
104 174 141
104 174 141
103 174 140
103 174 140
103 174 140
103 174 140
111 195 146
103 174 140
103 174 140
103 174 140
111 195 145
103 174 140
111 195 145
103 174 140
39 64 50
38 64 50
38 64 50
38 64 50
38 64 50
38 64 50
38 64 50
28 44 31
28 44 31
28 44 31
28 44 31
28 44 31
28 44 31
28 44 31
28 44 31
28 44 31
28 44 31
27 43 30
111 195 145
103 174 140
103 174 140
103 174 140
103 174 140
111 195 145
103 174 140
103 174 140
111 195 145
103 174 140
111 195 145
111 195 145
111 195 145
111 195 145
111 195 145
103 174 140
111 195 145
111 195 145
111 195 145
103 174 140
103 174 140
103 174 140
103 174 140
103 174 140
103 174 140
103 174 140
103 174 140
103 174 140
103 174 140
111 196 145
103 175 140
111 196 145
111 196 146
111 196 146
111 196 146
103 175 140
111 196 146
112 196 146
104 175 141
104 175 141
104 175 141
112 196 146
104 175 141
112 196 146
104 175 141
104 175 141
104 175 141
104 175 141
112 197 147
104 176 141
112 197 147
113 197 147
113 197 147
113 197 147
113 197 147
113 197 147
113 197 147
105 176 142
113 198 148
105 177 142
106 177 142
106 177 143
106 177 143
106 177 143
106 177 143
106 177 143
106 177 143
106 177 143
115 199 149
115 199 149
115 199 149
115 199 149
115 199 149
115 199 149
107 178 144
115 200 150
116 200 150
116 200 150
116 200 150
108 179 145
108 179 145
108 179 145
116 200 151
109 180 146
117 201 151
109 180 146
109 180 146
109 180 146
117 201 152
117 201 152
118 201 152
118 202 152
118 202 152
110 181 147
110 181 147
110 181 147
110 181 147
111 181 148
111 181 148
31 51 34
31 51 34
32 51 34
32 52 34
32 52 34
32 52 34
32 52 34
32 52 35
120 203 155
120 203 155
113 183 150
121 203 155
121 204 155
121 204 155
121 204 155
121 204 155
121 204 155
121 204 155
121 204 156
31 48 35
32 48 36
32 48 36
32 48 36
32 48 36
32 48 36
32 48 36
80 130 87
33 49 38
33 49 38
33 49 37
33 49 37
33 49 37
33 49 37
33 49 37
33 49 37
35 55 38
33 49 37
33 49 37
33 49 37
33 49 37
33 49 37
33 49 37
33 49 37
33 49 37
33 49 37
33 49 37
122 204 156
122 204 156
122 204 156
51 77 64
49 71 62
51 77 64
51 77 64
51 77 64
51 77 64
114 183 151
114 183 151
113 195 147
113 195 147
113 195 147
105 175 142
105 175 142
105 175 142
112 195 147
105 175 142
105 175 142
105 175 142
105 175 142
112 195 147
105 175 141
105 175 141
112 195 147
112 195 147
112 195 147
112 195 147
112 195 147
112 195 147
112 195 146
112 195 146
112 195 146
112 195 146
104 175 141
104 175 141
104 175 141
104 174 141
104 174 141
104 174 141
104 174 141
104 174 141
104 174 141
104 174 141
112 195 146
112 195 146
112 195 146
112 195 146
112 195 146
104 174 141
112 195 146
112 195 146
104 174 141
112 195 146
104 174 141
104 174 141
104 174 141
104 174 141
104 174 141
104 174 141
104 174 141
104 174 141
112 195 146
111 195 146
104 174 141
104 174 140
104 174 140
104 174 140
104 174 140
104 174 140
104 174 140
103 174 140
103 174 140
103 174 140
111 195 146
111 195 146
111 195 146
111 195 146
111 195 146
111 195 145
111 195 145
111 195 145
111 195 145
111 195 145
103 174 140
111 195 145
103 174 140
103 174 140
103 174 140
103 174 140
103 174 140
103 174 140
111 195 145
103 174 140
103 174 140
111 195 145
111 195 145
111 195 145
111 195 145
111 195 145
111 195 145
111 195 145
103 174 140
111 195 145
96 160 100
88 139 95
88 139 95
112 195 146
104 174 141
104 174 141
104 174 141
104 174 141
111 195 146
104 174 140
104 174 140
104 174 140
104 174 140
111 195 146
111 195 146
111 195 146
111 195 146
111 195 146
111 195 146
111 195 146
111 195 146
111 195 146
103 174 140
103 174 140
103 174 140
103 174 140
103 174 140
103 174 140
103 174 140
103 174 140
103 174 140
88 139 95
104 174 141
112 195 146
112 195 146
112 195 146
104 174 141
112 195 146
112 195 146
112 195 146
111 195 145
111 195 145
103 174 140
111 195 145
111 195 145
103 174 140
103 174 140
103 174 140
103 174 140
103 174 140
111 195 145
103 174 140
38 64 50
38 64 50
36 58 48
38 64 50
38 64 50
38 64 50
36 58 48
28 44 31
28 44 31
28 44 31
28 44 31
28 44 31
28 44 31
28 44 31
28 44 31
28 44 31
28 44 31
27 43 30
103 174 139
103 174 139
103 174 139
103 174 139
103 174 139
103 174 139
103 174 139
103 174 140
103 174 140
103 174 140
111 195 145
111 195 145
111 195 145
111 195 145
103 174 140
111 195 145
103 174 140
111 195 145
111 195 145
111 195 145
103 174 140
103 174 140
103 174 140
111 196 145
103 174 140
103 174 140
103 174 140
103 174 140
103 174 140
103 175 140
111 196 145
111 196 145
111 196 145
111 196 146
103 175 140
111 196 146
111 196 146
112 196 146
112 196 146
112 196 146
104 175 141
104 175 141
104 175 141
104 175 141
104 175 141
112 197 146
104 175 141
104 176 141
112 197 147
105 176 141
105 176 141
113 197 147
105 176 142
113 197 147
113 197 147
113 197 147
113 198 147
113 198 147
113 198 148
113 198 148
114 198 148
106 177 143
106 177 143
114 198 148
106 177 143
106 177 143
106 178 143
107 178 143
107 178 144
107 178 144
115 199 149
107 178 144
115 199 149
107 178 144
115 200 150
116 200 150
116 200 150
108 179 145
108 179 145
108 179 145
108 179 145
116 201 151
117 201 151
117 201 151
117 201 151
117 201 151
117 201 151
117 201 152
110 180 147
118 202 152
118 202 152
110 181 147
110 181 147
110 181 147
110 181 147
111 181 148
111 182 148
111 182 148
111 182 148
111 182 148
32 51 34
32 52 34
32 52 34
32 52 34
32 52 34
32 52 35
32 52 35
113 183 150
113 183 150
113 183 150
121 204 155
121 204 155
121 204 155
121 204 156
121 204 156
114 184 151
121 204 156
114 184 151
122 204 156
32 48 36
32 48 36
32 48 36
32 48 36
32 48 36
32 48 36
52 78 65
52 78 65
33 49 38
33 49 37
33 49 37
33 49 37
33 49 37
33 49 37
33 49 37
33 49 37
33 49 37
33 49 37
33 49 37
33 49 37
33 49 37
33 49 37
33 49 38
33 49 37
33 49 37
33 49 37
33 49 37
33 49 37
122 204 157
122 204 157
122 204 157
114 184 151
122 204 156
122 204 156
122 204 156
122 204 156
122 204 156
113 195 147
113 195 147
112 195 147
112 195 147
105 175 142
112 195 147
105 175 142
105 175 142
112 195 147
105 175 141
112 195 147
105 175 141
104 175 141
112 195 147
112 195 147
112 195 147
104 175 141
112 195 146
112 195 146
112 195 146
112 195 146
112 195 146
112 195 146
104 175 141
104 174 141
104 174 141
104 174 141
104 174 141
112 195 146
104 174 141
104 174 141
104 174 141
104 174 141
112 195 146
112 195 146
104 174 141
104 174 141
104 174 141
104 174 141
104 174 141
112 195 146
112 195 146
104 174 141
112 195 146
104 174 141
112 195 146
112 195 146
104 174 141
112 195 146
112 195 146
111 195 146
111 195 146
111 195 146
104 174 140
104 174 140
104 174 140
104 174 140
103 174 140
103 174 140
103 174 140
111 195 146
103 174 140
103 174 140
111 195 146
111 195 146
111 195 146
111 195 145
111 195 145
111 195 145
103 174 140
111 195 145
111 195 145
111 195 145
111 195 145
103 174 140
103 174 140
103 174 140
103 174 140
103 174 140
103 174 140
103 174 140
103 174 140
103 174 140
103 174 140
111 195 145
111 195 145
111 195 145
111 195 145
111 195 145
111 195 145
111 195 145
111 195 145
111 195 145
111 195 145
96 160 100
88 139 95
88 139 95
104 174 141
111 195 146
104 174 140
104 174 140
104 174 140
104 174 140
104 174 140
104 174 140
104 174 140
111 195 146
111 195 146
111 195 146
111 195 146
111 195 146
111 195 146
111 195 146
111 195 146
111 195 146
111 195 146
103 174 140
103 174 140
103 174 140
103 174 140
103 174 140
103 174 140
103 174 140
103 174 140
103 174 140
88 139 95
112 195 146
112 195 146
112 195 146
112 195 146
112 195 146
112 195 146
112 195 146
112 195 146
111 195 145
103 174 140
103 174 140
103 174 140
111 195 145
103 174 140
103 174 140
103 174 140
103 174 140
103 174 140
111 195 145
103 174 140
38 64 50
38 64 50
38 64 50
38 64 50
36 58 48
38 64 50
38 64 50
28 44 31
28 44 31
28 44 31
28 44 31
38 64 50
38 64 50
38 64 50
38 64 50
38 64 50
28 44 31
27 43 30
103 174 139
103 174 139
103 174 139
103 174 139
103 174 139
103 174 139
103 174 139
103 174 139
103 174 139
103 174 139
111 195 145
111 195 145
111 195 145
103 174 140
103 174 140
111 195 145
111 195 145
111 195 145
111 195 145
111 195 145
103 174 140
103 174 140
103 174 140
103 174 140
103 174 140
103 174 140
103 174 140
103 174 140
103 174 140
111 196 145
111 196 145
111 196 145
111 196 145
103 175 140
111 196 146
111 196 146
111 196 146
112 196 146
104 175 141
112 196 146
104 175 141
104 175 141
112 196 146
104 175 141
104 175 141
104 175 141
104 176 141
104 176 141
104 176 141
105 176 141
113 197 147
113 197 147
113 197 147
113 197 147
113 197 147
113 198 147
113 198 147
113 198 148
113 198 148
114 198 148
106 177 143
106 177 143
114 198 148
114 198 148
114 199 148
114 199 149
114 199 149
115 199 149
115 199 149
115 199 149
107 178 144
107 178 144
107 178 144
108 179 144
108 179 145
108 179 145
108 179 145
108 179 145
108 179 145
108 179 145
117 201 151
117 201 151
117 201 151
117 201 151
117 201 151
117 201 152
117 202 152
118 202 152
118 202 152
118 202 152
110 181 147
110 181 147
110 181 147
111 181 148
111 182 148
119 203 153
111 182 148
111 182 148
111 182 148
111 182 148
112 182 148
32 52 34
32 52 34
32 52 35
32 52 35
32 52 35
32 52 35
113 183 150
113 183 150
113 183 150
113 184 150
121 204 156
121 204 156
122 204 156
122 205 156
122 205 156
122 205 156
122 205 156
122 205 156
122 205 156
32 48 36
32 48 36
32 48 36
32 48 36
32 48 36
52 78 65
50 72 63
53 78 65
33 49 37
33 49 37
33 49 37
33 49 37
33 49 37
33 49 37
33 49 37
33 49 37
33 49 37
33 49 37
33 49 37
33 49 37
33 49 38
33 49 38
33 49 37
33 49 37
33 49 37
33 49 37
33 49 37
33 49 37
115 184 152
122 205 157
122 205 157
122 205 157
122 204 157
115 184 152
122 204 157
122 204 157
105 175 142
112 195 147
105 175 142
105 175 142
105 175 142
105 175 142
105 175 142
105 175 141
105 175 141
104 175 141
104 175 141
104 175 141
112 195 147
104 175 141
112 195 146
112 195 146
112 195 146
112 195 146
104 175 141
112 195 146
104 175 141
104 174 141
112 195 146
112 195 146
112 195 146
112 195 146
112 195 146
112 195 146
112 195 146
104 174 141
112 195 146
112 195 146
104 174 141
104 174 141
112 195 146
104 174 141
112 195 146
104 174 141
104 174 141
104 174 141
104 174 141
104 174 141
104 174 141
112 195 146
104 174 141
112 195 146
112 195 146
111 195 146
111 195 146
104 174 140
111 195 146
111 195 146
111 195 146
111 195 146
103 174 140
103 174 140
103 174 140
103 174 140
103 174 140
103 174 140
103 174 140
103 174 140
103 174 140
111 195 145
111 195 145
111 195 145
103 174 140
111 195 145
103 174 140
103 174 140
111 195 145
111 195 145
111 195 145
103 174 140
103 174 140
103 174 140
103 174 140
103 174 140
103 174 140
103 174 140
111 195 145
103 174 140
103 174 140
111 195 145
111 195 145
103 174 140
111 195 145
111 195 145
111 195 145
111 195 145
111 195 145
111 195 145
111 195 145
95 160 99
96 160 100
96 160 100
88 139 95
104 174 140
104 174 140
104 174 140
104 174 140
103 174 140
103 174 140
103 174 140
103 174 140
103 174 140
111 195 146
111 195 146
111 195 146
111 195 146
111 195 146
111 195 146
111 195 146
111 195 146
111 195 145
111 195 145
103 174 140
111 195 145
103 174 140
103 174 140
103 174 140
103 174 140
103 174 140
103 174 140
103 174 140
88 139 95
112 195 146
112 195 146
112 195 146
104 174 141
112 195 146
112 195 146
104 174 141
112 195 146
103 174 140
103 174 140
111 195 145
103 174 140
103 174 140
103 174 140
103 174 140
103 174 140
111 195 145
111 195 145
103 174 140
103 174 140
38 64 50
36 58 48
36 58 48
36 58 48
36 58 48
38 64 50
36 58 48
36 58 48
38 64 50
38 64 50
38 64 50
38 64 50
38 64 50
36 58 48
36 58 48
38 64 50
38 64 50
27 43 30
102 174 139
102 174 139
103 174 139
103 174 139
103 174 139
103 174 139
103 174 139
111 195 145
103 174 139
111 195 145
111 195 145
111 195 145
103 174 139
111 195 145
111 195 145
111 195 145
111 195 145
111 195 145
111 195 145
111 195 145
103 174 140
103 174 140
103 174 140
103 174 140
103 174 140
103 174 140
111 196 145
103 174 140
103 175 140
103 175 140
103 175 140
111 196 145
111 196 145
111 196 146
103 175 140
111 196 146
111 196 146
112 196 146
112 196 146
112 196 146
112 196 146
104 175 141
104 175 141
104 175 141
104 175 141
104 176 141
112 197 146
104 176 141
112 197 147
105 176 141
113 197 147
105 176 142
105 176 142
105 176 142
105 176 142
105 176 142
113 198 148
105 177 142
106 177 142
106 177 143
106 177 143
114 198 148
114 198 148
114 199 148
114 199 149
114 199 149
115 199 149
107 178 144
115 199 149
115 199 149
107 178 144
107 179 144
108 179 144
108 179 145
108 179 145
116 200 150
108 179 145
108 179 145
109 180 145
109 180 146
109 180 146
117 201 151
117 201 151
117 201 151
117 202 152
118 202 152
110 181 147
118 202 152
118 202 152
118 202 152
118 202 153
111 181 147
111 182 148
111 182 148
119 203 153
111 182 148
111 182 148
111 182 148
112 182 149
112 183 149
112 183 149
32 52 34
32 52 35
32 52 35
32 52 35
32 52 35
113 184 150
113 184 150
114 184 151
114 184 151
114 184 151
122 205 156
122 205 156
122 205 156
122 205 156
122 205 156
122 205 156
122 205 157
122 205 157
115 185 152
122 205 157
32 48 36
32 48 36
32 48 36
53 78 65
53 78 65
53 78 65
53 79 65
53 79 65
33 49 37
33 49 37
33 49 37
33 49 37
33 49 37
33 49 37
33 49 37
33 49 37
33 49 37
33 49 37
33 49 38
33 49 38
33 49 38
33 49 37
33 49 37
33 49 37
33 49 37
33 49 37
33 49 37
33 49 37
123 205 157
123 205 157
123 205 157
123 205 157
115 184 152
123 205 157
115 184 152
112 195 147
105 175 142
112 195 147
112 195 147
112 195 147
112 195 147
112 195 147
112 195 147
112 195 147
112 195 147
112 195 147
112 195 146
104 175 141
104 175 141
104 175 141
104 175 141
104 175 141
104 175 141
104 174 141
104 174 141
104 174 141
104 174 141
112 195 146
112 195 146
112 195 146
112 195 146
112 195 146
112 195 146
112 195 146
112 195 146
112 195 146
112 195 146
104 174 141
112 195 146
104 174 141
104 174 141
104 174 141
104 174 141
104 174 141
104 174 141
104 174 141
104 174 141
112 195 146
112 195 146
104 174 141
111 195 146
111 195 146
111 195 146
111 195 146
111 195 146
111 195 146
111 195 146
111 195 146
103 174 140
103 174 140
103 174 140
103 174 140
103 174 140
103 174 140
103 174 140
103 174 140
103 174 140
111 195 145
111 195 145
111 195 145
103 174 140
103 174 140
111 195 145
111 195 145
103 174 140
111 195 145
111 195 145
103 174 140
103 174 140
103 174 140
103 174 140
103 174 140
103 174 140
111 195 145
103 174 140
103 174 140
103 174 140
103 174 140
111 195 145
111 195 145
103 174 140
111 195 145
111 195 145
111 195 145
111 195 145
103 174 140
111 195 145
103 174 140
95 160 99
96 160 100
96 160 100
88 139 95
103 174 140
103 174 140
103 174 140
111 195 146
103 174 140
103 174 140
103 174 140
103 174 140
103 174 140
111 195 146
103 174 140
111 195 145
111 195 145
103 174 140
111 195 145
103 174 140
111 195 145
111 195 145
111 195 145
103 174 140
111 195 145
103 174 140
103 174 140
103 174 140
103 174 140
103 174 140
111 195 145
103 174 140
88 139 95
104 174 141
112 195 146
112 195 146
112 195 146
112 195 146
112 195 146
112 195 146
112 195 146
111 195 145
111 195 145
103 174 140
111 195 145
111 195 145
111 195 145
103 174 140
111 195 145
111 195 145
111 195 145
103 174 140
103 174 140
36 58 48
36 58 48
36 58 48
36 58 48
38 64 49
38 64 49
36 58 48
38 64 49
36 58 48
36 58 48
38 64 49
38 64 49
38 64 49
38 64 49
38 64 49
38 64 49
38 64 49
27 43 30
110 195 145
102 174 139
102 174 139
102 174 139
102 174 139
102 174 139
102 174 139
103 174 139
103 174 139
103 174 139
103 174 139
103 174 139
111 195 145
111 195 145
111 195 145
111 195 145
103 174 140
111 195 145
111 195 145
111 196 145
103 174 140
103 174 140
111 196 145
103 174 140
103 174 140
103 174 140
103 174 140
111 196 145
103 175 140
111 196 145
103 175 140
111 196 145
111 196 145
103 175 140
103 175 140
103 175 140
111 196 146
104 175 140
104 175 141
104 175 141
104 175 141
112 197 146
104 175 141
112 197 146
112 197 146
104 176 141
112 197 146
112 197 147
112 197 147
113 197 147
113 197 147
105 176 142
105 176 142
113 198 147
105 176 142
105 177 142
105 177 142
106 177 142
106 177 143
106 177 143
114 198 148
106 177 143
114 199 148
106 178 143
114 199 149
107 178 144
115 199 149
115 199 149
115 199 149
115 200 149
107 179 144
115 200 150
108 179 145
108 179 145
108 179 145
108 179 145
108 179 145
109 180 145
109 180 146
109 180 146
109 180 146
109 180 146
117 202 152
110 181 146
118 202 152
118 202 152
118 202 152
118 202 152
118 202 153
111 181 147
111 182 148
119 203 153
111 182 148
111 182 148
111 182 148
111 182 148
120 204 154
112 183 149
112 183 149
112 183 149
112 183 149
112 183 149
32 52 35
32 52 35
32 52 35
32 52 35
121 205 156
114 184 151
114 184 151
114 184 151
114 184 151
114 184 151
122 205 156
122 205 157
122 205 157
122 205 157
122 206 157
123 206 157
115 185 152
123 206 157
123 206 157
123 206 157
32 48 36
32 48 36
53 79 65
51 73 64
51 73 64
51 73 64
53 79 66
51 73 64
33 49 37
33 49 37
33 49 37
33 49 37
33 49 37
33 49 37
33 49 37
33 49 37
33 49 38
33 49 38
33 49 38
33 49 38
33 49 37
33 49 37
33 49 37
33 49 37
33 49 37
33 49 37
33 49 37
32 49 37
33 49 37
33 49 37
33 49 37
33 49 37
33 49 37
33 49 37
112 195 147
112 195 147
112 195 147
112 195 147
112 195 147
112 195 147
112 195 147
112 195 147
112 195 146
112 195 146
112 195 146
104 175 141
104 175 141
104 175 141
104 175 141
104 175 141
104 174 141
104 174 141
112 195 146
104 174 141
112 195 146
112 195 146
112 195 146
112 195 146
104 174 141
104 174 141
112 195 146
104 174 141
112 195 146
112 195 146
104 174 141
104 174 141
104 174 141
112 195 146
104 174 141
104 174 141
104 174 141
104 174 141
112 195 146
104 174 141
104 174 141
111 195 146
111 195 146
111 195 146
111 195 146
111 195 146
111 195 146
111 195 146
111 195 146
103 174 140
111 195 146
111 195 146
103 174 140
103 174 140
111 195 146
103 174 140
103 174 140
103 174 140
103 174 140
103 174 140
103 174 140
111 195 145
111 195 145
111 195 145
111 195 145
103 174 140
111 195 145
111 195 145
111 195 145
111 195 145
103 174 140
111 195 145
103 174 140
103 174 140
103 174 140
103 174 140
103 174 140
103 174 140
103 174 140
103 174 140
103 174 140
103 174 140
103 174 140
111 195 145
103 174 140
103 174 140
103 174 140
103 174 140
103 174 140
103 174 140
111 195 145
103 174 140
103 174 140
95 160 99
96 160 100
96 160 100
103 174 140
103 174 140
103 174 140
103 174 140
103 174 140
103 174 140
103 174 140
103 174 140
103 174 140
103 174 140
111 195 145
111 195 145
111 195 145
111 195 145
111 195 145
103 174 140
103 174 140
103 174 140
103 174 140
111 195 145
103 174 140
111 195 145
111 195 145
111 195 145
111 195 145
111 195 145
111 195 145
111 195 145
111 195 145
88 139 95
104 174 141
112 195 146
112 195 146
112 195 146
112 195 146
112 195 146
112 195 146
104 174 141
111 195 145
111 195 145
111 195 145
111 195 145
103 174 140
111 195 145
111 195 145
111 195 145
111 195 145
111 195 145
103 174 140
103 174 140
36 57 48
36 57 48
36 57 48
36 57 48
36 57 48
36 57 48
38 64 49
36 57 48
38 64 49
38 64 49
36 57 48
36 57 48
38 64 49
38 64 49
38 64 49
38 64 49
38 64 49
27 43 30
29 49 31
102 174 139
102 174 139
102 174 139
102 174 139
102 174 139
102 174 139
102 174 139
102 174 139
102 174 139
103 174 139
111 195 145
111 195 145
111 195 145
111 195 145
111 195 145
111 195 145
111 195 145
103 174 140
111 196 145
103 174 140
111 196 145
111 196 145
103 174 140
111 196 145
111 196 145
111 196 145
103 174 140
111 196 145
111 196 145
111 196 145
111 196 145
103 175 140
103 175 140
103 175 140
103 175 140
104 175 140
104 175 140
112 196 146
104 175 141
104 175 141
104 175 141
112 197 146
112 197 146
112 197 146
112 197 146
112 197 147
112 197 147
113 197 147
105 176 142
113 197 147
105 176 142
105 176 142
113 198 147
105 177 142
105 177 142
105 177 142
106 177 142
106 177 143
114 198 148
106 177 143
106 177 143
106 178 143
114 199 149
115 199 149
107 178 144
115 199 149
115 199 149
115 200 149
115 200 150
116 200 150
116 200 150
108 179 145
108 179 145
108 179 145
108 180 145
109 180 145
109 180 146
109 180 146
109 180 146
109 180 146
109 181 146
110 181 146
118 202 152
118 202 152
110 181 147
118 202 152
118 203 153
119 203 153
119 203 153
111 182 148
119 203 153
119 203 153
111 182 148
120 204 154
112 183 149
112 183 149
112 183 149
112 183 149
112 183 149
113 183 149
121 205 155
113 184 150
32 52 35
32 52 35
32 52 35
114 184 151
114 184 151
114 185 151
114 185 151
115 185 151
115 185 152
115 185 152
123 206 157
123 206 157
115 185 152
123 206 157
123 206 157
123 206 157
123 206 157
123 206 158
123 206 158
123 206 158
32 48 36
53 79 66
53 79 66
53 79 66
54 79 66
51 73 64
54 79 66
54 79 66
33 49 37
33 49 37
33 49 37
33 49 37
33 49 37
33 49 38
33 49 38
33 49 38
33 49 38
33 49 38
33 49 38
33 49 38
33 49 37
33 49 37
33 49 37
33 49 37
33 49 37
33 49 37
33 49 37
33 49 37
33 49 37
33 49 37
33 49 37
33 49 37
33 49 37
112 195 147
112 195 147
112 195 147
112 195 147
112 195 147
112 195 147
112 195 146
112 195 146
112 195 146
112 195 146
104 175 141
104 175 141
104 175 141
104 174 141
104 174 141
104 174 141
104 174 141
104 174 141
104 174 141
104 174 141
112 195 146
112 195 146
112 195 146
112 195 146
112 195 146
104 174 141
104 174 141
104 174 141
112 195 146
112 195 146
112 195 146
104 174 141
112 195 146
104 174 141
104 174 141
104 174 141
104 174 141
104 174 141
104 174 141
104 174 141
104 174 140
111 195 146
104 174 140
111 195 146
111 195 146
111 195 146
111 195 146
111 195 146
111 195 146
111 195 146
111 195 146
103 174 140
103 174 140
103 174 140
103 174 140
103 174 140
103 174 140
103 174 140
103 174 140
111 195 145
103 174 140
111 195 145
111 195 145
103 174 140
111 195 145
111 195 145
111 195 145
111 195 145
111 195 145
103 174 140
103 174 140
111 195 145
111 195 145
111 195 145
111 195 145
111 195 145
111 195 145
103 174 140
111 195 145
103 174 140
111 195 145
103 174 140
103 174 140
103 174 140
103 174 140
111 195 145
103 174 140
111 195 145
103 174 140
103 174 140
103 174 140
103 174 140
87 139 94
95 160 99
96 160 100
96 160 100
111 195 146
111 195 146
111 195 146
111 195 145
111 195 145
111 195 145
111 195 145
111 195 145
111 195 145
111 195 145
103 174 140
103 174 140
103 174 140
103 174 140
103 174 140
103 174 140
103 174 140
103 174 140
103 174 140
111 195 145
103 174 140
111 195 145
103 174 140
111 195 145
111 195 145
103 174 140
111 195 145
111 195 145
111 195 145
88 139 95
104 174 141
104 174 141
112 195 146
104 174 141
104 174 141
104 174 141
104 174 141
37 59 49
111 195 145
111 195 145
111 195 145
111 195 145
111 195 145
111 195 145
111 195 145
103 174 140
111 195 145
111 195 145
103 174 140
103 174 140
111 195 145
103 174 140
103 174 140
103 174 140
103 174 140
103 174 140
103 174 140
103 174 140
111 195 145
111 195 145
38 64 49
35 57 48
35 57 48
38 64 49
38 64 49
35 57 48
35 57 48
27 43 30
29 49 31
102 174 139
102 174 139
84 149 88
84 149 88
84 149 88
29 49 31
29 49 31
29 49 31
29 49 31
29 49 31
102 174 139
103 174 139
103 174 139
103 174 139
103 174 139
103 174 139
103 174 139
111 196 145
103 174 140
103 174 140
111 196 145
111 196 145
111 196 145
111 196 145
111 196 145
111 196 145
111 196 145
111 196 145
111 196 145
111 196 145
103 175 140
103 175 140
111 196 145
103 175 140
103 175 140
104 175 140
104 175 140
104 175 141
104 175 141
104 175 141
104 175 141
112 197 146
112 197 146
112 197 146
112 197 146
112 197 147
104 176 141
105 176 141
113 197 147
113 197 147
113 198 147
105 176 142
113 198 147
105 177 142
105 177 142
114 198 148
114 198 148
106 177 143
106 177 143
114 199 148
106 178 143
106 178 143
107 178 143
115 199 149
115 199 149
115 200 149
115 200 149
115 200 150
116 200 150
108 179 145
116 200 150
116 200 150
116 201 150
116 201 151
109 180 145
117 201 151
109 180 146
117 201 151
109 180 146
109 181 146
110 181 147
110 181 147
118 202 152
110 181 147
118 203 153
118 203 153
119 203 153
119 203 153
119 203 153
119 203 153
119 204 154
120 204 154
120 204 154
112 183 149
112 183 149
120 204 154
112 183 149
113 184 149
113 184 150
113 184 150
113 184 150
85 150 89
85 150 89
32 52 35
114 185 151
114 185 151
115 185 151
115 185 152
123 206 157
115 185 152
115 185 152
115 185 152
115 185 152
79 130 86
79 130 86
30 47 34
31 47 34
31 47 34
31 47 34
31 47 35
31 47 35
31 47 35
124 207 159
124 207 159
54 79 66
51 73 65
52 73 65
52 73 65
52 74 65
52 74 65
52 74 65
54 80 66
54 80 67
54 80 67
54 80 67
54 80 67
52 74 65
54 80 67
54 80 67
54 80 67
33 49 38
33 49 38
33 49 37
33 49 37
33 49 37
33 49 37
33 49 37
33 49 37
33 49 37
33 49 37
33 49 37
33 49 37
33 49 37
33 49 37
33 49 37
112 195 147
112 195 147
112 195 147
104 175 141
112 195 146
112 195 146
104 175 141
112 195 146
112 195 146
104 175 141
104 174 141
104 174 141
104 174 141
112 195 146
104 174 141
112 195 146
104 174 141
104 174 141
104 174 141
112 195 146
112 195 146
112 195 146
112 195 146
112 195 146
112 195 146
112 195 146
112 195 146
112 195 146
112 195 146
112 195 146
112 195 146
104 174 141
112 195 146
112 195 146
104 174 141
104 174 141
104 174 141
104 174 140
104 174 140
104 174 140
111 195 146
111 195 146
111 195 146
111 195 146
111 195 146
111 195 146
111 195 146
111 195 146
111 195 146
111 195 146
111 195 145
103 174 140
103 174 140
103 174 140
111 195 145
111 195 145
111 195 145
103 174 140
111 195 145
111 195 145
111 195 145
111 195 145
103 174 140
103 174 140
103 174 140
103 174 140
103 174 140
103 174 140
103 174 140
103 174 140
103 174 140
111 195 145
111 195 145
111 195 145
103 174 140
111 195 145
111 195 145
111 195 145
111 195 145
111 195 145
111 195 145
103 174 140
103 174 140
103 174 140
103 174 140
111 195 145
103 174 140
103 174 140
111 195 145
103 174 140
103 174 140
103 174 140
87 139 94
95 160 99
96 160 100
96 160 100
111 195 145
111 195 145
111 195 145
111 195 145
111 195 145
111 195 145
111 195 145
111 195 145
111 195 145
103 174 140
103 174 140
103 174 140
103 174 140
103 174 140
103 174 140
103 174 140
103 174 140
103 174 140
103 174 140
111 195 145
103 174 140
111 195 145
111 195 145
111 195 145
111 195 145
111 195 145
103 174 140
111 195 145
111 195 145
88 139 95
104 174 141
104 174 141
104 174 141
104 174 141
104 174 141
39 65 51
37 59 49
37 59 49
111 195 145
103 174 140
111 195 145
111 195 145
111 195 145
103 174 140
111 195 145
111 195 145
111 195 145
111 195 145
103 174 140
103 174 140
103 174 140
103 174 140
111 195 145
103 174 140
103 174 140
103 174 140
103 174 140
103 174 140
111 195 145
111 195 145
38 64 49
38 64 49
38 64 49
38 64 49
38 64 49
38 64 49
38 64 49
27 43 30
29 49 31
29 49 31
29 49 31
29 49 31
29 49 31
29 49 31
29 49 31
29 49 31
29 49 31
29 49 31
29 49 31
110 195 145
102 174 139
102 174 139
103 174 139
103 174 139
111 195 145
111 196 145
103 174 139
103 174 139
103 174 140
103 174 140
111 196 145
111 196 145
103 174 140
103 174 140
111 196 145
111 196 145
111 196 145
111 196 145
111 196 145
111 196 145
103 175 140
103 175 140
103 175 140
103 175 140
104 175 140
104 175 140
104 175 141
104 175 141
104 175 141
104 175 141
104 175 141
104 176 141
112 197 146
112 197 146
112 197 147
112 197 147
113 197 147
113 197 147
105 176 142
113 198 147
113 198 147
113 198 147
105 177 142
106 177 142
106 177 143
106 177 143
106 177 143
106 177 143
106 178 143
106 178 143
107 178 143
115 199 149
115 199 149
115 200 149
115 200 149
115 200 150
115 200 150
116 200 150
108 179 145
116 201 150
116 201 150
116 201 151
117 201 151
109 180 146
109 180 146
109 180 146
109 181 146
110 181 146
110 181 147
118 202 152
110 181 147
110 181 147
118 203 153
119 203 153
119 203 153
119 203 153
111 182 148
111 182 148
112 183 148
112 183 149
112 183 149
112 183 149
120 204 154
30 50 33
30 50 33
31 50 33
31 51 33
31 51 33
31 51 33
31 51 33
31 51 33
85 150 89
48 70 61
122 206 157
32 52 35
32 52 35
32 52 35
32 52 35
33 52 35
33 53 36
33 53 36
33 53 36
30 46 34
30 47 34
31 47 34
31 47 34
31 47 35
31 47 35
31 47 35
31 47 35
31 47 35
125 207 159
117 187 154
125 207 159
117 187 154
52 74 65
52 74 65
52 74 65
52 74 65
52 74 65
52 74 65
55 80 67
55 80 67
55 80 67
52 74 65
55 80 67
55 80 67
55 80 67
55 80 67
55 80 67
33 49 38
33 49 37
33 49 37
33 49 37
33 49 37
33 49 37
33 49 37
33 49 37
33 49 37
33 49 37
33 49 37
33 49 37
33 49 37
33 49 38
112 195 146
112 195 146
112 195 146
112 195 146
112 195 146
112 195 146
112 195 146
112 195 146
112 195 146
104 174 141
104 174 141
104 174 141
112 195 146
104 174 141
104 174 141
104 174 141
104 174 141
104 174 141
104 174 141
112 195 146
104 174 141
104 174 141
112 195 146
112 195 146
104 174 141
112 195 146
112 195 146
112 195 146
112 195 146
104 174 141
112 195 146
112 195 146
104 174 141
104 174 141
104 174 140
104 174 140
111 195 146
104 174 140
104 174 140
111 195 146
103 174 140
103 174 140
111 195 146
103 174 140
103 174 140
103 174 140
103 174 140
103 174 140
103 174 140
103 174 140
111 195 145
111 195 145
103 174 140
111 195 145
111 195 145
111 195 145
111 195 145
111 195 145
111 195 145
111 195 145
103 174 140
103 174 140
103 174 140
103 174 140
103 174 140
103 174 140
111 195 145
103 174 140
103 174 140
111 195 145
103 174 140
103 174 140
111 195 145
111 195 145
111 195 145
111 195 145
111 195 145
111 195 145
111 195 145
111 195 145
111 195 145
103 174 140
103 174 140
103 174 140
103 174 140
103 174 140
103 174 140
111 195 145
111 195 145
103 174 140
103 174 139
103 174 139
87 139 94
87 139 94
96 160 100
96 160 100
111 195 145
111 195 145
111 195 145
103 174 140
111 195 145
111 195 145
103 174 140
111 195 145
111 195 145
103 174 140
103 174 140
103 174 140
111 195 145
103 174 140
103 174 140
103 174 140
111 195 145
103 174 140
103 174 140
111 195 145
111 195 145
111 195 145
103 174 140
111 195 145
111 195 145
111 195 145
111 195 145
111 195 145
103 174 140
88 139 95
104 174 141
104 174 141
111 195 146
39 65 51
37 59 49
37 59 49
37 59 49
37 59 49
111 195 145
103 174 140
111 195 145
111 195 145
111 195 145
111 195 145
111 195 145
111 195 145
111 195 145
103 174 140
111 195 145
103 174 140
111 195 145
111 195 145
111 195 145
103 174 140
103 174 140
103 174 140
103 174 140
103 174 140
111 195 145
111 195 145
38 64 49
38 64 49
35 57 47
35 57 47
35 57 47
35 57 47
35 57 47
35 57 47
29 49 31
29 49 31
29 49 31
29 49 31
29 49 31
29 49 31
29 49 31
29 49 31
29 49 31
29 49 31
29 49 31
29 49 30
102 174 139
110 195 145
102 174 139
102 174 139
103 174 139
103 174 139
103 174 139
103 174 139
111 196 145
103 174 140
111 196 145
111 196 145
111 196 145
111 196 145
111 196 145
111 196 145
111 196 145
111 196 145
111 196 145
111 196 145
111 196 145
103 175 140
103 175 140
103 175 140
104 175 140
104 175 140
104 175 141
104 175 141
104 175 141
104 175 141
112 197 146
104 176 141
112 197 146
112 197 147
112 197 147
105 176 141
113 197 147
113 198 147
113 198 147
113 198 147
113 198 147
105 177 142
105 177 142
106 177 142
106 177 143
106 177 143
106 177 143
106 178 143
114 199 149
107 178 143
107 178 144
107 178 144
115 200 149
115 200 149
115 200 150
108 179 144
108 179 145
116 200 150
116 201 150
116 201 150
116 201 151
109 180 145
117 201 151
117 201 151
117 202 151
117 202 152
118 202 152
118 202 152
118 202 152
118 203 152
118 203 153
118 203 153
111 182 148
111 182 148
119 203 153
111 182 148
112 183 148
120 204 154
112 183 149
120 204 154
112 183 149
112 183 149
113 184 149
31 50 33
31 51 33
31 51 33
31 51 33
31 51 33
31 51 33
31 51 33
31 51 33
48 70 61
115 185 152
123 206 157
32 52 35
32 52 35
33 52 35
33 53 36
33 53 36
33 53 36
33 53 36
33 53 36
31 47 34
31 47 34
31 47 34
31 47 35
31 47 35
31 47 35
31 47 35
31 47 35
125 208 160
125 208 160
118 187 155
125 208 160
118 187 155
125 208 160
52 74 65
52 74 65
55 80 67
52 74 66
53 74 66
53 74 66
55 81 67
55 81 67
55 81 67
55 81 67
55 81 67
55 81 67
55 81 67
55 81 67
55 81 67
33 49 37
33 49 37
33 49 37
33 49 37
33 49 37
33 49 37
33 49 37
33 49 37
33 49 37
33 49 37
33 49 38
33 49 38
33 49 38
112 195 146
112 195 146
112 195 146
112 195 146
112 195 146
104 174 141
112 195 146
104 174 141
104 174 141
104 174 141
104 174 141
104 174 141
104 174 141
112 195 146
104 174 141
104 174 141
104 174 141
104 174 141
112 195 146
112 195 146
112 195 146
112 195 146
112 195 146
104 174 141
104 174 141
112 195 146
104 174 141
104 174 141
112 195 146
111 195 146
111 195 146
111 195 146
111 195 146
111 195 146
111 195 146
111 195 146
103 174 140
111 195 146
111 195 146
103 174 140
103 174 140
103 174 140
103 174 140
103 174 140
103 174 140
103 174 140
103 174 140
103 174 140
103 174 140
103 174 140
111 195 145
111 195 145
111 195 145
111 195 145
111 195 145
111 195 145
111 195 145
111 195 145
111 195 145
111 195 145
103 174 140
103 174 140
103 174 140
111 195 145
103 174 140
103 174 140
103 174 140
111 195 145
103 174 140
103 174 140
103 174 140
103 174 140
111 195 145
111 195 145
111 195 145
103 174 140
111 195 145
111 195 145
111 195 145
111 195 145
111 195 145
103 174 140
103 174 140
103 174 140
103 174 140
111 195 145
111 195 145
111 195 145
111 195 145
103 174 139
103 174 139
103 174 139
87 139 94
87 139 94
96 160 100
111 195 145
111 195 145
103 174 140
111 195 145
111 195 145
111 195 145
111 195 145
111 195 145
103 174 140
111 195 145
103 174 140
103 174 140
103 174 140
103 174 140
103 174 140
103 174 140
103 174 140
103 174 140
111 195 145
103 174 140
111 195 145
111 195 145
103 174 140
103 174 140
111 195 145
111 195 145
111 195 145
111 195 145
111 195 145
111 195 145
88 139 95
104 174 140
104 174 140
37 58 49
37 58 49
39 65 51
39 65 51
37 58 49
37 58 49
111 195 145
111 195 145
103 174 140
111 195 145
111 195 145
111 195 145
111 195 145
111 195 145
111 195 145
77 128 83
111 195 145
111 195 145
103 174 140
111 195 145
111 195 145
111 195 145
103 174 140
111 195 145
111 195 145
103 174 140
103 174 140
103 174 140
103 174 140
35 57 47
35 57 47
35 57 47
35 57 47
35 57 47
38 63 49
35 57 47
29 49 31
29 49 31
29 49 31
29 49 31
29 49 31
29 49 31
29 49 31
29 49 31
29 49 31
29 49 31
29 49 31
29 49 31
102 174 139
102 174 139
102 174 139
110 195 145
102 174 139
103 174 139
111 196 145
103 174 139
103 174 139
103 174 140
103 174 140
111 196 145
111 196 145
103 174 140
111 196 145
111 196 145
103 175 140
111 196 145
111 196 145
111 196 145
111 196 145
111 196 145
103 175 140
103 175 140
104 175 140
104 175 140
104 175 141
104 175 141
104 175 141
104 176 141
104 176 141
104 176 141
112 197 146
104 176 141
112 197 147
113 197 147
113 198 147
113 198 147
113 198 147
113 198 147
113 198 147
105 177 142
106 177 142
114 198 148
106 177 143
106 177 143
106 178 143
106 178 143
114 199 149
115 199 149
115 199 149
115 200 149
115 200 149
107 179 144
108 179 144
108 179 145
116 200 150
116 201 150
116 201 150
108 180 145
109 180 146
109 180 146
109 180 146
117 202 151
117 202 152
118 202 152
118 202 152
118 202 152
110 181 147
118 203 153
119 203 153
119 203 153
111 182 148
119 204 153
111 183 148
112 183 148
112 183 149
112 183 149
112 183 149
112 184 149
121 205 155
113 184 150
113 184 150
113 184 150
31 51 33
31 51 33
31 51 33
31 51 33
31 51 33
31 51 33
31 51 33
115 186 152
115 186 152
115 186 152
116 186 152
33 52 35
33 53 36
33 53 36
33 53 36
33 53 36
33 53 36
31 47 34
31 47 34
31 47 34
31 47 35
31 47 35
31 47 35
31 47 35
31 47 35
31 47 35
126 208 160
118 188 155
126 208 160
126 208 160
118 188 155
118 188 155
118 188 155
118 188 155
118 188 155
118 188 155
118 188 155
126 208 160
118 188 155
126 208 160
126 208 160
126 208 160
55 81 68
55 81 68
55 81 68
55 81 68
55 81 68
53 75 66
33 49 37
33 49 37
33 49 37
33 49 37
33 49 37
33 49 37
33 49 37
33 49 37
33 49 38
33 49 38
33 49 38
33 49 38
112 195 146
112 195 146
112 195 146
112 195 146
112 195 146
112 195 146
112 195 146
112 195 146
112 195 146
112 195 146
112 195 146
112 195 146
112 195 146
104 174 141
112 195 146
104 174 141
112 195 146
104 174 141
104 174 141
112 195 146
104 174 141
104 174 141
104 174 141
104 174 141
104 174 141
112 195 146
112 195 146
104 174 141
111 195 146
104 174 140
111 195 146
111 195 146
104 174 140
103 174 140
111 195 146
111 195 146
111 195 146
103 174 140
103 174 140
103 174 140
103 174 140
103 174 140
103 174 140
103 174 140
103 174 140
103 174 140
103 174 140
103 174 140
103 174 140
111 195 145
111 195 145
111 195 145
111 195 145
111 195 145
111 195 145
111 195 145
111 195 145
103 174 140
111 195 145
111 195 145
103 174 140
103 174 140
103 174 140
103 174 140
103 174 140
103 174 140
103 174 140
103 174 140
103 174 140
103 174 140
111 195 145
111 195 145
111 195 145
111 195 145
111 195 145
111 195 145
111 195 145
111 195 145
111 195 145
111 195 145
111 195 145
103 174 140
103 174 139
103 174 139
103 174 139
103 174 139
103 174 139
103 174 139
103 174 139
103 174 139
111 195 145
87 139 93
87 139 94
87 139 94
96 160 100
103 174 140
111 195 145
111 195 145
111 195 145
111 195 145
111 195 145
111 195 145
103 174 140
111 195 145
111 195 145
103 174 140
103 174 140
103 174 140
111 195 145
103 174 140
103 174 140
103 174 140
103 174 140
103 174 140
103 174 140
111 195 145
111 195 145
111 195 145
111 195 145
111 195 145
111 195 145
111 195 145
111 195 145
111 195 145
111 195 145
96 160 100
104 174 140
104 174 140
37 58 49
36 58 49
36 58 49
36 58 49
36 58 49
39 65 50
27 43 30
30 50 32
27 43 30
27 43 30
27 43 30
27 43 30
27 43 30
27 43 30
27 43 30
27 43 30
111 195 145
111 195 145
111 195 145
111 195 145
103 174 140
111 195 145
111 195 145
111 195 145
111 195 145
111 195 145
103 174 140
103 174 140
103 174 140
35 57 47
35 57 47
35 57 47
35 57 47
35 57 47
35 57 47
35 57 47
29 49 31
29 49 31
29 49 31
29 49 31
29 49 31
29 49 31
29 49 31
29 49 31
29 49 31
29 49 31
29 49 31
29 49 31
102 174 139
102 174 139
102 174 139
102 174 139
102 174 139
102 174 139
103 174 139
111 196 145
103 174 139
103 174 139
111 196 145
103 174 140
111 196 145
111 196 145
111 196 145
111 196 145
111 196 145
111 196 145
111 196 145
111 196 145
111 196 145
103 175 140
111 196 146
103 175 140
104 175 140
104 175 140
104 175 141
112 197 146
104 175 141
112 197 146
104 176 141
104 176 141
112 197 146
112 197 147
105 176 141
105 176 142
113 198 147
105 176 142
105 177 142
105 177 142
105 177 142
113 198 148
106 177 142
106 177 143
114 199 148
114 199 148
106 178 143
114 199 149
115 199 149
115 199 149
115 200 149
115 200 149
115 200 149
115 200 150
108 179 145
108 179 145
108 179 145
108 180 145
108 180 145
109 180 146
109 180 146
109 180 146
109 181 146
109 181 146
118 202 152
118 202 152
118 203 152
118 203 152
118 203 153
119 203 153
119 203 153
119 204 153
119 204 153
119 204 154
112 183 149
112 183 149
120 204 154
112 184 149
113 184 149
113 184 150
113 184 150
113 184 150
113 184 150
114 185 150
114 185 151
31 51 33
31 51 33
31 51 33
31 51 33
31 51 33
31 51 34
123 207 158
116 186 153
116 186 153
116 186 153
116 187 153
33 53 36
33 53 36
33 53 36
33 53 36
33 53 36
31 47 34
31 47 35
31 47 35
31 47 35
31 47 35
31 47 35
31 47 35
31 47 35
79 130 87
126 209 160
126 209 160
126 209 161
118 188 155
126 209 161
119 188 156
119 188 156
119 188 156
119 188 156
119 188 156
119 188 156
126 209 161
119 188 156
119 188 156
126 209 161
126 209 161
126 209 161
56 81 68
56 81 68
53 75 67
56 81 68
56 81 68
56 81 68
56 81 68
33 49 37
33 49 37
33 49 37
33 49 37
33 49 37
33 49 38
33 49 38
33 49 38
33 49 38
33 49 38
104 174 141
104 174 141
104 174 141
112 195 146
104 174 141
104 174 141
112 195 146
104 174 141
112 195 146
104 174 141
112 195 146
112 195 146
112 195 146
112 195 146
112 195 146
112 195 146
104 174 141
112 195 146
104 174 141
104 174 141
104 174 141
112 195 146
104 174 141
104 174 141
104 174 141
104 174 141
104 174 140
104 174 140
111 195 146
111 195 146
111 195 146
103 174 140
111 195 146
111 195 146
111 195 146
111 195 146
111 195 146
111 195 146
103 174 140
111 195 145
103 174 140
103 174 140
111 195 145
111 195 145
103 174 140
111 195 145
103 174 140
103 174 140
111 195 145
111 195 145
111 195 145
111 195 145
111 195 145
111 195 145
111 195 145
111 195 145
111 195 145
111 195 145
111 195 145
103 174 140
103 174 140
103 174 140
103 174 140
103 174 140
103 174 140
103 174 140
103 174 140
111 195 145
103 174 140
103 174 140
111 195 145
103 174 140
111 195 145
111 195 145
111 195 145
103 174 140
111 195 145
111 195 145
111 195 145
103 174 139
103 174 139
111 195 145
103 174 139
111 195 145
103 174 139
103 174 139
103 174 139
103 174 139
103 174 139
110 195 145
102 174 139
87 139 93
87 139 94
87 139 94
96 160 100
111 195 145
111 195 145
111 195 145
111 195 145
111 195 145
111 195 145
111 195 145
111 195 145
111 195 145
111 195 145
103 174 140
103 174 140
103 174 140
103 174 140
103 174 140
103 174 140
103 174 140
103 174 140
103 174 140
111 195 145
77 128 83
27 43 31
27 43 31
27 43 31
27 43 31
27 43 31
27 43 30
27 43 30
27 43 30
77 128 83
96 160 100
103 174 140
103 174 140
36 58 49
36 58 49
36 58 49
39 65 50
36 58 49
39 65 50
39 65 50
27 43 30
27 43 30
27 43 30
27 43 30
27 43 30
27 43 31
27 43 31
27 43 31
27 43 31
111 195 145
111 195 145
103 174 140
111 195 145
111 195 145
111 195 145
111 195 145
111 195 145
103 174 140
111 195 145
103 174 140
103 174 140
103 174 140
35 57 47
35 57 47
37 63 49
37 63 49
35 57 47
35 57 47
35 57 47
29 49 31
29 49 31
29 49 31
29 49 31
29 49 31
29 49 31
29 49 31
29 49 31
29 49 31
29 49 31
29 49 31
29 49 31
102 174 139
102 174 139
102 174 139
102 174 139
110 196 145
102 174 139
102 174 139
103 174 139
103 174 139
103 174 139
103 174 139
111 196 145
111 196 145
111 196 145
111 196 145
111 196 145
111 196 145
111 196 145
111 196 145
111 196 145
103 175 140
111 196 145
111 196 146
111 196 146
112 197 146
112 197 146
112 197 146
112 197 146
112 197 146
104 176 141
112 197 146
112 197 146
104 176 141
104 176 141
105 176 141
105 176 142
105 176 142
105 177 142
105 177 142
105 177 142
113 198 148
114 198 148
106 177 143
114 199 148
114 199 148
106 178 143
114 199 149
115 199 149
115 200 149
115 200 149
115 200 149
107 179 144
115 200 150
116 200 150
116 201 150
108 179 145
108 180 145
108 180 145
109 180 146
109 180 146
117 202 151
109 181 146
109 181 146
110 181 147
110 181 147
118 203 152
110 182 147
119 203 153
119 203 153
119 203 153
119 204 153
119 204 154
120 204 154
120 204 154
120 204 154
112 183 149
120 205 155
121 205 155
113 184 150
113 184 150
113 184 150
113 185 150
114 185 151
114 185 151
114 185 151
114 185 151
31 51 33
31 51 33
31 51 34
31 51 34
116 186 153
116 186 153
124 208 158
116 187 153
116 187 153
117 187 153
125 208 159
33 53 36
33 53 36
33 53 36
33 53 36
31 47 35
31 47 35
31 47 35
31 47 35
31 47 35
31 47 35
31 47 35
31 47 35
126 209 161
126 209 161
127 209 161
127 209 161
127 209 161
127 209 161
127 209 161
119 189 156
119 189 156
119 189 156
119 189 156
119 189 156
119 189 156
119 189 156
119 189 156
119 189 156
127 209 161
127 209 161
127 209 161
56 82 68
54 76 67
56 82 68
56 82 68
54 76 67
54 76 67
54 76 67
56 82 68
54 76 67
56 82 68
56 82 68
54 76 67
56 82 68
56 82 68
56 81 68
56 81 68
104 174 141
104 174 141
104 174 141
104 174 141
104 174 141
104 174 141
112 195 146
112 195 146
112 195 146
104 174 141
112 195 146
112 195 146
112 195 146
112 195 146
112 195 146
112 195 146
104 174 141
104 174 141
104 174 141
104 174 141
104 174 141
104 174 141
104 174 141
104 174 140
104 174 140
104 174 140
111 195 146
111 195 146
103 174 140
111 195 146
111 195 146
111 195 146
111 195 146
111 195 146
111 195 146
111 195 145
111 195 145
103 174 140
103 174 140
103 174 140
111 195 145
111 195 145
103 174 140
103 174 140
103 174 140
103 174 140
103 174 140
103 174 140
111 195 145
103 174 140
111 195 145
111 195 145
103 174 140
111 195 145
111 195 145
103 174 140
111 195 145
111 195 145
111 195 145
103 174 140
111 195 145
103 174 140
103 174 140
103 174 140
103 174 140
103 174 140
103 174 140
111 195 145
103 174 140
103 174 140
111 195 145
111 195 145
111 195 145
111 195 145
103 174 140
103 174 139
111 195 145
111 195 145
111 195 145
111 195 145
84 149 88
29 49 31
29 49 31
29 49 31
29 49 31
29 49 31
29 49 31
29 49 31
29 49 31
29 49 31
29 49 31
87 139 93
87 139 94
87 139 94
96 160 100
111 195 145
111 195 145
103 174 140
111 195 145
103 174 140
103 174 140
103 174 140
103 174 140
103 174 140
103 174 140
111 195 145
111 195 145
111 195 145
111 195 145
111 195 145
111 195 145
111 195 145
111 195 145
111 195 145
95 160 99
28 44 31
28 44 31
28 44 31
28 44 31
28 44 31
28 44 31
28 44 31
28 44 31
28 44 31
28 43 31
96 160 100
103 174 140
111 195 146
39 64 50
39 64 50
39 64 50
36 58 49
39 64 50
39 64 50
36 58 49
28 43 31
28 43 31
28 44 31
28 44 31
30 50 32
28 44 31
28 44 31
28 44 31
28 44 31
111 195 145
111 195 145
111 195 145
111 195 145
111 195 145
111 195 145
111 195 145
111 195 145
103 174 140
103 174 140
103 174 140
103 174 140
103 174 140
37 63 49
37 63 49
35 57 47
35 57 47
37 63 49
37 63 49
35 57 47
29 49 31
29 49 31
29 49 31
29 49 31
29 49 31
29 49 31
29 49 31
29 49 31
29 49 31
29 49 31
29 49 31
29 49 31
28 48 30
102 174 139
102 174 139
102 174 139
102 174 139
84 149 87
84 149 87
28 48 30
28 48 30
28 48 30
28 48 30
111 196 145
103 174 140
103 175 140
111 196 145
103 175 140
103 175 140
103 175 140
111 196 145
103 175 140
103 175 140
103 175 140
111 196 146
103 175 140
112 197 146
104 175 140
112 197 146
112 197 146
104 176 141
112 197 146
112 197 146
104 176 141
112 197 147
105 176 141
105 176 141
105 176 142
105 177 142
105 177 142
105 177 142
113 198 148
106 177 142
114 199 148
106 177 143
106 178 143
114 199 148
114 199 148
114 199 149
115 200 149
115 200 149
107 179 144
115 200 149
115 200 150
116 200 150
116 201 150
108 179 145
108 180 145
108 180 145
117 201 151
109 180 146
109 180 146
109 181 146
117 202 152
110 181 147
110 181 147
118 203 152
118 203 153
119 203 153
111 182 148
111 182 148
111 183 148
119 204 154
120 204 154
120 204 154
120 205 154
112 184 149
121 205 155
121 205 155
113 184 150
113 184 150
113 185 150
114 185 151
114 185 151
114 185 151
122 207 156
114 186 151
115 186 152
115 186 152
31 51 34
31 51 34
31 51 34
116 187 153
124 208 158
117 187 153
117 187 154
117 187 154
117 188 154
125 209 159
117 188 154
33 53 36
33 53 36
31 47 35
31 47 35
31 47 35
31 47 35
31 47 35
31 47 35
31 47 35
31 47 35
31 47 35
127 210 161
127 210 161
127 210 161
127 210 161
127 210 162
127 210 162
127 210 162
127 210 162
120 189 157
87 151 92
87 151 92
34 54 38
34 54 38
34 54 38
35 54 38
35 55 38
35 55 38
88 151 93
120 189 157
120 189 157
57 82 69
54 76 67
54 76 67
54 76 67
54 76 67
54 76 67
54 76 67
56 82 69
56 82 69
56 82 69
56 82 69
56 82 69
56 82 69
56 82 69
56 82 69
104 174 141
104 174 141
112 195 146
104 174 141
112 195 146
104 174 141
112 195 146
112 195 146
112 195 146
112 195 146
112 195 146
112 195 146
112 195 146
104 174 141
112 195 146
112 195 146
104 174 141
104 174 141
104 174 141
104 174 141
104 174 141
104 174 140
104 174 140
104 174 140
104 174 140
103 174 140
111 195 146
111 195 146
111 195 146
103 174 140
111 195 146
111 195 146
111 195 145
111 195 145
111 195 145
111 195 145
103 174 140
111 195 145
103 174 140
103 174 140
103 174 140
103 174 140
103 174 140
103 174 140
103 174 140
103 174 140
103 174 140
111 195 145
111 195 145
111 195 145
111 195 145
111 195 145
111 195 145
111 195 145
111 195 145
103 174 140
111 195 145
111 195 145
103 174 140
111 195 145
103 174 140
103 174 140
103 174 140
103 174 140
111 195 145
111 195 145
103 174 140
111 195 145
111 195 145
103 174 140
103 174 140
103 174 140
103 174 139
103 174 139
103 174 139
103 174 139
103 174 139
103 174 139
103 174 139
103 174 139
29 49 31
29 49 31
29 49 31
29 49 31
29 49 31
29 49 31
29 49 31
29 49 31
29 49 31
29 49 31
29 49 31
87 139 93
87 139 94
87 139 94
103 174 140
103 174 140
103 174 140
103 174 140
103 174 140
103 174 140
103 174 140
111 195 145
103 174 140
103 174 140
111 195 145
103 174 140
111 195 145
111 195 145
103 174 140
111 195 145
111 195 145
111 195 145
111 195 145
111 195 145
95 160 99
28 44 31
28 44 31
28 44 31
28 44 31
28 44 31
28 44 31
28 44 31
30 50 32
28 44 31
28 44 31
96 160 100
111 195 146
111 195 146
39 64 50
39 64 50
39 64 50
39 64 50
36 58 48
39 64 50
39 64 50
28 44 31
28 44 31
28 44 31
28 44 31
28 44 31
28 44 31
28 44 31
28 44 31
28 44 31
111 195 145
111 195 145
111 195 145
111 195 145
111 195 145
111 195 145
111 195 145
111 195 145
111 195 145
111 195 145
103 174 139
111 195 145
103 174 140
35 57 47
35 57 47
35 57 47
35 57 47
35 57 47
35 57 47
35 57 47
35 57 47
29 49 31
29 49 31
29 49 31
29 49 31
29 49 31
29 49 31
29 49 31
29 49 31
29 49 31
29 49 31
29 49 31
28 48 30
28 48 30
28 48 30
28 48 30
28 48 30
28 48 30
28 48 30
28 48 30
28 48 30
28 48 30
28 48 30
28 48 30
103 174 140
103 175 140
111 196 145
103 175 140
103 175 140
111 196 145
111 196 145
103 175 140
103 175 140
103 175 140
103 175 140
112 197 146
112 197 146
104 175 141
112 197 146
112 197 146
112 197 146
112 197 146
112 197 146
112 197 147
112 197 147
105 176 141
105 176 142
105 176 142
105 177 142
105 177 142
105 177 142
105 177 142
106 177 142
106 177 143
106 178 143
106 178 143
114 199 148
114 199 149
115 200 149
115 200 149
107 179 144
115 200 149
115 200 150
116 200 150
116 201 150
116 201 150
116 201 150
108 180 145
109 180 145
109 180 146
117 202 151
117 202 151
110 181 146
118 202 152
110 181 147
110 182 147
110 182 147
119 203 153
119 204 153
119 204 153
119 204 153
120 204 154
120 204 154
120 205 154
120 205 154
120 205 155
113 184 150
121 205 155
121 206 155
113 185 150
114 185 150
114 185 151
114 185 151
114 185 151
114 186 151
115 186 152
115 186 152
115 186 152
115 186 152
31 51 34
31 51 34
31 51 34
117 187 154
117 187 154
117 188 154
125 209 159
117 188 154
117 188 154
118 188 154
118 188 155
118 188 155
33 53 36
31 47 35
31 47 35
31 47 35
31 47 35
31 47 35
56 81 68
56 82 68
56 82 68
127 210 162
120 190 157
120 190 157
120 190 157
120 190 157
120 190 157
128 210 162
120 190 157
120 190 157
120 190 157
34 54 38
34 54 38
34 54 38
34 54 38
35 54 38
35 55 38
35 55 38
35 55 38
35 55 38
88 151 93
128 210 162
120 190 157
55 76 68
55 76 68
55 76 68
55 76 68
55 76 68
55 76 68
55 76 68
57 82 69
54 76 68
57 82 69
57 82 69
54 76 67
57 82 69
57 82 69
104 174 141
104 174 141
104 174 141
112 195 146
112 195 146
112 195 146
104 174 141
112 195 146
112 195 146
112 195 146
112 195 146
112 195 146
112 195 146
112 195 146
104 174 141
104 174 141
104 174 141
104 174 141
104 174 140
111 195 146
104 174 140
104 174 140
104 174 140
103 174 140
103 174 140
111 195 146
103 174 140
103 174 140
111 195 146
111 195 146
103 174 140
111 195 145
111 195 145
111 195 145
111 195 145
111 195 145
111 195 145
103 174 140
103 174 140
103 174 140
103 174 140
103 174 140
103 174 140
103 174 140
103 174 140
103 174 140
103 174 140
111 195 145
111 195 145
103 174 140
103 174 140
103 174 140
103 174 140
103 174 140
111 195 145
103 174 140
103 174 140
103 174 140
111 195 145
111 195 145
111 195 145
111 195 145
111 195 145
103 174 140
111 195 145
111 195 145
111 195 145
111 195 145
111 195 145
111 195 145
103 174 139
103 174 139
103 174 139
103 174 139
111 195 145
111 195 145
103 174 139
103 174 139
102 174 139
87 139 93
30 46 33
29 49 31
29 49 31
29 49 31
29 49 31
29 49 31
29 49 31
29 49 31
29 49 31
29 49 31
29 49 31
84 149 88
87 139 94
87 139 94
111 195 145
103 174 140
103 174 140
111 195 145
103 174 140
111 195 145
103 174 140
111 195 145
103 174 140
103 174 140
111 195 145
103 174 140
111 195 145
103 174 140
111 195 145
103 174 140
111 195 145
111 195 145
103 174 140
103 174 140
95 160 99
28 44 31
28 44 31
28 44 31
28 44 31
28 44 31
28 44 31
30 50 32
28 44 31
28 44 31
28 44 31
96 160 100
103 174 140
111 195 145
38 64 50
38 64 50
38 64 50
38 64 50
38 64 50
36 58 48
36 58 48
28 44 31
28 44 31
28 44 31
28 44 31
28 44 31
28 44 31
28 44 31
28 44 31
28 44 31
103 174 139
111 195 145
111 195 145
103 174 139
103 174 139
111 195 145
103 174 139
111 195 145
111 195 145
111 195 145
111 195 145
103 174 139
103 174 139
35 57 47
35 57 47
35 57 47
35 57 47
35 57 47
35 57 47
35 57 47
35 57 47
29 49 31
35 57 47
35 57 47
35 57 47
37 63 48
35 57 47
35 57 47
37 63 49
35 57 47
35 57 47
29 49 31
28 48 30
28 48 30
28 48 30
28 48 30
28 48 30
28 48 30
28 48 30
28 48 30
28 48 30
28 48 30
28 48 30
28 48 30
103 174 140
103 175 140
103 175 140
103 175 140
103 175 140
103 175 140
111 196 145
103 175 140
103 175 140
111 196 146
103 175 140
112 197 146
112 197 146
104 175 141
112 197 146
104 176 141
112 197 146
112 197 146
112 197 146
112 197 147
113 198 147
113 198 147
113 198 147
105 177 142
105 177 142
105 177 142
105 177 142
114 199 148
114 199 148
106 177 143
106 178 143
106 178 143
106 178 143
115 200 149
107 178 144
115 200 149
115 200 149
115 200 150
116 200 150
116 201 150
116 201 150
116 201 150
116 201 151
117 201 151
117 202 151
109 181 146
109 181 146
110 181 146
118 203 152
110 181 147
110 182 147
118 203 153
111 182 148
111 182 148
119 204 153
111 183 148
112 183 148
112 183 149
120 205 154
120 205 155
121 205 155
121 205 155
113 184 150
121 206 155
121 206 156
114 185 151
114 185 151
114 185 151
84 149 88
84 149 88
30 50 32
30 50 32
30 50 32
30 50 32
30 50 32
85 149 89
50 72 62
117 188 154
31 51 34
31 51 34
31 51 34
31 51 34
32 51 34
32 52 34
32 52 34
32 52 34
86 150 90
53 75 66
55 81 67
56 81 68
56 81 68
56 82 68
56 82 68
56 82 68
56 82 68
128 211 162
120 190 157
128 211 162
120 190 157
120 190 157
120 190 157
128 211 163
120 190 157
121 190 157
121 190 158
121 190 158
128 211 163
34 54 38
34 54 38
35 55 38
35 55 38
35 55 38
35 55 38
35 55 38
35 55 38
35 54 38
88 151 93
121 190 158
121 190 158
55 77 68
55 77 68
55 77 68
55 77 68
55 77 68
120 190 157
120 190 157
128 210 162
128 210 162
57 83 69
57 83 69
57 83 69
57 83 69
104 174 141
112 195 146
112 195 146
112 195 146
112 195 146
112 195 146
112 195 146
112 195 146
112 195 146
112 195 146
112 195 146
112 195 146
112 195 146
104 174 141
104 174 141
104 174 141
104 174 140
104 174 140
104 174 140
104 174 140
103 174 140
103 174 140
103 174 140
103 174 140
111 195 146
111 195 146
103 174 140
111 195 145
111 195 145
111 195 145
111 195 145
111 195 145
111 195 145
111 195 145
103 174 140
111 195 145
111 195 145
103 174 140
111 195 145
111 195 145
111 195 145
111 195 145
111 195 145
111 195 145
111 195 145
103 174 140
103 174 140
103 174 140
103 174 140
103 174 140
111 195 145
103 174 140
103 174 140
103 174 140
103 174 140
103 174 140
103 174 140
111 195 145
111 195 145
111 195 145
111 195 145
111 195 145
111 195 145
111 195 145
111 195 145
111 195 145
111 195 145
111 195 145
111 195 145
103 174 139
103 174 139
103 174 139
103 174 139
103 174 139
103 174 139
102 174 139
110 195 145
102 174 139
102 174 139
87 139 93
30 46 33
29 49 32
29 49 32
29 49 31
29 49 31
29 49 31
29 49 31
29 49 31
29 49 31
29 49 31
29 49 31
29 49 31
87 139 94
87 139 94
103 174 140
103 174 140
103 174 140
103 174 140
103 174 140
103 174 140
103 174 140
111 195 145
111 195 145
111 195 145
111 195 145
103 174 140
111 195 145
111 195 145
111 195 145
111 195 145
111 195 145
111 195 145
111 195 145
103 174 140
95 160 99
28 44 31
28 44 31
28 44 31
28 44 31
28 44 31
28 44 31
28 44 31
28 44 31
28 44 31
28 44 31
111 195 145
111 195 145
103 174 140
36 58 48
38 64 50
38 64 50
38 64 50
38 64 50
38 64 50
38 64 50
28 44 31
28 44 31
28 44 31
28 44 31
28 44 31
28 44 31
28 44 31
28 44 31
28 44 31
27 43 31
103 174 139
111 195 145
103 174 139
111 195 145
111 195 145
111 195 145
111 195 145
76 128 83
76 128 83
27 43 30
111 195 145
111 195 145
37 63 48
37 63 48
37 63 48
37 63 48
37 63 48
37 63 48
37 63 48
37 63 48
37 63 48
35 57 47
35 57 47
35 57 47
35 57 47
35 57 47
35 57 47
37 63 48
35 57 47
35 57 47
29 49 31
28 48 30
28 48 30
28 48 30
28 48 30
28 48 30
28 48 30
28 48 30
28 48 30
28 48 30
28 48 30
28 48 30
28 48 30
103 175 140
103 175 140
103 175 140
103 175 140
103 175 140
103 175 140
103 175 140
103 175 140
103 175 140
103 175 140
111 197 146
104 175 140
112 197 146
112 197 146
112 197 146
112 197 146
112 197 146
112 197 146
112 197 146
112 198 147
105 176 141
113 198 147
105 177 142
105 177 142
113 198 147
105 177 142
105 177 142
106 177 142
114 199 148
106 178 143
114 199 148
106 178 143
107 178 143
115 200 149
107 179 144
115 200 149
115 200 149
115 200 150
116 201 150
116 201 150
108 180 145
108 180 145
117 201 151
117 202 151
109 181 146
109 181 146
109 181 146
110 181 147
118 203 152
110 182 147
118 203 153
111 182 148
111 182 148
119 204 153
111 183 148
76 128 83
76 128 83
27 43 30
27 43 30
27 43 30
27 43 30
27 43 30
29 49 31
29 49 31
27 43 30
29 49 32
29 49 32
30 49 32
30 50 32
30 50 32
27 43 30
30 50 32
30 50 32
30 50 32
30 50 32
50 72 62
117 188 154
117 188 154
31 51 34
31 51 34
32 51 34
32 52 34
32 52 34
32 52 34
32 52 34
32 52 35
56 81 67
53 75 66
56 82 68
54 76 66
56 82 68
56 82 68
56 82 68
57 82 69
128 211 163
128 211 163
128 211 163
128 211 163
128 211 163
121 191 158
121 191 158
121 191 158
121 191 158
121 191 158
121 191 158
121 191 158
121 191 158
121 191 158
35 55 38
35 55 38
35 55 38
35 55 38
35 55 38
35 55 38
35 55 38
35 55 38
34 54 38
34 54 38
121 191 158
129 211 163
121 191 158
121 190 158
121 190 158
121 190 158
121 190 158
121 190 158
121 190 158
121 190 158
128 210 163
128 210 162
57 83 70
57 83 70
104 174 141
104 174 141
112 195 146
112 195 146
112 195 146
112 195 146
112 195 146
112 195 146
112 195 146
112 195 146
112 195 146
104 174 141
111 195 146
104 174 140
104 174 140
111 195 146
104 174 140
104 174 140
103 174 140
103 174 140
111 195 146
111 195 146
111 195 146
111 195 146
111 195 146
103 174 140
103 174 140
111 195 145
103 174 140
103 174 140
103 174 140
103 174 140
103 174 140
103 174 140
103 174 140
103 174 140
103 174 140
111 195 145
111 195 145
111 195 145
111 195 145
111 195 145
111 195 145
111 195 145
111 195 145
103 174 140
103 174 140
103 174 140
103 174 140
103 174 140
103 174 140
103 174 140
103 174 140
103 174 140
111 195 145
103 174 140
103 174 140
111 195 145
111 195 145
111 195 145
111 195 145
111 195 145
111 195 145
111 195 145
103 174 139
111 195 145
103 174 139
111 195 145
103 174 139
103 174 139
103 174 139
102 174 139
102 174 139
110 195 145
102 174 139
110 195 145
110 195 145
102 174 139
102 174 139
87 139 93
30 46 33
29 49 32
29 49 32
29 49 32
29 49 32
29 49 32
29 49 32
29 49 32
29 49 31
29 49 31
29 49 31
29 49 31
87 139 94
103 174 140
103 174 140
103 174 140
103 174 140
111 195 145
103 174 140
103 174 140
103 174 140
103 174 140
103 174 140
111 195 145
111 195 145
103 174 140
103 174 140
111 195 145
111 195 145
111 195 145
103 174 140
103 174 140
103 174 140
111 195 145
95 160 99
28 44 31
28 44 31
28 44 31
28 44 31
28 44 31
28 44 31
28 44 31
28 44 31
28 44 31
28 44 31
111 195 145
111 195 145
103 174 140
38 64 50
38 64 50
38 64 50
38 64 50
38 64 50
36 58 48
38 64 50
28 44 31
28 44 31
28 44 31
28 44 31
28 44 31
28 44 31
28 44 31
28 44 31
28 44 31
28 44 31
27 43 30
27 43 30
27 43 30
27 43 30
27 43 30
27 43 30
27 43 30
27 43 30
27 43 30
27 43 30
110 195 145
110 195 145
37 63 48
37 63 48
37 63 48
37 63 48
37 63 48
37 63 48
37 63 48
37 63 48
37 63 48
35 57 47
35 57 47
35 57 47
35 57 47
37 63 48
35 57 47
35 57 47
35 57 47
35 57 47
29 49 31
28 48 30
28 48 30
28 48 30
28 48 30
28 48 30
28 48 30
28 48 30
28 48 30
28 48 30
29 48 30
29 48 30
28 48 30
28 48 30
103 175 140
103 175 140
111 196 145
111 196 145
103 175 140
103 175 140
103 175 140
103 175 140
103 175 140
103 175 140
104 175 140
112 197 146
112 197 146
112 197 146
104 176 141
112 197 146
112 197 146
112 198 147
104 176 141
113 198 147
113 198 147
113 198 147
105 177 142
105 177 142
105 177 142
114 199 148
106 177 143
114 199 148
106 178 143
106 178 143
106 178 143
107 178 143
107 178 144
107 179 144
115 200 149
115 200 150
116 201 150
116 201 150
116 201 150
116 201 151
109 180 145
109 180 146
109 181 146
109 181 146
109 181 146
118 203 152
118 203 152
118 203 152
118 203 153
119 204 153
119 204 153
119 204 153
119 204 154
120 205 154
112 183 149
29 49 31
27 43 30
27 43 30
27 43 30
27 43 30
27 43 30
27 43 30
27 43 30
27 43 30
27 43 30
30 50 32
30 50 32
30 50 32
30 50 32
30 50 32
30 50 32
30 50 32
30 50 32
28 44 31
117 188 154
118 188 154
126 210 160
118 189 155
32 51 34
32 52 34
32 52 34
32 52 34
32 52 34
32 52 35
32 52 35
56 82 68
54 76 67
54 76 67
54 76 67
57 82 69
57 82 69
57 83 69
129 212 163
129 212 163
129 212 163
129 212 163
129 212 163
129 212 163
129 212 163
121 191 158
121 191 158
122 191 158
122 191 158
129 212 164
129 212 164
122 192 159
129 212 164
122 192 159
35 55 38
35 55 38
35 55 38
35 55 38
35 55 38
35 55 38
35 55 38
34 54 38
34 54 38
34 54 38
121 191 158
121 191 158
121 191 158
121 191 158
121 191 158
121 191 158
121 191 158
121 191 158
121 191 158
129 211 163
129 211 163
128 211 163
58 83 70
104 174 141
112 195 146
112 195 146
112 195 146
104 174 141
104 174 141
104 174 141
112 195 146
104 174 141
104 174 141
104 174 141
104 174 140
111 195 146
111 195 146
111 195 146
111 195 146
111 195 146
111 195 146
111 195 146
111 195 146
111 195 146
111 195 146
111 195 145
111 195 145
103 174 140
103 174 140
103 174 140
103 174 140
103 174 140
111 195 145
103 174 140
103 174 140
103 174 140
103 174 140
103 174 140
111 195 145
103 174 140
111 195 145
111 195 145
111 195 145
111 195 145
111 195 145
111 195 145
103 174 140
111 195 145
111 195 145
103 174 140
111 195 145
103 174 140
103 174 140
111 195 145
103 174 140
103 174 140
103 174 140
103 174 140
103 174 140
111 195 145
111 195 145
111 195 145
111 195 145
111 195 145
111 195 145
111 195 145
103 174 139
103 174 139
103 174 139
110 195 145
103 174 139
102 174 139
110 195 145
110 195 145
102 174 139
102 174 139
110 195 145
102 174 139
102 174 139
102 174 139
102 174 139
87 138 93
87 139 93
30 46 33
30 49 32
30 49 32
30 49 32
29 49 32
29 49 32
29 49 32
29 49 32
29 49 32
29 49 32
29 49 32
29 49 32
87 139 94
111 195 145
103 174 140
103 174 140
111 195 145
111 195 145
103 174 140
103 174 140
103 174 140
103 174 140
103 174 140
103 174 140
111 195 145
111 195 145
111 195 145
103 174 140
111 195 145
111 195 145
111 195 145
111 195 145
111 195 145
111 195 145
95 160 99
28 44 31
28 44 31
28 44 31
30 50 33
28 44 31
30 50 33
28 44 31
28 44 31
28 44 31
28 44 31
111 195 145
111 195 145
111 195 145
38 64 50
38 64 50
38 64 50
36 58 48
38 64 50
38 64 50
38 64 50
28 44 31
38 64 50
38 64 50
36 58 48
38 64 49
36 58 48
38 64 49
36 58 48
36 58 48
38 64 49
27 43 30
27 43 30
27 43 30
27 43 30
27 43 30
27 43 30
27 43 30
27 43 30
27 43 30
27 43 30
110 195 145
110 195 145
110 195 145
34 56 46
34 56 46
37 63 48
35 56 46
37 63 48
37 63 48
37 63 48
35 56 47
37 63 48
37 63 48
35 56 47
37 63 48
35 57 47
35 57 47
35 57 47
35 57 47
35 57 47
35 57 47
28 48 30
28 48 30
28 48 30
28 48 30
28 48 30
29 48 30
29 48 30
29 48 30
29 49 30
29 49 31
29 49 31
28 48 30
28 48 30
103 175 140
103 175 140
103 175 140
111 196 145
103 175 140
103 175 140
103 175 140
103 175 140
103 175 140
103 175 140
104 175 140
112 197 146
112 197 146
104 176 141
112 197 146
112 197 146
112 197 146
104 176 141
113 198 147
105 176 142
113 198 147
113 198 147
113 198 147
105 177 142
105 177 142
106 177 142
106 178 143
114 199 148
114 199 148
114 199 149
115 200 149
115 200 149
115 200 149
107 179 144
107 179 144
116 201 150
108 179 145
108 180 145
108 180 145
109 180 145
109 180 146
109 181 146
109 181 146
109 181 146
118 203 152
118 203 152
118 203 152
118 203 153
119 204 153
111 183 148
119 204 153
119 204 154
120 205 154
120 205 154
120 205 154
27 43 30
27 43 30
27 43 30
29 49 31
27 43 30
27 43 30
27 43 30
27 43 30
27 43 30
30 50 32
30 50 32
30 50 32
30 50 32
30 50 32
27 43 30
30 50 32
30 50 32
30 50 32
30 50 32
118 189 155
118 189 155
118 189 155
118 189 155
126 210 161
32 52 34
32 52 34
32 52 35
32 52 35
32 52 35
86 150 90
128 211 163
121 191 157
121 191 158
121 191 158
121 191 158
129 212 163
129 212 163
121 191 158
129 212 164
129 212 164
129 212 164
122 192 159
130 212 164
130 213 164
130 213 164
122 192 159
130 213 164
122 192 159
122 192 159
122 192 159
122 192 159
122 192 159
122 192 159
122 192 159
35 55 38
35 55 39
35 55 38
35 55 38
35 55 38
35 55 38
35 54 38
34 54 38
34 54 38
34 54 38
122 192 159
122 192 159
122 191 159
122 191 159
129 212 164
122 191 159
122 191 159
121 191 158
121 191 158
129 211 163
129 211 163
80 131 88
104 174 141
104 174 141
104 174 141
104 174 141
104 174 141
104 174 141
111 195 146
104 174 141
104 174 140
111 195 146
104 174 140
111 195 146
111 195 146
111 195 146
111 195 146
111 195 146
111 195 146
111 195 146
103 174 140
111 195 146
111 195 145
111 195 145
103 174 140
103 174 140
103 174 140
103 174 140
103 174 140
103 174 140
103 174 140
103 174 140
103 174 140
103 174 140
103 174 140
111 195 145
111 195 145
111 195 145
111 195 145
111 195 145
103 174 140
111 195 145
111 195 145
111 195 145
111 195 145
111 195 145
111 195 145
103 174 140
103 174 140
103 174 140
103 174 140
103 174 140
103 174 140
111 195 145
103 174 140
103 174 140
103 174 140
103 174 140
111 195 145
111 195 145
103 174 139
111 195 145
111 195 145
111 195 145
111 195 145
110 195 145
110 195 145
110 195 145
110 195 145
110 195 145
102 174 139
102 174 139
110 195 145
102 174 139
102 174 139
110 195 145
102 174 139
102 174 139
102 174 139
102 174 139
87 138 93
87 139 93
30 46 33
30 46 33
30 50 32
30 50 32
30 50 32
30 49 32
30 49 32
30 49 32
30 49 32
29 49 32
29 49 32
29 49 32
87 139 94
103 174 140
103 174 140
111 195 145
103 174 140
103 174 140
103 174 140
103 174 140
103 174 140
103 174 140
103 174 140
111 195 145
103 174 140
111 195 145
111 195 145
111 195 145
111 195 145
111 195 145
76 128 83
76 128 83
27 43 30
27 43 30
95 160 99
34 54 36
28 44 31
30 50 33
28 44 31
28 44 31
28 44 31
28 44 31
36 58 48
36 58 48
38 64 50
103 174 140
111 195 145
103 174 140
36 58 48
36 58 48
36 58 48
36 58 48
36 58 48
36 58 48
36 58 48
38 64 49
38 64 49
38 64 49
38 64 49
36 58 48
38 64 49
36 57 48
38 64 49
36 57 48
38 64 49
27 43 30
27 43 30
27 43 30
27 43 30
27 43 30
27 43 30
27 43 30
27 43 30
27 43 30
27 43 30
110 195 145
110 195 145
110 195 145
37 63 48
110 195 145
110 195 145
110 195 145
110 195 145
110 195 145
110 195 145
103 174 139
103 174 139
103 174 139
35 56 46
35 56 46
37 63 48
35 56 47
35 57 47
35 57 47
35 57 47
35 57 47
28 48 30
29 48 30
29 48 30
29 48 30
29 49 30
29 49 31
29 49 31
29 49 31
29 49 31
29 49 31
29 49 31
28 48 30
28 48 30
103 175 140
103 175 140
103 175 140
103 175 140
111 196 145
103 175 140
111 197 145
103 175 140
103 175 140
103 175 140
104 175 140
104 176 141
112 197 146
104 176 141
104 176 141
104 176 141
104 176 141
112 198 147
105 176 141
105 177 142
105 177 142
113 198 147
113 198 147
113 199 148
114 199 148
114 199 148
114 199 148
114 199 148
114 199 148
106 178 143
115 200 149
115 200 149
115 200 149
115 200 150
108 179 144
108 179 145
108 180 145
108 180 145
108 180 145
109 180 146
109 181 146
109 181 146
109 181 146
110 181 147
110 182 147
118 203 152
118 203 153
119 204 153
119 204 153
119 204 153
120 204 154
120 205 154
112 184 149
120 205 155
121 205 155
121 206 155
27 43 30
27 43 30
29 49 32
29 49 32
27 43 30
27 43 30
27 43 30
27 43 30
30 50 32
30 50 32
30 50 32
30 50 32
30 50 32
30 50 32
28 44 31
30 50 32
30 50 32
118 189 155
118 189 155
118 189 155
127 211 161
119 190 156
119 190 156
127 211 161
32 52 35
32 52 35
32 52 35
32 52 35
121 191 158
121 191 158
121 191 158
121 191 158
121 192 158
129 212 164
122 192 159
130 213 164
130 213 164
130 213 164
130 213 164
130 213 164
130 213 164
130 213 164
130 213 165
130 213 165
130 213 165
123 193 160
123 193 160
123 193 160
123 193 160
123 193 160
130 213 165
123 193 160
123 193 160
123 193 160
35 55 39
35 55 38
35 55 38
35 55 38
35 55 38
35 54 38
34 54 38
34 54 38
34 54 38
34 54 38
34 54 38
34 54 38
34 54 38
34 54 38
35 54 38
35 55 38
35 55 38
35 55 38
32 49 37
33 49 37
33 49 37
104 174 141
104 174 141
104 174 141
104 174 141
111 195 146
104 174 141
104 174 140
104 174 140
111 195 146
111 195 146
111 195 146
111 195 146
111 195 146
111 195 146
111 195 146
111 195 146
111 195 146
111 195 145
111 195 145
111 195 145
111 195 145
111 195 145
103 174 140
103 174 140
103 174 140
103 174 140
103 174 140
103 174 140
103 174 140
103 174 140
103 174 140
103 174 140
103 174 140
111 195 145
111 195 145
111 195 145
111 195 145
111 195 145
111 195 145
111 195 145
111 195 145
111 195 145
103 174 140
111 195 145
103 174 140
103 174 140
103 174 140
103 174 140
111 195 145
103 174 140
103 174 140
103 174 140
103 174 140
103 174 140
103 174 139
111 195 145
111 195 145
103 174 139
111 195 145
111 195 145
111 195 145
110 195 145
110 195 145
110 195 145
110 195 145
110 195 145
110 195 145
102 174 139
102 174 139
102 174 139
102 174 139
102 174 139
110 195 145
110 195 145
110 195 144
102 174 139
102 174 139
102 174 139
87 138 93
87 139 93
30 46 33
30 46 33
30 50 32
30 50 32
30 50 32
30 50 32
30 50 32
30 50 32
30 50 32
30 50 32
30 49 32
30 49 32
84 149 88
103 174 140
103 174 140
103 174 140
84 149 88
84 149 88
29 49 32
29 49 32
29 49 32
29 49 32
29 49 32
27 43 30
27 43 30
27 43 30
27 43 30
27 43 30
27 43 30
27 43 30
27 43 30
27 43 30
27 43 30
27 43 30
95 160 99
34 53 36
36 58 48
38 64 50
38 64 50
38 64 50
38 64 50
38 64 50
38 64 50
103 174 140
103 174 140
111 195 145
103 174 140
103 174 140
38 64 49
36 58 48
38 64 49
36 57 48
36 57 48
36 57 48
36 57 48
38 64 49
38 64 49
38 64 49
38 64 49
38 64 49
36 57 48
38 64 49
38 64 49
38 64 49
38 64 49
27 43 30
27 43 30
27 43 30
27 43 30
27 43 30
27 43 30
27 43 30
27 43 30
27 43 30
27 43 30
110 195 145
110 195 145
110 195 145
110 195 145
102 174 139
110 195 145
110 195 145
110 195 145
110 195 145
110 195 145
110 195 145
110 195 145
103 174 139
34 56 46
34 56 46
34 56 46
35 56 46
35 56 46
35 56 46
37 63 48
35 57 47
29 48 30
29 49 30
29 49 31
29 49 31
29 49 31
29 49 31
29 49 31
29 49 31
29 49 31
29 49 31
29 49 31
28 48 30
28 48 30
28 48 29
83 149 87
28 48 29
28 48 29
28 48 29
28 48 29
28 48 29
28 48 30
28 48 30
28 48 30
28 48 30
28 48 30
104 176 141
104 176 141
104 176 141
104 176 141
104 176 141
105 176 141
113 198 147
105 177 142
105 177 142
105 177 142
105 177 142
114 199 148
114 199 148
114 199 148
114 199 148
114 199 148
114 200 149
115 200 149
115 200 149
107 179 144
115 200 149
107 179 144
108 179 145
108 180 145
108 180 145
108 180 145
109 180 145
117 202 151
109 181 146
109 181 146
110 181 147
118 203 152
110 182 147
110 182 147
119 204 153
119 204 153
119 204 153
120 205 154
120 205 154
120 205 154
120 205 155
121 206 155
121 206 155
121 206 155
113 185 150
29 49 32
27 43 30
27 43 30
27 43 30
27 43 30
30 50 32
30 50 32
27 43 30
30 50 32
30 50 32
30 50 32
30 50 32
30 50 32
28 44 31
30 50 32
28 44 31
119 189 155
119 190 156
119 190 156
119 190 156
119 190 156
120 190 156
120 191 157
120 191 157
32 52 35
32 52 35
32 52 35
121 192 158
121 192 158
122 192 159
122 192 159
130 213 164
122 192 159
122 192 159
122 192 159
130 213 165
130 213 165
130 214 165
130 214 165
131 214 165
131 214 165
131 214 165
123 193 160
123 193 160
131 214 165
131 214 165
123 193 160
87 150 92
87 151 92
33 53 37
33 53 37
34 53 37
34 54 37
87 151 92
35 55 38
35 55 38
35 55 38
35 55 38
35 55 38
34 54 38
34 54 38
34 54 38
34 54 38
34 54 38
34 54 38
34 54 38
35 54 38
35 55 38
35 55 38
35 55 38
35 55 38
33 49 37
33 49 37
33 49 37
104 174 141
104 174 141
104 174 141
104 174 140
104 174 140
104 174 140
104 174 140
104 174 140
103 174 140
103 174 140
111 195 146
111 195 146
111 195 146
111 195 146
111 195 146
111 195 145
111 195 145
111 195 145
111 195 145
111 195 145
111 195 145
103 174 140
103 174 140
103 174 140
103 174 140
103 174 140
103 174 140
111 195 145
103 174 140
103 174 140
111 195 145
103 174 140
111 195 145
111 195 145
111 195 145
111 195 145
111 195 145
111 195 145
111 195 145
111 195 145
111 195 145
111 195 145
111 195 145
103 174 140
103 174 140
103 174 140
111 195 145
103 174 140
103 174 140
103 174 140
103 174 140
103 174 139
103 174 139
103 174 139
103 174 139
111 195 145
111 195 145
111 195 145
103 174 139
110 195 145
110 195 145
110 195 145
110 195 145
110 195 145
110 195 145
110 195 145
102 174 139
110 195 145
84 149 88
84 149 88
29 49 31
29 49 31
29 49 31
29 49 31
29 49 31
29 49 31
29 49 31
84 149 88
87 138 93
87 139 93
87 139 94
30 46 33
35 57 47
35 57 47
38 63 49
38 63 49
35 57 47
35 57 47
35 57 47
35 57 47
35 57 47
103 174 140
87 139 94
30 50 32
30 50 32
30 50 32
30 49 32
30 49 32
30 49 32
30 49 32
30 49 32
29 49 32
29 49 32
27 43 30
27 43 30
27 43 30
27 43 30
27 43 30
27 43 30
27 43 30
27 43 30
27 43 30
27 43 30
27 43 30
95 160 99
38 64 50
38 64 50
36 58 48
38 64 49
38 64 49
36 58 48
103 174 140
111 195 145
111 195 145
111 195 145
103 174 140
111 195 145
103 174 140
36 57 48
36 57 48
36 57 48
38 64 49
36 57 48
35 57 48
35 57 48
38 64 49
38 64 49
38 64 49
38 64 49
38 64 49
35 57 48
35 57 48
35 57 48
35 57 48
38 64 49
27 43 30
27 43 30
27 43 30
27 43 30
27 43 30
27 43 30
27 43 30
27 43 30
27 43 30
27 43 30
110 195 145
102 174 139
110 195 145
110 195 145
110 195 145
110 195 145
110 195 145
110 195 145
102 174 139
110 195 145
110 195 145
110 195 145
102 174 139
34 56 46
34 56 46
37 63 48
37 63 48
34 56 46
35 56 46
35 56 46
35 56 46
29 49 31
29 49 31
29 49 31
29 49 31
29 49 31
29 49 31
35 57 47
35 57 47
35 57 47
35 57 47
35 57 47
28 48 30
28 48 30
28 48 29
28 48 29
28 48 29
28 48 29
25 41 28
28 48 30
28 48 30
28 48 30
28 48 30
26 41 28
28 48 30
28 48 30
104 176 141
104 176 141
104 176 141
104 176 141
104 176 141
105 176 141
105 177 142
105 177 142
105 177 142
105 177 142
105 177 142
114 199 148
106 178 143
114 199 148
114 199 148
114 200 149
115 200 149
115 200 149
115 200 149
115 200 149
115 201 150
116 201 150
116 201 150
108 180 145
108 180 145
109 180 145
117 202 151
109 181 146
109 181 146
110 181 146
110 182 147
110 182 147
110 182 147
111 182 148
119 204 153
119 204 153
120 205 154
120 205 154
120 205 154
112 184 149
121 206 155
121 206 155
121 206 155
122 206 156
122 207 156
122 207 156
27 43 30
27 43 30
27 43 30
27 43 30
27 43 30
27 43 30
30 50 32
30 50 32
30 50 32
28 44 31
30 50 32
30 50 32
28 44 31
30 50 32
30 50 33
119 190 156
119 190 156
119 190 156
120 191 157
120 191 157
120 191 157
120 191 157
121 191 157
121 192 158
32 52 35
86 150 91
122 192 159
122 192 159
122 192 159
122 193 159
122 193 159
123 193 160
131 214 165
123 193 160
131 214 165
30 46 34
30 46 34
31 47 34
31 47 34
31 47 34
31 47 35
31 47 35
31 47 35
33 53 36
33 53 36
33 53 36
33 53 37
33 53 37
34 53 37
34 54 37
34 54 37
34 54 37
59 81 72
59 81 72
35 55 38
35 55 38
35 55 38
35 55 38
34 54 38
34 54 38
34 54 38
34 54 38
34 54 38
34 54 38
35 55 38
35 55 38
35 55 38
35 55 38
35 55 38
33 49 37
33 49 37
33 49 37
33 49 37
104 174 141
104 174 140
104 174 140
104 174 140
111 195 146
103 174 140
103 174 140
103 174 140
103 174 140
111 195 146
111 195 146
111 195 146
111 195 145
111 195 145
103 174 140
103 174 140
111 195 145
111 195 145
111 195 145
111 195 145
103 174 140
111 195 145
103 174 140
103 174 140
103 174 140
103 174 140
103 174 140
103 174 140
111 195 145
103 174 140
103 174 140
111 195 145
111 195 145
111 195 145
103 174 140
111 195 145
103 174 140
111 195 145
111 195 145
103 174 140
111 195 145
103 174 140
111 195 145
111 195 145
103 174 140
111 195 145
103 174 140
111 195 145
103 174 140
103 174 139
103 174 139
111 195 145
103 174 139
111 195 145
111 195 145
103 174 139
103 174 139
102 174 139
102 174 139
102 174 139
102 174 139
102 174 139
110 195 145
102 174 139
102 174 139
102 174 139
29 49 31
29 49 31
29 49 31
29 49 31
29 49 31
29 49 31
29 49 31
29 49 31
29 49 31
29 49 31
29 49 31
29 49 31
87 138 93
87 139 93
87 139 94
30 46 33
38 63 49
35 57 47
35 57 47
35 57 47
35 57 47
35 57 47
37 63 49
103 174 140
103 174 140
103 174 140
87 139 94
30 50 32
30 50 32
30 50 32
30 50 32
30 50 32
30 50 32
30 50 32
30 50 32
30 50 32
30 50 32
30 49 32
27 43 30
27 43 30
27 43 30
27 43 30
27 43 30
27 43 30
27 43 30
27 43 30
27 43 30
27 43 30
95 160 99
38 64 49
36 58 48
38 64 49
38 64 49
111 195 145
111 195 145
111 195 145
111 195 145
111 195 145
111 195 145
103 174 140
103 174 140
103 174 140
103 174 140
103 174 140
103 174 140
103 174 140
103 174 140
103 174 140
103 174 140
103 174 140
111 195 145
111 195 145
38 64 49
38 64 49
35 57 47
38 64 49
38 64 49
38 64 49
38 64 49
27 43 30
27 43 30
27 43 30
27 43 30
27 43 30
27 43 30
27 43 30
27 43 30
27 43 30
27 43 30
110 195 144
102 174 139
110 195 144
110 195 145
110 195 145
110 195 145
110 195 145
110 195 145
102 174 139
110 195 145
110 195 145
102 174 139
110 195 145
84 149 87
29 49 31
29 49 31
29 49 31
29 49 31
29 49 31
29 49 31
29 49 31
29 49 31
35 56 46
35 57 47
35 57 47
35 57 47
37 63 48
37 63 48
35 57 47
37 63 48
35 57 47
35 57 47
29 48 30
28 48 30
28 48 30
25 41 28
28 48 30
28 48 30
25 41 28
28 48 30
26 41 28
28 48 30
28 48 30
28 48 30
28 48 30
28 48 30
28 48 29
104 176 141
104 176 141
104 176 141
104 176 141
113 198 147
113 198 147
105 177 142
105 177 142
113 199 147
105 177 142
106 178 142
114 199 148
106 178 143
114 200 148
114 200 149
115 200 149
107 179 144
107 179 144
115 201 150
108 179 144
116 201 150
116 201 150
108 180 145
109 180 145
109 181 146
109 181 146
109 181 146
110 181 146
110 182 147
118 203 152
110 182 147
111 182 148
111 183 148
111 183 148
120 205 154
112 184 149
120 205 154
120 205 155
121 206 155
121 206 155
121 206 155
122 207 156
122 207 156
122 207 156
122 207 157
30 50 32
27 43 30
27 43 30
30 50 32
27 43 30
30 50 32
28 44 31
30 50 32
30 50 32
30 50 32
30 50 32
28 44 31
28 44 31
30 50 33
119 190 156
119 190 156
120 191 157
120 191 157
120 191 157
120 191 157
129 213 163
121 192 158
85 150 89
85 150 89
55 77 68
122 193 159
130 214 164
123 193 159
130 214 165
123 193 160
123 193 160
123 193 160
131 214 165
123 194 160
131 215 166
131 215 166
31 47 34
31 47 34
31 47 34
31 47 35
31 47 35
31 47 35
31 47 35
33 53 36
33 53 36
33 53 37
33 53 37
34 53 37
34 54 37
34 54 37
34 54 37
34 54 37
60 82 73
60 82 73
60 82 73
35 55 38
35 55 38
35 55 38
35 54 38
34 54 38
34 54 38
34 54 38
35 54 38
35 55 38
35 55 38
35 55 38
35 55 38
35 55 38
35 55 38
33 49 37
33 49 37
33 49 37
33 49 37
104 174 140
104 174 140
104 174 140
103 174 140
103 174 140
103 174 140
103 174 140
103 174 140
111 195 146
103 174 140
111 195 145
111 195 145
111 195 145
111 195 145
111 195 145
103 174 140
103 174 140
111 195 145
111 195 145
103 174 140
103 174 140
103 174 140
103 174 140
103 174 140
103 174 140
103 174 140
103 174 140
103 174 140
103 174 140
103 174 140
103 174 140
111 195 145
111 195 145
111 195 145
111 195 145
111 195 145
103 174 140
111 195 145
111 195 145
111 195 145
103 174 140
103 174 140
111 195 145
111 195 145
111 195 145
111 195 145
111 195 145
111 195 145
111 195 145
111 195 145
103 174 139
111 195 145
110 195 145
103 174 139
102 174 139
102 174 139
102 174 139
110 195 145
102 174 139
102 174 139
102 174 139
110 195 145
102 174 139
102 174 139
102 174 139
87 138 93
29 49 31
29 49 31
29 49 31
29 49 31
29 49 31
29 49 31
29 49 31
29 49 31
29 49 31
29 49 31
29 49 31
29 49 31
87 138 93
87 139 93
87 139 94
35 57 47
37 63 49
35 57 47
35 57 47
35 57 47
37 63 49
103 174 140
103 174 140
103 174 140
103 174 139
103 174 139
87 139 94
30 50 32
30 50 32
30 50 32
30 50 32
30 50 32
30 50 32
30 50 32
30 50 32
30 50 32
30 50 32
30 50 32
27 43 30
27 43 30
27 43 30
27 43 30
27 43 30
27 43 30
27 43 30
27 43 30
27 43 30
27 43 30
95 160 99
111 195 145
103 174 140
111 195 145
111 195 145
111 195 145
111 195 145
111 195 145
111 195 145
111 195 145
111 195 145
103 174 140
103 174 140
103 174 140
103 174 140
111 195 145
103 174 140
103 174 140
103 174 140
111 195 145
103 174 140
111 195 145
111 195 145
111 195 145
35 57 47
38 64 49
38 64 49
38 63 49
38 63 49
38 63 49
38 63 49
27 43 30
27 43 30
27 43 30
27 43 30
27 43 30
27 43 30
27 43 30
27 43 30
27 43 30
27 43 30
26 42 29
76 128 82
26 42 29
26 42 29
26 42 29
26 42 29
26 42 29
26 42 29
26 42 29
26 42 29
26 42 29
29 49 31
29 49 31
29 49 31
29 49 31
29 49 31
29 49 31
29 49 31
29 49 31
29 49 31
29 49 31
29 49 31
35 56 46
35 56 46
35 57 46
35 57 47
35 57 47
35 57 47
35 57 47
35 57 47
35 57 47
37 63 49
29 49 30
28 48 30
28 48 30
28 48 30
28 48 30
28 48 30
28 48 30
28 48 30
28 48 30
28 48 30
28 48 30
28 48 30
28 48 30
28 48 30
28 48 29
104 176 141
104 176 141
104 176 141
105 176 141
113 198 147
105 177 142
105 177 142
105 177 142
105 177 142
106 177 142
106 178 143
106 178 143
106 178 143
114 200 149
115 200 149
115 200 149
115 200 149
115 201 149
116 201 150
116 201 150
116 201 150
108 180 145
116 202 151
109 181 146
109 181 146
109 181 146
110 181 146
118 203 152
110 182 147
110 182 147
111 182 147
111 183 148
111 183 148
112 183 148
120 205 154
112 184 149
112 184 149
121 206 155
113 185 150
121 206 156
122 207 156
114 186 151
122 207 156
123 208 157
123 208 157
123 208 157
27 43 30
27 43 30
27 43 31
30 50 32
30 50 32
30 50 32
30 50 32
30 50 32
51 73 63
51 73 63
54 80 65
52 74 64
52 74 64
120 191 157
30 50 33
30 50 33
31 50 33
28 44 31
31 51 33
28 44 32
31 51 33
31 51 33
31 51 33
123 193 159
123 193 160
123 193 160
131 214 165
131 214 165
131 215 166
131 215 166
132 215 166
124 194 161
132 215 166
124 194 161
132 215 166
31 47 34
31 47 35
31 47 35
31 47 35
31 47 35
31 47 35
31 47 35
33 53 37
33 53 37
34 53 37
34 54 37
34 54 37
34 54 37
34 54 37
34 54 37
60 82 73
60 82 73
60 82 73
60 82 73
60 82 73
35 55 38
35 55 38
35 54 38
34 54 38
34 54 38
35 54 38
35 55 38
35 55 38
35 55 38
35 55 38
35 55 38
35 55 38
33 49 37
33 49 37
33 49 37
33 49 37
33 49 37
104 174 140
111 195 146
103 174 140
103 174 140
103 174 140
103 174 140
103 174 140
111 195 146
111 195 145
111 195 145
111 195 145
111 195 145
111 195 145
111 195 145
111 195 145
103 174 140
111 195 145
111 195 145
111 195 145
103 174 140
103 174 140
111 195 145
103 174 140
103 174 140
103 174 140
103 174 140
111 195 145
111 195 145
111 195 145
111 195 145
103 174 140
103 174 140
103 174 140
103 174 140
103 174 140
103 174 140
103 174 140
103 174 140
103 174 140
103 174 140
103 174 140
103 174 140
103 174 140
111 195 145
111 195 145
111 195 145
103 174 139
111 195 145
111 195 145
111 195 145
110 195 145
110 195 145
102 174 139
110 195 145
110 195 145
102 174 139
102 174 139
102 174 139
102 174 139
110 195 145
102 174 139
110 195 145
102 174 139
102 174 139
102 174 139
87 138 93
30 46 33
29 49 31
29 49 31
29 49 31
29 49 31
29 49 31
29 49 31
29 49 31
29 49 31
29 49 31
29 49 31
29 49 31
87 138 93
87 139 93
87 139 94
35 57 47
35 57 47
35 57 47
35 57 47
103 174 140
103 174 140
103 174 139
103 174 139
103 174 139
111 195 145
111 195 145
87 139 94
30 50 32
30 50 32
30 50 32
30 50 32
30 50 32
30 50 32
30 50 32
30 50 32
30 50 32
30 50 32
30 50 32
27 43 30
27 43 30
27 43 30
27 43 30
27 43 30
27 43 30
27 43 30
27 43 30
27 43 30
27 43 30
95 160 99
111 195 145
111 195 145
111 195 145
111 195 145
111 195 145
111 195 145
111 195 145
111 195 145
103 174 140
111 195 145
111 195 145
103 174 140
103 174 140
103 174 140
103 174 140
103 174 140
111 195 145
103 174 140
103 174 140
103 174 140
111 195 145
111 195 145
111 195 145
38 63 49
38 63 49
35 57 47
38 63 49
38 63 49
35 57 47
35 57 47
27 43 30
27 43 30
35 57 47
38 63 49
38 63 49
38 63 49
38 63 49
35 57 47
38 63 49
38 63 49
26 42 29
26 42 29
26 42 29
26 42 29
26 42 29
26 42 29
26 42 29
26 42 29
26 42 29
26 42 29
26 42 29
29 49 31
29 49 31
29 49 31
29 49 31
29 49 31
29 49 31
29 49 31
29 49 31
29 49 31
29 49 31
29 49 31
37 63 48
34 56 46
35 56 46
35 56 46
35 57 47
35 57 47
35 57 47
35 57 47
35 57 47
37 63 48
35 57 47
28 48 30
28 48 30
28 48 30
28 48 30
28 48 30
26 42 28
28 48 30
28 48 30
28 48 30
28 48 30
28 48 30
28 48 30
28 48 30
28 48 29
27 47 29
104 176 141
104 176 141
105 177 141
105 177 142
105 177 142
113 199 147
105 177 142
114 199 148
106 178 142
114 199 148
106 178 143
114 200 148
115 200 149
115 200 149
115 200 149
115 200 149
115 201 150
108 179 144
116 201 150
116 201 150
108 180 145
117 202 151
117 202 151
109 181 146
109 181 146
110 182 147
110 182 147
110 182 147
111 182 147
111 183 148
111 183 148
120 205 154
112 184 149
112 184 149
112 184 149
121 206 155
121 206 155
121 206 156
122 207 156
114 186 151
122 207 156
76 127 82
84 149 87
26 42 29
28 48 30
51 77 63
49 71 61
52 78 63
52 78 63
50 72 62
50 72 63
51 73 63
51 73 63
51 73 63
54 80 65
52 74 64
52 74 64
120 191 157
120 191 157
28 44 31
31 50 33
28 44 31
31 51 33
31 51 33
31 51 33
31 51 33
31 51 33
77 129 84
123 194 160
123 194 160
123 194 160
131 215 166
132 215 166
132 215 166
132 215 166
124 195 161
132 216 167
132 216 167
132 216 167
133 216 167
133 216 167
31 47 35
31 47 35
31 47 35
31 47 35
31 47 35
33 53 37
33 53 37
34 53 37
34 54 37
34 54 37
34 54 37
34 54 37
34 54 37
34 54 37
61 83 74
61 83 74
61 83 74
61 83 74
61 83 74
61 83 74
35 55 38
35 55 38
35 54 38
35 55 38
35 55 38
35 55 38
35 55 38
35 55 38
35 55 38
35 55 39
35 55 39
33 49 37
33 49 37
33 49 37
33 49 37
33 49 38
103 174 140
103 174 140
111 195 146
103 174 140
103 174 140
103 174 140
111 195 145
111 195 145
111 195 145
111 195 145
111 195 145
111 195 145
111 195 145
111 195 145
111 195 145
103 174 140
103 174 140
103 174 140
111 195 145
111 195 145
111 195 145
111 195 145
111 195 145
111 195 145
111 195 145
103 174 140
111 195 145
111 195 145
103 174 140
111 195 145
103 174 140
103 174 140
103 174 140
103 174 140
111 195 145
103 174 140
103 174 140
103 174 140
103 174 140
103 174 140
103 174 140
103 174 139
111 195 145
111 195 145
111 195 145
103 174 139
111 195 145
103 174 139
110 195 145
110 195 145
102 174 139
110 195 145
102 174 139
102 174 139
102 174 139
102 174 139
102 174 139
102 174 139
102 174 139
102 174 139
102 174 139
102 174 139
102 174 139
102 174 139
87 138 93
87 138 93
30 46 33
29 49 31
29 49 31
29 49 31
29 49 31
29 49 31
29 49 31
29 49 31
29 49 31
29 49 31
29 49 31
29 49 31
84 149 88
87 139 93
87 139 94
111 195 145
103 174 140
111 195 145
103 174 139
111 195 145
103 174 139
103 174 139
111 195 145
103 174 139
111 195 145
87 139 93
87 139 94
31 47 34
30 50 32
30 50 32
30 50 32
30 50 32
30 50 32
30 50 32
30 50 32
30 50 32
30 50 32
30 50 32
27 43 30
27 43 30
27 43 30
27 43 30
27 43 30
27 43 30
27 43 30
27 43 30
27 43 30
27 43 30
77 128 83
111 195 145
111 195 145
111 195 145
103 174 140
111 195 145
111 195 145
111 195 145
111 195 145
111 195 145
111 195 145
103 174 140
103 174 140
111 195 145
103 174 140
103 174 140
103 174 140
103 174 140
103 174 140
103 174 140
85 149 88
103 174 140
103 174 140
103 174 140
35 57 47
35 57 47
37 63 49
35 57 47
35 57 47
35 57 47
37 63 49
35 57 47
37 63 49
35 57 47
37 63 49
37 63 49
37 63 49
37 63 49
37 63 49
37 63 49
37 63 49
26 42 29
26 42 29
26 42 29
26 42 29
26 42 29
26 42 29
26 42 29
26 42 29
26 42 29
26 42 29
26 42 29
29 49 31
29 49 31
29 49 31
29 49 31
29 49 31
29 49 31
29 49 31
29 49 31
29 49 31
29 49 31
29 49 31
34 56 46
34 56 46
111 196 145
35 56 46
35 56 46
37 63 48
35 57 47
35 57 47
35 57 47
35 57 47
35 57 47
28 48 30
28 48 30
28 48 30
28 48 30
28 48 30
28 48 30
28 48 30
26 42 28
28 48 30
26 42 28
28 48 30
26 42 28
28 48 30
28 48 30
28 47 29
104 176 141
104 176 141
105 177 141
105 177 142
113 198 147
105 177 142
105 177 142
114 199 148
114 199 148
106 178 143
106 178 143
106 178 143
115 200 149
115 200 149
115 200 149
115 201 149
116 201 150
116 201 150
108 180 145
116 202 150
117 202 151
109 181 146
117 202 151
109 181 146
110 182 146
110 182 147
110 182 147
111 182 147
83 149 87
83 149 87
75 127 82
28 48 30
28 48 30
28 48 30
26 42 28
26 42 28
26 42 28
28 48 30
26 42 29
26 42 29
26 42 29
26 42 29
26 42 29
26 42 29
26 42 29
52 77 63
52 78 63
52 78 64
53 78 64
50 72 63
51 73 63
51 73 63
51 73 64
54 80 65
54 80 66
52 74 64
120 191 157
128 213 163
121 192 158
129 213 163
31 51 33
31 51 33
31 51 33
31 51 33
31 51 33
31 51 33
31 51 33
123 194 160
124 194 161
124 194 161
132 215 166
124 195 161
132 216 167
132 216 167
133 216 167
125 195 162
133 216 167
133 216 167
133 216 167
133 217 168
133 217 168
133 217 168
31 47 35
31 47 35
31 47 35
31 47 35
34 53 37
34 54 37
34 54 37
34 54 37
34 54 37
34 54 37
34 54 37
34 54 37
127 196 164
61 83 74
61 83 74
61 83 74
61 83 74
61 83 74
61 83 74
61 83 74
35 55 38
35 55 38
35 55 38
35 55 38
35 55 38
35 55 38
35 55 38
35 55 39
35 55 39
33 49 37
33 49 37
33 49 37
63 88 75
63 88 75
63 88 75
111 195 146
111 195 146
111 195 146
111 195 145
111 195 145
111 195 145
103 174 140
103 174 140
103 174 140
103 174 140
103 174 140
103 174 140
103 174 140
103 174 140
103 174 140
103 174 140
111 195 145
111 195 145
111 195 145
111 195 145
111 195 145
103 174 140
111 195 145
111 195 145
111 195 145
111 195 145
111 195 145
111 195 145
111 195 145
103 174 140
103 174 140
103 174 140
103 174 140
103 174 140
103 174 140
103 174 140
103 174 140
103 174 140
103 174 139
103 174 139
111 195 145
111 195 145
111 195 145
111 195 145
110 195 145
110 195 145
110 195 145
102 174 139
110 195 145
110 195 145
110 195 145
102 174 139
110 195 145
102 174 139
102 174 139
102 174 139
102 174 139
102 174 139
102 174 139
102 174 139
110 195 144
102 174 139
102 174 139
102 174 139
87 138 93
87 138 93
30 46 33
29 49 31
29 49 31
29 49 31
29 49 31
29 49 31
29 49 31
29 49 31
29 49 31
29 49 31
29 49 31
29 49 31
29 49 31
87 139 93
103 174 139
103 174 139
103 174 139
103 174 139
103 174 139
103 174 139
103 174 139
103 174 139
103 174 139
103 174 139
110 195 145
87 139 93
87 139 94
31 47 34
30 50 32
30 50 32
30 50 32
30 50 32
30 50 32
30 50 32
30 50 32
30 50 32
30 50 32
30 50 32
27 43 30
27 43 30
27 43 30
27 43 30
27 43 30
27 43 30
27 43 30
27 43 30
27 43 30
27 43 30
27 43 30
111 195 145
111 195 145
103 174 140
111 195 145
111 195 145
111 195 145
103 174 140
103 174 140
103 174 140
103 174 140
30 50 32
30 50 32
30 50 32
30 50 32
30 50 32
30 50 32
30 50 32
30 50 32
30 50 32
30 50 32
103 174 140
103 174 140
103 174 140
35 57 47
35 57 47
35 57 47
37 63 49
35 57 47
35 57 47
35 57 47
35 57 47
37 63 49
37 63 49
37 63 49
37 63 49
37 63 49
37 63 49
37 63 49
37 63 49
37 63 49
26 42 29
26 42 29
26 42 29
26 42 29
26 42 29
26 42 29
26 42 29
26 42 29
26 42 29
26 42 29
26 42 29
29 49 31
29 49 31
29 49 31
29 49 31
29 49 31
29 49 31
29 49 31
29 49 31
29 49 31
29 49 31
29 49 31
84 149 87
103 174 139
103 174 140
34 56 46
37 63 48
37 63 48
35 57 47
35 57 47
35 57 47
35 57 47
35 57 47
28 48 30
28 48 30
28 48 30
28 48 30
28 48 30
28 48 30
28 48 30
26 42 28
28 48 30
28 48 30
26 42 29
28 48 30
28 48 30
28 48 30
28 48 29
104 176 141
105 177 141
105 177 142
105 177 142
105 177 142
113 199 147
114 199 148
106 178 142
106 178 143
106 178 143
106 178 143
106 178 143
115 200 149
115 200 149
115 201 149
115 201 150
83 149 87
75 127 81
25 41 28
25 41 28
25 41 28
25 41 28
25 41 28
28 48 30
28 48 30
28 48 30
28 48 30
28 48 30
28 48 30
28 48 30
28 48 30
28 48 30
28 48 30
26 42 28
26 42 28
26 42 29
26 42 29
26 42 29
26 42 29
26 42 29
26 42 29
26 42 29
26 42 29
26 42 29
26 42 29
52 78 63
52 78 64
53 78 64
53 79 64
53 79 65
51 73 63
52 73 64
52 74 64
52 74 64
52 74 65
128 213 162
121 192 157
121 192 158
121 192 158
129 214 164
122 193 159
31 51 33
31 51 33
31 51 33
31 51 33
31 51 33
31 51 34
124 194 161
124 195 161
132 216 167
132 216 167
133 216 167
133 216 167
133 216 167
133 217 167
133 217 168
126 196 163
134 217 168
134 217 168
134 217 168
126 196 163
134 217 168
134 217 168
31 47 35
31 47 35
34 53 37
34 54 37
34 54 37
34 54 37
34 54 37
34 54 37
34 54 37
34 54 37
34 54 37
127 197 164
127 197 164
62 84 75
62 84 75
62 84 75
62 84 75
62 84 75
62 84 75
64 90 76
62 84 75
62 84 75
62 83 75
62 83 75
62 83 75
61 83 75
61 83 74
61 83 74
61 83 74
63 89 76
63 89 76
63 89 76
63 89 76
63 89 75
103 174 140
111 195 145
111 195 145
111 195 145
103 174 140
103 174 140
103 174 140
103 174 140
103 174 140
103 174 140
111 195 145
103 174 140
103 174 140
103 174 140
103 174 140
111 195 145
103 174 140
111 195 145
103 174 140
111 195 145
111 195 145
111 195 145
111 195 145
111 195 145
103 174 140
111 195 145
111 195 145
111 195 145
111 195 145
103 174 140
111 195 145
103 174 140
103 174 140
103 174 140
103 174 140
103 174 140
103 174 139
103 174 139
103 174 139
103 174 139
103 174 139
111 195 145
110 195 145
110 195 145
110 195 145
110 195 145
110 195 145
110 195 145
110 195 145
110 195 145
110 195 145
110 195 145
102 174 139
102 174 139
102 174 139
102 174 139
102 174 139
102 174 139
102 174 139
102 174 139
102 174 139
102 174 139
102 174 139
87 138 93
87 138 93
87 138 93
30 46 33
30 46 33
29 49 31
29 49 31
29 49 31
29 49 31
29 49 31
29 49 31
29 49 31
29 49 31
29 49 31
29 49 31
29 49 31
87 139 93
103 174 139
103 174 139
103 174 139
103 174 139
103 174 139
103 174 139
103 174 139
102 174 139
110 195 145
110 195 145
102 174 139
87 139 93
87 139 94
31 47 34
30 50 32
30 50 32
30 50 32
30 50 32
30 50 32
30 50 32
30 50 32
30 50 32
30 50 32
30 50 32
28 44 31
28 44 31
28 43 31
38 64 49
35 57 47
38 64 49
35 57 47
38 64 49
38 64 49
38 63 49
111 195 145
111 195 145
103 174 140
111 195 145
111 195 145
103 174 140
103 174 140
111 195 145
103 174 140
103 174 140
111 195 145
30 50 32
30 50 32
30 50 32
30 50 32
30 50 32
30 50 32
30 50 32
30 50 32
30 50 32
30 50 32
103 174 140
103 174 140
103 174 140
35 57 47
35 57 47
35 57 47
35 57 47
35 57 47
37 63 49
35 57 47
37 63 49
35 57 47
37 63 49
37 63 49
37 63 49
35 57 47
37 63 49
37 63 49
37 63 49
37 63 49
27 43 29
26 42 29
26 42 29
26 42 29
26 42 29
26 42 29
26 42 29
26 42 29
26 42 29
26 42 29
27 42 29
29 49 31
29 49 31
29 49 31
29 49 31
29 49 31
29 49 31
29 49 31
29 49 31
29 49 31
29 49 31
29 49 31
28 48 30
103 174 139
103 174 140
103 174 140
34 56 46
35 56 46
35 57 46
35 57 47
35 57 47
35 57 47
35 57 47
35 57 47
28 48 30
28 48 30
26 42 28
28 48 30
26 42 28
28 48 30
28 48 30
28 48 30
28 48 30
28 48 30
28 48 30
28 48 30
28 48 30
28 48 29
27 47 29
105 177 141
113 198 147
83 148 86
83 148 86
25 41 27
27 47 29
25 41 27
25 41 27
27 47 29
28 47 29
28 47 29
28 48 29
25 41 28
25 41 28
28 48 29
25 41 28
25 41 28
28 48 29
25 41 28
25 41 28
25 41 28
25 41 28
26 41 28
28 48 30
28 48 30
28 48 30
28 48 30
28 48 30
28 48 30
28 48 30
28 48 30
28 48 30
26 42 29
28 48 30
26 42 29
26 42 29
28 48 30
26 42 29
26 42 29
26 42 29
29 49 30
26 42 29
26 42 29
52 78 63
52 78 64
53 78 64
53 79 64
53 79 65
54 79 65
54 80 65
52 74 64
52 74 64
120 191 157
128 213 163
121 192 158
121 192 158
121 193 158
122 193 159
122 193 159
122 193 159
123 194 159
31 51 33
31 51 33
31 51 34
31 51 34
78 129 84
125 195 161
125 195 162
125 195 162
125 196 162
125 196 162
126 196 162
126 196 163
126 196 163
134 217 168
126 197 163
126 197 163
126 197 163
134 218 169
135 218 169
135 218 169
135 218 169
135 218 169
31 47 35
34 54 37
34 54 37
34 54 37
34 54 37
34 54 37
62 84 75
62 84 75
62 84 75
128 198 165
136 218 170
136 218 170
65 90 77
65 90 77
65 90 77
65 90 77
65 90 77
65 90 77
65 90 77
65 90 77
62 84 75
62 84 75
62 84 75
62 84 75
62 84 75
62 84 75
62 84 75
62 84 75
62 83 75
64 90 76
64 89 76
64 89 76
64 89 76
111 195 145
111 195 145
111 195 145
111 195 145
103 174 140
103 174 140
103 174 140
111 195 145
103 174 140
103 174 140
111 195 145
103 174 140
103 174 140
111 195 145
103 174 140
103 174 140
111 195 145
111 195 145
111 195 145
111 195 145
111 195 145
111 195 145
111 195 145
111 195 145
111 195 145
111 195 145
111 195 145
111 195 145
111 195 145
111 195 145
103 174 140
111 195 145
103 174 140
103 174 139
103 174 139
103 174 139
103 174 139
103 174 139
111 195 145
103 174 139
110 195 145
102 174 139
102 174 139
110 195 145
110 195 145
110 195 145
102 174 139
110 195 145
110 195 145
110 195 145
102 174 139
102 174 139
110 195 144
102 174 139
102 174 139
102 174 139
110 195 144
102 174 139
110 195 144
110 195 144
102 174 139
102 174 139
110 195 144
87 138 93
87 138 93
87 138 93
30 46 33
30 46 33
29 49 31
29 49 31
29 49 31
29 49 31
29 49 31
29 49 31
29 49 31
29 49 31
29 49 31
29 49 31
29 49 31
87 139 93
103 174 139
103 174 139
103 174 139
103 174 139
102 174 139
102 174 139
102 174 139
102 174 139
84 149 88
84 149 88
29 49 31
87 139 93
87 139 94
31 47 34
36 57 48
36 57 48
38 64 49
35 57 48
35 57 48
38 64 49
35 57 48
35 57 48
35 57 48
35 57 47
38 64 49
38 64 49
38 64 49
38 64 49
38 63 49
38 63 49
38 63 49
35 57 47
111 195 145
103 174 140
111 195 145
111 195 145
103 174 140
103 174 140
103 174 140
103 174 140
103 174 140
111 195 145
103 174 140
103 174 140
111 195 145
30 50 32
30 50 32
30 50 32
30 50 32
30 50 32
30 50 32
30 50 32
30 50 32
30 50 32
30 50 32
103 174 140
103 174 140
103 174 140
35 57 47
35 57 47
35 57 47
35 57 47
103 174 140
103 174 140
103 174 140
111 195 145
111 195 145
111 195 145
37 63 48
35 57 47
37 63 48
37 63 48
37 63 48
35 57 47
37 63 48
27 43 29
26 42 29
26 42 29
26 42 29
27 42 29
27 42 29
27 42 29
27 42 29
27 43 29
27 43 29
27 43 29
29 49 31
29 49 31
29 49 31
29 49 31
29 49 31
29 49 31
29 49 31
29 49 31
29 49 31
29 49 31
29 49 31
28 48 30
103 174 139
103 174 140
103 174 140
34 56 46
35 56 46
35 56 46
35 57 46
35 57 47
35 57 47
35 57 47
35 57 47
26 42 28
28 48 30
28 48 30
35 57 47
35 57 47
36 57 47
38 64 49
36 58 48
36 58 48
39 64 50
36 58 48
28 48 30
28 48 30
28 48 29
27 47 29
25 41 27
27 47 29
27 47 29
27 47 29
27 47 29
27 47 29
25 41 28
28 47 29
28 47 29
25 41 28
25 41 28
25 41 28
28 48 29
25 41 28
25 41 28
25 41 28
25 41 28
25 41 28
25 41 28
25 41 28
26 41 28
26 41 28
28 48 30
28 48 30
28 48 30
28 48 30
28 48 30
28 48 30
26 42 28
28 48 30
28 48 30
28 48 30
28 48 30
26 42 29
26 42 29
26 42 29
26 42 29
26 42 29
26 42 29
26 42 29
26 42 29
26 42 29
26 42 29
126 210 160
126 211 160
118 190 155
127 211 161
127 212 161
127 212 162
128 212 162
120 191 157
120 192 157
129 213 163
121 192 158
121 193 158
130 214 164
122 193 159
122 193 159
122 194 159
123 194 160
123 194 160
31 51 34
31 51 34
31 51 34
31 51 34
133 216 167
125 196 162
125 196 162
126 196 162
126 196 163
126 196 163
126 197 163
126 197 163
134 218 169
134 218 169
135 218 169
135 218 169
135 218 169
135 219 169
135 219 169
135 219 170
135 219 170
135 219 170
136 219 170
62 84 75
63 84 75
63 84 75
63 85 76
63 85 76
63 85 76
63 85 76
63 85 76
129 198 166
129 198 166
136 219 171
136 219 171
65 91 77
65 91 77
65 91 77
65 91 77
65 91 77
65 91 77
65 91 77
65 91 77
63 85 76
63 84 76
63 84 76
63 84 76
62 84 75
62 84 75
62 84 75
62 84 75
62 84 75
64 90 77
64 90 77
64 90 76
111 195 145
103 174 140
111 195 145
103 174 140
103 174 140
103 174 140
111 195 145
103 174 140
103 174 140
103 174 140
111 195 145
111 195 145
111 195 145
103 174 140
103 174 140
111 195 145
103 174 140
111 195 145
111 195 145
111 195 145
111 195 145
111 195 145
111 195 145
111 195 145
111 195 145
111 195 145
111 195 145
111 195 145
103 174 140
103 174 140
103 174 140
103 174 139
103 174 139
103 174 139
103 174 139
103 174 139
103 174 139
103 174 139
102 174 139
110 195 145
110 195 145
102 174 139
110 195 145
110 195 145
110 195 145
110 195 145
110 195 145
110 195 145
110 195 145
110 195 144
110 195 144
102 174 139
102 174 139
102 174 139
102 174 139
102 174 139
102 174 139
102 174 139
102 174 139
102 174 139
102 174 139
102 174 139
102 174 139
87 138 93
87 138 93
87 138 93
30 46 33
30 46 33
29 49 31
29 49 31
29 49 31
29 49 31
29 49 31
29 49 31
35 57 47
35 57 47
37 63 48
35 57 47
35 57 47
87 139 93
29 49 31
29 49 31
29 49 31
29 49 31
29 49 31
29 49 31
29 49 31
29 49 31
29 49 31
29 49 31
29 49 31
87 139 93
87 139 94
31 47 34
35 57 48
35 57 48
35 57 48
35 57 48
35 57 48
35 57 47
38 64 49
35 57 47
35 57 47
38 64 49
38 63 49
38 63 49
38 63 49
38 63 49
35 57 47
38 63 49
111 195 145
111 195 145
111 195 145
111 195 145
103 174 140
103 174 140
103 174 140
111 195 145
103 174 140
111 195 145
103 174 140
103 174 140
111 195 145
103 174 140
111 195 145
30 50 32
30 50 32
30 50 32
30 50 32
30 50 32
30 50 32
30 50 32
30 50 32
30 50 32
30 50 32
103 174 139
103 174 139
103 174 139
103 174 139
103 174 139
103 174 139
103 174 139
103 174 139
103 174 139
103 174 139
111 195 145
103 174 139
111 195 145
37 63 48
37 63 48
37 63 48
37 63 48
35 57 47
37 63 48
35 57 47
27 43 30
27 42 29
27 43 29
27 43 29
27 43 29
27 43 29
27 43 29
27 43 29
27 43 29
27 43 29
27 43 30
29 49 31
29 49 31
29 49 31
29 49 31
29 49 31
29 49 31
29 49 31
29 49 31
29 49 31
29 49 31
29 49 31
28 48 30
111 196 145
84 149 87
84 149 87
28 48 30
28 48 30
28 48 30
28 48 30
28 48 30
26 42 28
28 48 30
28 48 30
35 57 47
35 57 47
35 57 47
35 57 47
38 64 49
38 64 49
38 64 49
36 58 48
36 58 48
36 58 48
36 58 48
28 48 30
28 48 30
28 48 29
27 47 29
27 47 29
27 47 29
27 47 29
27 47 29
28 47 29
28 47 29
28 48 29
28 48 29
28 48 29
25 41 28
28 48 29
25 41 28
25 41 28
25 41 28
25 41 28
25 41 28
25 41 28
25 41 28
26 41 28
26 41 28
26 42 28
26 42 28
28 48 30
28 48 30
28 48 30
28 48 30
28 48 30
26 42 28
26 42 29
28 48 30
28 48 30
28 48 30
26 42 29
26 42 29
26 42 29
29 48 30
26 42 29
26 42 29
26 42 29
26 42 29
26 42 29
26 42 29
26 42 29
126 211 160
126 211 161
127 211 161
127 212 161
127 212 162
128 212 162
120 191 157
120 192 157
121 192 158
121 192 158
121 193 158
130 214 164
122 193 159
122 194 159
123 194 160
123 194 160
123 194 160
124 195 160
124 195 161
31 51 34
31 51 34
31 51 34
133 217 168
126 196 163
126 197 163
126 197 163
126 197 163
127 197 163
135 218 169
135 218 169
135 219 169
135 219 169
29 45 33
30 46 33
30 46 33
30 46 33
30 46 33
30 46 33
30 46 33
30 46 33
65 91 77
65 91 77
63 85 76
63 85 76
63 85 76
63 85 76
63 85 76
63 85 76
129 199 166
129 199 166
129 199 166
129 199 166
137 220 171
137 220 171
66 92 78
66 92 78
66 92 78
66 91 78
66 91 78
66 91 78
66 91 78
66 91 78
63 85 76
63 85 76
63 85 76
63 85 76
63 85 76
63 85 76
63 85 76
63 84 76
63 84 76
65 90 77
65 90 77
111 195 145
111 195 145
103 174 140
103 174 140
103 174 140
111 195 145
103 174 140
103 174 140
103 174 140
103 174 140
111 195 145
103 174 140
103 174 140
111 195 145
103 174 140
103 174 140
103 174 140
103 174 140
111 195 145
111 195 145
111 195 145
111 195 145
111 195 145
111 195 145
111 195 145
111 195 145
103 174 140
103 174 140
103 174 140
103 174 139
103 174 139
103 174 139
103 174 139
103 174 139
103 174 139
103 174 139
102 174 139
110 195 145
110 195 145
110 195 145
110 195 145
110 195 145
110 195 145
110 195 145
110 195 145
102 174 139
110 195 144
110 195 144
110 195 144
110 195 144
102 174 139
102 174 139
102 174 139
102 174 139
84 149 87
76 128 82
84 149 87
28 48 30
26 42 29
28 48 30
28 48 30
28 48 30
84 149 87
87 138 93
87 138 93
87 138 93
30 46 33
30 46 33
35 57 47
35 57 47
35 57 47
35 57 47
35 57 47
35 57 47
35 57 47
35 57 47
37 63 48
103 174 139
102 174 139
87 139 93
29 49 31
29 49 31
29 49 31
29 49 31
29 49 31
29 49 31
29 49 31
29 49 31
29 49 31
29 49 31
29 49 31
87 139 93
87 139 94
31 47 34
35 57 48
35 57 48
35 57 47
35 57 47
35 57 47
35 57 47
35 57 47
35 57 47
35 57 47
35 57 47
38 63 49
38 63 49
38 63 49
38 63 49
111 195 145
111 195 145
111 195 145
111 195 145
111 195 145
111 195 145
111 195 145
103 174 140
103 174 140
111 195 145
103 174 140
103 174 140
111 195 145
103 174 140
103 174 140
103 174 140
103 174 140
30 50 32
30 50 32
30 50 32
30 50 32
30 50 32
30 50 32
30 50 32
30 50 32
30 50 32
30 50 32
103 174 139
103 174 139
111 195 145
103 174 139
103 174 139
103 174 139
103 174 139
103 174 139
103 174 139
103 174 139
111 195 145
103 174 139
111 195 145
37 63 48
37 63 48
37 63 48
35 57 47
37 63 48
37 63 48
35 57 47
37 63 48
27 43 29
27 43 29
27 43 29
27 43 30
27 43 30
27 43 30
27 43 30
27 43 30
27 43 30
35 57 47
35 57 47
37 63 48
37 63 49
35 57 47
35 57 47
37 63 49
35 57 47
37 63 49
35 57 47
35 57 47
29 49 31
28 48 30
28 48 30
28 48 30
28 48 30
28 48 30
28 48 30
28 48 30
28 48 30
28 48 30
28 48 30
28 48 30
28 48 30
28 48 30
35 57 47
35 57 47
35 57 47
35 57 47
36 57 47
36 58 48
36 58 48
36 58 48
36 58 48
36 58 48
36 58 48
28 48 30
28 48 29
27 47 29
27 47 29
28 47 29
28 47 29
28 47 29
28 48 29
28 48 29
28 48 29
28 48 29
28 48 29
28 48 29
28 48 29
25 41 28
25 41 28
25 41 28
25 41 28
25 41 28
26 41 28
26 41 28
28 48 30
26 42 28
26 42 28
28 48 30
28 48 30
28 48 30
28 48 30
28 48 30
28 48 30
28 48 30
28 48 30
28 48 30
28 48 30
28 48 30
26 42 29
26 42 29
26 42 29
29 49 31
29 49 31
26 42 29
26 42 29
29 49 31
26 42 29
26 42 29
76 128 82
126 211 161
127 211 161
127 212 161
127 212 162
128 212 162
120 192 157
129 213 163
129 213 163
129 214 163
130 214 164
122 193 159
122 194 159
123 194 159
123 194 160
123 194 160
124 195 160
124 195 161
124 195 161
124 196 161
125 196 162
61 87 72
126 196 163
134 218 168
134 218 168
134 218 169
135 218 169
127 198 164
135 219 169
135 219 169
135 219 170
136 219 170
136 219 170
30 46 33
30 46 33
30 46 33
30 46 33
30 46 33
32 52 35
30 46 34
30 46 34
66 92 78
66 92 78
66 92 78
64 86 77
64 86 77
64 86 77
64 86 77
130 200 167
130 200 167
130 200 167
130 200 167
130 200 167
130 200 167
138 220 172
138 220 172
138 220 172
137 220 172
137 220 172
137 220 172
137 220 172
137 220 172
137 220 172
137 219 171
129 199 166
129 199 166
129 199 166
129 198 166
63 85 76
63 85 76
63 85 76
63 85 76
63 85 76
65 91 77
111 195 145
111 195 145
103 174 140
103 174 140
103 174 140
103 174 140
103 174 140
103 174 140
103 174 140
103 174 140
111 195 145
103 174 140
103 174 140
103 174 140
111 195 145
111 195 145
111 195 145
111 195 145
111 195 145
111 195 145
111 195 145
111 195 145
111 195 145
111 195 145
111 195 145
111 195 145
103 174 139
103 174 139
103 174 139
103 174 139
103 174 139
103 174 139
103 174 139
103 174 139
102 174 139
102 174 139
102 174 139
102 174 139
110 195 145
110 195 145
110 195 145
84 149 88
76 128 82
26 42 29
26 42 29
26 42 29
26 42 29
26 42 29
26 42 29
26 42 29
29 49 31
29 49 31
29 49 31
29 49 30
29 48 30
29 48 30
28 48 30
28 48 30
28 48 30
28 48 30
28 48 30
28 48 30
28 48 30
87 138 93
87 138 93
87 138 93
30 46 33
30 46 33
35 57 47
35 57 47
35 57 47
35 57 47
37 63 48
35 57 47
35 56 47
102 174 139
102 174 139
102 174 139
110 195 145
87 139 93
29 49 31
29 49 31
29 49 31
29 49 31
29 49 31
29 49 31
29 49 31
29 49 31
29 49 31
29 49 31
29 49 31
87 139 93
87 139 94
35 57 47
35 57 47
35 57 47
35 57 47
35 57 47
35 57 47
35 57 47
35 57 47
35 57 47
103 174 140
111 195 145
111 195 145
111 195 145
103 174 140
111 195 145
111 195 145
111 195 145
111 195 145
111 195 145
111 195 145
103 174 140
103 174 140
103 174 140
103 174 140
103 174 140
103 174 140
103 174 140
103 174 139
103 174 139
103 174 139
103 174 139
103 174 139
30 50 32
30 50 32
30 50 32
30 50 32
30 50 32
30 50 32
30 50 32
30 50 32
30 50 32
30 50 32
103 174 139
103 174 139
103 174 139
111 195 145
103 174 139
103 174 139
103 174 139
103 174 139
103 174 139
103 174 139
111 195 145
111 195 145
111 195 145
35 57 47
37 63 48
37 63 48
35 57 47
27 43 30
27 43 30
27 43 30
27 43 30
37 63 48
37 63 48
37 63 48
35 57 47
35 57 47
37 63 48
37 63 48
37 63 48
37 63 48
37 63 48
35 57 47
35 57 47
37 63 48
35 57 47
35 57 47
37 63 49
35 57 47
35 57 47
35 57 47
38 63 49
29 49 31
29 48 30
28 48 30
26 42 28
26 42 28
28 48 30
28 48 30
28 48 30
28 48 30
28 48 30
28 48 30
28 48 30
28 48 30
28 48 30
35 57 47
35 57 47
35 57 47
35 57 47
36 57 47
36 58 47
36 58 48
36 58 48
36 58 48
36 58 48
36 58 48
28 48 30
28 48 29
28 47 29
28 47 29
28 48 29
25 41 28
25 41 28
25 41 28
28 48 29
28 48 29
28 48 29
28 48 29
25 41 28
25 41 28
25 41 28
25 41 28
28 48 30
26 41 28
26 41 28
26 42 28
26 42 28
26 42 28
28 48 30
28 48 30
26 42 28
28 48 30
28 48 30
28 48 30
26 42 29
28 48 30
26 42 29
28 48 30
28 48 30
28 48 30
29 48 30
26 42 29
26 42 29
26 42 29
26 42 29
26 42 29
26 42 29
26 42 29
26 42 29
26 42 29
27 42 29
126 211 161
119 190 156
127 212 161
128 212 162
128 213 162
128 213 163
129 213 163
129 214 163
129 214 164
130 214 164
122 193 159
122 194 159
123 194 160
84 149 88
84 149 88
30 50 32
30 50 32
30 50 32
30 50 32
30 50 32
30 50 32
126 197 163
126 197 163
127 197 163
135 218 169
127 198 164
135 219 169
135 219 170
136 219 170
136 220 170
136 220 170
136 220 170
136 220 171
137 220 171
30 46 33
32 52 35
32 52 35
30 46 33
30 46 34
30 46 34
30 46 34
66 92 78
67 92 79
138 221 172
138 221 172
130 200 167
130 200 167
131 200 167
131 200 167
131 200 168
131 200 168
131 200 168
131 200 168
131 200 168
131 200 167
138 221 173
138 221 173
138 221 172
138 221 172
138 221 172
138 220 172
138 220 172
138 220 172
138 220 172
138 220 172
130 199 167
130 199 167
130 199 166
129 199 166
64 86 77
64 86 77
64 85 77
63 85 76
63 85 76
111 195 145
103 174 140
103 174 140
103 174 140
103 174 140
103 174 140
111 195 145
103 174 140
103 174 140
103 174 140
103 174 140
103 174 140
103 174 140
111 195 145
111 195 145
103 174 140
111 195 145
111 195 145
111 195 145
111 195 145
111 195 145
111 195 145
111 195 145
111 195 145
111 195 145
103 174 139
103 174 139
111 195 145
103 174 139
111 195 145
110 195 145
102 174 139
110 195 145
110 195 145
110 195 145
102 174 139
110 195 145
95 160 99
27 43 29
27 42 29
27 42 29
26 42 29
29 49 31
26 42 29
26 42 29
29 49 31
26 42 29
29 49 31
26 42 29
29 49 31
26 42 29
29 49 31
29 49 31
29 49 31
29 49 31
29 49 31
29 49 30
29 48 30
29 48 30
29 48 30
28 48 30
28 48 30
28 48 30
87 138 93
87 138 93
87 138 93
87 139 93
37 63 48
35 57 47
35 57 47
37 63 48
35 56 47
102 174 139
110 195 145
102 174 139
102 174 139
110 195 145
102 174 139
87 139 93
87 139 93
29 49 32
29 49 31
29 49 31
29 49 31
29 49 31
29 49 31
29 49 31
29 49 31
29 49 31
29 49 31
29 49 31
84 149 88
87 139 94
103 174 140
103 174 140
103 174 140
103 174 140
103 174 140
103 174 140
103 174 140
103 174 140
103 174 140
103 174 140
103 174 140
111 195 145
111 195 145
111 195 145
111 195 145
111 195 145
111 195 145
111 195 145
111 195 145
111 195 145
111 195 145
111 195 145
103 174 139
103 174 139
111 195 145
103 174 139
103 174 139
103 174 139
103 174 139
103 174 139
103 174 139
103 174 139
31 47 34
30 50 33
30 50 33
30 50 33
30 50 33
30 50 33
30 50 33
30 50 33
30 50 33
30 50 33
110 195 145
103 174 139
103 174 139
103 174 139
84 149 88
84 149 88
29 49 31
29 49 31
29 49 31
29 49 31
27 43 30
27 43 30
27 43 30
27 43 30
27 43 30
27 43 30
27 43 30
27 43 30
27 43 30
27 43 30
27 43 30
37 63 48
35 56 47
37 63 48
37 63 48
37 63 48
37 63 48
35 57 47
37 63 48
37 63 48
37 63 48
35 57 47
35 57 47
37 63 48
37 63 48
35 57 47
37 63 48
35 57 47
37 63 49
35 57 47
37 63 49
35 57 47
29 49 31
28 48 30
28 48 30
28 48 30
28 48 30
26 42 29
28 48 30
28 48 30
28 48 30
28 48 30
28 48 30
28 48 30
28 48 30
37 63 48
35 57 47
35 57 47
35 57 47
36 57 47
36 58 47
38 64 49
36 58 48
36 58 48
36 58 48
36 58 48
28 48 30
28 48 29
28 48 29
28 48 29
25 41 28
28 48 29
28 48 29
28 48 29
28 48 29
28 48 30
25 41 28
28 48 30
28 48 30
25 41 28
26 41 28
26 41 28
26 42 28
26 42 28
26 42 28
26 42 28
26 42 28
26 42 28
26 42 28
26 42 28
26 42 28
28 48 30
26 42 29
28 48 30
28 48 30
28 48 30
28 48 30
28 48 30
29 48 30
26 42 29
29 49 31
26 42 29
26 42 29
29 49 31
26 42 29
26 42 29
26 42 29
26 42 29
27 42 29
27 43 29
27 43 29
119 190 156
119 191 156
120 191 157
128 213 162
120 192 157
121 192 158
129 214 163
122 193 158
122 193 159
122 194 159
123 194 159
30 49 32
30 49 32
30 50 32
30 50 32
27 43 30
30 50 32
30 50 32
30 50 32
30 50 32
85 149 89
127 197 163
127 198 164
127 198 164
127 198 164
136 219 170
136 220 170
128 199 165
136 220 170
136 220 171
129 199 166
137 221 171
137 221 171
137 221 171
137 221 172
30 46 33
30 46 34
30 46 34
32 52 35
30 46 34
138 221 173
139 222 173
139 222 173
139 222 173
139 222 173
139 222 173
131 201 168
131 201 168
131 201 168
131 201 168
131 201 168
131 201 168
131 201 168
131 201 168
131 201 168
131 201 168
139 222 173
139 221 173
139 221 173
139 221 173
139 221 173
138 221 173
138 221 173
138 221 173
138 221 173
138 221 172
130 200 167
130 200 167
130 200 167
130 199 167
64 86 77
64 86 77
64 86 77
64 86 77
103 174 140
103 174 140
103 174 140
103 174 140
103 174 140
103 174 140
103 174 140
103 174 140
103 174 140
103 174 140
103 174 140
103 174 140
103 174 140
111 195 145
103 174 140
103 174 140
103 174 140
103 174 140
103 174 140
103 174 140
103 174 140
103 174 140
103 174 139
103 174 139
103 174 139
111 195 145
103 174 139
111 195 145
110 195 145
102 174 139
102 174 139
110 195 145
110 195 145
110 195 145
110 195 145
110 195 145
110 195 145
95 160 99
27 43 29
27 43 29
27 43 29
27 43 29
27 42 29
27 42 29
26 42 29
26 42 29
26 42 29
29 49 31
26 42 29
26 42 29
26 42 29
29 49 31
29 49 31
29 49 31
29 49 31
29 49 31
26 42 29
26 42 29
26 42 29
29 49 31
29 49 30
29 48 30
26 42 29
84 149 87
87 138 93
87 139 93
87 139 93
35 57 47
35 57 47
35 56 47
102 174 139
102 174 139
102 174 139
102 174 139
102 174 139
110 195 145
102 174 139
102 174 139
87 139 93
87 139 93
30 46 33
29 49 32
29 49 32
29 49 32
29 49 32
29 49 32
29 49 32
29 49 31
29 49 31
29 49 31
29 49 31
29 49 31
87 139 94
111 195 145
103 174 140
103 174 140
103 174 140
111 195 145
103 174 140
103 174 140
103 174 140
103 174 140
103 174 140
111 195 145
111 195 145
111 195 145
111 195 145
111 195 145
111 195 145
111 195 145
111 195 145
111 195 145
103 174 139
111 195 145
103 174 139
111 195 145
103 174 139
103 174 139
111 195 145
103 174 139
111 195 145
103 174 139
103 174 139
103 174 139
87 139 93
31 47 34
36 58 48
36 58 48
36 58 48
36 58 48
36 58 48
36 58 48
36 58 48
36 58 48
36 58 48
29 49 31
29 49 31
29 49 31
29 49 31
29 49 31
29 49 31
29 49 31
29 49 31
29 49 31
29 49 31
27 43 30
27 43 30
27 43 30
27 43 30
27 43 30
27 43 30
27 43 30
27 43 30
27 43 30
27 43 30
27 43 30
35 56 46
37 63 48
37 63 48
37 63 48
37 63 48
37 63 48
37 63 48
35 57 47
37 63 48
37 63 48
35 57 47
35 57 47
35 57 47
35 57 47
37 63 48
35 57 47
37 63 48
35 57 47
35 57 47
35 57 47
35 57 47
29 49 31
28 48 30
28 48 30
26 42 29
28 48 30
28 48 30
28 48 30
28 48 30
29 48 30
29 48 30
29 48 30
26 42 29
28 48 30
104 175 140
104 175 140
104 176 141
35 57 47
36 57 47
36 58 47
36 58 48
36 58 48
36 58 48
36 58 48
36 58 48
39 65 50
28 48 30
28 48 29
25 41 28
28 48 29
28 48 29
28 48 30
28 48 30
25 41 28
28 48 30
25 41 28
28 48 30
28 48 30
26 41 28
26 42 28
28 48 30
26 42 28
26 42 28
28 48 30
26 42 28
26 42 28
26 42 28
26 42 29
28 48 30
26 42 29
28 48 30
28 48 30
28 48 30
28 48 30
29 48 30
29 48 30
29 49 30
29 49 31
29 49 31
49 75 60
47 69 59
50 76 61
50 76 62
51 77 62
51 77 62
52 78 63
52 78 63
52 78 64
53 79 64
127 212 161
127 212 161
120 191 157
120 192 157
120 192 157
121 192 158
121 193 158
122 193 158
122 193 159
122 194 159
131 215 165
123 194 160
131 216 166
27 43 30
27 43 30
30 50 32
30 50 32
27 43 30
30 50 32
30 50 32
30 50 32
135 219 169
127 198 164
127 198 164
128 199 165
136 220 170
128 199 165
136 220 171
137 220 171
137 221 171
137 221 171
137 221 172
137 221 172
138 221 172
138 222 172
138 222 172
138 222 172
32 52 35
30 46 34
30 46 34
30 46 34
139 222 173
139 222 174
139 222 174
139 222 174
139 222 174
140 222 174
140 222 174
132 202 169
132 202 169
132 202 169
132 202 169
132 202 169
132 202 169
132 202 169
132 202 169
132 202 169
132 202 169
139 222 174
139 222 174
139 222 174
139 222 174
139 222 174
139 222 173
139 222 173
139 221 173
139 221 173
139 221 173
87 151 92
34 54 38
34 54 38
34 54 38
35 54 38
35 55 38
35 55 38
111 195 145
111 195 145
111 195 145
111 195 145
111 195 145
111 195 145
111 195 145
111 195 145
111 195 145
111 195 145
111 195 145
111 195 145
103 174 140
103 174 140
103 174 140
103 174 140
111 195 145
103 174 140
111 195 145
103 174 140
111 195 145
111 195 145
103 174 139
103 174 139
111 195 145
110 195 145
110 195 145
110 195 145
110 195 145
102 174 139
102 174 139
110 195 145
110 195 145
110 195 145
110 195 145
110 195 145
95 160 98
95 160 99
32 52 34
27 43 30
27 43 29
27 43 29
27 43 29
27 43 29
27 43 29
29 49 31
27 42 29
29 49 31
26 42 29
26 42 29
26 42 29
29 49 31
29 49 31
29 49 31
26 42 29
29 49 31
26 42 29
29 49 31
29 49 31
29 49 31
29 49 31
29 49 31
29 49 31
29 49 31
87 138 93
87 139 93
103 174 139
102 174 139
102 174 139
102 174 139
102 174 139
102 174 139
102 174 139
102 174 139
110 195 145
110 195 145
102 174 139
102 174 139
87 139 93
87 139 93
30 46 33
30 49 32
30 49 32
29 49 32
29 49 32
29 49 32
29 49 32
29 49 32
29 49 32
29 49 32
29 49 32
29 49 32
87 139 94
103 174 140
103 174 140
103 174 140
111 195 145
103 174 140
103 174 140
103 174 140
103 174 140
103 174 140
103 174 140
111 195 145
111 195 145
111 195 145
111 195 145
111 195 145
111 195 145
111 195 145
111 195 145
111 195 145
111 195 145
103 174 139
84 149 88
84 149 88
29 49 31
29 49 31
29 49 31
29 49 31
29 49 31
29 49 31
29 49 31
29 49 31
84 149 88
31 47 34
36 58 48
36 58 48
36 58 48
36 58 48
36 58 48
36 57 48
36 57 48
36 57 48
36 57 48
29 49 31
29 49 31
29 49 31
29 49 31
29 49 31
29 49 31
29 49 31
29 49 31
29 49 31
29 49 31
27 43 30
27 43 30
27 43 30
27 43 30
27 43 30
27 43 30
27 43 30
27 43 30
27 43 30
27 43 30
27 43 30
37 63 48
37 63 48
34 56 46
37 63 48
37 63 48
35 56 46
37 63 48
37 63 48
37 63 48
35 56 47
37 63 48
35 57 47
35 57 47
35 57 47
37 63 48
35 57 47
35 57 47
35 57 47
35 57 47
35 57 47
37 63 49
29 49 31
26 42 29
28 48 30
26 42 29
28 48 30
29 48 30
26 42 29
29 49 30
29 49 31
26 42 29
29 49 31
29 49 31
28 48 30
28 48 30
112 197 146
104 176 141
112 197 146
36 57 47
36 58 47
36 58 48
38 64 49
36 58 48
36 58 48
36 58 48
37 59 48
28 48 30
25 41 28
28 48 29
28 48 30
25 41 28
28 48 30
28 48 30
28 48 30
26 41 28
28 48 30
28 48 30
28 48 30
26 42 28
28 48 30
26 42 28
26 42 28
26 42 28
26 42 28
26 42 28
26 42 29
42 64 54
45 71 56
45 71 56
43 65 55
44 66 55
44 66 56
44 66 56
45 67 57
45 67 57
46 67 57
46 68 58
46 68 58
47 69 59
47 69 59
50 76 61
50 76 61
51 77 62
51 77 62
52 77 63
52 78 63
52 78 64
53 79 64
119 190 156
127 212 161
128 212 162
120 192 157
120 192 157
121 192 158
121 193 158
122 193 159
122 194 159
122 194 159
131 216 165
131 216 165
124 195 160
124 195 161
124 196 161
30 50 32
30 50 32
30 50 32
28 43 31
28 44 31
30 50 32
28 44 31
127 198 164
128 199 165
128 199 165
128 199 165
129 199 165
129 200 166
129 200 166
129 200 166
137 221 172
138 222 172
138 222 172
138 222 172
138 222 173
138 222 173
139 222 173
139 223 173
139 223 173
30 46 34
30 46 34
86 150 91
140 223 174
140 223 174
140 223 174
140 223 174
140 223 174
140 223 175
140 223 175
140 223 175
133 203 169
133 203 169
133 203 169
133 203 169
133 202 169
133 202 169
132 202 169
87 151 92
34 54 37
31 47 35
31 48 35
34 54 37
34 54 37
32 48 36
32 48 36
32 48 36
34 54 37
32 48 36
34 54 38
32 48 36
34 54 38
34 54 38
35 55 38
35 55 38
35 55 38
35 55 38
111 195 145
111 195 145
111 195 145
111 195 145
111 195 145
111 195 145
111 195 145
111 195 145
111 195 145
103 174 140
111 195 145
103 174 140
103 174 140
111 195 145
103 174 140
103 174 140
103 174 140
103 174 139
103 174 139
103 174 139
103 174 139
111 195 145
103 174 139
110 195 145
110 195 145
110 195 145
110 195 145
102 174 139
102 174 139
110 195 145
110 195 145
110 195 145
102 174 139
110 195 145
110 195 145
110 195 144
95 160 98
95 160 99
32 52 34
29 49 31
27 43 30
27 43 30
29 49 31
27 43 29
27 43 29
27 43 29
27 43 29
29 49 31
27 42 29
27 42 29
27 42 29
29 49 31
29 49 31
29 49 31
29 49 31
29 49 31
29 49 31
29 49 31
29 49 31
29 49 31
29 49 31
29 49 31
29 49 31
29 49 31
87 138 93
87 139 93
110 195 145
102 174 139
110 195 145
110 195 145
102 174 139
102 174 139
110 195 145
110 195 145
102 174 139
102 174 139
102 174 139
87 138 93
87 139 93
87 139 93
30 46 33
30 50 32
30 50 32
30 50 32
30 49 32
30 49 32
30 49 32
30 49 32
30 49 32
29 49 32
29 49 32
29 49 32
87 139 94
111 195 145
103 174 140
103 174 140
103 174 140
103 174 140
111 195 145
103 174 140
103 174 140
111 195 145
111 195 145
27 43 30
27 43 30
27 43 30
27 43 30
27 43 30
27 43 30
27 43 30
27 43 30
27 43 30
27 43 30
27 43 30
29 49 31
29 49 31
29 49 31
29 49 31
29 49 31
29 49 31
29 49 31
29 49 31
29 49 31
29 49 31
84 149 88
31 47 34
36 57 48
36 57 48
36 57 48
36 57 48
36 57 48
36 57 48
36 57 48
36 57 48
36 57 48
29 49 31
29 49 31
29 49 31
29 49 31
29 49 31
29 49 31
29 49 31
29 49 31
29 49 31
29 49 31
29 49 31
27 43 30
27 43 30
27 43 30
27 43 30
27 43 30
27 43 30
27 43 30
27 43 30
27 43 30
27 43 30
110 195 145
110 195 145
110 195 145
110 195 145
110 195 145
111 195 145
37 63 48
37 63 48
37 63 48
35 56 46
37 63 48
35 56 47
35 57 47
35 57 47
35 57 47
35 57 47
35 57 47
35 57 47
35 57 47
37 63 48
37 63 48
29 49 31
29 48 30
29 48 30
29 49 30
29 49 31
29 49 31
29 49 31
29 49 31
29 49 31
26 42 29
29 49 31
29 49 31
28 48 30
28 48 30
112 197 146
104 176 141
104 176 141
36 57 47
36 58 47
36 58 48
36 58 48
36 58 48
36 58 48
37 58 48
37 59 48
28 48 30
28 48 30
25 41 28
28 48 30
28 48 30
28 48 30
26 41 28
28 48 30
39 61 51
41 67 52
39 61 51
40 61 51
42 68 53
43 68 54
43 69 54
41 63 53
43 69 54
41 63 53
44 70 55
42 64 54
45 71 56
45 71 56
45 71 57
43 65 55
46 72 57
44 66 56
47 73 58
45 67 57
48 74 59
48 74 59
49 74 60
47 68 58
49 75 60
47 69 59
50 76 61
51 77 62
51 77 62
51 77 63
52 78 63
52 78 63
53 79 64
127 212 161
127 212 161
128 213 162
120 192 157
120 192 157
121 192 158
121 193 158
130 215 164
130 215 164
123 194 159
131 216 165
123 195 160
124 195 161
124 196 161
132 217 167
125 196 162
30 50 32
28 43 31
30 50 32
28 44 31
30 50 32
30 50 32
77 128 84
128 199 165
136 220 170
129 199 166
129 200 166
129 200 166
129 200 166
138 222 172
138 222 172
138 222 172
130 201 167
139 222 173
139 223 173
139 223 173
139 223 173
139 223 174
139 223 174
132 202 169
30 46 34
30 46 34
140 223 175
140 224 175
141 224 175
141 224 175
79 130 86
79 130 86
31 47 35
31 47 35
31 47 35
33 53 36
33 53 36
33 53 36
33 53 37
33 53 37
31 47 35
34 54 37
34 54 37
34 54 37
31 48 35
34 54 37
32 48 36
32 48 36
32 48 36
32 48 36
32 48 36
32 48 36
34 54 38
34 54 38
34 54 38
35 54 38
35 55 38
35 55 38
35 55 38
35 55 38
35 55 38
111 195 145
111 195 145
111 195 145
111 195 145
111 195 145
111 195 145
103 174 140
111 195 145
103 174 140
103 174 140
103 174 140
103 174 140
103 174 140
103 174 140
103 174 140
103 174 139
103 174 139
111 195 145
103 174 139
111 195 145
103 174 139
103 174 139
102 174 139
110 195 145
110 195 145
110 195 145
110 195 145
110 195 145
110 195 145
110 195 145
110 195 145
102 174 139
110 195 144
110 195 144
110 195 144
95 160 98
95 160 98
95 160 99
32 52 34
32 52 35
27 43 30
27 43 30
27 43 30
27 43 30
27 43 30
27 43 30
27 43 30
27 43 29
29 49 31
27 43 29
27 43 29
27 43 29
29 49 31
29 49 31
29 49 31
29 49 31
29 49 31
26 42 29
26 42 29
26 42 29
26 42 29
26 42 29
29 49 31
29 49 31
87 138 93
87 139 93
110 195 145
110 195 145
102 174 139
102 174 139
102 174 139
102 174 139
102 174 139
102 174 139
102 174 139
110 195 144
102 174 139
87 138 93
87 139 93
87 139 93
30 46 33
30 50 32
30 50 32
30 50 32
30 50 32
30 50 32
30 50 32
30 50 32
35 57 47
35 57 47
35 57 47
37 63 49
111 195 145
111 195 145
111 195 145
103 174 140
103 174 140
111 195 145
111 195 145
111 195 145
111 195 145
111 195 145
111 195 145
27 43 30
27 43 30
27 43 30
27 43 30
27 43 30
27 43 30
27 43 30
27 43 30
27 43 30
27 43 30
27 43 30
29 49 31
29 49 31
29 49 31
29 49 31
29 49 31
29 49 31
29 49 31
29 49 31
29 49 31
29 49 31
29 49 31
31 47 34
36 57 48
36 57 48
35 57 48
35 57 48
35 57 48
35 57 48
35 57 48
35 57 48
35 57 48
29 49 31
29 49 31
29 49 31
29 49 31
29 49 31
29 49 31
29 49 32
29 49 32
29 49 32
29 49 32
29 49 32
27 43 30
27 43 30
27 43 30
27 43 30
27 43 30
27 43 30
27 43 30
27 43 30
27 43 30
27 43 30
110 195 145
110 195 145
110 195 145
110 195 145
110 195 145
110 195 145
37 63 48
37 63 48
37 63 48
37 63 48
34 56 46
35 56 46
35 56 46
35 56 47
35 57 47
35 57 47
35 57 47
35 57 47
37 63 48
37 63 48
35 57 47
35 57 47
29 49 31
29 49 31
29 49 31
29 49 31
29 49 31
29 49 31
29 49 31
29 49 31
29 49 31
29 49 31
29 49 31
28 48 30
28 48 30
104 176 140
104 176 141
112 197 146
36 57 47
36 58 47
38 64 49
36 58 48
25 41 28
28 48 30
25 41 28
28 48 30
25 41 28
37 59 49
37 59 49
38 59 49
38 60 50
38 60 50
41 67 52
39 60 50
39 61 51
39 61 51
39 61 51
40 62 51
42 68 53
43 69 54
43 69 54
41 63 53
44 69 55
44 70 55
42 64 54
45 71 56
45 71 56
43 65 55
46 72 57
46 72 57
46 72 57
44 66 56
45 67 57
48 73 59
46 67 57
46 68 58
49 75 60
47 69 59
50 76 61
48 70 60
50 76 62
48 70 60
51 77 62
52 78 63
52 78 63
53 79 64
127 212 161
127 212 161
128 213 162
128 213 162
128 213 163
129 214 163
129 214 164
122 193 159
122 194 159
123 194 159
131 216 165
131 216 166
124 195 161
124 196 161
125 196 161
125 196 162
125 197 162
134 218 168
30 50 32
30 50 32
30 50 32
30 50 32
30 50 32
128 199 165
136 221 171
129 200 166
137 221 171
129 200 166
130 201 167
130 201 167
130 201 167
131 201 167
139 223 173
139 223 173
139 223 173
131 202 168
140 223 174
132 203 169
140 224 174
140 224 174
140 224 175
140 224 175
141 224 175
141 224 175
31 47 34
31 47 34
31 47 34
31 47 35
31 47 35
31 47 35
31 47 35
31 47 35
33 53 36
33 53 37
33 53 37
34 53 37
34 54 37
34 54 37
34 54 37
34 54 37
32 48 36
32 48 36
32 48 36
32 48 36
32 48 36
32 48 36
32 48 36
32 48 36
32 48 36
34 54 38
34 54 38
35 55 38
35 55 38
35 55 38
35 55 38
33 49 37
35 55 38
35 55 39
111 195 145
111 195 145
111 195 145
111 195 145
111 195 145
111 195 145
103 174 140
111 195 145
111 195 145
111 195 145
103 174 140
103 174 140
103 174 140
103 174 139
103 174 139
103 174 139
103 174 139
111 195 145
103 174 139
103 174 139
102 174 139
102 174 139
102 174 139
110 195 145
102 174 139
102 174 139
102 174 139
110 195 145
110 195 145
110 195 145
110 195 144
102 174 139
102 174 139
110 195 144
110 195 144
95 160 98
95 160 98
95 160 99
32 52 34
32 52 35
27 43 30
27 43 30
27 43 30
27 43 30
29 49 31
27 43 30
27 43 30
27 43 30
27 43 30
27 43 30
27 43 29
27 43 29
29 49 31
29 49 31
29 49 31
29 49 31
29 49 31
29 49 31
29 49 31
29 49 31
29 49 31
29 49 31
29 49 31
29 49 31
29 49 31
102 174 139
102 174 139
102 174 139
102 174 139
102 174 139
102 174 139
102 174 139
102 174 139
102 174 139
110 195 144
102 174 139
76 128 82
87 138 93
87 139 93
87 139 93
30 46 33
35 57 47
38 63 49
37 63 49
35 57 47
35 57 47
35 57 47
37 63 49
35 57 47
35 57 47
111 195 145
103 174 140
111 195 145
111 195 145
111 195 145
111 195 145
103 174 139
103 174 139
111 195 145
111 195 145
111 195 145
111 195 145
111 195 145
33 53 35
27 43 30
27 43 30
27 43 30
27 43 30
27 43 30
27 43 30
27 43 30
27 43 30
27 43 30
27 43 30
29 49 32
29 49 32
29 49 32
29 49 32
29 49 32
29 49 32
29 49 32
29 49 32
29 49 32
29 49 32
29 49 32
103 174 140
103 174 140
103 174 140
35 57 48
35 57 48
35 57 48
35 57 48
35 57 48
35 57 48
35 57 48
29 49 32
29 49 32
29 49 32
29 49 32
29 49 32
29 49 32
29 49 32
29 49 32
29 49 32
29 49 32
29 49 32
27 43 30
27 43 30
27 43 30
27 43 30
27 43 30
27 43 30
27 43 30
27 43 30
27 43 30
27 43 30
110 195 145
110 195 145
110 195 145
110 195 145
110 195 145
110 195 145
37 63 48
37 63 48
37 63 48
37 63 48
37 63 48
34 56 46
35 56 46
35 56 46
35 56 46
35 57 47
35 57 47
35 57 47
35 57 47
35 57 47
35 57 47
35 57 47
35 57 47
35 57 47
35 57 47
38 63 49
35 57 47
35 57 47
35 57 47
36 57 47
36 58 48
36 58 48
36 58 48
28 48 30
28 48 30
28 48 29
28 48 29
25 41 28
28 48 29
28 48 29
28 48 30
25 41 28
25 41 28
28 48 30
25 41 28
28 48 30
28 48 30
40 66 51
40 66 51
38 60 49
38 60 50
38 60 50
38 60 50
39 61 50
39 61 51
39 61 51
39 61 51
40 62 51
40 62 52
43 69 54
43 69 54
43 69 54
44 70 55
44 70 55
44 70 55
45 71 56
45 71 56
45 71 56
43 65 55
46 72 57
47 73 58
45 66 56
45 67 57
45 67 57
46 68 58
46 68 58
49 75 60
47 69 59
47 69 59
50 76 61
48 70 60
49 71 61
52 78 63
52 78 63
126 211 160
127 212 161
127 212 161
128 213 162
128 213 162
120 192 157
129 214 163
129 214 164
130 215 164
122 194 159
123 194 159
131 216 165
123 195 160
124 195 161
124 196 161
125 196 162
125 197 162
125 197 162
126 197 163
126 198 163
135 219 169
30 50 32
30 50 32
28 44 31
30 50 33
129 200 166
129 200 166
129 200 166
130 201 167
138 222 172
130 201 167
131 202 168
131 202 168
131 202 168
139 223 174
140 224 174
140 224 174
140 224 174
140 224 174
77 129 84
78 129 84
31 51 34
29 45 32
29 45 32
78 129 85
142 225 176
31 47 34
31 47 34
31 47 35
31 47 35
31 47 35
31 47 35
31 47 35
33 53 37
33 53 37
33 53 37
34 54 37
34 54 37
34 54 37
34 54 37
34 54 37
34 54 37
32 48 36
32 48 36
32 48 36
32 48 36
32 48 36
32 48 36
32 48 36
32 48 36
32 48 36
32 48 36
35 55 38
35 55 38
35 55 38
35 55 38
33 49 37
33 49 37
33 49 37
33 49 37
111 195 145
111 195 145
111 195 145
111 195 145
111 195 145
111 195 145
111 195 145
111 195 145
111 195 145
103 174 140
103 174 140
103 174 139
103 174 139
111 195 145
103 174 139
111 195 145
103 174 139
103 174 139
102 174 139
102 174 139
102 174 139
102 174 139
110 195 145
110 195 145
110 195 145
110 195 145
102 174 139
102 174 139
110 195 144
110 195 144
110 195 144
110 195 144
110 195 144
102 174 139
95 160 98
95 160 98
95 160 98
95 160 99
32 52 34
32 52 35
27 43 30
27 43 30
27 43 30
27 43 30
29 49 31
27 43 30
27 43 30
27 43 30
27 43 30
27 43 30
27 43 30
27 43 30
29 49 31
29 49 31
29 49 31
29 49 31
29 49 31
29 49 31
29 49 31
29 49 31
29 49 31
29 49 31
29 49 31
29 49 31
34 56 46
84 149 88
29 49 31
29 49 31
29 49 31
29 49 31
29 49 31
29 49 31
29 49 31
29 49 31
29 49 31
29 49 31
29 49 31
87 138 93
87 139 93
87 139 93
30 46 33
35 57 47
37 63 49
35 57 47
35 57 47
35 57 47
35 57 47
35 57 47
103 174 140
103 174 140
103 174 140
103 174 140
103 174 139
103 174 139
103 174 139
111 195 145
103 174 139
111 195 145
111 195 145
111 195 145
103 174 139
111 195 145
103 174 139
33 53 35
27 43 30
27 43 30
27 43 30
27 43 30
27 43 30
27 43 30
27 43 30
27 43 30
27 43 30
27 43 30
30 49 32
30 49 32
30 49 32
30 49 32
30 49 32
30 49 32
30 49 32
30 49 32
29 49 32
29 49 32
29 49 32
103 174 140
103 174 140
103 174 140
35 57 47
35 57 47
35 57 47
35 57 47
35 57 47
35 57 47
35 57 47
30 49 32
30 49 32
30 49 32
30 49 32
30 49 32
30 49 32
30 49 32
30 49 32
30 49 32
30 50 32
30 50 32
27 43 30
27 43 30
27 43 30
27 43 30
27 43 30
27 43 30
27 43 30
27 43 30
27 43 30
27 43 30
26 42 29
102 174 139
110 195 145
110 195 145
110 195 145
110 195 145
34 56 46
37 63 48
102 174 139
76 128 82
76 128 82
111 196 145
103 174 139
111 196 145
37 63 48
37 63 48
37 63 48
37 63 48
37 63 48
37 63 48
37 63 48
37 63 48
35 57 47
35 57 47
35 57 47
35 57 47
35 57 47
35 57 47
35 57 47
36 57 47
36 58 48
36 58 48
36 58 48
28 48 30
28 48 30
28 48 29
25 41 28
28 48 30
28 48 30
28 48 30
28 48 30
28 48 30
28 48 30
28 48 30
28 48 30
28 48 30
28 48 30
28 48 29
37 59 49
38 60 49
38 60 50
38 60 50
41 67 52
39 61 50
39 61 51
39 61 51
40 61 51
40 62 52
40 62 52
40 62 52
43 69 54
41 63 53
44 70 55
42 64 54
45 70 55
45 71 56
45 71 56
43 65 55
46 72 57
46 72 57
47 73 58
47 73 58
114 185 150
114 186 151
114 186 151
115 186 152
115 187 152
116 187 152
116 188 153
116 188 153
117 189 154
117 189 154
118 189 155
126 211 160
119 190 155
127 212 161
128 213 162
128 213 162
128 213 163
129 214 163
129 214 163
122 193 159
130 215 164
131 216 165
131 216 165
123 195 160
124 195 161
124 196 161
125 196 162
125 197 162
134 218 168
126 197 163
126 198 163
127 198 164
127 199 164
28 44 31
28 44 31
28 44 31
85 150 89
129 200 166
130 201 167
130 201 167
138 222 173
139 223 173
131 202 168
139 223 173
139 223 174
132 203 169
140 224 174
29 45 32
29 45 32
29 45 32
29 45 32
29 45 32
29 45 32
29 45 32
29 45 32
29 45 32
142 226 177
142 226 177
142 226 177
33 53 36
31 47 35
33 53 36
31 47 35
33 53 36
31 47 35
33 53 37
34 53 37
34 54 37
34 54 37
34 54 37
34 54 37
34 54 37
34 54 37
32 48 36
32 48 36
32 48 36
32 48 36
32 48 36
34 54 38
32 48 36
32 48 36
32 48 36
32 48 36
35 55 38
35 55 38
35 55 38
35 55 38
35 55 38
35 55 39
35 55 39
35 55 39
33 49 37
111 195 145
111 195 145
111 195 145
103 174 140
111 195 145
111 195 145
111 195 145
111 195 145
103 174 140
111 195 145
103 174 139
103 174 139
103 174 139
103 174 139
103 174 139
110 195 145
102 174 139
102 174 139
102 174 139
102 174 139
102 174 139
110 195 145
110 195 145
110 195 145
110 195 145
110 195 145
102 174 139
110 195 144
110 195 144
110 195 144
110 195 144
102 174 139
110 195 144
95 160 98
95 160 98
95 160 98
95 160 98
95 160 99
32 52 34
32 52 35
33 53 35
27 43 30
27 43 30
27 43 30
29 49 31
27 43 30
27 43 30
27 43 30
29 49 31
27 43 30
27 43 30
37 63 48
37 63 48
35 56 47
37 63 48
35 56 47
35 56 46
37 63 48
34 56 46
34 56 46
37 63 48
34 56 46
34 56 46
102 174 139
102 174 139
29 49 31
29 49 31
29 49 31
29 49 31
29 49 31
29 49 31
26 42 29
29 49 31
29 49 31
26 42 29
29 49 31
29 49 31
87 138 93
87 139 93
87 139 93
30 46 33
35 57 47
35 57 47
35 57 47
35 57 47
35 57 47
103 174 140
103 174 140
103 174 140
111 195 145
111 195 145
103 174 139
103 174 139
111 195 145
111 195 145
111 195 145
103 174 139
111 195 145
110 195 145
103 174 139
103 174 139
102 174 139
95 160 99
33 53 35
27 43 30
27 43 30
27 43 30
27 43 30
27 43 30
27 43 30
27 43 30
27 43 30
27 43 30
27 43 30
27 43 30
30 50 32
30 50 32
30 50 32
30 50 32
30 50 32
30 50 32
30 50 32
30 50 32
30 50 32
30 50 32
103 174 140
103 174 140
103 174 140
35 57 47
35 57 47
35 57 47
35 57 47
35 57 47
35 57 47
35 57 47
30 50 32
30 50 32
30 50 32
30 50 32
30 50 32
30 50 32
30 50 32
30 50 32
30 50 32
30 50 32
35 57 47
38 63 49
38 63 49
38 63 49
38 63 49
38 63 49
38 63 49
38 63 49
38 63 49
38 63 49
38 63 49
26 42 29
29 48 30
26 42 29
29 48 30
26 42 29
26 42 29
29 49 31
26 42 29
26 42 29
26 42 29
26 42 29
111 196 145
111 196 145
111 196 145
37 63 48
35 56 46
37 63 48
37 63 48
37 63 48
37 63 48
35 57 47
37 63 48
35 57 47
35 57 47
35 57 47
38 63 49
35 57 47
35 57 47
35 57 47
35 57 47
38 64 49
38 64 49
38 64 49
28 48 30
28 48 30
28 48 30
28 48 30
28 48 30
25 41 28
28 48 30
26 41 28
28 48 30
28 48 30
28 48 30
28 48 30
28 48 30
28 48 30
28 48 29
37 59 49
40 66 51
40 66 51
41 67 52
38 60 50
41 67 52
39 61 51
42 68 53
40 62 51
40 62 52
40 62 52
43 69 54
109 181 146
118 203 152
118 203 152
110 182 147
111 183 148
119 204 153
119 205 154
112 184 149
120 205 154
121 206 155
121 206 155
113 185 150
114 186 151
114 186 151
123 208 157
123 208 157
115 187 152
116 188 153
116 188 153
117 188 154
117 189 154
118 189 154
118 190 155
127 212 161
127 212 161
127 212 162
120 192 157
128 213 163
121 192 158
129 214 163
130 215 164
130 215 164
131 216 165
131 216 165
123 195 160
132 217 166
124 196 161
125 196 162
133 218 167
126 197 163
126 198 163
126 198 163
127 198 164
135 220 169
136 220 170
128 200 165
61 83 74
62 84 74
130 201 166
130 201 167
138 222 172
139 223 173
139 223 173
139 223 173
139 224 174
140 224 174
140 224 174
132 203 169
133 204 170
141 225 175
31 51 34
29 45 32
29 45 32
31 51 34
29 45 32
31 51 34
29 45 32
29 45 32
143 226 177
143 226 177
143 226 177
143 227 178
31 47 35
31 47 35
31 47 35
31 47 35
34 53 37
31 47 35
34 54 37
34 54 37
34 54 37
34 54 37
34 54 37
34 54 37
34 54 37
32 48 36
32 48 36
32 48 36
32 48 36
32 48 36
32 48 36
32 48 36
32 48 36
32 48 37
35 55 38
35 55 38
35 55 38
35 55 38
35 55 38
33 49 37
33 49 37
35 55 39
35 55 39
33 49 37
111 195 145
103 174 140
103 174 140
111 195 145
111 195 145
111 195 145
111 195 145
103 174 139
111 195 145
103 174 139
103 174 139
103 174 139
103 174 139
103 174 139
102 174 139
102 174 139
102 174 139
102 174 139
102 174 139
102 174 139
110 195 145
102 174 139
102 174 139
110 195 144
102 174 139
110 195 144
110 195 144
110 195 144
110 195 144
110 195 144
110 195 144
110 195 144
110 195 144
95 160 98
95 160 98
95 160 98
95 160 98
95 160 99
32 52 34
32 52 35
33 53 35
37 63 49
37 63 49
37 63 48
37 63 48
35 57 47
37 63 48
37 63 48
37 63 48
37 63 48
37 63 48
37 63 48
35 56 47
35 56 47
34 56 46
34 56 46
34 56 46
34 56 46
34 56 46
34 56 46
37 63 48
102 174 139
102 174 139
102 174 139
87 138 93
30 46 33
29 49 31
29 49 31
29 49 31
29 49 31
29 49 31
29 49 31
29 49 31
29 49 31
26 42 29
29 49 31
26 42 29
84 149 88
87 139 93
87 139 93
37 63 49
37 63 49
35 57 47
35 57 47
103 174 140
103 174 139
103 174 139
103 174 139
103 174 139
103 174 139
103 174 139
103 174 139
111 195 145
103 174 139
111 195 145
110 195 145
110 195 145
110 195 145
110 195 145
102 174 139
110 195 145
110 195 145
95 160 99
33 53 35
27 43 30
27 43 30
27 43 30
27 43 30
27 43 30
27 43 30
27 43 30
27 43 30
27 43 30
27 43 30
27 43 30
30 50 32
30 50 32
30 50 32
30 50 32
30 50 32
30 50 32
30 50 32
30 50 32
30 50 32
30 50 32
103 174 140
103 174 140
103 174 140
35 57 47
35 57 47
35 57 47
35 57 47
35 57 47
38 63 49
38 63 49
38 63 49
35 57 47
35 57 47
35 57 47
35 57 47
35 57 47
35 57 47
35 57 47
35 57 47
35 57 47
35 57 47
37 63 49
37 63 49
37 63 49
37 63 49
38 63 49
38 63 49
38 63 49
38 63 49
38 63 49
38 63 49
26 42 29
26 42 29
26 42 29
26 42 29
26 42 29
26 42 29
26 42 29
26 42 29
26 42 29
26 42 29
26 42 29
26 42 29
111 196 145
111 196 145
37 63 48
37 63 48
37 63 48
37 63 48
35 57 46
35 57 47
35 57 47
37 63 48
37 63 48
35 57 47
35 57 47
35 57 47
38 63 49
38 64 49
35 57 47
35 57 47
38 64 49
36 58 48
36 58 48
29 48 30
28 48 30
26 41 28
28 48 30
28 48 30
28 48 30
28 48 30
28 48 30
28 48 30
28 48 30
28 48 30
28 48 30
28 48 30
28 48 30
28 48 30
106 178 143
106 178 143
107 179 143
107 179 144
107 179 144
115 201 150
108 180 144
108 180 145
108 180 145
109 180 145
117 202 151
109 181 146
118 203 152
118 203 152
118 203 152
119 204 153
111 183 148
111 183 148
120 205 154
112 184 149
120 206 155
121 206 155
113 185 150
114 185 150
122 207 156
114 186 151
115 187 152
115 187 152
116 187 153
116 188 153
117 188 153
125 210 159
126 211 160
118 190 155
118 190 155
119 191 156
127 212 162
120 191 157
128 213 162
129 214 163
129 214 163
130 215 164
130 215 164
131 216 165
131 216 165
131 216 166
132 217 166
124 196 161
133 218 167
125 197 162
126 197 163
134 219 168
127 198 163
127 199 164
127 199 164
136 221 170
84 149 88
84 149 88
84 149 88
130 201 167
130 201 167
131 202 167
139 223 173
139 223 173
139 224 174
140 224 174
140 224 174
140 225 175
141 225 175
141 225 175
141 225 175
141 226 176
142 226 176
29 45 32
29 45 32
29 45 32
29 45 32
29 45 32
31 51 34
143 227 178
144 227 178
144 227 178
144 227 178
144 227 178
144 227 178
31 47 35
31 47 35
31 47 35
34 54 37
34 54 37
34 54 37
34 54 37
34 54 37
34 54 37
34 54 37
32 48 36
34 54 37
32 48 36
32 48 36
32 48 36
32 48 36
32 48 36
32 48 36
35 55 38
32 48 37
71 93 84
71 93 84
71 92 84
71 92 84
70 92 83
70 92 83
70 92 83
70 92 83
70 92 83
70 91 83
72 97 84
111 195 145
111 195 145
111 195 145
111 195 145
103 174 140
111 195 145
111 195 145
103 174 139
103 174 139
103 174 139
103 174 139
110 195 145
102 174 139
102 174 139
102 174 139
102 174 139
102 174 139
102 174 139
102 174 139
102 174 139
110 195 145
110 195 144
110 195 144
110 195 144
110 195 144
110 195 144
76 128 82
76 128 82
76 128 82
26 42 29
26 42 29
26 42 29
26 42 29
95 160 98
95 160 98
95 160 98
95 160 98
95 160 99
32 52 34
32 52 35
37 63 49
37 63 48
37 63 48
37 63 48
37 63 48
35 57 47
37 63 48
35 57 47
37 63 48
37 63 48
37 63 48
37 63 48
37 63 48
37 63 48
34 56 46
34 56 46
34 56 46
34 56 46
34 56 46
102 174 139
102 174 139
102 174 139
102 174 139
102 174 139
87 138 93
30 46 33
29 49 31
29 49 31
29 49 31
29 49 31
29 49 31
29 49 31
27 42 29
29 49 31
29 49 31
29 49 31
29 49 31
26 42 29
87 139 93
87 139 93
103 174 140
103 174 140
103 174 140
103 174 139
103 174 139
103 174 139
103 174 139
103 174 139
103 174 139
103 174 139
103 174 139
110 195 145
110 195 145
110 195 145
110 195 145
110 195 145
110 195 145
102 174 139
110 195 145
110 195 145
110 195 145
110 195 145
95 160 99
33 53 35
27 43 30
27 43 30
27 43 30
27 43 30
27 43 30
27 43 30
27 43 30
27 43 30
27 43 30
27 43 30
27 43 30
30 50 32
30 50 32
30 50 32
30 50 32
30 50 32
30 50 32
35 57 47
35 57 47
35 57 47
35 57 47
111 195 145
111 195 145
111 195 145
38 63 49
38 63 49
38 63 49
37 63 49
37 63 49
37 63 49
37 63 49
37 63 49
35 57 47
35 57 47
35 57 47
35 57 47
35 57 47
35 57 47
35 57 47
35 57 47
35 57 47
35 57 47
37 63 49
37 63 49
37 63 49
37 63 49
37 63 49
37 63 49
37 63 49
37 63 49
37 63 49
37 63 49
26 42 29
26 42 29
26 42 29
29 49 31
26 42 29
29 49 31
26 42 29
26 42 29
29 49 31
29 49 31
26 42 29
26 42 29
111 196 145
111 196 145
111 196 145
37 63 48
37 63 48
37 63 48
37 63 48
35 57 46
37 63 48
37 63 48
37 63 48
35 57 47
35 57 47
35 57 47
38 63 49
35 57 47
35 57 47
35 57 47
36 57 47
36 58 48
36 58 48
36 58 48
28 48 30
26 42 28
28 48 30
28 48 30
28 48 30
28 48 30
28 48 30
28 48 30
28 48 30
28 48 30
28 48 30
28 48 30
28 48 30
28 48 30
28 48 29
106 178 143
107 179 143
115 200 149
107 179 144
107 179 144
108 180 145
116 201 150
108 180 145
109 181 145
109 181 146
109 181 146
110 182 146
118 203 152
118 204 153
119 204 153
119 204 153
119 205 154
120 205 154
120 205 154
121 206 155
113 185 150
121 207 156
122 207 156
114 186 151
115 186 151
123 208 157
116 187 152
116 188 153
116 188 153
117 189 154
117 189 154
118 190 155
118 190 155
119 190 156
119 191 156
128 213 162
128 213 162
121 192 157
129 214 163
130 215 164
130 215 164
131 216 165
131 216 165
131 216 166
124 196 161
124 196 161
125 196 162
29 49 31
29 49 31
29 49 31
29 49 31
29 49 31
26 42 29
29 49 31
29 49 31
29 49 31
29 49 31
130 201 167
130 201 167
131 202 168
131 202 168
131 202 168
140 224 174
140 224 174
140 225 175
133 204 170
141 225 175
133 204 170
142 226 176
134 205 171
134 205 171
142 226 177
29 45 32
29 45 32
29 45 32
29 45 32
29 45 33
29 45 33
144 227 178
144 228 179
144 228 179
144 228 179
145 228 179
145 228 179
145 228 179
34 54 37
31 47 35
34 54 37
34 54 37
34 54 37
34 54 37
34 54 37
34 54 37
72 94 85
72 94 85
74 100 86
74 100 86
74 100 86
74 100 86
74 100 86
74 100 86
74 100 86
74 100 86
74 100 86
74 99 86
71 93 84
71 93 84
71 93 84
71 93 84
71 93 84
71 93 84
71 92 84
70 92 84
70 92 83
70 92 83
111 195 145
111 195 145
111 195 145
111 195 145
111 195 145
111 195 145
103 174 139
103 174 139
103 174 139
110 195 145
102 174 139
102 174 139
110 195 145
102 174 139
84 149 88
84 149 88
29 49 31
29 49 31
26 42 29
29 49 31
26 42 29
26 42 29
26 42 29
29 49 31
26 42 29
26 42 29
26 42 29
26 42 29
29 49 30
26 42 29
26 42 29
26 42 29
26 42 29
95 160 98
95 160 98
95 160 98
95 160 99
95 160 99
32 52 34
33 52 35
35 57 47
37 63 48
37 63 48
35 57 47
37 63 48
37 63 48
37 63 48
37 63 48
35 56 47
37 63 48
37 63 48
37 63 48
34 56 46
34 56 46
34 56 46
34 56 46
102 174 139
102 174 139
102 174 139
102 174 139
102 174 139
102 174 139
102 174 139
87 138 93
87 138 93
30 46 33
27 43 30
29 49 31
29 49 31
29 49 31
29 49 31
29 49 31
29 49 31
29 49 31
29 49 31
29 49 31
29 49 31
29 49 31
87 139 93
87 139 94
103 174 139
103 174 139
103 174 139
111 195 145
103 174 139
111 195 145
103 174 139
103 174 139
103 174 139
103 174 139
103 174 139
110 195 145
110 195 145
110 195 145
110 195 145
110 195 145
102 174 139
110 195 145
102 174 139
110 195 145
110 195 145
110 195 145
95 160 99
95 160 99
28 44 31
28 43 31
28 43 31
28 43 31
38 64 49
38 64 49
38 64 49
38 64 49
38 64 49
38 64 49
38 63 49
35 57 47
35 57 47
35 57 47
35 57 47
35 57 47
35 57 47
35 57 47
35 57 47
103 174 140
103 174 140
111 195 145
111 195 145
111 195 145
37 63 49
37 63 49
37 63 49
37 63 49
37 63 49
37 63 49
37 63 49
37 63 49
35 57 47
35 57 47
35 57 47
35 57 47
35 57 47
35 57 47
35 57 47
35 57 47
35 57 47
35 57 47
37 63 49
37 63 49
37 63 49
37 63 49
37 63 49
37 63 49
37 63 49
37 63 49
37 63 49
37 63 49
27 42 29
26 42 29
26 42 29
26 42 29
26 42 29
26 42 29
26 42 29
26 42 29
26 42 29
29 49 31
26 42 29
26 42 29
111 196 145
111 196 145
111 196 145
111 196 145
111 196 145
111 196 145
37 63 48
35 56 46
37 63 48
37 63 48
37 63 48
35 57 47
35 57 47
35 57 47
35 57 47
35 57 47
38 64 49
35 57 47
36 57 47
38 64 49
36 58 48
38 64 49
28 48 30
28 48 30
28 48 30
28 48 30
28 48 30
28 48 30
28 48 30
28 48 30
28 48 30
28 48 30
28 48 30
28 48 30
28 48 30
28 48 30
28 48 29
106 178 143
115 200 149
107 179 144
115 201 149
108 180 144
116 201 150
108 180 145
108 180 145
117 202 151
117 203 151
117 203 152
118 203 152
118 203 152
110 182 147
119 204 153
119 205 153
112 183 148
120 205 154
120 206 155
121 206 155
121 207 155
122 207 156
122 207 156
123 208 157
115 187 152
115 187 152
116 188 153
116 188 153
117 189 154
117 189 154
118 189 154
126 211 160
119 190 155
127 212 161
128 213 162
128 213 162
120 192 157
121 193 158
129 215 164
122 194 159
122 194 159
123 195 160
123 195 160
124 196 161
124 196 161
125 196 162
125 197 162
29 49 31
29 49 31
29 49 31
29 49 31
29 49 31
29 49 31
29 49 31
29 49 31
27 43 29
29 49 31
130 202 167
131 202 168
131 202 168
132 203 169
132 203 169
140 225 175
141 225 175
141 225 175
133 204 170
142 226 176
142 226 176
142 226 176
142 227 177
135 206 172
143 227 177
135 206 172
29 45 32
29 45 33
29 45 33
29 45 33
78 129 85
145 228 179
145 228 179
145 228 179
145 229 179
145 229 180
145 229 180
145 229 180
146 229 180
75 100 87
72 94 85
72 94 85
73 94 85
73 94 85
73 94 86
73 94 86
73 94 86
73 94 86
73 94 86
75 101 87
75 101 87
75 101 87
75 100 87
75 100 87
75 100 87
75 100 87
74 100 87
74 100 87
74 100 87
72 94 85
72 94 85
72 93 85
71 93 85
71 93 84
71 93 84
71 93 84
71 93 84
71 92 84
111 195 145
76 128 83
76 128 83
27 43 30
27 43 30
27 43 30
29 49 31
29 49 31
29 49 31
29 49 31
29 49 31
29 49 31
29 49 31
29 49 31
29 49 31
27 43 29
29 49 31
29 49 31
26 42 29
26 42 29
26 42 29
26 42 29
26 42 29
29 49 31
26 42 29
26 42 29
26 42 29
26 42 29
26 42 29
26 42 29
26 42 29
29 49 30
26 42 29
84 149 87
95 160 98
95 160 98
95 160 99
95 160 99
32 52 34
37 63 48
37 63 48
37 63 48
37 63 48
37 63 48
37 63 48
37 63 48
37 63 48
37 63 48
37 63 48
37 63 48
34 56 46
34 56 46
34 56 46
34 56 46
102 174 139
102 174 139
102 174 139
110 195 144
102 174 139
110 195 144
102 174 139
102 174 139
102 174 139
87 138 93
87 138 93
30 46 33
30 46 33
29 49 31
29 49 31
29 49 31
29 49 31
29 49 31
29 49 31
27 43 30
29 49 31
27 43 29
29 49 31
29 49 31
87 139 93
87 139 94
111 195 145
103 174 139
103 174 139
111 195 145
103 174 139
103 174 139
110 195 145
103 174 139
102 174 139
102 174 139
102 174 139
110 195 145
102 174 139
110 195 145
110 195 145
102 174 139
110 195 145
110 195 145
110 195 145
110 195 145
102 174 139
102 174 139
95 160 99
95 160 99
38 64 49
38 64 49
38 64 49
38 64 49
38 64 49
38 64 49
38 63 49
38 63 49
38 63 49
38 63 49
38 63 49
35 57 47
35 57 47
35 57 47
35 57 47
35 57 47
35 57 47
103 174 140
103 174 140
103 174 140
103 174 140
111 195 145
111 195 145
111 195 145
37 63 49
37 63 49
37 63 49
37 63 49
37 63 49
37 63 49
37 63 49
37 63 49
35 57 47
35 57 47
35 57 47
35 57 47
35 57 47
35 57 47
35 57 47
35 57 47
35 57 47
35 57 47
37 63 49
37 63 49
37 63 49
37 63 49
37 63 49
37 63 49
37 63 49
37 63 49
37 63 49
37 63 49
27 43 29
26 42 29
26 42 29
26 42 29
26 42 29
27 42 29
27 42 29
27 42 29
27 42 29
27 43 29
27 43 29
26 42 29
111 196 145
103 174 139
111 196 145
111 196 145
111 196 145
111 196 145
37 63 48
37 63 48
37 63 48
35 57 46
37 63 48
35 57 47
35 57 47
35 57 47
35 57 47
35 57 47
35 57 47
35 57 47
35 57 47
38 64 49
36 58 48
36 58 48
28 48 30
28 48 30
28 48 30
28 48 30
28 48 30
28 48 30
28 48 30
28 48 30
28 48 30
28 48 30
28 48 30
28 48 30
28 48 30
28 48 30
28 48 29
107 179 143
107 179 144
107 179 144
107 179 144
108 180 144
108 180 145
108 180 145
109 181 145
109 181 146
117 203 151
110 182 146
110 182 147
110 182 147
111 183 147
111 183 148
119 205 154
120 205 154
112 184 149
121 206 155
121 206 155
113 185 150
114 186 151
114 186 151
115 187 152
123 208 157
124 209 158
124 209 158
125 210 159
125 210 159
125 211 160
126 211 160
118 190 155
127 212 161
127 213 162
120 192 157
120 192 157
121 193 158
129 214 164
122 194 159
122 194 159
123 195 160
123 195 160
132 217 166
132 217 166
125 196 162
125 197 162
126 197 163
126 198 163
29 49 31
26 42 29
29 49 31
29 49 31
29 49 31
29 49 31
29 49 31
29 49 31
84 149 88
131 202 168
131 203 168
132 203 169
132 203 169
133 204 169
133 204 170
141 225 175
142 226 176
134 205 171
142 226 176
143 227 177
135 206 172
143 227 177
143 228 178
144 228 178
144 228 178
144 228 178
32 52 34
29 45 33
29 45 33
145 229 180
145 229 180
146 229 180
146 229 180
146 229 180
146 229 180
146 229 180
146 230 180
146 230 181
75 101 87
75 101 87
73 95 86
73 95 86
73 95 86
73 95 86
73 95 86
73 95 86
73 95 86
73 95 86
73 95 86
76 101 88
75 101 88
75 101 88
75 101 88
75 101 87
75 101 87
75 101 87
75 101 87
75 101 87
75 100 87
72 94 85
72 94 85
72 94 85
72 94 85
72 94 85
72 93 85
71 93 85
71 93 84
27 43 30
27 43 30
27 43 30
27 43 30
27 43 30
27 43 30
29 49 31
29 49 31
29 49 31
29 49 31
29 49 31
29 49 31
29 49 31
29 49 31
29 49 31
29 49 31
29 49 31
29 49 31
29 49 31
27 42 29
29 49 31
26 42 29
26 42 29
26 42 29
26 42 29
26 42 29
26 42 29
29 49 31
26 42 29
26 42 29
26 42 29
26 42 29
26 42 29
26 42 29
95 160 98
95 160 98
95 160 99
95 160 99
95 160 99
37 63 48
37 63 48
37 63 48
37 63 48
102 174 139
110 195 145
102 174 139
102 174 139
110 195 145
110 195 145
110 195 145
110 195 145
102 174 139
110 195 145
102 174 139
102 174 139
110 195 144
102 174 139
102 174 139
102 174 139
102 174 139
102 174 139
102 174 139
102 174 139
87 138 93
87 138 93
30 46 33
30 46 33
29 49 31
27 43 30
29 49 31
29 49 31
29 49 31
29 49 31
29 49 31
29 49 31
29 49 31
27 43 30
29 49 31
84 149 88
103 174 139
103 174 139
103 174 139
111 195 145
110 195 145
103 174 139
102 174 139
102 174 139
102 174 139
102 174 139
102 174 139
102 174 139
76 128 82
76 128 82
27 42 29
26 42 29
29 49 31
26 42 29
26 42 29
26 42 29
26 42 29
26 42 29
26 42 29
95 160 99
95 160 99
38 64 49
38 64 49
38 63 49
38 63 49
38 63 49
38 63 49
38 63 49
38 63 49
38 63 49
38 63 49
38 63 49
35 57 47
35 57 47
35 57 47
35 57 47
103 174 140
103 174 140
103 174 140
103 174 140
103 174 140
103 174 140
111 195 145
111 195 145
111 195 145
37 63 49
37 63 49
37 63 49
37 63 49
37 63 49
111 195 145
111 195 145
111 195 145
103 174 140
103 174 140
103 174 140
103 174 140
103 174 140
35 57 47
35 57 47
35 57 47
35 57 47
35 57 47
37 63 48
37 63 48
37 63 48
37 63 48
37 63 48
37 63 48
37 63 48
37 63 48
37 63 49
37 63 49
27 43 30
27 42 29
27 43 29
27 43 29
27 43 29
29 49 31
27 43 29
27 43 29
27 43 29
27 43 29
27 43 30
26 42 29
110 196 145
111 196 145
111 196 145
111 196 145
111 196 145
103 174 140
37 63 48
34 56 46
37 63 48
37 63 48
37 63 48
35 57 47
37 63 48
37 63 48
37 63 48
35 57 47
38 64 49
38 64 49
35 57 47
36 57 47
36 58 48
38 64 49
38 64 49
26 42 28
28 48 30
26 42 29
28 48 30
28 48 30
28 48 30
37 59 49
37 59 49
40 66 51
38 60 50
38 60 50
28 48 30
28 48 30
28 48 29
27 47 29
107 179 144
115 201 149
116 201 150
108 180 145
108 180 145
108 180 145
109 181 146
117 202 151
83 149 87
83 149 87
28 47 29
25 41 28
111 183 148
111 183 148
120 205 154
120 205 154
112 184 149
113 185 150
113 185 150
114 186 150
114 186 151
123 208 157
115 187 152
115 187 152
124 209 158
124 210 159
125 210 159
125 211 159
126 211 160
118 190 155
127 212 161
127 212 161
128 213 162
128 213 162
129 214 163
129 214 163
122 193 159
122 194 159
123 194 160
123 195 160
132 217 166
132 217 166
125 196 162
125 197 162
126 197 163
126 198 163
127 198 163
127 199 164
29 49 31
29 49 31
29 49 31
27 43 29
29 49 31
29 49 31
27 43 30
131 202 168
132 203 168
132 203 169
140 225 175
133 204 170
133 204 170
134 205 170
134 205 171
134 205 171
142 227 177
143 227 177
143 227 177
135 207 172
136 207 173
144 228 178
136 207 173
145 229 179
137 208 174
145 229 179
29 45 33
29 45 33
78 129 85
78 129 85
30 46 33
30 46 33
30 46 33
30 46 33
32 52 35
30 46 33
32 52 35
76 102 88
76 102 88
74 96 87
74 96 87
74 96 87
74 96 87
74 96 87
74 96 87
74 96 87
74 96 87
74 96 87
74 96 87
76 102 88
76 102 88
76 102 88
76 102 88
76 102 88
76 101 88
76 101 88
146 229 181
146 229 181
146 229 181
138 208 175
138 208 175
138 207 175
138 207 175
138 207 175
72 94 85
72 94 85
27 43 30
27 43 30
27 43 30
27 43 30
27 43 30
27 43 30
27 43 30
29 49 31
29 49 31
29 49 31
29 49 31
27 43 30
29 49 31
29 49 31
29 49 31
29 49 31
27 43 30
27 43 29
29 49 31
29 49 31
29 49 31
27 43 29
27 42 29
27 42 29
26 42 29
26 42 29
26 42 29
26 42 29
26 42 29
26 42 29
26 42 29
26 42 29
29 49 31
26 42 29
95 160 98
95 160 98
95 160 99
95 160 99
111 195 145
110 195 145
110 195 145
110 195 145
110 195 145
110 195 145
110 195 145
110 195 145
102 174 139
110 195 145
102 174 139
110 195 145
102 174 139
110 195 144
110 195 144
102 174 139
102 174 139
102 174 139
102 174 139
102 174 139
102 174 139
110 195 144
102 174 139
102 174 139
87 138 93
87 138 93
87 138 93
30 46 33
30 46 33
29 49 31
29 49 31
29 49 31
29 49 31
29 49 31
27 43 30
29 49 31
29 49 31
29 49 31
29 49 31
29 49 31
27 43 30
111 195 145
110 195 145
110 195 145
110 195 145
110 195 145
110 195 145
110 195 145
110 195 145
110 195 145
110 195 145
110 195 145
32 52 34
29 49 31
27 43 29
27 43 29
27 43 29
27 43 29
27 43 29
27 43 29
29 49 31
27 42 29
27 42 29
27 42 29
95 160 99
95 160 99
38 63 49
38 63 49
38 63 49
38 63 49
38 63 49
38 63 49
38 63 49
37 63 49
37 63 49
37 63 49
37 63 49
35 57 47
35 57 47
35 57 47
103 174 140
103 174 140
103 174 140
103 174 140
103 174 140
103 174 140
103 174 140
111 195 145
111 195 145
111 195 145
111 195 145
111 195 145
111 195 145
111 195 145
111 195 145
111 195 145
111 195 145
111 195 145
103 174 139
103 174 139
103 174 139
103 174 139
103 174 139
35 57 47
35 57 47
35 57 47
35 57 47
35 57 47
37 63 48
37 63 48
37 63 48
37 63 48
37 63 48
37 63 48
37 63 48
37 63 48
37 63 48
37 63 48
37 63 48
27 43 29
29 49 31
27 43 29
27 43 30
27 43 30
27 43 30
27 43 30
27 43 30
27 43 30
27 43 30
26 42 29
26 42 28
111 196 145
103 174 139
111 196 145
111 196 145
111 196 145
37 63 48
37 63 48
37 63 48
37 63 48
37 63 48
37 63 48
35 57 47
35 57 47
35 57 47
35 57 47
35 57 47
38 64 49
38 64 49
38 64 49
38 64 49
36 58 48
36 58 48
36 58 48
36 58 48
36 58 48
37 59 48
37 59 49
37 59 49
37 59 49
37 59 49
38 59 49
38 60 50
38 60 50
28 48 30
28 48 30
28 48 29
27 47 29
27 47 29
27 47 29
27 47 29
25 41 27
27 47 29
27 47 29
28 47 29
28 47 29
28 48 29
28 48 29
28 48 29
28 48 29
111 183 148
111 183 148
112 184 149
112 184 149
113 184 149
121 206 155
113 185 150
114 186 151
114 186 151
115 187 152
115 187 152
116 188 152
124 209 158
125 210 159
125 210 159
126 211 160
118 190 155
119 190 155
127 212 161
128 213 162
128 213 162
121 192 157
129 214 163
130 215 164
122 194 159
123 194 159
123 195 160
124 195 160
124 196 161
133 218 167
133 218 167
134 219 168
126 198 163
127 198 163
127 199 164
128 199 164
29 49 31
29 49 31
29 49 31
29 49 31
29 49 31
29 49 31
29 49 31
132 203 169
132 203 169
133 204 169
133 204 170
133 204 170
134 205 171
134 205 171
134 206 171
143 227 177
143 227 177
143 228 178
136 207 173
144 228 178
144 229 179
145 229 179
145 229 179
145 229 179
145 230 180
146 230 180
146 230 180
146 230 181
147 230 181
30 46 33
30 46 33
32 52 35
30 46 33
30 46 33
30 46 34
30 46 34
30 46 34
77 102 89
77 102 89
77 102 89
74 96 87
74 96 87
75 96 87
75 96 87
75 96 87
140 210 177
140 210 177
140 210 177
140 210 177
140 210 177
148 230 182
148 230 182
148 230 182
148 230 182
140 209 177
147 230 182
147 230 182
147 229 181
147 229 181
147 229 181
139 208 176
139 208 176
138 208 175
138 208 175
138 208 175
72 94 85
27 43 30
27 43 30
30 49 32
27 43 30
27 43 30
27 43 30
27 43 30
29 49 31
29 49 31
29 49 31
29 49 31
27 43 30
29 49 31
29 49 31
29 49 31
29 49 31
29 49 31
29 49 31
29 49 31
29 49 31
29 49 31
27 43 29
27 43 29
27 43 29
27 43 29
27 42 29
27 42 29
26 42 29
26 42 29
26 42 29
26 42 29
29 49 31
29 49 31
26 42 29
26 42 29
95 160 98
95 160 99
95 160 99
102 174 139
110 195 145
110 195 145
110 195 145
102 174 139
110 195 145
110 195 145
110 195 145
102 174 139
110 195 145
110 195 145
110 195 144
102 174 139
102 174 139
102 174 139
102 174 139
102 174 139
102 174 139
102 174 139
102 174 139
102 174 139
102 174 139
102 174 139
102 174 139
87 138 93
87 138 93
87 138 93
30 46 33
30 46 33
37 63 49
37 63 48
35 57 47
35 57 47
37 63 48
35 57 47
35 57 47
35 57 47
35 57 47
35 57 47
103 174 139
103 174 139
110 195 145
110 195 145
110 195 145
110 195 145
110 195 145
110 195 145
110 195 145
110 195 145
110 195 145
102 174 139
110 195 145
32 52 34
27 43 30
27 43 30
27 43 30
27 43 30
29 49 31
27 43 29
27 43 29
29 49 31
29 49 31
27 43 29
29 49 31
95 160 99
95 160 99
38 63 49
38 63 49
38 63 49
37 63 49
37 63 49
111 195 145
111 195 145
111 195 145
111 195 145
111 195 145
103 174 140
103 174 140
103 174 140
103 174 140
103 174 140
103 174 140
103 174 140
103 174 140
103 174 140
103 174 140
103 174 140
111 195 145
111 195 145
111 195 145
111 195 145
111 195 145
111 195 145
111 195 145
111 195 145
111 195 145
111 195 145
111 195 145
103 174 139
103 174 139
103 174 139
103 174 139
103 174 139
35 57 47
35 57 47
35 57 47
35 57 47
35 57 47
37 63 48
37 63 48
37 63 48
37 63 48
37 63 48
37 63 48
37 63 48
37 63 48
37 63 48
37 63 48
37 63 48
27 43 30
27 43 30
37 63 48
37 63 48
37 63 48
37 63 49
37 63 49
37 63 49
37 63 49
37 63 49
27 42 29
26 42 28
111 196 145
111 196 145
111 196 145
111 196 145
111 196 145
83 149 87
75 127 82
26 42 28
26 42 28
28 48 30
28 48 30
111 196 145
103 175 140
103 175 140
37 63 48
38 64 49
38 64 49
38 64 49
36 57 47
38 64 49
38 64 49
38 64 49
36 58 48
36 58 48
39 65 50
39 65 50
37 59 49
37 59 49
37 59 49
37 59 49
38 60 49
38 60 50
38 60 50
28 48 30
28 48 30
28 48 29
28 47 29
27 47 29
27 47 29
25 41 28
28 47 29
28 47 29
28 48 29
28 48 29
25 41 28
28 48 29
28 48 29
28 48 29
28 48 29
27 47 29
111 183 148
112 184 149
112 184 149
113 185 150
121 207 155
122 207 156
114 186 151
114 186 151
115 187 152
115 187 152
116 188 153
116 188 153
125 210 159
125 211 160
126 211 160
126 212 160
127 212 161
119 191 156
120 192 157
128 214 163
121 193 158
129 215 164
130 215 164
130 216 165
123 195 160
123 195 160
124 196 161
124 196 161
125 197 162
126 197 162
126 198 163
127 198 163
135 220 169
128 199 164
128 200 165
137 222 171
29 49 31
29 49 31
29 49 31
27 43 30
29 49 31
84 149 88
132 203 169
133 204 169
141 225 175
133 205 170
134 205 171
134 205 171
143 227 177
135 206 172
135 207 172
136 207 173
144 228 178
144 229 179
145 229 179
145 229 179
145 229 179
145 230 180
146 230 180
138 209 175
146 230 180
146 231 181
147 231 181
147 231 181
30 46 33
30 46 33
30 46 33
30 46 34
30 46 34
30 46 34
30 46 34
149 231 183
149 232 183
149 232 183
149 232 183
149 232 183
149 232 183
141 211 178
141 211 178
141 211 178
141 211 178
141 211 178
141 211 178
141 211 178
141 211 178
141 211 178
148 231 183
148 231 183
148 231 183
148 231 182
148 230 182
148 230 182
148 230 182
147 230 182
147 230 182
147 230 182
139 209 176
139 209 176
139 208 176
139 208 176
138 208 175
27 43 30
27 43 30
30 50 32
27 43 30
27 43 30
27 43 30
27 43 30
27 43 30
29 49 32
29 49 32
29 49 31
29 49 31
29 49 31
29 49 31
29 49 31
29 49 31
29 49 31
29 49 31
29 49 31
27 43 30
29 49 31
27 43 30
27 43 30
27 43 29
27 43 29
27 43 29
27 43 29
27 43 29
27 42 29
27 42 29
26 42 29
26 42 29
26 42 29
29 49 31
26 42 29
95 160 98
95 160 99
110 195 145
110 195 145
110 195 145
110 195 145
102 174 139
110 195 145
102 174 139
110 195 145
110 195 145
110 195 145
110 195 144
110 195 144
102 174 139
102 174 139
110 195 144
110 195 144
110 195 144
110 195 144
102 174 139
102 174 139
102 174 139
102 174 139
102 174 139
102 174 139
86 138 93
87 138 93
87 138 93
87 138 93
87 139 93
30 46 33
35 57 47
35 57 47
35 57 47
35 57 47
35 57 47
35 57 47
37 63 48
37 63 48
103 174 139
103 174 139
102 174 139
110 195 145
102 174 139
110 195 145
110 195 145
110 195 145
110 195 145
110 195 145
110 195 145
110 195 145
110 195 145
110 195 145
110 195 145
95 160 99
27 43 30
27 43 30
27 43 30
27 43 30
29 49 31
27 43 30
27 43 30
27 43 30
27 43 30
27 43 30
27 43 30
95 160 99
95 160 99
111 195 145
111 195 145
111 195 145
111 195 145
111 195 145
111 195 145
111 195 145
111 195 145
111 195 145
111 195 145
103 174 140
103 174 140
103 174 140
103 174 140
103 174 140
103 174 140
103 174 139
103 174 139
103 174 139
103 174 139
103 174 139
111 195 145
111 195 145
111 195 145
111 195 145
111 195 145
111 195 145
111 195 145
111 195 145
111 195 145
111 195 145
111 195 145
103 174 139
103 174 139
103 174 139
103 174 139
103 174 139
35 57 47
35 57 47
35 57 47
35 57 47
35 57 47
37 63 48
111 195 145
84 149 88
27 43 30
27 43 30
27 43 30
27 43 30
27 43 30
27 43 30
27 43 30
29 49 31
37 63 48
37 63 48
37 63 48
37 63 48
37 63 48
37 63 48
37 63 48
37 63 48
37 63 49
37 63 49
27 43 29
26 42 28
28 48 30
26 42 28
26 42 28
26 42 28
26 42 28
26 42 28
26 42 28
28 48 30
26 42 28
26 42 28
26 42 28
111 196 145
111 196 145
111 197 146
37 63 48
38 63 49
38 64 49
38 64 49
38 64 49
38 64 49
38 64 49
38 64 49
39 64 50
36 58 48
36 58 48
37 59 48
37 59 49
37 59 49
37 59 49
37 59 49
38 60 49
38 60 50
38 60 50
38 60 50
28 48 30
28 48 30
28 47 29
28 47 29
28 47 29
28 48 29
28 48 29
28 48 29
25 41 28
28 48 29
28 48 29
28 48 29
28 48 29
28 48 30
28 48 29
28 47 29
112 184 148
112 184 149
112 184 149
113 185 150
113 185 150
122 207 156
114 186 151
123 208 157
115 187 152
116 188 152
116 188 153
117 189 153
125 210 159
126 211 160
118 190 155
127 212 161
127 212 161
128 213 162
128 213 162
129 214 163
129 214 163
122 194 159
130 216 164
131 216 165
123 195 160
124 196 161
124 196 161
133 218 167
125 197 162
126 198 163
126 198 163
127 199 164
127 199 164
128 200 165
136 222 171
129 201 166
29 49 31
29 49 31
27 43 30
27 43 30
29 49 32
132 204 169
133 204 170
133 204 170
134 205 170
142 226 176
134 206 171
135 206 172
143 228 177
136 207 172
136 207 173
136 207 173
85 149 89
28 44 31
28 44 31
28 44 31
28 44 31
28 44 31
28 44 31
28 44 31
28 44 31
28 44 31
148 231 182
148 231 182
148 232 182
30 46 34
30 46 34
30 46 34
30 46 34
30 46 34
30 46 34
149 232 184
149 232 184
149 232 184
149 232 184
149 232 184
149 232 184
142 212 179
142 212 179
142 212 179
142 212 179
142 212 179
142 211 179
142 211 179
142 211 178
141 211 178
141 211 178
149 232 183
149 231 183
149 231 183
149 231 183
148 231 183
148 231 183
148 231 183
148 230 182
148 230 182
148 230 182
140 209 177
140 209 176
139 209 176
139 209 176
27 43 30
27 43 30
27 43 30
27 43 30
27 43 30
27 43 30
27 43 30
27 43 30
29 49 32
27 43 30
29 49 32
29 49 32
27 43 30
27 43 30
29 49 31
29 49 31
27 43 30
29 49 31
29 49 31
29 49 31
29 49 31
29 49 31
27 43 30
27 43 30
27 43 30
27 43 30
27 43 29
27 43 29
27 43 29
27 43 29
27 43 29
27 42 29
27 42 29
26 42 29
26 42 29
76 128 82
95 160 99
110 195 145
110 195 145
110 195 145
110 195 145
110 195 145
110 195 145
110 195 145
102 174 139
110 195 144
110 195 144
110 195 144
110 195 144
102 174 139
102 174 139
76 128 82
84 149 87
28 48 30
28 48 30
28 48 30
26 42 29
26 42 29
28 48 30
26 42 29
28 48 30
84 149 87
87 138 93
87 138 93
87 138 93
87 139 93
30 46 33
35 57 47
35 57 47
35 57 47
35 57 47
35 57 47
37 63 48
110 195 145
102 174 139
110 195 145
102 174 139
102 174 139
102 174 139
110 195 145
102 174 139
110 195 145
110 195 145
102 174 139
110 195 145
110 195 145
102 174 139
110 195 145
110 195 144
95 160 98
95 160 99
27 43 30
27 43 30
29 49 31
29 49 31
27 43 30
27 43 30
29 49 31
27 43 30
27 43 30
29 49 31
27 43 30
84 149 88
95 160 99
111 195 145
111 195 145
111 195 145
111 195 145
111 195 145
111 195 145
111 195 145
111 195 145
111 195 145
111 195 145
103 174 140
103 174 140
103 174 139
103 174 139
103 174 139
103 174 139
103 174 139
103 174 139
103 174 139
103 174 139
103 174 139
111 195 145
111 195 145
111 195 145
111 195 145
111 195 145
111 195 145
111 195 145
111 195 145
111 195 145
111 195 145
111 195 145
84 149 88
84 149 88
27 43 30
29 49 31
29 49 31
29 49 31
29 49 31
29 49 31
27 43 30
29 49 31
29 49 31
27 43 30
29 49 31
27 43 30
29 49 31
27 43 30
27 43 30
27 43 30
27 43 30
27 43 30
29 49 31
37 63 48
37 63 48
37 63 48
37 63 48
37 63 48
37 63 48
37 63 48
37 63 48
37 63 48
37 63 49
37 63 49
26 42 29
26 42 28
26 42 28
26 42 28
26 42 28
28 48 30
26 42 28
26 42 28
28 48 30
26 42 29
28 48 30
26 42 29
103 175 140
103 175 140
111 197 146
37 63 48
35 57 47
38 64 49
38 64 49
36 57 47
38 64 49
38 64 49
38 64 49
39 64 49
36 58 48
36 58 48
37 59 48
37 59 49
37 59 49
37 59 49
37 59 49
38 60 49
38 60 50
38 60 50
38 60 50
28 48 30
28 48 30
28 48 29
28 48 29
28 48 29
28 48 29
28 48 29
28 48 29
28 48 29
28 48 29
28 48 30
28 48 30
28 48 30
28 48 30
28 48 29
28 47 29
83 148 86
112 184 149
121 206 155
121 207 155
114 186 150
122 207 156
122 208 157
123 208 157
115 187 152
116 188 153
124 210 159
125 210 159
117 189 154
126 211 160
126 212 161
127 212 161
127 213 162
128 213 162
128 214 163
129 214 163
130 215 164
130 215 164
123 194 159
131 216 165
132 217 166
124 196 161
125 197 162
125 197 162
126 198 163
126 198 163
135 220 169
127 199 164
136 221 170
128 200 165
129 201 166
129 201 166
130 202 167
29 49 31
29 49 32
27 43 30
67 93 78
141 225 175
141 226 175
142 226 176
142 227 176
142 227 177
143 227 177
143 228 178
144 228 178
144 229 178
144 229 179
137 208 174
28 44 31
28 44 31
28 44 31
30 50 33
28 44 31
28 44 31
28 44 31
30 50 33
30 50 33
148 232 182
148 232 183
148 232 183
149 232 183
149 232 183
30 46 34
30 46 34
30 46 34
30 46 34
150 233 184
150 233 184
150 233 184
150 233 184
150 233 184
150 233 184
150 233 184
150 233 185
142 212 179
142 212 179
142 212 179
142 212 179
142 212 179
142 212 179
142 212 179
142 212 179
142 212 179
142 212 179
150 232 184
149 232 184
149 232 184
141 211 178
149 232 183
149 231 183
149 231 183
80 130 87
32 48 36
32 48 36
34 54 38
34 54 38
35 54 38
27 43 30
27 43 30
27 43 30
27 43 30
27 43 30
27 43 30
27 43 30
27 43 30
27 43 30
30 49 32
27 43 30
29 49 32
29 49 32
29 49 32
29 49 32
29 49 32
29 49 31
29 49 31
29 49 31
29 49 31
29 49 31
29 49 31
29 49 31
27 43 30
27 43 30
27 43 30
27 43 30
27 43 30
27 43 30
27 43 30
27 43 29
27 43 29
27 43 29
27 43 29
27 42 29
27 42 29
110 195 145
110 195 145
110 195 145
102 174 139
102 174 139
102 174 139
102 174 139
102 174 139
110 195 144
102 174 139
102 174 139
102 174 139
87 138 93
26 42 29
26 42 29
29 49 31
29 49 31
29 49 30
26 42 29
29 48 30
29 48 30
28 48 30
28 48 30
28 48 30
28 48 30
28 48 30
87 138 93
87 138 93
87 139 93
87 139 93
35 57 47
35 57 47
35 57 47
35 57 47
35 57 47
103 174 139
102 174 139
110 195 145
102 174 139
102 174 139
102 174 139
102 174 139
102 174 139
110 195 145
110 195 145
110 195 145
102 174 139
110 195 145
102 174 139
110 195 145
102 174 139
110 195 144
110 195 144
95 160 98
95 160 99
27 43 30
27 43 30
27 43 30
27 43 30
27 43 30
27 43 30
27 43 30
29 49 31
29 49 31
27 43 30
27 43 30
27 43 30
111 195 145
111 195 145
111 195 145
111 195 145
111 195 145
111 195 145
111 195 145
111 195 145
111 195 145
111 195 145
111 195 145
103 174 139
103 174 139
103 174 139
103 174 139
103 174 139
103 174 139
103 174 139
103 174 139
103 174 139
103 174 139
84 149 88
84 149 88
27 43 30
29 49 31
27 43 30
27 43 30
27 43 30
29 49 31
27 43 30
27 43 30
27 43 30
27 43 30
29 49 31
29 49 31
29 49 31
29 49 31
29 49 31
27 43 30
27 43 30
29 49 31
29 49 31
29 49 31
27 43 30
27 43 30
27 43 30
27 43 30
27 43 30
27 43 30
29 49 31
27 43 30
29 49 31
27 43 30
27 43 30
37 63 48
37 63 48
37 63 48
37 63 48
37 63 48
37 63 48
37 63 48
37 63 48
37 63 48
37 63 48
37 63 48
26 42 29
26 42 28
26 42 28
26 42 28
26 42 29
26 42 29
26 42 29
26 42 29
28 48 30
26 42 29
26 42 29
26 42 29
26 41 28
111 197 145
111 197 146
103 175 140
38 63 48
38 64 49
35 57 47
35 57 47
38 64 49
38 64 49
38 64 49
38 64 49
36 58 48
36 58 48
37 59 48
39 65 50
39 65 50
37 59 49
40 66 51
40 66 51
38 60 50
38 60 50
38 60 50
39 61 50
28 48 30
28 48 29
28 48 29
28 48 29
28 48 29
28 48 29
28 48 29
28 48 30
28 48 30
25 41 28
28 48 30
28 48 30
28 48 30
28 48 30
28 48 29
27 47 29
112 184 149
113 185 150
113 185 150
114 186 151
114 186 151
123 208 157
123 209 157
116 188 152
116 188 153
117 189 153
117 189 154
118 190 154
126 212 160
119 191 155
127 213 161
120 192 156
128 214 162
129 214 163
129 215 163
130 215 164
130 216 165
123 195 160
131 217 166
132 217 166
125 196 161
125 197 162
134 219 168
126 198 163
127 199 164
127 199 164
128 200 165
128 200 165
129 201 166
129 201 166
130 202 167
130 202 167
139 224 173
64 86 76
64 86 77
133 204 170
141 226 175
142 226 176
142 227 176
143 227 177
143 228 177
143 228 178
144 228 178
144 229 178
145 229 179
145 229 179
145 230 180
146 230 180
28 44 31
28 44 31
30 50 33
28 44 31
28 44 31
28 44 31
28 44 31
28 44 31
149 232 183
149 233 183
149 233 183
149 233 184
149 233 184
150 233 184
30 46 34
30 46 34
30 46 34
150 233 185
151 234 185
151 234 185
151 234 185
151 234 185
151 234 185
151 234 185
151 234 185
151 234 185
143 213 180
143 213 180
143 213 180
143 213 180
143 213 180
87 151 92
87 151 92
34 54 37
34 54 37
34 54 37
32 48 36
32 48 36
32 48 36
32 48 36
32 48 36
32 48 36
32 48 36
34 54 38
34 54 38
32 48 36
35 55 38
35 55 38
27 43 31
30 50 32
27 43 30
27 43 30
27 43 30
27 43 30
27 43 30
27 43 30
27 43 30
30 50 32
30 50 32
30 50 32
30 49 32
30 49 32
29 49 32
29 49 32
29 49 32
29 49 32
29 49 32
29 49 31
29 49 31
29 49 31
27 43 30
27 43 30
27 43 30
27 43 30
27 43 30
37 63 48
37 63 48
37 63 48
37 63 48
37 63 48
37 63 48
34 56 46
102 174 139
110 195 145
102 174 139
102 174 139
102 174 139
110 195 145
102 174 139
110 195 144
102 174 139
102 174 139
110 195 144
102 174 139
102 174 139
102 174 139
87 138 93
29 49 31
29 49 31
29 49 31
29 49 31
26 42 29
26 42 29
29 49 31
29 49 31
29 49 30
29 48 30
29 48 30
29 48 30
28 48 30
87 138 93
87 138 93
87 139 93
87 139 93
35 57 47
35 57 47
35 56 47
102 174 139
102 174 139
102 174 139
102 174 139
110 195 145
102 174 139
110 195 145
110 195 145
110 195 145
102 174 139
110 195 145
110 195 145
102 174 139
110 195 145
102 174 139
110 195 144
110 195 144
102 174 139
110 195 144
110 195 144
95 160 98
95 160 99
33 53 35
27 43 30
27 43 30
29 49 32
27 43 30
27 43 30
27 43 30
27 43 30
27 43 30
27 43 30
27 43 30
27 43 30
111 195 145
111 195 145
111 195 145
111 195 145
111 195 145
111 195 145
111 195 145
111 195 145
111 195 145
76 128 83
76 128 83
27 43 30
29 49 31
29 49 31
27 43 30
29 49 31
27 43 30
29 49 31
29 49 31
29 49 31
29 49 31
29 49 31
27 43 30
29 49 31
27 43 30
27 43 30
27 43 30
29 49 31
27 43 30
29 49 31
29 49 31
27 43 30
27 43 30
29 49 31
27 43 30
29 49 31
29 49 31
27 43 30
29 49 31
29 49 31
29 49 31
29 49 31
29 49 31
27 43 30
29 49 31
27 43 30
27 43 30
29 49 32
27 43 30
27 43 30
27 43 30
27 43 30
27 43 30
27 43 30
37 63 48
37 63 48
37 63 48
37 63 48
37 63 48
37 63 48
37 63 48
37 63 48
37 63 48
37 63 48
37 63 48
26 42 29
26 42 29
26 42 29
26 42 29
26 42 29
26 42 29
26 42 29
28 48 30
26 42 29
26 42 29
28 48 30
26 42 29
26 42 28
111 197 145
111 197 146
111 197 146
112 197 146
112 197 146
112 197 146
38 64 49
38 64 49
36 58 48
38 64 49
38 64 49
39 65 50
36 58 48
37 59 48
37 59 49
37 59 49
37 59 49
37 59 49
38 60 49
38 60 50
41 67 52
38 60 50
39 61 50
28 48 30
28 48 29
28 48 29
28 48 29
28 48 30
25 41 28
25 41 28
25 41 28
28 48 30
28 48 30
28 48 30
28 48 30
28 48 30
28 48 30
28 48 29
27 47 29
113 185 149
113 185 150
113 185 150
114 186 151
122 208 157
115 187 152
115 187 152
116 188 153
124 210 158
117 189 154
117 189 154
118 190 155
118 190 155
119 191 156
127 213 162
128 213 162
120 192 157
129 214 163
130 215 164
130 215 164
123 195 159
123 195 160
124 196 161
132 218 166
125 197 162
125 197 162
134 219 168
127 198 163
135 220 169
136 221 170
128 200 165
129 201 166
129 201 166
130 202 167
130 202 167
131 203 168
131 203 168
64 86 76
141 225 175
133 205 170
134 205 171
142 227 176
143 227 177
143 228 177
136 207 172
144 228 178
144 229 179
137 208 174
145 230 179
146 230 180
146 230 180
146 231 181
147 231 181
28 44 31
30 50 33
28 44 31
28 44 31
28 44 31
28 44 31
28 44 31
149 233 184
149 233 184
150 233 184
150 234 184
150 234 184
150 234 185
30 46 34
30 46 34
30 46 34
151 234 185
151 234 185
151 234 186
144 214 180
144 214 181
144 214 181
144 214 181
144 214 181
144 214 181
33 53 36
31 47 35
33 53 37
34 53 37
31 47 35
31 47 35
34 54 37
34 54 37
34 54 37
34 54 37
34 54 37
32 48 36
32 48 36
32 48 36
34 54 38
32 48 36
34 54 38
32 48 36
32 48 36
35 55 38
35 55 38
35 55 38
28 44 31
28 43 31
27 43 31
27 43 31
27 43 30
27 43 30
27 43 30
27 43 30
27 43 30
27 43 30
30 50 32
30 50 32
27 43 30
30 50 32
30 50 32
35 57 47
35 57 47
35 57 47
35 57 47
35 57 47
35 57 47
37 63 48
35 57 47
35 57 47
35 57 47
37 63 48
37 63 48
37 63 48
37 63 48
35 56 47
37 63 48
37 63 48
110 195 145
102 174 139
110 195 145
110 195 145
110 195 145
102 174 139
102 174 139
102 174 139
102 174 139
102 174 139
110 195 144
102 174 139
102 174 139
102 174 139
110 195 144
102 174 139
87 138 93
30 46 32
29 49 31
29 49 31
29 49 31
29 49 31
26 42 29
26 42 29
29 49 31
29 49 31
29 49 31
29 49 31
29 49 31
26 42 29
84 149 87
87 138 93
87 139 93
87 139 93
103 174 139
102 174 139
102 174 139
102 174 139
102 174 139
102 174 139
102 174 139
110 195 145
102 174 139
102 174 139
102 174 139
110 195 145
110 195 145
110 195 145
110 195 144
110 195 144
110 195 144
102 174 139
110 195 144
110 195 144
110 195 144
110 195 144
110 195 144
95 160 98
95 160 99
33 53 35
27 43 30
27 43 30
27 43 30
27 43 30
29 49 32
27 43 30
27 43 30
27 43 30
27 43 30
37 63 49
37 63 49
27 43 30
27 43 30
27 43 30
27 43 30
27 43 30
27 43 30
27 43 30
27 43 30
27 43 30
27 43 30
27 43 30
29 49 31
29 49 31
29 49 31
29 49 31
29 49 31
29 49 31
29 49 31
29 49 31
29 49 31
27 43 30
29 49 31
29 49 31
27 43 30
27 43 30
27 43 30
27 43 30
27 43 30
27 43 30
29 49 31
27 43 30
27 43 30
27 43 30
29 49 31
29 49 31
29 49 32
29 49 32
29 49 32
27 43 30
27 43 30
29 49 32
27 43 30
29 49 32
27 43 30
27 43 30
27 43 30
27 43 30
27 43 30
27 43 30
27 43 30
27 43 30
27 43 30
27 43 30
27 43 30
111 195 145
111 195 145
111 195 145
37 63 48
37 63 48
37 63 48
37 63 48
37 63 48
37 63 48
37 63 48
37 63 48
26 42 29
26 42 29
28 48 30
28 48 30
26 42 29
26 42 29
26 42 29
26 42 29
26 42 29
26 42 29
26 42 29
26 42 29
26 42 28
103 175 140
111 197 146
111 197 146
112 197 146
112 197 146
104 176 141
38 64 49
36 58 47
38 64 49
38 64 49
38 64 49
39 65 50
36 58 48
37 59 48
37 59 49
37 59 49
37 59 49
37 59 49
38 60 49
38 60 50
38 60 50
38 60 50
39 61 51
28 48 30
28 48 30
28 48 30
25 41 28
28 48 30
28 48 30
28 48 30
28 48 30
28 48 30
28 48 30
28 48 30
28 48 30
28 48 30
28 48 30
28 48 29
27 47 29
27 47 29
113 185 150
114 186 150
114 186 151
115 187 151
115 187 152
115 188 152
116 188 153
125 210 159
117 189 154
126 211 160
118 190 155
119 191 155
127 213 161
128 213 162
128 214 162
129 214 163
129 215 163
130 215 164
130 216 165
131 216 165
132 217 166
124 196 161
133 218 167
133 219 167
134 219 168
126 198 163
135 220 169
127 199 164
128 200 165
83 149 87
83 149 87
25 41 28
28 48 30
28 48 30
28 48 30
28 48 30
133 204 170
133 205 170
134 205 171
134 206 171
135 206 172
143 228 177
136 207 172
144 229 178
144 229 179
145 229 179
137 209 174
138 209 175
146 231 180
146 231 181
147 231 181
147 232 181
140 211 176
28 44 31
28 44 31
28 44 31
28 44 31
28 44 32
150 233 184
150 234 184
150 234 184
150 234 185
151 234 185
151 234 185
151 235 185
151 235 185
80 105 92
152 235 186
144 214 181
144 214 181
144 214 181
144 214 181
144 214 181
144 214 181
144 214 181
144 214 181
144 214 181
144 214 181
34 53 37
34 54 37
31 47 35
34 54 37
34 54 37
34 54 37
34 54 37
34 54 37
32 48 36
32 48 36
34 54 38
32 48 36
32 48 36
32 48 36
32 48 36
32 48 36
35 55 38
35 55 38
35 55 38
35 55 38
33 49 37
28 44 31
28 44 31
38 64 49
38 64 49
38 64 49
38 64 49
38 64 49
38 63 49
38 63 49
35 57 47
35 57 47
35 57 47
35 57 47
35 57 47
35 57 47
35 57 47
37 63 49
37 63 49
37 63 48
35 57 47
35 57 47
37 63 48
37 63 48
37 63 48
37 63 48
37 63 48
37 63 48
35 56 47
37 63 48
37 63 48
110 195 145
110 195 145
110 195 145
110 195 145
110 195 145
110 195 145
102 174 139
102 174 139
102 174 139
110 195 144
102 174 139
102 174 139
102 174 139
102 174 139
102 174 139
102 174 139
110 195 144
87 138 93
87 138 93
30 46 32
29 49 31
26 42 29
29 49 31
29 49 31
29 49 31
29 49 31
29 49 31
29 49 31
29 49 31
29 49 31
29 49 31
26 42 29
29 49 31
87 138 93
87 139 93
102 174 139
102 174 139
110 195 145
102 174 139
102 174 139
110 195 145
102 174 139
102 174 139
102 174 139
102 174 139
110 195 145
102 174 139
102 174 139
110 195 144
110 195 144
102 174 139
102 174 139
110 195 144
102 174 139
102 174 139
110 195 144
110 195 144
110 195 144
95 160 98
95 160 98
95 160 99
33 53 35
37 63 49
37 63 49
37 63 49
37 63 49
37 63 49
37 63 49
37 63 49
37 63 49
37 63 48
111 195 145
111 195 145
29 49 32
27 43 30
27 43 30
27 43 30
27 43 30
27 43 30
27 43 30
29 49 32
27 43 30
27 43 30
27 43 30
29 49 32
27 43 30
29 49 32
29 49 32
29 49 32
29 49 32
29 49 32
29 49 32
29 49 32
29 49 32
29 49 32
27 43 30
27 43 30
27 43 30
27 43 30
29 49 32
27 43 30
29 49 32
27 43 30
27 43 30
29 49 32
27 43 30
27 43 30
29 49 32
29 49 32
29 49 32
29 49 32
27 43 30
29 49 32
29 49 32
30 49 32
30 49 32
27 43 30
27 43 30
27 43 30
27 43 30
27 43 30
27 43 30
27 43 30
27 43 30
27 43 30
27 43 30
27 43 30
111 195 145
111 195 145
111 195 145
37 63 48
37 63 48
37 63 48
37 63 48
37 63 48
37 63 48
37 63 48
37 63 48
26 42 29
26 42 29
26 42 29
29 48 30
26 42 29
26 42 29
26 42 29
26 42 29
26 42 29
26 42 29
26 42 29
26 42 29
26 42 28
111 197 145
111 197 146
111 197 146
112 197 146
112 197 146
112 197 146
38 64 49
36 57 47
36 58 47
36 58 48
38 64 49
39 65 50
36 58 48
39 65 50
37 59 49
37 59 49
37 59 49
37 59 49
40 66 51
38 60 50
41 67 52
41 67 52
41 67 52
39 61 51
28 48 30
28 48 30
26 41 28
28 48 30
28 48 30
28 48 30
28 48 30
28 48 30
28 48 30
42 64 54
43 65 55
28 48 30
28 48 30
28 48 29
27 47 29
27 47 29
113 185 150
122 207 156
114 186 151
115 187 151
115 187 152
116 188 152
116 188 153
125 210 159
117 189 154
118 190 155
118 190 155
119 191 156
119 191 156
120 192 157
128 214 163
121 193 158
130 215 164
130 216 164
123 195 159
123 195 160
124 196 161
132 218 167
133 218 167
126 197 162
134 220 168
28 48 29
28 48 30
28 48 30
28 48 30
25 41 28
28 48 30
28 48 30
28 48 30
28 48 30
28 48 30
28 48 30
133 205 170
134 205 170
134 206 171
135 206 171
135 206 172
136 207 172
136 207 173
137 208 173
137 208 174
145 230 180
146 230 180
138 210 175
147 231 181
147 232 181
147 232 182
148 232 182
140 211 177
28 44 31
28 44 31
28 44 32
28 44 32
28 44 32
150 234 184
150 234 185
151 235 185
151 235 185
151 235 185
151 235 186
152 235 186
152 235 186
152 236 186
152 235 187
152 235 187
145 215 182
145 215 182
145 215 182
145 215 182
145 215 182
145 215 182
145 215 182
145 215 182
145 215 182
145 215 182
34 54 37
34 54 37
34 54 37
32 48 36
34 54 37
34 54 37
32 48 36
32 48 36
32 48 36
34 54 38
32 48 36
32 48 36
32 48 36
32 48 36
35 55 38
35 55 38
32 49 37
33 49 37
33 49 37
35 55 39
38 64 49
38 64 49
38 64 49
38 64 49
38 64 49
38 63 49
38 63 49
38 63 49
38 63 49
35 57 47
35 57 47
35 57 47
35 57 47
35 57 47
35 57 47
35 57 47
35 57 47
35 57 47
35 57 47
37 63 48
37 63 48
35 57 47
35 57 47
37 63 48
37 63 48
37 63 48
37 63 48
37 63 48
110 195 145
110 195 145
110 195 145
110 195 145
110 195 145
110 195 145
110 195 144
102 174 139
102 174 139
102 174 139
102 174 139
102 174 139
102 174 139
102 174 139
102 174 139
102 174 139
102 174 139
102 174 139
102 174 139
87 138 93
87 138 93
30 46 32
30 46 33
29 49 31
29 49 31
29 49 31
29 49 31
29 49 31
29 49 31
29 49 31
29 49 31
26 42 29
29 49 31
29 49 31
29 49 31
87 138 93
87 139 93
102 174 139
110 195 145
110 195 145
110 195 145
110 195 145
110 195 145
102 174 139
102 174 139
102 174 139
110 195 145
102 174 139
102 174 139
110 195 144
110 195 144
102 174 139
110 195 144
110 195 144
102 174 139
110 195 144
110 195 144
110 195 144
110 195 144
102 174 139
95 160 98
95 160 98
95 160 99
33 53 35
37 63 49
37 63 49
37 63 49
37 63 49
37 63 49
37 63 48
37 63 48
111 195 145
111 195 145
111 195 145
111 195 145
27 43 30
27 43 30
27 43 30
27 43 30
27 43 30
27 43 30
27 43 30
30 49 32
27 43 30
27 43 30
27 43 30
27 43 30
30 49 32
30 49 32
30 49 32
30 49 32
30 49 32
30 49 32
30 49 32
30 49 32
27 43 30
30 49 32
27 43 30
27 43 30
27 43 30
27 43 30
27 43 30
27 43 30
27 43 30
27 43 30
27 43 30
30 49 32
27 43 30
30 49 32
30 49 32
30 49 32
30 50 32
30 50 32
30 50 32
30 50 32
27 43 30
27 43 30
30 50 32
27 43 30
27 43 30
27 43 30
27 43 30
27 43 30
27 43 30
27 43 30
30 50 32
27 43 30
27 43 30
27 43 30
111 195 145
111 195 145
111 195 145
37 63 48
37 63 48
37 63 48
37 63 48
37 63 48
37 63 48
37 63 48
37 63 48
26 42 29
29 49 30
29 49 31
26 42 29
26 42 29
26 42 29
26 42 29
26 42 29
26 42 29
29 49 31
26 42 29
26 42 29
26 42 28
25 41 28
111 197 146
111 197 146
112 197 146
112 197 146
112 197 146
112 197 146
38 64 49
38 64 49
38 64 49
38 64 49
39 65 50
36 58 48
37 59 48
37 59 49
37 59 49
37 59 49
37 59 49
38 60 49
38 60 50
38 60 50
41 67 52
39 61 51
41 67 52
39 61 51
40 62 51
40 62 52
40 62 52
43 69 54
41 63 53
41 63 53
44 70 55
42 64 54
43 64 54
43 65 55
43 65 55
28 48 30
28 48 29
28 47 29
27 47 29
27 47 29
114 186 151
114 186 151
115 187 152
115 187 152
116 188 153
124 210 159
75 127 81
75 127 81
27 47 29
27 47 29
27 47 29
27 47 29
120 192 157
129 214 163
121 193 158
122 194 159
122 194 159
131 216 165
132 217 166
124 196 161
125 197 162
125 197 162
126 198 163
126 198 163
127 199 164
28 48 30
28 48 30
28 48 30
26 42 28
28 48 30
28 48 30
28 48 30
28 48 30
28 48 30
28 48 30
134 205 170
134 205 171
143 227 177
135 206 172
136 207 172
144 229 178
145 229 179
145 230 179
145 230 180
138 209 175
138 210 175
147 231 181
147 232 181
148 232 182
148 232 182
140 212 177
149 233 183
149 234 183
28 44 32
28 44 32
28 44 32
77 129 84
151 235 185
151 235 185
151 235 186
152 235 186
152 236 186
152 236 186
78 129 85
78 129 85
31 51 34
153 236 187
153 236 187
153 236 187
145 216 182
145 216 182
146 216 182
146 216 183
146 216 183
146 216 183
146 216 183
146 216 183
146 216 183
146 216 183
34 54 37
32 48 36
34 54 37
34 54 37
32 48 36
34 54 38
32 48 36
32 48 36
32 48 36
32 48 36
35 54 38
32 48 37
32 48 37
35 55 38
35 55 38
35 55 38
35 55 38
35 55 39
35 55 39
35 57 47
35 57 47
35 57 47
38 63 49
38 63 49
38 63 49
38 63 49
37 63 49
35 57 47
37 63 49
35 57 47
35 57 47
35 57 47
35 57 47
35 57 47
35 57 47
37 63 48
35 57 47
35 57 47
35 57 47
37 63 48
37 63 48
37 63 48
35 56 47
37 63 48
37 63 48
110 195 145
110 195 145
110 195 145
110 195 145
110 195 145
110 195 145
110 195 144
110 195 144
102 174 139
102 174 139
102 174 139
102 174 139
102 174 139
102 174 139
110 195 144
102 174 139
110 195 144
110 195 144
110 195 144
102 174 139
86 138 93
87 138 93
87 138 93
30 46 32
30 46 33
29 49 31
29 49 31
29 49 31
27 42 29
29 49 31
29 49 31
26 42 29
29 49 31
29 49 31
29 49 31
29 49 31
29 49 31
84 149 88
87 139 93
102 174 139
102 174 139
110 195 145
102 174 139
102 174 139
102 174 139
102 174 139
102 174 139
102 174 139
102 174 139
102 174 139
110 195 144
110 195 144
110 195 144
102 174 139
76 128 82
76 128 82
26 42 29
26 42 29
26 42 29
26 42 29
26 42 29
26 42 29
95 160 98
95 160 98
95 160 99
33 53 35
37 63 49
37 63 49
37 63 48
37 63 48
37 63 48
111 195 145
111 195 145
111 195 145
111 195 145
111 195 145
111 195 145
33 53 35
27 43 30
27 43 30
27 43 30
27 43 30
27 43 30
27 43 30
27 43 30
27 43 30
27 43 30
27 43 30
30 50 32
30 50 32
30 50 32
30 50 32
30 50 32
27 43 30
30 50 32
27 43 30
30 50 32
30 50 32
30 50 32
27 43 30
30 50 32
27 43 30
27 43 30
27 43 30
27 43 30
27 43 30
27 43 30
27 43 30
27 43 30
27 43 30
30 50 32
30 50 32
30 50 32
30 50 32
30 50 32
30 50 32
30 50 32
27 43 30
30 50 32
30 50 32
30 50 32
27 43 30
27 43 30
27 43 30
38 64 49
35 57 47
38 64 49
38 64 49
38 64 49
38 64 49
38 64 49
26 42 29
111 195 145
111 195 145
37 63 48
37 63 48
37 63 48
37 63 48
37 63 48
37 63 48
37 63 48
37 63 48
37 63 48
26 42 29
37 63 48
37 63 48
37 63 48
37 63 49
37 63 49
38 63 49
38 64 49
38 64 49
38 64 49
38 64 49
26 42 28
25 41 28
111 197 146
111 197 146
104 175 140
112 197 146
112 197 146
112 197 146
38 64 49
38 64 49
38 64 49
113 198 147
75 127 81
25 41 28
105 177 142
113 199 148
106 177 142
40 66 51
40 66 51
40 66 51
40 66 51
41 67 52
41 67 52
41 67 52
42 67 52
39 61 51
40 62 52
40 62 52
40 62 52
41 63 53
41 63 53
44 70 55
42 64 54
42 64 54
43 65 54
43 65 55
46 72 57
28 48 30
28 48 29
28 47 29
27 47 29
27 47 29
27 47 29
25 41 27
27 47 29
27 47 29
25 41 27
27 47 29
27 47 29
27 47 29
27 47 29
27 47 29
27 47 29
27 47 29
27 47 29
129 214 163
122 194 158
122 194 159
123 195 159
123 195 160
132 217 166
124 196 161
125 197 162
126 198 162
126 198 163
127 199 164
127 199 164
26 41 28
28 48 30
28 48 30
28 48 30
28 48 30
28 48 30
28 48 30
28 48 30
28 48 30
133 205 170
134 205 171
142 227 177
135 206 172
136 207 172
136 207 173
137 208 173
137 208 174
145 230 180
138 209 175
146 231 181
147 231 181
147 232 181
148 232 182
148 233 182
148 233 183
149 233 183
149 234 183
150 234 184
142 213 179
78 104 89
78 104 90
151 235 185
29 45 32
29 45 32
29 45 32
29 45 32
29 45 32
31 51 34
29 45 32
29 45 32
29 45 33
153 237 188
154 237 188
154 237 188
146 216 183
146 216 183
146 216 183
146 216 183
146 216 183
146 216 183
146 216 183
146 216 183
146 216 183
146 216 183
146 216 183
34 54 37
34 54 37
32 48 36
34 54 38
32 48 36
34 54 38
32 48 36
35 54 38
32 48 36
32 48 37
32 49 37
35 55 38
35 55 38
35 55 38
35 55 39
33 49 37
35 55 39
79 100 92
38 64 49
38 63 49
38 63 49
38 63 49
38 63 49
37 63 49
37 63 49
37 63 49
35 57 47
35 57 47
35 57 47
35 57 47
35 57 47
35 57 47
35 57 47
35 57 47
35 57 47
35 57 47
35 57 47
35 57 47
35 56 47
37 63 48
37 63 48
37 63 48
110 195 145
110 195 145
110 195 145
110 195 145
110 195 145
102 174 139
102 174 139
102 174 139
110 195 144
102 174 139
102 174 139
110 195 144
102 174 139
110 195 144
102 174 139
102 174 139
102 174 139
102 174 139
110 195 144
110 195 144
102 174 139
102 174 139
86 138 93
87 138 93
87 138 93
30 46 32
30 46 33
29 49 31
29 49 31
29 49 31
29 49 31
29 49 31
29 49 31
29 49 31
29 49 31
29 49 31
29 49 31
29 49 31
29 49 31
29 49 31
102 174 139
102 174 139
102 174 139
102 174 139
102 174 139
110 195 145
102 174 139
110 195 144
102 174 139
102 174 139
110 195 144
110 195 144
29 49 31
26 42 29
26 42 29
26 42 29
26 42 29
26 42 29
26 42 29
29 49 31
26 42 29
26 42 29
26 42 29
26 42 29
76 128 82
95 160 98
95 160 99
37 63 48
37 63 48
37 63 48
37 63 48
37 63 48
111 195 145
111 195 145
111 195 145
111 195 145
111 195 145
111 195 145
95 160 99
33 53 35
27 43 30
27 43 30
27 43 30
27 43 30
27 43 30
27 43 30
27 43 30
27 43 30
27 43 30
30 50 32
27 43 30
30 50 32
30 50 32
30 50 32
30 50 32
30 50 32
30 50 32
30 50 32
30 50 32
30 50 32
30 50 32
30 50 32
30 50 32
30 50 32
27 43 30
30 50 32
27 43 30
27 43 30
27 43 30
30 50 32
27 43 30
27 43 30
30 50 32
30 50 32
30 50 32
35 57 47
35 57 47
35 57 47
35 57 47
35 57 47
35 57 47
35 57 47
35 57 47
38 64 49
38 64 49
38 64 49
38 64 49
38 64 49
38 64 49
38 64 49
38 64 49
38 64 49
38 64 49
26 42 29
110 195 145
76 128 82
26 42 29
26 42 29
26 42 29
29 49 31
26 42 29
26 42 29
26 42 29
26 42 29
26 42 29
37 63 48
37 63 48
37 63 48
37 63 48
37 63 48
37 63 49
38 63 49
38 63 49
38 64 49
38 64 49
38 64 49
26 42 29
25 41 28
75 127 81
25 41 28
25 41 28
25 41 28
25 41 28
25 41 28
28 48 29
25 41 28
25 41 28
25 41 28
28 48 30
25 41 28
105 177 142
113 199 148
114 199 148
40 66 51
40 66 51
40 66 51
40 66 51
38 60 50
41 67 52
41 67 52
42 67 53
42 68 53
40 62 52
40 62 52
40 62 52
41 63 53
44 70 55
42 63 53
42 64 54
42 64 54
45 71 56
43 65 55
44 65 55
28 48 30
28 48 30
28 48 29
27 47 29
27 47 29
27 47 29
27 47 29
27 47 29
27 47 29
27 47 29
27 47 29
27 47 29
27 47 29
27 47 29
27 47 29
28 47 29
28 47 29
27 47 29
121 193 158
122 194 159
122 194 159
123 195 160
124 196 160
124 196 161
125 197 162
133 219 167
126 198 163
126 198 163
127 199 164
128 200 165
128 200 165
28 48 30
28 48 30
28 48 30
26 42 28
28 48 30
28 48 30
28 48 30
26 42 29
134 205 171
134 206 171
135 206 172
135 207 172
136 207 173
136 208 173
137 208 174
137 209 174
138 209 175
146 231 181
147 232 181
147 232 182
148 232 182
148 233 182
149 233 183
149 234 183
149 234 184
150 234 184
150 235 184
150 235 185
78 104 90
151 235 186
152 236 186
29 45 32
29 45 32
29 45 32
29 45 32
29 45 32
29 45 32
29 45 32
31 51 34
78 129 85
154 237 188
154 237 188
154 238 189
154 238 189
147 217 184
147 217 184
147 217 184
147 217 184
147 217 184
147 217 184
147 217 184
147 217 184
147 217 184
147 217 184
147 217 184
34 54 38
32 48 36
32 48 36
32 48 36
32 48 36
32 48 36
81 103 94
83 109 95
83 109 95
83 108 95
80 102 93
80 102 93
80 102 93
80 102 93
80 101 93
79 101 93
79 101 92
38 63 49
38 63 49
38 63 49
35 57 47
37 63 49
37 63 49
37 63 49
35 57 47
35 57 47
35 57 47
35 57 47
35 57 47
35 57 47
103 174 139
103 174 139
103 174 139
103 174 139
103 174 139
102 174 139
102 174 139
110 195 145
110 195 145
110 195 145
110 195 145
110 195 145
110 195 145
110 195 145
110 195 145
110 195 145
110 195 144
110 195 144
110 195 144
110 195 144
102 174 139
102 174 139
110 195 144
102 174 139
110 195 144
102 174 139
102 174 139
102 174 139
102 174 139
102 174 139
102 174 139
102 174 139
86 138 93
87 138 93
87 138 93
87 138 93
30 46 32
30 46 33
30 46 33
29 49 31
29 49 31
29 49 31
29 49 31
29 49 31
37 63 48
35 56 46
34 56 46
34 56 46
37 63 48
34 56 46
102 174 139
110 195 145
110 195 145
110 195 145
110 195 145
102 174 139
110 195 144
110 195 144
102 174 139
110 195 144
110 195 144
110 195 144
102 174 139
32 52 34
26 42 29
26 42 29
26 42 29
26 42 29
29 49 31
29 49 31
26 42 29
29 49 31
26 42 29
26 42 29
26 42 29
26 42 29
95 160 98
95 160 99
37 63 48
37 63 48
37 63 48
111 195 145
111 195 145
111 195 145
111 195 145
111 195 145
110 195 145
110 195 145
110 195 145
95 160 99
33 53 35
27 43 30
27 43 30
27 43 30
27 43 30
27 43 30
27 43 30
30 50 32
27 43 30
30 50 32
27 43 30
27 43 30
30 50 32
30 50 32
30 50 32
30 50 32
30 50 32
30 50 32
30 50 32
30 50 32
30 50 32
30 50 32
27 43 30
27 43 30
27 43 30
38 64 49
38 63 49
38 63 49
38 63 49
38 63 49
35 57 47
38 63 49
38 63 49
35 57 47
35 57 47
35 57 47
35 57 47
35 57 47
38 63 49
35 57 47
35 57 47
35 57 47
35 57 47
35 57 47
38 63 49
38 63 49
38 63 49
38 63 49
38 63 49
38 63 49
38 64 49
38 64 49
38 64 49
38 64 49
27 42 29
26 42 29
26 42 29
26 42 29
29 49 31
26 42 29
26 42 29
26 42 29
26 42 29
26 42 29
26 42 29
29 49 31
37 63 48
37 63 48
37 63 48
37 63 48
37 63 48
37 63 48
37 63 49
38 63 49
38 64 49
38 64 49
38 64 49
26 42 29
25 41 28
28 48 29
25 41 28
28 48 29
25 41 28
25 41 28
25 41 28
25 41 28
25 41 28
25 41 28
28 48 30
25 41 28
25 41 28
113 199 147
105 177 142
114 199 148
37 59 49
40 66 51
40 66 51
40 66 51
38 60 50
41 67 52
41 67 52
42 68 53
42 68 53
40 62 52
40 62 52
43 69 54
41 63 53
41 63 53
42 64 53
42 64 54
42 64 54
45 71 56
43 65 55
44 66 55
44 66 56
28 48 30
28 48 29
27 47 29
27 47 29
25 41 27
27 47 29
25 41 27
25 41 27
27 47 29
27 47 29
25 41 27
27 47 29
28 47 29
28 47 29
28 48 29
28 47 29
27 47 29
27 47 29
122 194 159
123 195 159
131 217 165
124 196 161
132 218 167
125 197 162
134 219 168
126 198 163
127 199 164
127 199 164
128 200 165
129 201 165
28 48 30
28 48 30
28 48 30
26 42 29
28 48 30
28 48 30
28 48 30
28 48 30
134 206 171
135 206 172
143 228 178
136 207 173
136 208 173
137 208 174
145 230 180
138 209 175
138 210 175
147 232 181
147 232 182
148 232 182
140 212 177
149 233 183
149 234 183
150 234 184
150 235 184
150 235 184
151 235 185
151 236 185
151 236 186
152 236 186
152 236 186
152 236 187
29 45 32
29 45 32
29 45 32
29 45 32
29 45 33
32 51 34
29 45 33
154 238 189
155 238 189
155 238 189
155 238 189
155 238 189
155 238 189
147 218 184
147 218 184
147 218 184
147 218 184
148 218 184
148 218 184
148 218 184
147 218 184
147 218 184
147 218 184
82 104 95
84 110 96
84 110 96
84 110 96
84 110 96
84 110 96
84 109 96
81 103 94
84 109 96
83 109 96
83 109 96
81 103 94
81 102 94
80 102 93
80 102 93
80 102 93
80 102 93
38 63 49
111 195 145
103 174 140
111 195 145
111 195 145
103 174 140
111 195 145
103 174 140
103 174 140
103 174 139
103 174 139
103 174 139
103 174 139
103 174 139
103 174 139
103 174 139
102 174 139
110 195 145
102 174 139
110 195 145
110 195 145
102 174 139
110 195 145
110 195 145
110 195 145
110 195 145
110 195 145
110 195 144
110 195 144
102 174 139
110 195 144
110 195 144
102 174 139
110 195 144
102 174 139
102 174 139
110 195 144
110 195 144
102 174 139
102 174 139
102 174 139
102 174 139
110 195 144
102 174 139
102 174 139
86 138 93
87 138 93
87 138 93
87 138 93
30 46 32
30 46 33
30 46 33
35 57 47
35 56 47
35 56 47
35 56 47
35 56 46
37 63 48
34 56 46
34 56 46
34 56 46
102 174 139
102 174 139
110 195 145
110 195 145
110 195 145
110 195 144
110 195 144
110 195 144
110 195 144
110 195 144
110 195 144
110 195 144
102 174 139
102 174 139
95 160 98
32 52 34
26 42 29
26 42 29
26 42 29
26 42 29
26 42 29
26 42 29
26 42 29
26 42 29
26 42 29
26 42 29
26 42 29
26 42 29
95 160 98
95 160 99
111 195 145
111 195 145
111 195 145
111 195 145
111 195 145
110 195 145
110 195 145
110 195 145
110 195 145
110 195 145
110 195 145
95 160 99
33 53 35
30 50 32
28 44 31
28 44 31
28 44 31
30 50 32
30 50 32
28 43 31
28 43 31
30 50 32
28 43 31
27 43 31
30 50 32
35 57 47
35 57 47
35 57 47
35 57 47
35 57 47
35 57 47
35 57 47
35 57 47
35 57 47
35 57 47
38 63 49
38 63 49
38 63 49
38 63 49
38 63 49
38 63 49
38 63 49
38 63 49
38 63 49
38 63 49
35 57 47
35 57 47
38 63 49
35 57 47
35 57 47
35 57 47
35 57 47
35 57 47
35 57 47
35 57 47
35 57 47
38 63 49
38 63 49
38 63 49
38 63 49
38 63 49
38 63 49
38 63 49
38 63 49
38 63 49
38 63 49
27 43 29
26 42 29
26 42 29
26 42 29
29 49 31
26 42 29
29 49 31
26 42 29
26 42 29
26 42 29
26 42 29
26 42 29
37 63 48
37 63 48
37 63 48
37 63 48
37 63 48
37 63 48
37 63 49
38 63 49
38 64 49
38 64 49
38 64 49
26 42 29
26 41 28
25 41 28
25 41 28
25 41 28
28 48 30
28 48 30
25 41 28
25 41 28
28 48 30
26 41 28
26 41 28
26 41 28
25 41 28
113 199 147
113 199 148
114 199 148
114 199 148
40 66 51
40 66 51
38 60 50
41 67 52
41 67 52
41 67 52
42 68 53
42 68 53
40 62 52
43 69 54
43 69 54
41 63 53
44 70 55
42 64 53
44 70 55
42 64 54
43 65 55
43 65 55
46 72 57
44 66 56
28 48 30
28 48 29
27 47 29
27 47 29
27 47 29
27 47 29
27 47 29
27 47 29
27 47 29
25 41 28
28 47 29
28 48 29
28 48 29
25 41 28
28 48 29
28 48 29
27 47 29
27 47 29
122 194 159
123 195 160
132 217 166
124 196 161
125 197 161
125 197 162
126 198 163
126 199 163
127 199 164
136 221 170
136 222 171
129 201 166
130 202 166
28 48 30
28 48 30
28 48 30
28 48 30
28 48 30
28 48 30
134 206 171
135 206 171
135 207 172
136 207 173
136 208 173
137 208 174
137 209 174
146 231 180
138 210 175
139 210 176
139 211 176
148 233 182
148 233 182
141 212 178
149 234 183
142 213 178
142 213 179
84 149 88
76 128 83
27 43 30
27 43 30
27 43 30
152 236 187
153 237 187
153 237 187
153 237 188
29 45 32
29 45 33
29 45 33
29 45 33
32 52 34
29 45 33
155 238 189
155 239 190
155 239 190
155 239 190
156 239 190
156 239 190
156 239 190
148 218 185
148 218 185
148 218 185
148 218 185
148 218 185
148 218 185
148 218 185
148 218 185
156 239 190
148 218 185
83 104 95
85 110 97
85 110 97
85 110 97
82 104 95
84 110 97
84 110 96
84 110 96
84 110 96
84 109 96
84 109 96
83 109 96
81 103 94
81 103 94
81 102 94
80 102 93
111 195 145
111 195 145
111 195 145
111 195 145
103 174 140
111 195 145
111 195 145
103 174 139
103 174 139
103 174 139
111 195 145
103 174 139
103 174 139
103 174 139
103 174 139
102 174 139
102 174 139
102 174 139
102 174 139
110 195 145
110 195 145
110 195 145
110 195 145
110 195 145
110 195 145
110 195 144
110 195 144
110 195 144
110 195 144
110 195 144
110 195 144
110 195 144
102 174 139
102 174 139
110 195 144
102 174 139
102 174 139
102 174 139
102 174 139
102 174 139
102 174 139
102 174 139
110 195 144
102 174 139
86 138 93
86 138 93
87 138 93
87 138 93
87 138 93
30 46 32
30 46 33
35 56 47
37 63 48
35 56 47
34 56 46
34 56 46
34 56 46
34 56 46
34 56 46
102 174 139
102 174 139
102 174 139
102 174 139
110 195 145
110 195 144
110 195 144
110 195 144
102 174 139
110 195 144
110 195 144
110 195 144
110 195 144
110 195 144
110 195 144
110 195 144
95 160 98
32 52 34
29 49 31
26 42 29
26 42 29
26 42 29
29 49 31
26 42 29
29 49 31
29 49 31
26 42 29
26 42 29
26 42 29
26 42 29
95 160 98
95 160 99
111 195 145
111 195 145
111 195 145
110 195 145
110 195 145
110 195 145
110 195 145
110 195 145
110 195 145
110 195 145
110 195 145
95 160 99
33 53 35
30 50 32
38 64 49
38 64 49
38 64 49
35 57 48
38 64 49
38 64 49
38 64 49
38 64 49
38 64 49
35 57 47
38 64 49
35 57 47
35 57 47
35 57 47
35 57 47
35 57 47
35 57 47
35 57 47
35 57 47
35 57 47
38 63 49
38 63 49
38 63 49
38 63 49
38 63 49
38 63 49
38 63 49
38 63 49
37 63 49
37 63 49
37 63 49
35 57 47
35 57 47
35 57 47
35 57 47
35 57 47
35 57 47
35 57 47
35 57 47
35 57 47
35 57 47
35 57 47
37 63 49
37 63 49
37 63 49
38 63 49
38 63 49
38 63 49
38 63 49
35 57 47
38 63 49
38 63 49
27 43 30
26 42 29
26 42 29
26 42 29
26 42 29
27 42 29
27 42 29
27 42 29
27 42 29
27 43 29
27 43 29
27 43 29
37 63 48
37 63 48
37 63 48
37 63 48
37 63 48
37 63 48
37 63 48
37 63 49
38 63 49
38 64 49
38 64 49
26 42 29
26 42 28
25 41 28
25 41 28
25 41 28
26 41 28
26 41 28
26 41 28
26 41 28
26 42 28
26 42 28
28 48 30
26 42 28
26 41 28
25 41 28
114 199 148
114 199 148
106 178 143
40 66 51
40 66 51
40 66 51
38 60 50
41 67 52
41 67 52
116 201 150
116 202 150
116 202 151
117 202 151
109 181 146
118 203 152
41 63 53
42 64 53
42 64 54
43 64 54
43 65 55
46 72 57
44 66 56
44 66 56
45 67 56
28 48 29
28 47 29
27 47 29
27 47 29
27 47 29
25 41 28
28 47 29
28 48 29
28 48 29
28 48 29
28 48 29
28 48 29
28 48 29
28 48 29
28 48 29
27 47 29
27 47 29
27 47 29
123 195 160
124 196 160
124 196 161
125 197 162
126 198 162
126 198 163
127 199 164
127 199 164
128 200 165
129 201 165
137 223 171
130 202 167
130 202 167
28 48 30
28 48 30
29 48 30
29 48 30
29 49 31
134 206 171
135 207 172
136 207 172
136 208 173
137 208 174
137 209 174
146 231 180
146 231 180
147 232 181
147 232 181
148 233 182
148 233 182
27 43 30
27 43 30
27 43 30
27 43 30
27 43 30
27 43 30
27 43 30
27 43 30
27 43 30
27 43 30
153 237 187
153 237 188
154 238 188
154 238 188
29 45 33
29 45 33
29 45 33
32 52 34
29 45 33
155 239 190
156 239 190
156 239 190
156 239 190
156 239 190
156 239 190
156 240 191
156 240 191
156 240 191
149 219 186
149 219 186
149 219 186
149 219 186
149 219 186
149 219 186
149 219 186
149 219 186
149 219 185
148 219 185
83 105 96
85 111 97
85 111 97
85 111 97
85 111 97
85 110 97
85 110 97
85 110 97
84 110 97
84 110 96
84 110 96
82 103 95
81 103 94
81 103 94
81 103 94
103 174 140
111 195 145
111 195 145
111 195 145
103 174 140
111 195 145
103 174 139
103 174 139
103 174 139
103 174 139
103 174 139
103 174 139
103 174 139
102 174 139
110 195 145
102 174 139
102 174 139
102 174 139
110 195 145
110 195 145
110 195 145
102 174 139
110 195 145
110 195 144
102 174 139
110 195 144
110 195 144
110 195 144
110 195 144
110 195 144
110 195 144
102 174 139
102 174 139
102 174 139
102 174 139
102 174 139
102 174 139
102 174 139
110 195 144
102 174 139
76 127 82
84 149 87
28 48 30
28 48 30
86 138 93
86 138 93
87 138 93
87 138 93
87 138 93
30 46 32
30 46 33
35 56 47
34 56 46
34 56 46
34 56 46
34 56 46
34 56 46
102 174 139
102 174 139
102 174 139
110 195 145
102 174 139
102 174 139
110 195 144
102 174 139
110 195 144
110 195 144
102 174 139
110 195 144
110 195 144
110 195 144
102 174 139
102 174 139
110 195 144
110 195 144
95 160 98
32 52 34
27 43 29
27 43 29
27 43 29
29 49 31
27 42 29
27 42 29
27 42 29
27 42 29
26 42 29
26 42 29
26 42 29
26 42 29
95 160 98
111 195 145
110 195 145
110 195 145
110 195 145
110 195 145
110 195 145
110 195 145
110 195 145
110 195 145
110 195 145
110 195 145
110 195 145
95 160 99
95 160 99
38 64 49
38 64 49
35 57 48
38 64 49
35 57 47
38 64 49
38 64 49
38 64 49
38 64 49
38 64 49
38 64 49
35 57 47
35 57 47
35 57 47
35 57 47
35 57 47
35 57 47
35 57 47
35 57 47
35 57 47
35 57 47
38 63 49
38 63 49
37 63 49
37 63 49
37 63 49
37 63 49
37 63 49
37 63 49
37 63 49
37 63 49
37 63 49
35 57 47
35 57 47
35 57 47
35 57 47
35 57 47
35 57 47
35 57 47
37 63 49
35 57 47
35 57 47
35 57 47
37 63 49
37 63 49
37 63 49
37 63 49
37 63 49
37 63 49
37 63 49
37 63 49
38 63 49
38 63 49
27 43 30
27 42 29
27 43 29
27 43 29
27 43 29
27 43 29
27 43 29
27 43 29
29 49 31
27 43 29
27 43 30
27 43 29
111 196 145
111 196 145
111 196 145
37 63 48
37 63 48
37 63 48
37 63 48
37 63 49
38 63 49
38 64 49
38 64 49
38 64 49
26 42 28
28 48 30
26 41 28
26 41 28
26 42 28
26 42 28
26 42 28
26 42 28
28 48 30
26 42 28
26 42 28
26 42 28
26 41 28
25 41 28
114 199 148
114 199 148
114 199 148
114 200 148
114 200 149
115 200 149
115 200 149
107 179 144
116 201 150
116 201 150
116 202 150
117 202 151
109 181 146
109 181 146
110 181 146
41 63 53
44 70 55
45 71 56
43 64 54
43 65 55
46 72 57
44 66 56
44 66 56
47 73 58
28 48 29
28 47 29
27 47 29
28 47 29
28 47 29
28 48 29
28 48 29
28 48 29
28 48 29
28 48 29
28 48 29
28 48 29
25 41 28
28 48 30
28 48 29
27 47 29
27 47 29
27 47 29
123 195 160
132 218 166
125 197 161
125 197 162
126 198 163
126 198 163
127 199 164
128 200 164
128 200 165
129 201 166
130 202 166
138 224 172
131 203 168
29 48 30
64 86 76
67 93 78
65 87 77
66 88 78
135 206 172
143 228 178
144 229 178
145 229 179
145 230 179
146 230 180
146 231 180
147 232 181
147 232 181
148 233 182
148 233 182
149 233 183
27 43 30
27 43 30
29 49 31
27 43 30
27 43 30
27 43 30
27 43 30
27 43 30
27 43 30
153 237 187
153 238 188
154 238 188
154 238 188
154 238 189
155 239 189
32 52 34
29 45 33
29 45 33
29 46 33
156 239 190
156 240 190
156 240 191
156 240 191
157 240 191
157 240 191
157 240 191
157 240 191
157 240 191
157 240 191
86 150 91
33 52 35
33 53 36
30 46 34
33 53 36
33 53 36
33 53 36
33 53 36
33 53 36
84 105 96
83 105 96
83 105 96
86 111 98
85 111 98
85 111 98
85 111 97
85 111 97
85 111 97
156 238 190
155 238 190
155 238 190
147 217 184
155 237 189
147 216 184
111 195 145
111 195 145
111 195 145
111 195 145
111 195 145
103 174 139
103 174 139
103 174 139
111 195 145
103 174 139
103 174 139
102 174 139
102 174 139
110 195 145
102 174 139
110 195 145
102 174 139
102 174 139
110 195 145
110 195 145
110 195 145
110 195 144
110 195 144
110 195 144
110 195 144
110 195 144
110 195 144
102 174 139
102 174 139
102 174 139
110 195 144
28 48 30
28 48 30
28 48 30
28 48 30
28 48 30
28 48 30
26 42 29
26 42 29
28 48 30
28 48 30
28 48 30
26 42 28
28 48 30
84 149 87
86 138 93
87 138 93
87 138 93
87 138 93
87 138 93
37 63 48
34 56 46
34 56 46
34 56 46
37 63 48
102 174 139
102 174 139
102 174 139
102 174 139
102 174 139
102 174 139
102 174 139
110 195 144
110 195 144
110 195 144
102 174 139
110 195 144
102 174 139
110 195 144
110 195 144
110 195 144
110 195 144
110 195 144
110 195 144
95 160 98
95 160 98
32 52 34
32 52 34
27 43 30
27 43 29
29 49 31
27 43 29
27 43 29
27 43 29
27 43 29
27 43 29
27 43 29
27 43 29
27 43 29
27 42 29
110 195 145
110 195 145
110 195 145
110 195 145
110 195 145
110 195 145
110 195 145
110 195 145
110 195 145
110 195 145
110 195 145
110 195 145
95 160 99
95 160 99
38 64 49
38 64 49
38 64 49
38 64 49
38 64 49
38 64 49
38 64 49
38 63 49
35 57 47
38 63 49
38 63 49
35 57 47
38 63 49
35 57 47
35 57 47
38 63 49
35 57 47
35 57 47
35 57 47
35 57 47
35 57 47
37 63 49
35 57 47
37 63 49
37 63 49
37 63 49
37 63 49
37 63 49
37 63 49
111 195 145
111 195 145
111 195 145
103 174 140
103 174 140
111 195 145
103 174 140
103 174 140
103 174 140
35 57 47
35 57 47
35 57 47
35 57 47
35 57 47
37 63 49
37 63 49
37 63 49
37 63 49
37 63 49
37 63 49
35 57 47
35 57 47
37 63 49
37 63 49
27 43 30
27 43 29
27 43 29
27 43 30
27 43 30
27 43 30
27 43 30
27 43 30
27 43 30
27 43 30
27 43 30
27 43 30
26 42 29
111 196 145
111 196 145
37 63 48
37 63 48
37 63 48
37 63 48
37 63 48
38 63 49
38 64 49
38 64 49
38 64 49
26 42 28
26 42 28
26 42 28
26 42 28
26 42 28
26 42 28
28 48 30
26 42 28
26 42 28
26 42 28
26 42 28
26 42 28
26 42 28
25 41 28
114 199 148
114 199 148
114 199 148
106 178 143
115 200 149
115 200 149
115 200 149
115 201 149
116 201 150
108 180 145
116 202 150
117 202 151
109 181 146
117 203 151
118 203 152
110 182 147
44 70 55
42 64 54
45 71 56
43 65 55
43 65 55
44 66 56
44 66 56
47 73 58
45 67 57
28 48 29
25 41 28
28 48 29
28 48 29
28 48 29
28 48 29
28 48 29
28 48 29
28 48 30
28 48 30
28 48 30
28 48 30
28 48 30
28 48 29
28 47 29
27 47 29
27 47 29
27 47 29
124 196 161
125 197 162
125 198 162
126 198 163
127 199 163
135 221 169
128 200 165
129 201 165
129 201 166
130 202 167
130 203 167
139 225 173
132 204 169
65 86 76
68 93 79
66 88 78
143 227 177
135 207 172
144 229 178
144 229 178
145 230 179
145 230 180
146 231 180
147 231 181
147 232 181
148 232 182
148 233 182
141 212 178
149 234 183
150 234 184
29 49 31
27 43 30
27 43 30
27 43 30
27 43 30
27 43 30
27 43 30
27 43 30
154 238 188
154 238 188
154 238 189
155 239 189
155 239 189
155 239 189
155 240 190
32 52 35
30 46 33
148 219 185
149 219 186
149 219 186
149 219 186
149 220 186
149 220 186
149 220 186
150 220 186
150 220 187
150 220 187
150 220 187
33 53 35
33 53 36
33 53 36
33 53 36
30 47 34
31 47 34
33 53 36
33 53 36
150 220 187
150 220 187
150 219 187
150 219 187
157 240 192
157 240 191
149 219 186
157 239 191
157 239 191
156 239 191
156 239 191
156 238 190
156 238 190
156 238 190
148 217 185
147 217 184
111 195 145
111 195 145
111 195 145
111 195 145
103 174 139
111 195 145
103 174 139
103 174 139
110 195 145
102 174 139
102 174 139
102 174 139
102 174 139
102 174 139
102 174 139
110 195 145
110 195 145
102 174 139
102 174 139
102 174 139
102 174 139
110 195 144
102 174 139
102 174 139
110 195 144
102 174 139
102 174 139
102 174 139
102 174 139
102 174 139
87 138 93
29 48 30
28 48 30
28 48 30
28 48 30
28 48 30
28 48 30
28 48 30
28 48 30
28 48 30
28 48 30
28 48 30
28 48 30
28 48 30
28 48 30
86 138 93
87 138 93
87 138 93
87 138 93
87 139 93
37 63 48
34 56 46
34 56 46
102 174 139
102 174 139
110 195 145
102 174 139
102 174 139
110 195 144
110 195 144
102 174 139
102 174 139
110 195 144
110 195 144
110 195 144
102 174 139
110 195 144
102 174 139
110 195 144
102 174 139
110 195 144
110 195 144
110 195 144
102 174 139
95 160 98
95 160 98
95 160 98
32 52 34
29 49 31
27 43 30
27 43 30
29 49 31
27 43 30
27 43 30
27 43 30
27 43 30
27 43 30
27 43 29
27 43 29
27 43 29
110 195 145
76 128 83
76 128 83
27 43 29
27 43 29
29 49 31
27 43 29
27 43 29
29 49 31
27 43 29
27 42 29
27 42 29
95 160 99
95 160 99
38 64 49
38 64 49
38 64 49
38 64 49
38 63 49
38 63 49
38 63 49
38 63 49
38 63 49
38 63 49
38 63 49
35 57 47
35 57 47
35 57 47
35 57 47
37 63 49
35 57 47
103 174 140
103 174 140
111 195 145
103 174 140
111 195 145
111 195 145
111 195 145
111 195 145
111 195 145
111 195 145
111 195 145
111 195 145
111 195 145
111 195 145
111 195 145
103 174 140
103 174 140
103 174 140
103 174 140
103 174 140
103 174 140
35 57 47
35 57 47
35 57 47
35 57 47
37 63 49
35 57 47
37 63 49
37 63 49
37 63 49
35 57 47
37 63 49
37 63 49
37 63 49
37 63 49
37 63 49
35 57 47
29 49 31
27 43 30
29 49 31
27 43 30
27 43 30
27 43 30
27 43 30
27 43 30
27 43 30
29 49 31
27 43 30
26 42 29
111 196 145
111 196 145
111 196 145
37 63 48
37 63 48
37 63 48
37 63 48
37 63 49
38 63 49
38 64 49
38 64 49
26 42 28
26 42 28
26 42 28
26 42 28
28 48 30
26 42 28
26 42 28
26 42 28
26 42 29
26 42 29
26 42 29
26 42 29
26 42 28
25 41 28
25 41 27
114 199 148
114 200 148
106 178 143
115 200 149
115 200 149
107 179 144
115 201 150
116 201 150
108 180 145
116 202 150
109 181 145
117 202 151
109 181 146
110 182 147
110 182 147
44 70 55
42 64 54
45 71 56
43 65 55
44 65 55
44 66 56
44 66 56
47 73 58
45 67 57
28 48 29
28 48 29
28 48 29
25 41 28
25 41 28
28 48 30
28 48 30
28 48 30
28 48 30
26 41 28
51 73 63
52 74 64
28 48 30
28 48 29
28 48 29
27 47 29
27 47 29
27 47 29
124 196 161
125 197 162
126 198 162
126 198 163
127 199 164
128 200 164
128 200 165
129 201 166
138 223 172
138 224 172
131 203 168
131 203 168
132 204 169
65 87 77
68 94 79
134 206 171
143 228 177
135 207 172
144 229 178
145 230 179
145 230 179
146 231 180
138 210 175
139 211 176
147 232 182
148 233 182
141 212 177
149 234 183
150 234 184
150 235 184
151 235 185
27 43 30
30 49 32
27 43 30
27 43 30
27 43 30
27 43 30
27 43 30
154 238 188
154 239 189
155 239 189
155 239 189
155 240 190
156 240 190
156 240 190
156 240 190
82 104 95
157 240 191
149 220 186
149 220 186
150 220 187
150 220 187
150 220 187
150 220 187
150 221 187
150 221 187
150 221 187
150 221 187
150 221 187
33 53 36
30 47 34
33 53 36
33 53 36
33 53 36
33 53 36
31 47 35
150 220 187
150 220 187
150 220 187
150 220 187
158 240 192
158 240 192
150 219 187
157 240 192
157 240 192
157 239 191
157 239 191
157 239 191
156 239 191
156 239 191
156 238 190
148 217 185
111 195 145
103 174 139
111 195 145
103 174 139
103 174 139
111 195 145
110 195 145
110 195 145
110 195 145
110 195 145
110 195 145
110 195 145
110 195 145
110 195 145
102 174 139
110 195 145
102 174 139
102 174 139
102 174 139
110 195 144
102 174 139
102 174 139
102 174 139
110 195 144
102 174 139
102 174 139
102 174 139
102 174 139
102 174 139
102 174 139
87 138 93
29 45 32
29 49 30
29 48 30
29 48 30
28 48 30
28 48 30
28 48 30
28 48 30
26 42 29
28 48 30
28 48 30
28 48 30
28 48 30
28 48 30
86 138 93
87 138 93
87 138 93
87 138 93
110 195 145
102 174 139
110 195 145
102 174 139
102 174 139
110 195 145
102 174 139
102 174 139
102 174 139
102 174 139
102 174 139
110 195 144
102 174 139
110 195 144
110 195 144
110 195 144
110 195 144
110 195 144
102 174 139
110 195 144
110 195 144
110 195 144
110 195 144
110 195 144
110 195 144
95 160 98
95 160 98
95 160 98
32 52 34
27 43 30
27 43 30
37 63 48
37 63 48
37 63 48
37 63 48
37 63 48
37 63 48
37 63 48
37 63 48
110 195 145
110 195 145
27 43 30
27 43 30
27 43 30
29 49 31
27 43 30
27 43 30
27 43 30
27 43 29
27 43 29
27 43 29
27 43 29
29 49 31
95 160 99
95 160 99
38 63 49
38 63 49
38 63 49
38 63 49
35 57 47
38 63 49
111 195 145
111 195 145
111 195 145
111 195 145
111 195 145
103 174 140
103 174 140
111 195 145
103 174 140
103 174 140
103 174 140
103 174 140
103 174 140
103 174 140
103 174 140
111 195 145
111 195 145
111 195 145
111 195 145
103 174 140
111 195 145
111 195 145
111 195 145
111 195 145
111 195 145
111 195 145
111 195 145
103 174 140
103 174 140
103 174 140
103 174 140
103 174 140
35 57 47
35 57 47
37 63 48
37 63 48
35 57 47
37 63 49
37 63 49
37 63 49
37 63 49
37 63 49
37 63 49
37 63 49
37 63 49
37 63 49
37 63 49
37 63 49
27 43 30
27 43 30
27 43 30
27 43 30
38 63 49
38 63 49
38 63 49
38 64 49
38 64 49
38 64 49
27 43 30
26 42 29
111 196 145
111 196 145
111 196 145
37 63 48
37 63 48
37 63 48
37 63 48
37 63 48
38 63 49
38 64 49
38 64 49
26 42 28
26 42 28
26 42 28
26 42 28
26 42 29
26 42 29
26 42 29
26 42 29
39 65 50
39 65 50
39 65 50
40 66 51
26 42 28
25 41 28
25 41 28
106 178 143
106 178 143
114 200 148
115 200 149
115 200 149
107 179 144
115 201 150
116 201 150
116 201 150
116 202 151
117 202 151
117 202 151
109 181 146
110 182 147
110 182 147
42 64 54
42 64 54
45 71 56
43 65 55
44 66 55
46 72 57
45 66 56
45 67 57
48 74 59
46 68 58
49 75 60
49 75 60
48 70 59
48 70 60
49 71 60
49 71 61
50 72 62
50 72 62
51 73 63
52 73 63
52 74 64
53 75 65
28 48 29
28 48 29
27 47 29
27 47 29
27 47 29
27 47 29
125 197 162
126 198 163
135 220 169
127 199 164
128 200 165
128 201 165
129 201 166
138 223 172
138 224 173
131 203 168
132 204 168
132 204 169
133 205 170
142 227 176
135 206 171
135 207 172
136 207 173
136 208 173
145 230 179
146 231 180
138 210 175
147 232 181
147 232 181
140 211 177
148 233 183
149 234 183
141 213 178
150 235 184
150 235 185
143 214 180
27 43 30
27 43 30
27 43 30
30 50 32
27 43 30
27 43 30
154 238 188
155 239 189
155 239 189
155 239 189
156 240 190
156 240 190
156 240 190
156 241 191
157 241 191
157 241 191
157 241 192
158 241 192
150 220 187
150 221 187
150 221 187
150 221 187
151 221 187
151 221 188
159 242 193
151 221 188
151 221 188
159 242 193
151 221 188
33 53 36
33 53 36
33 53 36
33 53 36
33 53 36
151 221 188
151 221 188
151 221 188
151 221 188
151 221 188
151 220 188
150 220 187
158 241 192
158 240 192
158 240 192
158 240 192
157 240 192
157 240 192
157 239 191
157 239 191
156 239 191
156 239 191
103 174 139
103 174 139
103 174 139
111 195 145
110 195 145
110 195 145
110 195 145
110 195 145
110 195 145
110 195 145
110 195 145
110 195 145
110 195 145
110 195 145
110 195 145
110 195 145
102 174 139
102 174 139
102 174 139
102 174 139
102 174 139
102 174 139
110 195 144
110 195 144
102 174 139
102 174 139
102 174 139
102 174 139
102 174 139
86 138 93
87 138 93
29 45 32
29 49 31
26 42 29
26 42 29
29 49 31
26 42 29
29 48 30
29 48 30
26 42 29
28 48 30
28 48 30
28 48 30
28 48 30
28 48 30
28 48 30
87 138 93
87 138 93
87 138 93
102 174 139
102 174 139
102 174 139
102 174 139
102 174 139
102 174 139
110 195 144
110 195 144
102 174 139
102 174 139
102 174 139
102 174 139
110 195 144
102 174 139
110 195 144
110 195 144
110 195 144
110 195 144
102 174 139
110 195 144
110 195 144
110 195 144
110 195 144
102 174 139
102 174 139
95 160 98
95 160 98
95 160 98
32 52 34
37 63 48
37 63 48
37 63 48
37 63 48
37 63 48
37 63 48
37 63 48
37 63 48
37 63 48
110 195 145
110 195 145
110 195 145
27 43 30
27 43 30
27 43 30
27 43 30
27 43 30
27 43 30
27 43 30
27 43 30
27 43 30
27 43 30
29 49 31
29 49 31
95 160 99
95 160 99
111 195 145
111 195 145
111 195 145
111 195 145
103 174 140
103 174 140
111 195 145
111 195 145
111 195 145
111 195 145
111 195 145
103 174 140
103 174 140
111 195 145
103 174 140
103 174 140
103 174 140
111 195 145
103 174 140
103 174 140
103 174 140
111 195 145
111 195 145
111 195 145
111 195 145
111 195 145
111 195 145
111 195 145
111 195 145
111 195 145
111 195 145
111 195 145
103 174 140
103 174 140
103 174 140
103 174 140
103 174 140
103 174 140
35 57 47
35 57 47
37 63 48
35 57 47
35 57 47
35 57 47
37 63 48
37 63 48
37 63 48
35 57 47
35 57 47
35 57 47
35 57 47
37 63 49
35 57 47
35 57 47
37 63 49
37 63 49
37 63 49
37 63 49
37 63 49
38 63 49
38 63 49
35 57 47
38 64 49
38 64 49
38 64 49
26 42 29
111 196 145
111 196 145
111 196 145
37 63 48
37 63 48
37 63 48
37 63 48
37 63 48
28 48 30
28 48 30
26 42 28
26 42 28
38 64 49
38 64 49
38 64 49
38 64 49
39 64 50
39 65 50
39 65 50
39 65 50
39 65 50
39 65 50
40 65 51
26 42 28
25 41 28
25 41 28
106 178 143
106 178 143
114 200 148
115 200 149
115 200 149
115 201 149
115 201 150
116 201 150
116 202 150
116 202 151
117 202 151
117 203 151
109 181 146
118 203 152
118 204 152
119 204 153
45 71 56
45 71 56
46 72 57
46 72 57
44 66 56
45 67 56
48 73 58
46 68 57
49 74 59
47 69 58
50 76 60
48 70 59
51 77 62
49 71 61
49 71 61
52 78 63
53 79 64
51 73 63
52 74 63
52 74 64
53 75 65
28 48 30
28 48 29
27 47 29
27 47 29
27 47 29
27 47 29
125 198 162
126 198 163
135 220 169
135 221 170
136 222 170
137 222 171
137 223 172
138 224 172
139 224 173
131 203 168
132 204 169
141 226 175
141 227 175
142 227 176
135 207 172
135 207 172
136 208 173
137 208 174
145 230 179
146 231 180
147 231 181
147 232 181
148 233 182
148 233 182
141 212 178
141 213 178
150 235 184
150 235 185
151 236 185
151 236 186
152 237 186
27 43 30
27 43 30
27 43 30
28 43 31
28 44 31
155 239 189
155 239 189
155 240 190
156 240 190
156 240 190
156 241 191
157 241 191
157 241 191
157 241 191
157 242 192
158 241 192
158 242 192
158 242 193
151 221 188
151 221 188
151 221 188
151 222 188
151 222 188
151 222 188
151 222 188
151 222 188
151 222 188
152 222 188
33 53 36
33 53 36
33 53 36
33 53 36
33 53 36
152 222 189
152 221 189
151 221 188
151 221 188
159 242 193
151 221 188
151 221 188
159 241 193
158 241 193
158 241 193
158 241 192
158 240 192
158 240 192
157 240 192
157 240 192
157 239 191
157 239 191
103 174 139
103 174 139
110 195 145
110 195 145
110 195 145
110 195 145
110 195 145
110 195 145
110 195 145
110 195 145
110 195 145
110 195 145
110 195 145
110 195 145
110 195 144
102 174 139
110 195 144
102 174 139
102 174 139
102 174 139
102 174 139
102 174 139
102 174 139
110 195 144
102 174 139
102 174 139
102 174 139
102 174 139
102 174 139
87 138 93
87 138 93
29 45 32
30 45 32
29 49 31
29 49 31
29 49 31
29 49 31
29 49 31
29 49 31
29 49 31
29 49 30
29 48 30
29 48 30
29 48 30
28 48 30
28 48 30
87 138 93
87 138 93
87 138 93
110 195 145
110 195 145
102 174 139
102 174 139
102 174 139
102 174 139
102 174 139
102 174 139
102 174 139
102 174 139
102 174 139
102 174 139
102 174 139
110 195 144
110 195 144
110 195 144
110 195 144
102 174 139
110 195 144
110 195 144
110 195 144
110 195 144
102 174 139
110 195 144
94 160 98
95 160 98
95 160 98
95 160 98
32 52 34
37 63 48
37 63 48
37 63 48
37 63 48
37 63 48
37 63 48
37 63 48
110 195 145
110 195 145
110 195 145
110 195 145
95 160 99
32 52 35
27 43 30
27 43 30
27 43 30
27 43 30
27 43 30
27 43 30
27 43 30
27 43 30
27 43 30
27 43 30
27 43 30
95 160 99
95 160 99
111 195 145
111 195 145
111 195 145
103 174 140
111 195 145
111 195 145
111 195 145
111 195 145
111 195 145
111 195 145
103 174 140
103 174 140
103 174 140
103 174 140
103 174 140
103 174 140
111 195 145
103 174 140
103 174 140
103 174 140
103 174 140
111 195 145
111 195 145
111 195 145
111 195 145
111 195 145
111 195 145
103 174 139
111 195 145
111 195 145
111 195 145
111 195 145
103 174 139
111 195 145
103 174 139
103 174 139
84 149 88
84 149 88
29 49 31
29 49 31
29 49 31
29 49 31
29 49 31
103 174 140
103 174 140
103 174 140
35 57 47
35 57 47
35 57 47
35 57 47
35 57 47
35 57 47
35 57 47
35 57 47
37 63 49
37 63 49
37 63 49
37 63 49
37 63 49
37 63 49
38 63 49
38 63 49
38 63 49
38 64 49
38 64 49
26 42 29
26 42 28
26 42 28
26 42 28
26 42 28
26 42 28
26 42 28
26 42 29
26 42 29
26 42 29
26 42 29
26 42 29
26 42 29
38 64 49
38 64 49
38 64 49
38 64 49
38 64 50
39 65 50
39 65 50
39 65 50
39 65 50
39 65 50
40 65 51
26 42 28
25 41 28
25 41 28
75 127 81
114 200 148
106 178 143
107 179 143
115 200 149
107 179 144
107 179 144
108 180 145
108 180 145
108 180 145
109 181 146
109 181 146
109 181 146
118 203 152
118 204 152
119 204 153
45 71 56
45 71 56
46 72 57
46 72 57
47 73 58
47 73 58
48 74 58
46 68 57
49 75 59
49 75 60
47 69 59
50 76 61
48 70 60
49 71 61
49 71 61
52 78 63
51 73 62
51 73 63
52 74 64
55 81 66
53 75 65
28 48 30
28 48 29
28 47 29
27 47 29
27 47 29
27 47 29
24 40 27
134 220 168
135 221 169
136 221 170
136 222 170
137 223 171
138 223 172
138 224 172
139 225 173
132 204 168
140 226 174
141 227 175
142 227 176
142 228 176
143 228 177
136 207 173
136 208 173
137 209 174
138 209 174
138 210 175
147 232 181
147 232 182
148 233 182
149 234 183
149 234 183
150 235 184
150 235 184
151 236 185
151 236 185
152 237 186
144 216 181
27 43 30
28 43 31
28 44 31
28 44 31
77 128 83
155 239 189
155 240 190
148 219 185
148 219 185
149 220 185
149 220 186
149 220 186
149 220 186
150 221 187
150 221 187
150 221 187
159 242 193
159 242 193
151 222 188
151 222 188
159 243 194
152 222 188
152 222 189
152 222 189
152 222 189
152 222 189
152 222 189
152 222 189
152 222 189
33 53 36
33 53 36
33 53 36
152 222 189
152 222 189
152 222 189
152 222 189
152 222 189
152 222 189
152 222 189
152 221 189
151 221 188
159 242 193
151 221 188
151 221 188
151 220 188
151 220 187
150 220 187
150 220 187
150 219 187
150 219 187
103 174 139
110 195 145
110 195 145
110 195 145
110 195 145
110 195 145
110 195 145
110 195 145
110 195 145
110 195 145
102 174 139
102 174 139
102 174 139
110 195 144
110 195 144
102 174 139
110 195 144
102 174 139
102 174 139
102 174 139
102 174 139
102 174 139
102 174 139
102 174 139
102 174 139
102 174 139
102 174 139
110 195 144
86 138 93
87 138 93
87 138 93
29 45 32
30 46 32
29 49 31
29 49 31
26 42 29
29 49 31
29 49 31
29 49 31
29 49 31
26 42 29
26 42 29
29 49 31
29 49 31
29 49 30
29 48 30
84 149 87
87 138 93
110 195 145
102 174 139
110 195 144
102 174 139
102 174 139
102 174 139
102 174 139
110 195 144
102 174 139
102 174 139
110 195 144
102 174 139
102 174 139
102 174 139
110 195 144
102 174 139
110 195 144
110 195 144
110 195 144
110 195 144
102 174 139
76 127 82
76 127 82
26 42 28
26 42 28
94 160 98
95 160 98
95 160 98
95 160 98
32 52 34
37 63 48
37 63 48
37 63 48
37 63 48
37 63 48
110 195 145
110 195 145
110 195 145
110 195 145
110 195 145
110 195 145
95 160 99
32 52 35
27 43 30
29 49 31
27 43 30
27 43 30
27 43 30
27 43 30
27 43 30
27 43 30
29 49 31
27 43 30
27 43 30
76 128 83
111 195 145
111 195 145
111 195 145
111 195 145
111 195 145
111 195 145
111 195 145
111 195 145
111 195 145
111 195 145
111 195 145
103 174 140
103 174 140
103 174 140
103 174 140
103 174 140
103 174 140
103 174 140
103 174 140
103 174 140
103 174 139
103 174 139
111 195 145
111 195 145
111 195 145
111 195 145
111 195 145
76 128 83
27 43 30
27 43 30
27 43 30
27 43 30
27 43 30
29 49 31
29 49 31
29 49 31
29 49 31
29 49 31
29 49 31
29 49 31
29 49 31
29 49 31
29 49 31
29 49 31
111 195 145
103 174 140
103 174 140
35 57 47
35 57 47
35 57 47
35 57 47
37 63 48
35 57 47
35 57 47
35 57 47
37 63 48
37 63 49
37 63 49
35 57 47
37 63 49
37 63 49
37 63 49
35 57 47
38 63 49
38 64 49
38 64 49
26 42 29
26 42 28
26 42 29
26 42 29
28 48 30
26 42 29
26 42 29
26 42 29
26 42 29
26 42 29
26 42 29
26 42 29
26 42 29
38 64 49
38 64 49
38 64 49
38 64 49
38 64 49
39 65 50
39 65 50
39 65 50
39 65 50
39 65 50
40 65 51
40 66 51
26 41 28
25 41 28
27 47 29
106 178 143
106 178 143
107 179 143
115 200 149
115 201 149
107 180 144
116 201 150
116 202 150
108 180 145
109 181 146
109 181 146
110 182 146
118 203 152
110 182 147
119 204 153
45 71 56
45 71 56
43 65 55
44 66 55
47 73 58
45 67 56
48 74 59
46 68 57
49 75 60
49 75 60
47 69 59
48 70 60
48 70 60
51 77 62
50 71 61
53 78 63
51 73 62
51 73 63
52 74 64
53 74 64
53 75 65
54 76 66
28 48 29
28 47 29
27 47 29
27 47 29
27 47 29
25 40 27
135 220 169
135 221 169
128 200 165
128 201 165
129 201 166
138 224 172
139 224 173
131 203 168
140 225 174
132 205 169
141 227 175
134 206 171
143 228 177
143 229 177
136 208 173
137 208 174
145 230 179
138 210 175
147 232 181
147 232 181
148 233 182
140 212 177
149 234 183
149 234 184
142 214 179
151 236 185
151 236 185
152 237 186
152 237 186
145 216 181
153 238 187
81 107 92
81 107 92
82 107 93
155 239 189
148 219 184
148 219 185
148 219 185
149 220 186
149 220 186
149 220 186
150 221 187
150 221 187
150 221 187
150 221 187
151 222 188
159 243 193
159 243 194
159 243 194
152 222 189
152 222 189
152 223 189
152 223 189
152 223 189
152 223 189
152 223 189
153 223 189
153 223 189
153 223 189
153 223 190
33 53 36
33 53 37
160 243 195
160 243 195
160 243 195
160 243 195
160 243 195
160 243 194
160 243 194
160 243 194
160 242 194
152 222 189
152 221 189
151 221 188
151 221 188
151 221 188
151 221 188
151 220 188
150 220 187
150 220 187
102 174 139
110 195 145
110 195 145
110 195 145
110 195 145
110 195 145
110 195 145
102 174 139
110 195 145
110 195 145
110 195 144
110 195 144
110 195 144
102 174 139
110 195 144
102 174 139
102 174 139
102 174 139
110 195 144
102 174 139
102 174 139
102 174 139
102 174 139
102 174 139
102 174 139
102 174 139
102 174 139
86 138 93
86 138 93
87 138 93
87 138 93
29 45 32
30 46 32
29 49 31
29 49 31
29 49 31
29 49 31
26 42 29
26 42 29
29 49 31
29 49 31
29 49 31
29 49 31
29 49 31
26 42 29
29 49 31
26 42 29
87 138 93
110 195 144
110 195 144
102 174 139
110 195 144
102 174 139
102 174 139
110 195 144
102 174 139
102 174 139
102 174 139
110 195 144
102 174 139
26 42 29
26 42 29
26 42 29
26 42 29
26 42 29
26 42 29
26 42 29
26 42 29
28 48 30
26 42 29
28 48 30
26 42 28
26 42 28
94 160 98
95 160 98
95 160 98
95 160 99
37 63 48
37 63 48
37 63 48
37 63 48
37 63 48
110 195 145
110 195 145
110 195 145
110 195 145
110 195 145
110 195 145
110 195 145
95 160 99
32 52 35
27 43 30
29 49 32
27 43 30
29 49 32
27 43 30
27 43 30
27 43 30
27 43 30
27 43 30
27 43 30
29 49 32
27 43 30
111 195 145
111 195 145
111 195 145
111 195 145
111 195 145
111 195 145
111 195 145
111 195 145
111 195 145
111 195 145
111 195 145
103 174 140
103 174 140
103 174 140
103 174 140
103 174 139
84 149 88
29 49 31
29 49 31
29 49 31
29 49 31
29 49 31
27 43 30
27 43 30
27 43 30
29 49 31
27 43 30
27 43 30
27 43 30
27 43 30
27 43 30
27 43 30
27 43 30
29 49 32
27 43 30
29 49 32
29 49 32
29 49 32
29 49 32
29 49 32
29 49 32
29 49 32
29 49 32
29 49 32
103 174 139
103 174 139
103 174 139
35 57 47
35 57 47
35 57 47
35 57 47
35 57 47
35 57 47
35 57 47
35 57 47
37 63 48
37 63 48
37 63 48
37 63 49
37 63 49
35 57 47
37 63 49
37 63 49
38 63 49
38 63 49
38 64 49
26 42 29
26 42 29
26 42 29
26 42 29
28 48 30
26 42 29
26 42 29
26 42 29
26 42 29
26 42 29
26 42 29
26 42 29
26 42 29
38 64 49
38 64 49
38 64 49
38 64 49
38 64 49
39 65 50
39 65 50
39 65 50
39 65 50
39 65 50
40 65 51
40 66 51
26 41 28
25 41 28
27 47 29
106 178 143
106 178 143
107 179 143
107 179 144
107 179 144
116 201 150
116 201 150
108 180 145
108 181 145
109 181 146
109 181 146
118 203 152
110 182 147
118 204 153
119 204 153
111 183 148
43 65 55
43 65 55
46 72 57
47 73 58
47 73 58
45 67 57
48 74 59
49 75 60
49 75 60
50 76 61
48 70 60
48 70 60
49 71 61
50 72 61
50 72 62
51 73 63
51 73 63
52 74 64
53 75 64
53 75 65
54 76 66
28 48 29
28 48 29
27 47 29
27 47 29
27 47 29
25 40 27
24 40 27
127 200 164
128 200 165
137 222 171
137 223 172
138 224 172
139 224 173
139 225 174
140 226 174
133 205 170
141 227 176
142 228 176
143 228 177
143 229 178
144 229 178
137 209 174
138 209 174
138 210 175
139 211 176
147 232 182
148 233 182
149 234 183
149 234 183
150 235 184
150 235 185
143 215 180
151 236 186
152 237 186
144 216 181
153 238 187
153 238 188
146 218 183
81 107 93
155 239 189
155 240 190
156 240 190
148 219 185
149 220 186
149 220 186
149 221 186
150 221 187
150 221 187
150 221 187
151 222 188
151 222 188
151 222 188
151 222 188
160 243 194
160 244 194
160 244 194
152 223 189
153 223 189
153 223 190
153 223 190
153 223 190
153 223 190
153 223 190
153 223 190
153 223 190
153 223 190
153 223 190
153 223 190
153 223 190
161 244 195
161 244 195
161 244 195
161 244 195
161 243 195
160 243 195
160 243 195
160 243 195
160 243 194
160 243 194
152 222 189
152 222 189
152 221 189
151 221 188
151 221 188
151 221 188
151 220 188
110 195 145
110 195 145
110 195 145
110 195 145
102 174 139
102 174 139
110 195 145
102 174 139
102 174 139
102 174 139
110 195 144
110 195 144
102 174 139
102 174 139
102 174 139
110 195 144
110 195 144
110 195 144
102 174 139
110 195 144
102 174 139
102 174 139
102 174 139
110 195 144
102 174 139
102 174 139
102 174 139
86 138 93
86 138 93
87 138 93
87 138 93
29 45 32
30 46 32
30 46 33
27 42 29
29 49 31
29 49 31
26 42 29
29 49 31
29 49 31
29 49 31
26 42 29
26 42 29
29 49 31
29 49 31
29 49 31
29 49 31
102 174 139
110 195 144
110 195 144
110 195 144
102 174 139
110 195 144
110 195 144
110 195 144
110 195 144
110 195 144
110 195 144
102 174 139
110 195 144
32 52 34
26 42 29
26 42 29
26 42 29
26 42 29
26 42 29
26 42 29
26 42 29
28 48 30
26 42 29
26 42 29
28 48 30
26 42 29
26 42 29
95 160 98
95 160 98
95 160 99
37 63 48
37 63 48
110 195 145
110 195 145
110 195 145
110 195 145
110 195 145
110 195 145
110 195 145
110 195 145
110 195 145
110 195 145
95 160 99
32 52 35
27 43 30
27 43 30
27 43 30
27 43 30
27 43 30
27 43 30
27 43 30
27 43 30
27 43 30
29 49 32
27 43 30
29 49 32
111 195 145
111 195 145
111 195 145
111 195 145
111 195 145
103 174 140
103 174 140
103 174 140
103 174 140
103 174 140
103 174 140
29 49 32
29 49 32
29 49 32
29 49 32
29 49 32
29 49 32
29 49 32
27 43 30
29 49 32
29 49 32
29 49 32
27 43 30
27 43 30
27 43 30
27 43 30
27 43 30
27 43 30
27 43 30
27 43 30
27 43 30
27 43 30
27 43 30
29 49 32
29 49 32
29 49 32
29 49 32
30 49 32
30 49 32
30 49 32
30 49 32
30 49 32
27 43 30
30 49 32
103 174 139
103 174 139
103 174 139
35 57 47
35 57 47
35 57 47
35 57 47
35 57 47
35 57 47
35 57 47
35 57 47
37 63 48
35 57 47
37 63 48
37 63 48
37 63 48
37 63 49
37 63 49
37 63 49
37 63 49
38 63 49
38 63 49
26 42 29
26 42 29
26 42 29
26 42 29
26 42 29
26 42 29
26 42 29
26 42 29
26 42 29
26 42 29
26 42 29
26 42 29
26 42 29
38 64 49
38 64 49
38 64 49
38 64 49
38 64 49
39 65 50
39 65 50
39 65 50
39 65 50
39 65 50
40 65 51
40 66 51
26 42 28
25 41 28
27 47 29
106 178 143
106 178 143
107 179 143
107 179 144
107 179 144
108 180 144
108 180 145
108 180 145
117 202 151
109 181 146
109 181 146
110 182 146
110 182 147
118 204 153
119 204 153
119 205 153
45 71 56
46 72 57
44 66 56
47 73 58
47 73 58
48 74 59
46 68 58
49 75 60
49 75 60
50 76 61
48 70 60
49 70 60
118 190 155
50 72 61
50 72 62
51 73 63
52 73 63
52 74 64
53 75 65
53 75 65
54 76 66
55 77 66
28 48 29
27 47 29
27 47 29
25 41 27
25 40 27
24 40 27
136 221 170
136 222 170
137 223 171
138 223 172
138 224 172
139 225 173
140 225 174
132 204 169
133 205 170
142 227 176
142 228 176
143 229 177
144 229 178
144 230 178
137 209 174
138 210 175
138 210 175
139 211 176
140 211 177
148 233 183
141 213 178
150 235 184
150 235 184
151 236 185
151 236 185
152 237 186
152 237 186
145 216 182
153 238 188
154 239 188
154 239 188
155 239 189
155 240 190
156 240 190
156 241 190
149 220 186
149 220 186
149 221 186
150 221 187
150 221 187
150 222 187
151 222 188
151 222 188
151 222 188
152 223 188
152 223 189
152 223 189
152 223 189
161 244 195
161 244 195
153 224 190
153 224 190
153 224 190
161 245 195
153 224 190
153 224 190
154 224 190
154 224 190
154 224 190
154 224 190
154 224 190
154 224 191
161 244 196
161 244 196
161 244 196
161 244 196
161 244 195
153 223 190
161 244 195
161 243 195
161 243 195
160 243 195
160 243 195
152 222 189
152 222 189
152 222 189
152 221 189
159 242 193
151 221 188
110 195 145
110 195 145
110 195 145
110 195 145
110 195 145
110 195 145
110 195 145
110 195 144
110 195 144
110 195 144
110 195 144
102 174 139
110 195 144
110 195 144
102 174 139
102 174 139
110 195 144
102 174 139
110 195 144
110 195 144
110 195 144
102 174 139
110 195 144
102 174 139
110 195 144
102 174 139
86 138 93
86 138 93
86 138 93
87 138 93
87 138 93
29 45 32
30 46 32
30 46 33
29 49 31
29 49 31
34 56 46
34 56 46
34 56 46
34 56 46
34 56 46
34 56 46
37 63 48
34 56 46
34 56 46
110 195 144
102 174 139
110 195 144
110 195 144
110 195 144
110 195 144
110 195 144
110 195 144
110 195 144
110 195 144
110 195 144
110 195 144
110 195 144
102 174 139
110 195 144
32 52 34
26 42 29
26 42 29
26 42 29
28 48 30
26 42 29
26 42 29
26 42 29
26 42 29
26 42 29
28 48 30
26 42 29
26 42 29
26 42 29
95 160 98
95 160 98
95 160 99
110 195 145
110 195 145
110 195 145
110 195 145
110 195 145
110 195 145
110 195 145
110 195 145
110 195 145
110 195 145
110 195 144
95 160 98
95 160 99
33 52 35
33 53 35
30 50 32
27 43 30
30 50 32
27 43 30
27 43 30
37 63 49
37 63 49
37 63 49
37 63 49
37 63 49
111 195 145
103 174 140
103 174 140
103 174 140
103 174 140
103 174 140
103 174 140
111 195 145
103 174 140
103 174 139
103 174 139
103 174 139
30 49 32
30 49 32
30 49 32
30 49 32
30 49 32
30 49 32
30 49 32
30 49 32
30 49 32
30 49 32
27 43 30
30 49 32
30 49 32
27 43 30
27 43 30
27 43 30
27 43 30
27 43 30
27 43 30
27 43 30
27 43 30
27 43 30
30 50 32
30 50 32
30 50 32
30 50 32
30 50 32
30 50 32
30 50 32
30 50 32
30 50 32
30 50 32
30 50 32
103 174 139
103 174 139
103 174 139
111 195 145
111 195 145
103 174 139
37 63 48
35 57 47
35 57 47
35 57 47
35 57 47
37 63 48
37 63 48
37 63 48
37 63 48
37 63 48
37 63 48
37 63 49
37 63 49
35 57 47
38 63 49
35 57 47
27 42 29
26 42 29
26 42 29
26 42 29
26 42 29
26 42 29
26 42 29
29 49 31
26 42 29
26 42 29
26 42 29
26 42 29
26 42 29
26 42 28
112 197 146
112 197 146
112 197 146
38 64 49
39 64 50
39 65 50
39 65 50
39 65 50
39 65 50
40 65 51
40 66 51
26 42 28
25 41 28
27 47 29
27 47 29
114 200 149
107 179 143
115 201 149
107 179 144
108 180 144
108 180 145
108 180 145
109 181 145
117 203 151
109 181 146
110 182 146
110 182 147
119 204 153
119 204 153
111 183 148
45 71 56
43 65 55
121 206 155
121 207 155
114 186 150
122 208 156
115 187 151
115 187 152
124 209 158
124 210 158
117 189 154
117 189 154
118 190 155
52 78 63
50 72 62
51 73 63
54 80 65
52 74 64
53 75 65
54 75 65
54 76 66
55 77 67
28 48 29
27 47 29
27 47 29
25 41 27
25 41 27
24 40 27
24 40 27
128 201 165
137 223 171
138 224 172
130 203 167
131 203 168
140 226 174
141 226 175
141 227 175
142 228 176
143 228 177
143 229 177
144 230 178
145 230 179
137 209 174
138 210 175
139 210 176
139 211 176
140 212 177
149 234 183
141 213 178
150 235 184
150 235 185
151 236 185
152 237 186
152 237 186
153 238 187
153 238 187
154 239 188
154 239 188
155 240 189
155 240 189
156 240 190
156 241 190
156 241 191
149 220 186
149 221 186
158 242 192
158 243 192
158 243 193
159 243 193
159 244 193
159 244 193
152 223 188
160 245 194
152 223 189
152 224 189
153 224 190
161 245 195
161 245 195
153 224 190
154 224 190
154 224 191
154 224 191
154 224 191
154 224 191
154 224 191
154 224 191
154 225 191
162 245 196
154 224 191
154 224 191
154 224 191
162 245 196
162 245 196
162 245 196
162 244 196
161 244 196
161 244 196
161 244 196
161 244 195
161 244 195
161 243 195
160 243 195
153 222 190
152 222 189
152 222 189
152 222 189
152 221 189
110 195 145
110 195 145
110 195 145
110 195 145
110 195 145
110 195 144
110 195 144
102 174 139
110 195 144
110 195 144
110 195 144
102 174 139
102 174 139
102 174 139
102 174 139
110 195 144
110 195 144
102 174 139
102 174 139
102 174 139
110 195 144
102 174 139
102 174 139
102 174 139
102 174 139
102 174 139
86 138 93
86 138 93
86 138 93
87 138 93
87 138 93
30 45 32
30 46 32
30 46 33
34 56 46
34 56 46
34 56 46
34 56 46
34 56 46
37 63 48
34 56 46
34 56 46
34 56 46
37 62 48
110 195 144
102 174 139
102 174 139
110 195 144
110 195 144
110 195 144
110 195 144
102 174 139
110 195 144
110 195 144
102 174 139
110 195 144
110 195 144
110 195 144
110 195 144
94 160 98
95 160 98
26 42 29
26 42 29
26 42 29
29 49 31
26 42 29
26 42 29
26 42 29
26 42 29
26 42 29
26 42 29
26 42 29
26 42 29
26 42 29
95 160 98
95 160 98
110 195 145
110 195 145
110 195 145
110 195 145
110 195 145
110 195 145
110 195 145
110 195 145
110 195 144
110 195 144
110 195 144
110 195 144
95 160 98
95 160 99
33 52 35
33 53 35
37 63 49
37 63 49
35 57 47
37 63 49
37 63 49
37 63 49
37 63 49
37 63 49
37 63 49
111 195 145
111 195 145
111 195 145
103 174 140
103 174 140
103 174 140
103 174 140
103 174 139
103 174 139
103 174 139
103 174 139
103 174 139
103 174 139
30 46 33
30 50 32
30 50 32
30 50 32
30 50 32
30 50 32
30 50 32
30 50 32
30 50 32
30 50 32
30 50 32
30 50 32
27 43 30
27 43 30
30 50 32
27 43 30
27 43 30
27 43 30
27 43 30
30 50 32
27 43 30
27 43 30
27 43 30
30 50 32
30 50 32
30 50 32
30 50 32
30 50 32
30 50 32
30 50 32
27 43 30
30 50 32
27 43 30
103 174 139
103 174 139
103 174 139
111 195 145
103 174 139
103 174 139
37 63 48
35 57 47
35 57 47
35 57 47
35 57 47
37 63 48
37 63 48
37 63 48
37 63 48
37 63 48
37 63 48
37 63 48
37 63 49
35 57 47
37 63 49
38 63 49
35 57 47
26 42 29
26 42 29
29 49 31
26 42 29
26 42 29
26 42 29
26 42 29
26 42 29
29 49 31
26 42 29
26 42 29
26 42 29
26 42 28
112 197 146
112 197 146
112 197 146
38 64 49
39 64 50
39 65 50
39 65 50
39 65 50
39 65 50
40 65 50
40 66 51
40 66 51
25 41 28
27 47 29
27 47 29
106 179 143
107 179 144
107 179 144
107 179 144
108 180 144
108 180 145
108 180 145
117 202 151
109 181 146
109 181 146
110 182 147
110 182 147
110 183 147
119 205 153
119 205 154
112 184 149
120 206 154
113 185 149
121 207 155
122 207 156
122 208 156
115 187 151
123 209 157
124 209 158
116 188 153
117 189 154
117 189 154
118 190 155
50 72 62
50 72 62
51 73 63
52 74 63
55 81 66
53 75 65
54 76 65
54 76 66
57 83 68
56 77 67
28 47 29
27 47 29
25 41 27
25 41 27
25 40 27
24 40 27
137 222 171
137 223 171
138 224 172
131 203 167
131 203 168
140 226 174
133 205 169
141 227 176
142 228 176
143 228 177
143 229 178
136 208 173
137 209 174
145 231 180
138 210 175
139 211 176
140 211 176
140 212 177
141 213 178
149 235 184
150 235 184
151 236 185
151 236 185
152 237 186
144 216 181
145 217 182
153 238 188
146 218 183
146 218 183
147 219 184
147 219 184
148 220 185
156 241 191
149 220 186
149 221 186
158 242 192
158 243 192
158 243 193
151 222 188
151 223 188
159 244 194
160 244 194
160 245 194
160 245 194
153 224 190
153 224 190
153 224 190
161 245 196
162 245 196
162 245 196
154 225 191
154 225 191
154 225 191
154 225 191
154 225 191
154 225 191
86 150 90
32 52 35
32 52 35
32 52 35
86 150 90
155 225 192
155 225 192
162 245 197
162 245 197
162 245 196
154 224 191
162 245 196
162 245 196
162 244 196
161 244 196
161 244 196
161 244 195
153 223 190
153 223 190
153 222 190
152 222 189
152 222 189
110 195 145
102 174 139
110 195 145
110 195 145
102 174 139
110 195 144
110 195 144
110 195 144
110 195 144
110 195 144
110 195 144
102 174 139
102 174 139
102 174 139
102 174 139
110 195 144
102 174 139
102 174 139
102 174 139
110 195 144
102 174 139
102 174 139
102 174 139
102 174 139
110 195 144
86 138 92
86 138 93
86 138 93
86 138 93
87 138 93
87 138 93
30 45 32
30 46 32
34 56 46
34 56 46
34 56 46
37 63 48
34 56 46
34 56 46
34 56 46
34 56 46
34 56 46
102 174 139
102 174 139
102 174 139
102 174 139
110 195 144
110 195 144
110 195 144
110 195 144
110 195 144
102 174 139
102 174 139
110 195 144
110 195 144
110 195 144
102 174 139
110 195 144
110 195 144
94 160 98
95 160 98
32 52 34
26 42 29
26 42 29
29 49 31
26 42 29
26 42 29
26 42 29
26 42 29
26 42 29
26 42 29
29 49 30
26 42 29
26 42 29
76 128 82
95 160 98
110 195 145
110 195 145
110 195 145
110 195 145
110 195 145
110 195 145
110 195 144
110 195 144
110 195 144
110 195 144
110 195 144
110 195 144
95 160 98
95 160 99
33 52 35
37 63 49
37 63 49
35 57 47
37 63 49
37 63 49
37 63 49
37 63 49
37 63 49
111 195 145
111 195 145
111 195 145
111 195 145
103 174 140
103 174 140
111 195 145
103 174 139
103 174 139
103 174 139
103 174 139
103 174 139
103 174 139
103 174 139
103 174 139
30 46 33
30 50 32
30 50 32
30 50 32
30 50 32
30 50 32
30 50 32
30 50 32
30 50 32
30 50 32
30 50 32
30 50 32
27 43 30
27 43 30
30 50 32
27 43 30
27 43 30
27 43 30
27 43 30
27 43 30
27 43 30
27 43 30
30 50 32
30 50 32
30 50 32
30 50 32
30 50 32
30 50 32
30 50 32
30 50 32
30 50 32
30 50 32
30 50 32
103 174 139
103 174 139
103 174 139
103 174 139
103 174 139
103 174 139
35 56 47
35 56 47
35 57 47
35 57 47
35 57 47
35 57 47
35 57 47
35 57 47
37 63 48
37 63 48
37 63 48
37 63 48
37 63 48
37 63 49
37 63 49
37 63 49
35 57 47
26 42 29
26 42 29
26 42 29
26 42 29
26 42 29
26 42 29
29 49 31
26 42 29
26 42 29
26 42 29
27 42 29
26 42 29
26 42 28
112 197 146
112 197 146
112 198 146
38 64 49
39 64 50
39 65 50
39 65 50
39 65 50
39 65 50
39 65 50
40 66 51
40 66 51
25 41 28
28 47 29
27 47 29
106 179 143
107 179 144
107 179 144
107 179 144
108 180 144
116 202 150
108 180 145
109 181 145
117 203 151
109 181 146
110 182 147
110 182 147
119 204 153
111 183 148
119 205 154
120 205 154
120 206 154
121 206 155
113 185 150
114 186 151
122 208 156
115 187 152
123 209 157
116 188 153
124 210 159
125 210 159
117 189 154
118 190 155
119 191 155
51 72 62
51 73 63
52 74 63
52 74 64
55 81 66
56 82 67
54 76 66
55 77 67
56 78 67
28 48 29
27 47 29
25 41 27
25 41 27
25 40 27
24 40 27
24 40 27
137 223 172
138 224 172
139 225 173
140 225 174
140 226 174
141 227 175
134 206 170
142 228 176
135 207 172
136 208 172
144 230 178
145 231 179
146 231 180
139 210 175
147 232 181
140 212 177
149 234 183
149 234 183
150 235 184
150 235 185
151 236 185
144 215 180
144 216 181
145 216 181
153 238 187
154 239 188
146 218 183
147 218 184
147 219 184
148 219 185
148 220 185
157 242 191
157 242 191
158 242 192
158 243 192
158 243 193
159 244 193
159 244 193
159 244 194
160 245 194
152 224 189
160 245 195
161 245 195
161 246 195
153 224 190
154 225 190
154 225 191
154 225 191
154 225 191
154 225 191
32 52 34
32 52 34
29 45 33
32 52 35
32 52 35
32 52 35
32 52 35
32 52 35
32 52 35
155 225 192
155 225 192
155 225 192
163 246 197
155 225 192
163 245 197
162 245 197
155 225 191
162 245 197
162 245 196
162 245 196
162 244 196
161 244 196
161 244 196
153 223 190
153 223 190
153 223 190
153 222 190
110 195 145
102 174 139
110 195 144
110 195 144
110 195 144
110 195 144
110 195 144
110 195 144
110 195 144
110 195 144
110 195 144
102 174 139
102 174 139
110 195 144
102 174 139
102 174 139
102 174 139
110 195 144
102 174 139
102 174 139
102 174 139
102 174 139
102 174 139
102 174 139
102 174 139
86 138 92
86 138 93
86 138 93
87 138 93
87 138 93
87 138 93
30 45 32
30 46 32
34 56 46
34 56 46
34 56 46
37 63 48
34 56 46
34 56 46
34 56 46
102 174 139
102 174 139
102 174 139
102 174 139
102 174 139
102 174 139
102 174 139
102 174 139
102 174 139
110 195 144
102 174 139
102 174 139
110 195 144
102 174 139
110 195 144
102 174 139
102 174 139
110 195 144
94 160 98
94 160 98
95 160 98
32 52 34
26 42 29
26 42 29
26 42 29
26 42 29
26 42 29
26 42 29
26 42 29
29 49 31
29 49 31
26 42 29
26 42 29
26 42 29
26 42 29
95 160 98
110 195 145
110 195 145
110 195 145
110 195 145
110 195 144
110 195 144
110 195 144
110 195 144
110 195 144
110 195 144
110 195 144
110 195 144
95 160 98
95 160 99
95 160 99
37 63 49
37 63 49
37 63 49
37 63 49
37 63 49
37 63 49
111 195 145
111 195 145
111 195 145
111 195 145
111 195 145
111 195 145
103 174 139
103 174 139
103 174 139
103 174 139
103 174 139
103 174 139
103 174 139
103 174 139
103 174 139
103 174 139
103 174 139
30 46 33
30 50 32
30 50 32
30 50 32
27 43 30
30 50 32
30 50 32
30 50 32
30 50 32
30 50 32
30 50 32
30 50 32
27 43 30
27 43 30
27 43 30
27 43 30
27 43 30
27 43 30
27 43 31
27 43 31
27 43 31
27 43 31
27 43 31
30 50 32
30 50 32
30 50 32
30 50 32
35 57 48
35 57 48
35 57 48
35 57 48
35 57 48
35 57 48
102 174 139
103 174 139
103 174 139
103 174 139
103 174 139
103 174 139
35 56 46
37 63 48
35 56 47
35 56 47
37 63 48
35 57 47
37 63 48
37 63 48
37 63 48
37 63 48
37 63 48
37 63 48
35 57 47
37 63 48
37 63 49
37 63 49
38 63 49
29 49 31
38 64 49
38 64 49
35 57 47
38 64 49
38 64 49
38 64 49
38 64 49
38 64 49
38 64 49
38 64 50
26 42 29
26 42 28
112 197 146
112 197 146
112 198 146
38 64 49
39 64 49
39 65 50
39 65 50
39 65 50
39 65 50
39 65 50
40 66 51
40 66 51
25 41 28
28 48 29
27 47 29
27 47 28
107 179 144
107 179 144
107 179 144
108 180 144
108 180 145
116 202 150
117 202 151
117 203 151
109 181 146
110 182 147
110 182 147
111 183 147
111 183 148
111 184 148
120 205 154
120 206 155
113 185 150
113 185 150
122 207 156
114 186 151
115 187 152
123 209 157
124 209 158
116 188 153
117 189 154
118 190 154
118 190 155
127 212 161
51 73 62
51 73 63
52 74 64
52 74 64
56 81 66
56 82 67
54 76 66
55 77 67
58 84 69
56 78 68
25 41 27
25 41 27
25 41 27
25 40 27
24 40 27
24 40 27
129 202 166
138 224 172
139 225 173
132 204 168
132 205 169
133 205 170
142 228 176
142 228 177
143 229 177
136 208 173
145 230 179
145 231 179
146 232 180
147 232 181
139 211 176
148 233 182
141 212 178
149 235 184
150 235 184
143 214 179
151 236 185
152 237 186
144 216 181
153 238 187
145 217 182
154 239 188
155 240 189
147 219 184
156 241 190
148 220 185
149 220 185
149 221 186
157 242 192
158 243 192
158 243 192
159 244 193
159 244 193
159 244 194
160 245 194
160 245 194
152 224 189
161 246 195
161 246 195
161 246 195
161 246 196
154 225 191
154 225 191
154 225 191
155 225 192
163 246 197
155 226 192
32 52 35
32 52 35
32 52 35
32 52 35
32 52 35
32 52 35
32 52 35
86 150 91
156 226 192
156 226 192
155 226 192
155 225 192
155 225 192
163 246 197
163 246 197
163 246 197
163 245 197
162 245 197
162 245 197
162 245 196
162 245 196
162 245 196
161 244 196
154 223 190
153 223 190
153 223 190
110 195 144
110 195 144
110 195 144
110 195 144
110 195 144
110 195 144
110 195 144
110 195 144
102 174 139
110 195 144
110 195 144
110 195 144
102 174 139
102 174 139
102 174 139
102 174 139
110 195 144
102 174 139
102 174 139
84 149 87
84 149 87
28 48 30
28 48 30
26 42 28
28 48 30
86 138 92
86 138 93
86 138 93
87 138 93
87 138 93
87 138 93
30 46 32
30 46 32
34 56 46
34 56 46
34 56 46
37 63 48
34 56 46
102 174 139
102 174 139
102 174 139
102 174 139
102 174 139
102 174 139
110 195 144
110 195 144
110 195 144
110 195 144
110 195 144
110 195 144
110 195 144
110 195 144
110 195 144
110 195 144
110 195 144
102 174 139
110 195 144
110 195 144
94 160 98
95 160 98
95 160 98
32 52 34
26 42 29
26 42 29
26 42 29
29 49 31
26 42 29
26 42 29
26 42 29
26 42 29
26 42 29
26 42 29
26 42 29
26 42 29
26 42 29
95 160 98
110 195 145
110 195 145
110 195 144
110 195 144
110 195 144
110 195 144
76 128 82
26 42 29
26 42 29
26 42 29
26 42 29
26 42 29
95 160 98
95 160 99
95 160 99
35 57 47
37 63 49
37 63 49
37 63 49
37 63 49
111 195 145
111 195 145
111 195 145
111 195 145
111 195 145
111 195 145
103 174 139
103 174 139
103 174 139
103 174 139
103 174 139
103 174 139
103 174 139
111 195 145
103 174 139
103 174 139
103 174 139
103 174 139
30 46 33
30 50 32
30 50 32
30 50 32
30 50 32
30 50 32
30 50 32
30 50 32
30 50 32
28 44 31
30 50 32
30 50 32
28 44 31
28 44 31
28 44 31
28 44 31
38 64 49
38 64 49
35 57 48
38 64 49
38 64 49
35 57 48
38 64 49
35 57 48
35 57 48
35 57 48
35 57 48
35 57 48
35 57 48
35 57 48
35 57 48
35 57 48
35 57 48
102 174 139
102 174 139
102 174 139
103 174 139
103 174 139
111 195 145
34 56 46
35 56 46
35 56 46
35 56 46
35 56 46
35 56 47
37 63 48
111 196 145
103 174 140
35 57 47
35 57 47
35 57 47
35 57 47
35 57 47
37 63 48
35 57 47
35 57 47
38 63 49
38 63 49
38 64 49
38 64 49
38 64 49
38 64 49
38 64 49
36 58 48
38 64 49
38 64 49
38 64 50
26 42 29
26 42 29
25 41 28
112 197 146
112 198 146
112 198 147
38 64 49
39 65 50
39 65 50
39 65 50
39 65 50
39 65 50
40 66 51
40 66 51
40 66 51
28 48 29
27 47 29
27 47 29
115 200 149
107 179 144
107 179 144
116 201 150
116 202 150
116 202 151
109 181 145
117 203 151
109 182 146
110 182 147
110 182 147
111 183 147
111 183 148
111 184 148
120 206 154
120 206 155
121 206 155
113 185 150
122 207 156
122 208 156
123 208 157
123 209 158
116 188 153
116 188 153
117 189 154
126 211 160
126 212 160
119 191 156
119 191 156
51 73 63
52 74 64
53 74 64
53 75 65
56 82 67
54 76 66
58 84 68
58 84 69
59 85 70
25 41 28
25 41 27
25 41 27
25 41 27
24 40 27
24 40 27
24 40 26
138 224 173
139 225 173
140 226 174
141 226 175
141 227 175
142 228 176
143 228 177
143 229 177
144 230 178
145 230 179
145 231 180
146 232 180
139 211 175
148 233 182
148 233 182
149 234 183
150 235 184
150 235 184
151 236 185
143 215 180
152 237 186
145 216 181
145 217 182
146 217 183
146 218 183
147 219 184
147 219 184
148 220 185
148 220 185
149 220 186
149 221 186
150 221 187
158 243 192
159 244 193
159 244 193
159 244 194
160 245 194
160 245 194
160 245 195
153 224 190
161 246 195
161 246 195
162 246 196
162 247 196
154 225 191
154 226 191
155 226 192
155 226 192
155 226 192
155 226 192
32 52 35
30 46 33
32 52 35
32 52 35
30 46 33
32 52 35
32 52 35
156 226 193
156 226 193
156 226 193
156 226 193
156 226 193
164 246 198
156 226 193
163 246 198
163 246 198
163 246 197
163 246 197
163 246 197
163 245 197
162 245 197
162 245 197
162 245 196
162 245 196
154 224 191
154 223 190
102 174 139
110 195 144
110 195 144
102 174 139
110 195 144
110 195 144
110 195 144
110 195 144
102 174 139
102 174 139
28 48 30
28 48 30
28 48 30
28 48 30
28 48 30
28 48 30
26 42 28
28 48 30
28 48 30
26 42 28
28 48 30
28 48 30
28 48 30
28 48 30
28 48 30
86 138 92
86 138 93
86 138 93
87 138 93
87 138 93
87 138 93
87 138 93
34 56 46
34 56 46
34 56 46
34 56 46
102 174 139
102 174 139
102 174 139
102 174 139
102 174 139
102 174 139
102 174 139
102 174 139
102 174 139
110 195 144
110 195 144
110 195 144
102 174 139
110 195 144
110 195 144
110 195 144
110 195 144
102 174 139
110 195 144
110 195 144
110 195 144
110 195 144
94 160 98
95 160 98
95 160 98
32 52 34
32 52 34
29 49 31
27 42 29
29 49 31
26 42 29
26 42 29
26 42 29
26 42 29
26 42 29
37 63 48
37 63 48
37 63 48
37 63 48
32 52 34
26 42 29
26 42 29
26 42 29
29 49 31
29 49 31
26 42 29
26 42 29
26 42 29
26 42 29
26 42 29
26 42 29
26 42 29
95 160 98
95 160 99
95 160 99
37 63 49
37 63 49
37 63 49
111 195 145
111 195 145
111 195 145
111 195 145
111 195 145
111 195 145
111 195 145
111 195 145
111 195 145
103 174 139
111 195 145
103 174 139
103 174 139
103 174 139
103 174 139
103 174 139
103 174 139
103 174 139
102 174 139
102 174 139
87 139 94
30 50 32
30 50 32
30 50 32
30 50 32
30 50 32
35 57 48
35 57 48
35 57 48
35 57 48
35 57 48
35 57 48
35 57 48
38 64 49
38 64 49
38 64 49
38 64 49
38 64 49
38 64 49
38 64 49
38 64 49
38 64 49
38 64 49
35 57 47
35 57 47
35 57 47
35 57 47
35 57 47
35 57 47
35 57 47
35 57 47
38 64 49
35 57 47
29 49 31
102 174 139
102 174 139
102 174 139
84 149 88
29 49 31
29 49 31
29 49 31
29 49 31
29 49 31
29 49 31
29 49 31
103 174 140
103 174 140
103 174 140
35 57 47
35 57 47
35 57 47
35 57 47
35 57 47
35 57 47
35 57 47
35 57 47
37 63 49
38 63 49
38 64 49
38 64 49
35 57 47
35 57 47
38 64 49
38 64 49
38 64 49
38 64 49
38 64 50
39 64 50
26 42 29
25 41 28
112 197 146
112 198 146
104 176 141
36 58 48
36 58 48
36 58 48
37 59 48
37 59 49
37 59 49
37 59 49
37 59 49
38 60 49
28 48 29
27 47 29
27 47 29
107 179 144
115 201 149
107 180 144
108 180 144
108 180 145
108 180 145
109 181 145
109 181 146
109 182 146
118 204 152
110 182 147
111 183 147
111 183 148
120 205 154
120 206 154
120 206 155
121 207 155
121 207 156
122 207 156
122 208 157
123 208 157
123 209 158
124 210 158
125 210 159
125 211 159
118 190 154
126 212 160
127 212 161
127 213 162
51 73 63
52 74 64
55 81 66
56 82 67
56 82 67
57 83 68
58 84 69
58 84 69
59 85 70
60 86 71
25 41 27
25 41 27
25 41 27
24 40 27
24 40 27
24 40 26
139 224 173
139 225 173
140 226 174
141 226 175
141 227 175
142 228 176
143 229 177
143 229 178
144 230 178
137 209 174
146 231 180
146 232 180
139 211 176
148 233 182
148 234 183
149 234 183
150 235 184
150 236 185
151 236 185
144 215 180
144 216 181
145 217 182
153 239 188
146 218 183
147 218 183
147 219 184
155 241 190
156 241 190
149 220 185
149 221 186
150 221 186
150 222 187
158 243 193
159 244 193
159 244 193
160 245 194
160 245 194
160 245 195
161 246 195
161 246 195
161 246 196
162 247 196
162 247 196
162 247 196
162 247 197
155 226 192
155 226 192
155 226 192
156 226 192
156 226 193
156 226 193
32 52 35
32 52 35
32 52 35
32 52 35
32 52 35
86 150 91
156 227 193
156 226 193
156 226 193
156 226 193
156 226 193
156 226 193
156 226 193
164 247 198
164 247 198
163 246 198
163 246 198
163 246 198
163 246 197
163 246 197
163 245 197
162 245 197
162 245 197
162 245 196
154 224 191
102 174 139
102 174 139
110 195 144
102 174 139
102 174 139
102 174 139
102 174 139
102 174 139
110 195 144
102 174 139
29 45 32
26 42 29
28 48 30
28 48 30
28 48 30
28 48 30
28 48 30
28 48 30
28 48 30
28 48 30
28 48 30
28 48 30
28 48 30
28 48 30
28 48 30
28 48 30
86 138 93
86 138 93
87 138 93
87 138 93
87 138 93
87 138 93
102 174 139
102 174 139
102 174 139
102 174 139
110 195 144
110 195 144
102 174 139
110 195 144
102 174 139
102 174 139
102 174 139
102 174 139
110 195 144
102 174 139
102 174 139
110 195 144
102 174 139
110 195 144
110 195 144
110 195 144
110 195 144
110 195 144
110 195 144
110 195 144
110 195 144
94 160 98
94 160 98
95 160 98
95 160 98
32 52 34
32 52 34
37 63 48
37 63 48
37 63 48
37 63 48
37 63 48
37 63 48
37 63 48
37 63 48
37 63 48
37 63 48
110 195 144
110 195 144
95 160 98
26 42 29
26 42 29
26 42 29
26 42 29
26 42 29
26 42 29
26 42 29
26 42 29
26 42 29
26 42 29
26 42 29
26 42 29
95 160 98
95 160 99
95 160 99
111 195 145
111 195 145
111 195 145
111 195 145
111 195 145
103 174 139
111 195 145
111 195 145
111 195 145
111 195 145
111 195 145
103 174 139
103 174 139
103 174 139
103 174 139
110 195 145
103 174 139
103 174 139
102 174 139
102 174 139
102 174 139
102 174 139
87 139 93
87 139 94
35 57 48
35 57 48
35 57 48
38 64 49
35 57 48
35 57 48
35 57 48
35 57 48
35 57 48
35 57 48
35 57 48
38 64 49
38 64 49
38 64 49
38 64 49
38 64 49
38 64 49
38 64 49
38 64 49
38 64 49
38 64 49
38 64 49
35 57 47
35 57 47
35 57 47
35 57 47
38 64 49
35 57 47
35 57 47
38 64 49
35 57 47
35 57 47
35 57 47
29 49 31
29 49 31
29 49 31
29 49 31
29 49 31
29 49 31
29 49 31
29 49 31
29 49 31
29 49 31
29 49 31
103 174 139
103 174 140
103 174 140
35 57 47
35 57 47
37 63 48
35 57 47
35 57 47
35 57 47
35 57 47
35 57 47
37 63 49
38 63 49
38 63 49
38 64 49
38 64 49
38 64 49
38 64 49
36 58 48
38 64 49
38 64 49
38 64 49
38 64 50
26 42 29
26 41 28
104 176 141
104 176 141
104 176 141
36 58 48
36 58 48
36 58 48
37 58 48
37 59 49
37 59 49
37 59 49
37 59 49
38 60 49
28 48 29
27 47 29
27 47 29
115 201 149
107 179 144
107 180 144
108 180 144
108 180 145
108 181 145
109 181 146
109 181 146
109 182 146
110 182 147
110 182 147
111 183 147
111 183 148
120 205 154
120 206 154
120 206 155
113 185 150
113 185 150
114 186 151
114 186 151
115 187 152
115 188 152
116 188 153
117 189 153
117 189 154
118 190 154
118 190 155
119 191 156
128 213 162
120 192 157
54 80 65
55 81 66
56 82 67
56 82 67
57 83 68
55 77 67
56 78 68
59 85 70
60 86 71
25 41 27
25 41 27
25 41 27
25 40 27
24 40 27
24 40 27
24 40 26
139 225 173
140 226 174
141 227 175
133 206 170
142 228 176
143 229 177
144 229 178
144 230 178
137 209 174
146 231 180
146 232 181
147 233 181
148 233 182
140 213 177
149 235 183
142 214 178
142 214 179
151 237 185
144 216 180
144 216 181
153 238 187
153 239 188
154 240 188
155 240 189
155 241 189
156 241 190
156 242 190
149 221 186
157 242 192
158 243 192
150 222 187
159 244 193
151 223 188
160 245 194
160 245 194
152 224 189
161 246 195
153 225 190
153 225 190
162 247 196
162 247 196
162 247 196
162 247 197
163 248 197
163 248 197
155 226 192
163 248 198
164 248 198
156 227 193
156 227 193
156 227 193
32 52 35
32 52 35
30 46 34
30 46 34
157 227 194
157 227 194
157 227 194
157 227 194
157 227 194
157 227 194
157 227 193
156 227 193
156 226 193
164 247 198
164 247 198
164 247 198
156 226 193
163 246 198
155 225 192
155 225 192
163 246 197
155 225 192
155 225 192
154 224 191
102 174 139
102 174 139
102 174 139
102 174 139
102 174 139
102 174 139
102 174 139
102 174 139
102 174 139
86 138 93
29 45 32
28 48 30
28 48 30
28 48 30
28 48 30
28 48 30
28 48 30
28 48 30
28 48 30
28 48 30
28 48 30
28 48 30
28 48 30
28 48 30
26 42 28
28 48 30
86 138 93
86 138 93
87 138 93
87 138 93
87 138 93
110 195 144
102 174 139
102 174 139
110 195 144
110 195 144
102 174 139
102 174 139
110 195 144
110 195 144
110 195 144
102 174 139
110 195 144
102 174 139
110 195 144
110 195 144
110 195 144
110 195 144
110 195 144
110 195 144
102 174 139
110 195 144
102 174 139
110 195 144
110 195 144
102 174 139
110 195 144
94 160 98
94 160 98
95 160 98
95 160 98
32 52 34
32 52 34
37 63 48
37 63 48
37 63 48
37 63 48
37 63 48
37 63 48
37 63 48
37 63 48
110 195 144
110 195 144
110 195 144
110 195 144
95 160 98
27 43 29
27 42 29
27 42 29
27 42 29
27 42 29
27 42 29
26 42 29
26 42 29
26 42 29
26 42 29
29 49 31
26 42 29
84 149 88
95 160 99
111 195 145
111 195 145
111 195 145
111 195 145
111 195 145
111 195 145
111 195 145
111 195 145
111 195 145
111 195 145
103 174 139
111 195 145
103 174 139
103 174 139
110 195 145
103 174 139
102 174 139
102 174 139
110 195 145
102 174 139
110 195 145
102 174 139
102 174 139
87 139 93
87 139 94
35 57 48
35 57 48
35 57 48
35 57 48
35 57 48
35 57 48
35 57 48
35 57 47
35 57 47
35 57 47
35 57 47
38 64 49
38 64 49
38 64 49
38 64 49
38 64 49
35 57 47
38 64 49
38 64 49
38 63 49
38 63 49
35 57 47
35 57 47
38 63 49
35 57 47
35 57 47
35 57 47
38 63 49
35 57 47
35 57 47
35 57 47
35 57 47
35 57 47
29 49 31
29 49 31
29 49 31
29 49 31
29 49 31
29 49 31
29 49 31
29 49 31
29 49 31
29 49 31
27 43 29
103 174 139
103 174 140
103 174 140
35 57 47
35 57 47
35 57 47
35 57 47
35 57 47
35 57 47
35 57 47
35 57 47
37 63 49
37 63 49
38 63 49
38 64 49
38 64 49
38 64 49
38 64 49
38 64 49
38 64 49
38 64 49
38 64 49
38 64 50
26 42 29
26 42 28
104 176 141
104 176 141
104 176 141
36 58 48
36 58 48
36 58 48
37 58 48
37 59 49
37 59 49
37 59 49
37 59 49
38 60 49
28 48 29
27 47 29
27 47 29
27 47 28
107 179 144
107 180 144
108 180 144
108 180 145
108 181 145
117 202 151
109 181 146
118 203 152
110 182 147
118 204 152
111 183 147
111 183 148
120 205 154
112 184 149
112 185 149
113 185 150
113 186 150
114 186 151
114 187 151
115 187 152
115 188 152
116 188 153
125 210 159
117 189 154
126 211 160
118 190 155
127 213 161
128 213 162
128 214 162
54 80 65
55 81 66
56 82 67
54 76 66
57 83 68
58 84 69
58 84 69
59 85 70
60 86 71
61 86 71
25 41 27
25 41 27
25 40 27
24 40 27
24 40 27
24 40 26
139 225 174
140 226 174
133 205 170
134 206 170
134 207 171
143 229 177
136 208 172
136 209 173
145 231 179
138 210 175
138 211 175
139 211 176
148 234 182
141 213 177
141 213 178
150 236 184
151 236 185
151 237 185
152 238 186
144 217 181
145 217 182
154 239 188
154 240 188
155 240 189
155 241 189
148 220 185
156 242 191
157 243 191
150 221 186
150 222 187
151 222 187
151 223 188
159 244 194
160 245 194
152 224 189
153 224 189
153 225 190
161 246 196
162 247 196
154 226 191
162 247 196
163 247 197
155 226 192
155 227 192
163 248 197
163 248 198
164 248 198
164 248 198
164 248 198
156 227 193
164 248 199
30 46 34
32 52 35
32 52 35
86 150 91
157 227 194
157 227 194
157 227 194
157 227 194
157 227 194
165 248 199
165 248 199
165 248 199
165 248 199
164 247 199
157 227 193
156 226 193
156 226 193
156 226 193
156 226 193
156 226 193
155 225 192
155 225 192
155 225 192
155 225 192
102 174 139
110 195 144
102 174 139
102 174 139
102 174 139
102 174 139
110 195 144
102 174 139
86 138 93
86 138 93
29 45 32
29 45 32
29 48 30
29 48 30
29 48 30
28 48 30
26 42 29
28 48 30
28 48 30
28 48 30
28 48 30
28 48 30
28 48 30
28 48 30
28 48 30
28 48 30
26 42 29
86 138 93
87 138 93
87 138 93
87 138 93
102 174 139
102 174 139
102 174 139
102 174 139
102 174 139
110 195 144
102 174 139
102 174 139
102 174 139
102 174 139
102 174 139
102 174 139
110 195 144
110 195 144
110 195 144
110 195 144
110 195 144
110 195 144
110 195 144
110 195 144
110 195 144
110 195 144
102 174 139
110 195 144
102 174 139
102 174 139
94 160 98
94 160 98
95 160 98
95 160 98
32 52 34
37 63 48
37 63 48
37 63 48
37 63 48
37 63 48
37 63 48
37 63 48
37 63 48
110 195 144
110 195 144
110 195 144
110 195 144
95 160 98
95 160 98
27 43 29
27 43 29
27 43 29
27 43 29
27 43 29
27 43 29
27 43 29
27 43 29
27 43 29
27 43 29
27 43 29
27 42 29
27 42 29
95 160 99
111 195 145
111 195 145
111 195 145
111 195 145
111 195 145
111 195 145
103 174 139
111 195 145
111 195 145
111 195 145
110 195 145
110 195 145
103 174 139
102 174 139
102 174 139
102 174 139
102 174 139
102 174 139
102 174 139
102 174 139
102 174 139
102 174 139
102 174 139
87 139 93
87 139 94
35 57 48
35 57 48
35 57 48
35 57 47
35 57 47
35 57 47
35 57 47
35 57 47
35 57 47
38 64 49
35 57 47
38 64 49
38 63 49
38 63 49
38 63 49
38 63 49
38 63 49
38 63 49
38 63 49
38 63 49
38 63 49
38 63 49
38 63 49
38 63 49
103 174 140
35 57 47
35 57 47
35 57 47
35 57 47
35 57 47
35 57 47
35 57 47
35 57 47
29 49 31
29 49 31
29 49 31
29 49 31
29 49 31
29 49 31
29 49 31
27 43 30
29 49 31
29 49 31
29 49 31
103 174 139
103 174 139
103 174 140
35 56 46
35 57 46
35 57 47
35 57 47
35 57 47
37 63 48
35 57 47
35 57 47
37 63 48
37 63 49
38 63 49
38 64 49
38 64 49
38 64 49
38 64 49
38 64 49
36 58 48
38 64 49
38 64 49
38 64 50
26 42 29
26 42 28
104 176 141
104 176 141
104 176 141
105 176 141
36 58 48
36 58 48
37 58 48
37 59 48
37 59 49
37 59 49
37 59 49
38 60 49
38 60 50
27 47 29
27 47 29
27 47 28
115 201 149
115 201 150
116 201 150
116 202 150
108 181 145
117 203 151
117 203 151
118 203 152
118 204 152
110 182 147
119 204 153
119 205 153
120 205 154
112 184 149
112 185 149
113 185 150
113 186 150
114 186 151
114 187 151
115 187 152
115 188 152
116 188 153
125 210 159
117 189 154
118 190 155
118 190 155
127 213 161
128 213 162
128 214 162
52 74 64
53 75 64
56 82 67
56 82 67
55 77 66
58 84 69
58 84 69
57 79 68
57 79 69
58 80 70
25 41 27
25 41 27
137 223 171
137 223 172
138 224 172
131 203 168
131 204 168
132 205 169
133 205 170
134 206 170
134 207 171
135 207 172
144 230 178
136 209 173
137 209 174
138 210 175
139 211 175
139 212 176
140 212 177
149 234 183
141 214 178
142 214 179
143 215 179
151 237 185
152 238 186
153 238 187
153 239 187
154 239 188
146 219 183
147 219 184
156 241 190
156 242 190
157 242 191
157 243 191
158 243 192
150 222 187
151 222 188
159 244 193
152 223 188
160 245 194
160 246 195
161 246 195
161 246 195
162 247 196
154 226 191
162 247 196
163 247 197
163 248 197
163 248 197
163 248 198
164 248 198
156 227 193
164 248 198
164 249 199
164 249 199
157 228 194
157 228 194
157 228 194
91 113 104
91 113 104
157 228 194
165 248 200
165 248 200
165 248 200
165 248 200
165 248 200
165 248 199
165 248 199
165 248 199
165 248 199
165 248 199
165 248 199
157 227 194
157 227 194
156 226 193
156 226 193
156 226 193
156 226 193
156 226 193
155 225 192
155 225 192
102 174 139
102 174 139
102 174 139
102 174 139
102 174 139
102 174 139
110 195 144
102 174 139
86 138 93
86 138 93
87 138 93
29 45 32
29 49 31
29 49 31
29 49 31
29 49 30
26 42 29
29 48 30
29 48 30
28 48 30
28 48 30
28 48 30
28 48 30
28 48 30
28 48 30
28 48 30
26 42 29
87 138 93
87 138 93
87 138 93
102 174 139
102 174 139
102 174 139
110 195 144
102 174 139
110 195 144
102 174 139
102 174 139
102 174 139
102 174 139
102 174 139
102 174 139
102 174 139
110 195 144
110 195 144
110 195 144
110 195 144
110 195 144
102 174 139
110 195 144
102 174 139
110 195 144
102 174 139
110 195 144
102 174 139
102 174 139
94 160 98
94 160 98
94 160 98
95 160 98
95 160 98
32 52 34
37 63 48
37 63 48
37 63 48
37 63 48
37 63 48
37 63 48
110 195 144
110 195 144
110 195 144
110 195 144
110 195 144
110 195 144
95 160 98
95 160 98
32 52 34
27 43 30
27 43 30
27 43 30
29 49 31
27 43 30
27 43 30
27 43 30
27 43 30
27 43 29
29 49 31
27 43 29
27 43 29
95 160 99
111 195 145
111 195 145
111 195 145
111 195 145
111 195 145
111 195 145
111 195 145
110 195 145
110 195 145
110 195 145
110 195 145
110 195 145
102 174 139
102 174 139
102 174 139
102 174 139
102 174 139
102 174 139
102 174 139
84 149 88
84 149 88
29 49 31
29 49 31
87 139 93
87 139 94
35 57 47
35 57 47
35 57 47
35 57 47
35 57 47
35 57 47
38 64 49
35 57 47
35 57 47
35 57 47
35 57 47
38 63 49
38 63 49
38 63 49
111 195 145
111 195 145
111 195 145
111 195 145
111 195 145
111 195 145
111 195 145
111 195 145
103 174 140
103 174 140
103 174 140
35 57 47
35 57 47
35 57 47
35 57 47
35 57 47
35 57 47
35 57 47
35 57 47
29 49 31
29 49 31
29 49 31
29 49 31
29 49 31
29 49 31
29 49 31
27 43 30
29 49 31
29 49 31
29 49 31
103 174 139
103 174 139
103 174 140
35 56 46
35 56 46
111 196 145
35 57 47
35 57 47
35 57 47
35 57 47
35 57 47
35 57 47
37 63 49
37 63 49
38 63 49
38 64 49
38 64 49
38 64 49
38 64 49
38 64 49
38 64 49
38 64 49
38 64 50
26 42 29
26 42 28
28 48 29
104 176 141
104 176 141
105 176 141
36 58 48
36 58 48
37 58 48
37 59 48
37 59 49
37 59 49
37 59 49
38 60 49
38 60 50
28 47 29
27 47 29
27 47 28
115 201 149
115 201 150
108 180 144
116 202 150
116 202 151
109 181 146
109 181 146
109 182 146
118 204 152
118 204 152
119 204 153
111 183 148
112 184 148
112 184 149
112 185 149
113 185 150
122 207 156
114 186 151
123 208 157
115 187 152
116 188 152
124 210 158
117 189 153
117 189 154
118 190 155
126 212 161
119 191 156
128 213 162
128 214 162
121 193 158
55 81 66
122 194 159
131 217 165
131 217 165
132 218 166
133 219 167
133 219 167
134 220 168
135 221 169
135 221 169
128 200 165
137 223 171
138 223 172
138 224 172
131 203 168
140 226 174
132 205 169
133 205 170
142 228 176
134 207 171
135 207 172
144 230 178
137 209 173
145 231 180
138 210 175
139 211 176
139 212 176
140 212 177
141 213 178
141 214 178
150 236 184
143 215 180
152 237 186
152 238 186
153 238 187
145 218 182
154 240 188
155 240 189
155 241 189
156 241 190
156 242 190
157 242 191
157 243 191
158 243 192
150 222 187
151 223 188
151 223 188
152 224 189
152 224 189
161 246 195
161 246 195
161 247 196
162 247 196
162 247 196
155 226 191
163 248 197
163 248 197
163 248 198
164 249 198
164 249 198
164 249 198
164 249 198
165 249 199
165 249 199
165 249 199
157 228 194
157 228 194
157 228 194
158 228 195
166 249 200
166 249 200
166 249 200
166 249 200
166 249 200
166 249 200
165 249 200
165 249 200
165 248 200
165 248 200
165 248 199
165 248 199
157 227 194
157 227 194
157 227 194
164 247 199
156 226 193
156 226 193
156 226 193
156 226 193
156 226 192
110 195 144
102 174 139
102 174 139
102 174 139
110 195 144
102 174 139
102 174 139
86 138 93
86 138 93
87 138 93
87 138 93
29 45 32
29 45 32
29 49 31
29 49 31
29 49 31
29 49 31
29 49 31
29 49 31
29 49 30
29 48 30
29 48 30
29 48 30
28 48 30
28 48 30
28 48 30
28 48 30
28 48 30
87 138 93
87 138 93
102 174 139
102 174 139
102 174 139
102 174 139
102 174 139
110 195 144
110 195 144
102 174 139
110 195 144
102 174 139
110 195 144
102 174 139
102 174 139
110 195 144
110 195 144
110 195 144
102 174 139
110 195 144
110 195 144
110 195 144
83 149 87
83 149 87
26 42 28
26 42 28
26 41 28
26 41 28
94 160 98
94 160 98
94 160 98
95 160 98
95 160 98
32 52 34
37 63 48
37 63 48
37 63 48
37 63 48
110 195 144
110 195 144
110 195 144
110 195 144
110 195 144
110 195 144
110 195 144
110 195 144
95 160 98
95 160 98
32 52 34
27 43 30
27 43 30
29 49 31
27 43 30
27 43 30
27 43 30
27 43 30
27 43 30
27 43 30
27 43 30
27 43 30
29 49 31
95 160 99
111 195 145
111 195 145
111 195 145
111 195 145
111 195 145
110 195 145
110 195 145
110 195 145
110 195 145
102 174 139
102 174 139
29 49 31
29 49 31
29 49 31
27 43 29
29 49 31
29 49 31
27 43 29
29 49 31
29 49 31
29 49 31
29 49 31
29 49 31
87 139 93
87 139 94
35 57 47
35 57 47
35 57 47
35 57 47
103 174 140
103 174 140
103 174 140
103 174 140
103 174 140
103 174 140
103 174 140
111 195 145
111 195 145
111 195 145
103 174 140
111 195 145
111 195 145
111 195 145
111 195 145
111 195 145
111 195 145
111 195 145
103 174 140
103 174 140
103 174 140
35 57 47
38 63 49
35 57 47
35 57 47
35 57 47
35 57 47
35 57 47
38 63 49
27 43 30
29 49 31
29 49 31
29 49 31
29 49 31
29 49 31
29 49 31
29 49 31
29 49 31
29 49 31
29 49 31
103 174 139
103 174 139
103 174 139
103 174 140
103 174 140
103 174 140
35 57 46
35 57 47
37 63 48
35 57 47
35 57 47
35 57 47
37 63 48
37 63 49
38 63 49
38 64 49
38 64 49
38 64 49
38 64 49
38 64 49
38 64 49
36 58 48
38 64 49
39 64 50
28 48 30
28 48 29
104 176 141
104 176 141
105 176 141
36 58 48
36 58 48
36 58 48
37 59 48
37 59 49
37 59 49
37 59 49
38 60 49
38 60 50
28 48 29
27 47 29
27 47 29
24 40 27
115 201 150
108 180 144
116 202 150
108 181 145
117 203 151
117 203 151
118 203 152
118 204 152
118 204 152
119 204 153
119 205 153
120 205 154
120 206 154
112 185 149
113 185 150
122 207 156
114 186 151
114 187 151
123 209 157
116 188 152
116 188 152
116 189 153
117 189 154
117 190 154
118 190 155
119 191 155
119 192 156
120 192 157
120 193 157
129 215 163
122 194 159
131 217 165
131 217 165
132 218 166
124 197 161
125 198 162
134 220 168
127 199 163
135 221 170
128 200 165
137 223 171
138 223 172
138 224 172
139 225 173
140 226 174
132 205 169
141 227 175
134 206 171
135 207 171
143 229 177
136 208 173
137 209 173
137 210 174
146 232 180
139 211 176
140 212 176
148 234 182
141 213 178
142 214 178
142 214 179
151 237 185
144 216 180
152 238 186
153 239 187
145 218 182
154 240 188
155 240 189
155 241 189
156 242 190
156 242 191
157 243 191
158 243 192
150 222 187
159 244 193
151 223 188
152 223 188
152 224 189
153 224 189
161 246 195
161 246 196
154 225 191
162 247 196
154 226 191
155 226 192
163 248 197
163 248 198
164 249 198
164 249 198
164 249 198
164 249 199
165 249 199
165 250 199
165 249 199
165 250 199
165 250 200
158 228 195
158 228 195
158 229 195
158 228 195
158 228 195
166 249 200
166 249 200
158 228 195
158 228 195
166 249 200
166 249 200
166 249 200
166 249 200
165 249 200
165 248 200
165 248 200
157 227 194
157 227 194
157 227 194
157 227 194
157 227 194
164 247 198
156 226 193
164 247 198
102 174 139
102 174 139
102 174 139
102 174 139
102 174 139
102 174 139
102 174 139
86 138 93
86 138 93
87 138 93
87 138 93
29 45 32
30 45 32
30 46 32
29 49 31
29 49 31
26 42 29
29 49 31
29 49 31
29 49 31
29 49 31
29 49 31
29 49 31
29 49 30
29 48 30
29 48 30
29 48 30
28 48 30
87 138 93
102 174 139
102 174 139
102 174 139
102 174 139
102 174 139
102 174 139
110 195 144
102 174 139
110 195 144
102 174 139
110 195 144
110 195 144
110 195 144
94 160 98
26 42 28
26 42 28
26 42 28
28 48 30
28 48 30
26 42 28
26 42 28
26 42 28
26 42 28
26 42 28
26 42 28
28 48 30
26 42 28
26 42 28
94 160 98
94 160 98
95 160 98
95 160 98
37 63 48
37 63 48
37 63 48
37 63 48
110 195 144
110 195 144
110 195 144
110 195 144
110 195 144
110 195 144
110 195 144
110 195 144
110 195 144
95 160 98
95 160 99
32 52 34
27 43 30
27 43 30
27 43 30
27 43 30
27 43 30
27 43 30
29 49 31
27 43 30
29 49 31
27 43 30
29 49 31
27 43 30
111 195 145
103 174 139
103 174 139
103 174 139
110 195 145
103 174 139
102 174 139
102 174 139
102 174 139
102 174 139
102 174 139
102 174 139
87 139 93
29 49 31
29 49 31
27 43 30
29 49 31
29 49 31
29 49 31
29 49 31
29 49 31
29 49 31
29 49 31
29 49 31
84 149 88
87 139 94
111 195 145
103 174 140
103 174 140
103 174 140
103 174 140
111 195 145
111 195 145
103 174 140
103 174 140
111 195 145
103 174 140
111 195 145
111 195 145
111 195 145
103 174 140
111 195 145
111 195 145
111 195 145
111 195 145
111 195 145
111 195 145
111 195 145
103 174 140
111 195 145
103 174 140
35 57 47
35 57 47
37 63 49
35 57 47
35 57 47
35 57 47
37 63 49
35 57 47
29 49 31
29 49 31
29 49 31
29 49 31
29 49 31
29 49 31
29 49 31
29 49 31
29 49 32
29 49 32
29 49 32
28 48 30
111 196 145
103 174 139
103 174 140
103 174 140
103 174 140
35 56 46
35 57 47
35 57 47
35 57 47
35 57 47
35 57 47
37 63 48
37 63 48
38 63 49
38 63 49
38 64 49
38 64 49
38 64 49
38 64 49
38 64 49
38 64 49
38 64 49
36 58 48
28 48 30
28 48 30
104 176 141
104 176 141
105 176 141
36 58 48
36 58 48
36 58 48
37 59 48
37 59 49
37 59 49
37 59 49
38 60 49
38 60 50
38 60 50
27 47 29
25 41 27
24 40 27
115 201 150
116 202 150
108 180 145
116 202 151
117 203 151
117 203 151
118 203 152
118 204 152
118 204 152
119 205 153
111 183 148
120 205 154
120 206 154
112 185 149
113 185 150
122 207 156
114 186 151
123 208 157
123 209 157
115 188 152
116 188 152
116 189 153
125 211 159
117 190 154
126 212 160
119 191 155
119 192 156
120 192 157
120 193 157
121 194 158
122 194 159
122 195 159
131 217 165
124 196 161
133 219 167
133 219 167
134 220 168
135 221 169
135 221 170
136 222 170
137 223 171
138 224 172
138 224 172
139 225 173
140 226 174
141 226 175
133 206 170
142 228 176
135 207 171
135 208 172
136 208 173
145 231 179
137 210 174
138 211 175
139 211 176
148 234 182
140 213 177
141 213 178
142 214 178
142 215 179
143 215 180
152 238 186
152 238 187
153 239 187
145 218 182
154 240 188
147 219 183
155 241 189
148 220 185
157 242 191
149 221 186
158 243 192
158 244 192
159 244 193
159 245 193
152 224 189
152 224 189
153 224 190
153 225 190
162 247 196
162 247 196
154 226 191
163 248 197
155 227 192
163 248 197
164 249 198
164 249 198
164 249 198
164 249 199
165 250 199
157 228 194
157 229 194
165 250 200
165 250 200
166 250 200
166 250 200
158 229 195
158 229 195
158 229 195
158 229 195
158 229 195
166 249 201
166 249 201
166 249 201
166 249 200
166 249 200
166 249 200
166 249 200
166 249 200
158 228 195
166 249 200
165 248 200
157 228 194
157 227 194
157 227 194
157 227 194
157 227 194
156 227 193
156 226 193
102 174 139
102 174 139
102 174 139
102 174 139
110 195 144
102 174 139
86 138 93
86 138 93
86 138 93
87 138 93
87 138 93
29 45 32
30 45 32
30 46 32
26 42 29
29 49 31
29 49 31
29 49 31
29 49 31
29 49 31
29 49 31
29 49 31
29 49 31
29 49 31
29 49 31
29 49 31
29 49 31
29 49 31
29 49 30
110 195 144
110 195 144
110 195 144
110 195 144
110 195 144
110 195 144
110 195 144
102 174 139
110 195 144
110 195 144
110 195 144
102 174 139
110 195 144
94 160 98
26 42 29
26 42 29
26 42 29
26 42 28
26 42 28
26 42 28
26 42 28
28 48 30
26 42 28
26 42 28
26 42 28
26 42 28
26 42 28
26 42 28
94 160 98
94 160 98
95 160 98
95 160 98
110 195 145
110 195 144
110 195 144
110 195 144
110 195 144
110 195 144
110 195 144
110 195 144
110 195 144
110 195 144
110 195 144
110 195 144
95 160 98
95 160 98
95 160 99
32 52 34
33 53 35
37 63 49
37 63 48
37 63 48
37 63 48
37 63 48
37 63 48
37 63 48
37 63 48
37 63 48
35 57 47
111 195 145
103 174 139
110 195 145
103 174 139
103 174 139
110 195 145
102 174 139
102 174 139
102 174 139
102 174 139
102 174 139
102 174 139
102 174 139
87 139 93
29 49 31
29 49 31
29 49 31
27 43 30
29 49 31
29 49 31
29 49 31
27 43 30
27 43 30
29 49 31
29 49 31
29 49 31
87 139 94
103 174 140
103 174 140
103 174 140
111 195 145
103 174 140
103 174 140
103 174 140
103 174 140
103 174 140
103 174 140
103 174 140
111 195 145
111 195 145
111 195 145
111 195 145
111 195 145
111 195 145
111 195 145
111 195 145
111 195 145
111 195 145
111 195 145
103 174 140
103 174 140
103 174 140
35 57 47
35 57 47
35 57 47
35 57 47
35 57 47
35 57 47
35 57 47
35 57 47
29 49 32
29 49 32
29 49 32
35 57 47
35 57 47
35 57 47
35 57 47
35 57 47
35 57 47
35 57 47
35 57 47
29 49 31
103 174 139
111 196 145
103 174 139
103 174 140
103 174 140
103 174 140
35 57 46
35 57 47
35 57 47
35 57 47
35 57 47
37 63 48
37 63 48
37 63 49
38 63 49
35 57 47
38 64 49
38 64 49
38 64 49
38 64 49
36 58 48
38 64 49
36 58 48
28 48 30
28 48 30
104 176 141
104 176 141
104 176 141
105 177 141
36 58 48
36 58 48
37 59 48
37 59 49
37 59 49
37 59 49
38 59 49
38 60 50
38 60 50
27 47 29
25 41 27
24 40 27
107 180 144
116 202 150
116 202 150
116 202 151
109 181 146
117 203 151
118 203 152
118 204 152
118 204 152
119 205 153
119 205 153
120 205 154
112 184 149
112 185 149
121 207 155
122 207 156
114 186 151
26 46 27
115 187 151
123 209 157
116 188 152
116 189 153
117 189 154
126 212 160
118 191 155
127 213 161
119 192 156
120 192 157
129 215 163
121 194 158
122 194 159
122 195 159
123 196 160
132 218 166
125 197 161
133 219 167
126 198 163
135 221 169
135 221 170
136 222 170
129 201 166
130 202 166
138 224 172
139 225 173
140 226 174
141 227 175
133 206 170
134 206 171
135 207 171
135 208 172
136 208 173
137 209 174
146 232 180
138 211 175
147 233 181
139 212 176
148 235 182
141 213 178
150 236 184
142 215 179
143 216 180
144 216 180
152 239 186
145 217 182
154 240 188
146 219 183
147 219 183
147 220 184
148 220 185
148 221 185
149 221 186
158 244 192
150 222 187
151 223 188
159 245 193
152 224 189
152 224 189
153 225 190
161 246 195
154 225 191
154 226 191
154 226 191
163 248 197
155 227 192
155 227 192
164 249 198
156 228 193
156 228 193
157 228 193
157 228 194
165 250 199
157 229 194
165 250 200
166 250 200
166 250 200
166 250 200
158 229 195
158 229 195
158 229 195
159 229 196
158 229 195
159 229 195
159 229 195
158 229 195
158 229 195
158 229 195
158 229 195
158 229 195
158 229 195
158 229 195
158 228 195
166 249 200
166 249 200
158 228 195
157 228 194
157 227 194
157 227 194
165 248 199
157 227 194
110 195 144
110 195 144
102 174 139
102 174 139
102 174 139
102 174 139
86 138 93
86 138 93
86 138 93
87 138 93
87 138 93
29 45 32
30 45 32
30 46 32
30 46 33
29 49 31
29 49 31
29 49 31
34 56 46
34 56 46
37 63 48
37 63 48
34 56 46
34 56 46
34 56 46
34 56 46
36 62 48
102 174 139
110 195 144
110 195 144
110 195 144
110 195 144
102 174 139
102 174 139
110 195 144
110 195 144
102 174 139
110 195 144
102 174 139
110 195 144
102 174 139
102 174 139
94 160 98
32 52 34
26 42 29
26 42 29
26 42 29
26 42 29
26 42 29
26 42 29
26 42 29
26 42 29
26 42 28
26 42 28
26 42 28
26 42 28
26 42 28
76 127 82
95 160 98
95 160 98
95 160 98
110 195 144
110 195 144
110 195 144
110 195 144
110 195 144
110 195 144
110 195 144
110 195 144
110 195 144
110 195 144
110 195 144
110 195 144
95 160 98
95 160 98
95 160 99
32 52 34
37 63 48
37 63 48
37 63 48
37 63 48
37 63 48
37 63 48
37 63 48
37 63 48
37 63 48
111 195 145
111 195 145
110 195 145
103 174 139
102 174 139
102 174 139
110 195 145
102 174 139
110 195 145
102 174 139
102 174 139
102 174 139
102 174 139
102 174 139
102 174 139
87 139 93
29 49 31
29 49 31
29 49 31
29 49 31
27 43 30
29 49 31
29 49 31
29 49 31
29 49 31
29 49 31
29 49 31
29 49 31
87 139 94
103 174 140
103 174 140
103 174 140
103 174 140
103 174 140
111 195 145
103 174 140
103 174 140
103 174 140
103 174 140
103 174 140
103 174 140
111 195 145
111 195 145
111 195 145
111 195 145
111 195 145
111 195 145
111 195 145
111 195 145
103 174 140
111 195 145
103 174 140
103 174 140
103 174 140
35 57 47
37 63 49
37 63 49
37 63 49
37 63 49
37 63 49
37 63 49
37 63 49
35 57 47
35 57 47
35 57 47
35 57 47
35 57 47
35 57 47
35 57 47
35 57 47
35 57 47
35 57 47
35 57 47
29 49 31
103 174 139
103 174 139
103 174 139
103 174 140
103 174 140
103 174 140
35 56 46
35 57 46
35 57 47
35 57 47
35 57 47
35 57 47
37 63 48
37 63 48
38 63 49
38 64 49
38 64 49
38 64 49
38 64 49
38 64 49
36 58 48
36 58 48
38 64 49
28 48 30
28 48 30
27 47 29
104 176 141
104 176 141
105 177 141
36 58 48
36 58 48
37 59 48
37 59 49
37 59 49
37 59 49
38 59 49
38 60 50
38 60 50
27 47 29
25 41 27
24 40 27
74 127 80
108 180 144
116 202 150
116 202 151
117 203 151
117 203 151
118 203 152
118 204 152
118 204 152
111 183 147
119 205 153
112 184 148
120 206 154
121 206 155
113 185 150
113 186 150
122 208 156
26 46 27
26 46 27
115 188 152
116 188 152
116 189 153
117 189 154
126 212 160
118 191 155
119 191 155
127 213 161
120 192 157
121 193 157
121 194 158
130 216 164
131 217 165
123 196 160
132 218 166
133 219 167
133 219 167
126 198 163
135 221 169
136 222 170
136 222 170
137 223 171
130 202 166
138 224 173
139 225 173
140 226 174
140 227 174
141 227 175
142 228 176
143 229 177
135 208 172
144 230 178
145 231 179
145 232 180
146 233 180
147 233 181
139 212 176
148 235 182
141 214 178
142 214 178
150 237 184
143 216 180
144 216 180
144 217 181
145 218 182
146 218 182
154 241 188
147 219 184
147 220 184
156 242 190
149 221 185
157 243 191
158 244 192
159 244 193
151 223 188
160 245 194
160 246 194
153 224 189
153 225 190
153 225 190
162 247 196
154 226 191
155 226 191
163 248 197
155 227 192
156 227 193
164 249 198
164 249 198
157 228 193
157 228 194
157 229 194
157 229 194
157 229 194
166 251 200
158 229 195
166 250 200
166 251 200
166 251 201
166 250 201
167 250 201
159 229 196
159 229 196
159 229 196
159 229 196
159 229 196
159 229 196
159 229 196
159 229 196
159 229 195
158 229 195
158 229 195
158 229 195
158 229 195
166 249 200
158 228 195
158 228 195
158 228 195
157 227 194
157 227 194
157 227 194
102 174 139
102 174 139
102 174 139
102 174 139
110 195 144
86 138 93
86 138 93
86 138 93
86 138 93
87 138 93
87 138 93
29 45 32
30 46 32
30 46 32
34 56 46
34 56 46
34 56 46
34 56 46
34 56 46
37 63 48
34 56 46
34 56 46
34 56 46
34 56 46
34 56 46
102 174 139
102 174 139
102 174 139
110 195 144
102 174 139
110 195 144
110 195 144
110 195 144
110 195 144
110 195 144
102 174 139
110 195 144
110 195 144
110 195 144
102 174 139
110 195 144
94 160 98
94 160 98
32 52 34
26 42 29
26 42 29
26 42 29
26 42 29
26 42 29
28 48 30
26 42 29
26 42 29
26 42 29
26 42 29
26 42 29
26 42 29
26 42 29
28 48 30
95 160 98
95 160 98
110 195 144
110 195 144
110 195 144
110 195 144
110 195 144
110 195 144
110 195 144
110 195 144
110 195 144
110 195 144
110 195 144
110 195 144
110 195 144
95 160 98
95 160 98
95 160 99
32 52 34
37 63 48
37 63 48
37 63 48
37 63 48
37 63 48
37 63 48
37 63 48
37 63 48
111 195 145
110 195 145
110 195 145
110 195 145
102 174 139
102 174 139
110 195 145
102 174 139
102 174 139
102 174 139
102 174 139
102 174 139
102 174 139
102 174 139
102 174 139
110 195 145
87 139 93
29 49 32
29 49 32
29 49 32
29 49 32
29 49 32
29 49 32
27 43 30
29 49 32
29 49 32
29 49 32
29 49 32
29 49 32
103 174 140
103 174 140
111 195 145
103 174 140
111 195 145
103 174 140
103 174 140
103 174 140
103 174 140
103 174 140
103 174 140
103 174 140
111 195 145
111 195 145
111 195 145
111 195 145
111 195 145
103 174 140
103 174 140
111 195 145
103 174 140
103 174 140
103 174 140
111 195 145
111 195 145
111 195 145
37 63 49
37 63 49
37 63 49
37 63 49
37 63 49
37 63 49
37 63 49
37 63 49
35 57 47
35 57 47
35 57 47
35 57 47
35 57 47
35 57 47
37 63 49
35 57 47
38 63 49
35 57 47
35 57 47
29 49 31
103 174 139
103 174 139
103 174 139
103 174 139
103 174 140
103 174 140
35 56 46
35 56 46
35 57 46
111 196 145
111 196 145
111 196 145
111 196 145
103 175 140
103 175 140
35 57 47
35 57 47
35 57 47
38 64 49
36 57 47
38 64 49
36 58 48
36 58 48
28 48 30
28 48 30
28 47 29
104 176 141
104 176 141
105 177 141
36 58 48
36 58 48
37 58 48
37 59 48
37 59 49
37 59 49
38 59 49
38 60 49
38 60 50
27 47 29
25 41 27
24 40 27
24 40 26
116 202 150
108 180 145
116 202 151
109 181 146
117 203 151
118 203 152
110 182 147
118 204 152
111 183 147
119 205 153
112 184 148
120 206 154
121 206 155
121 207 155
113 186 150
114 186 151
26 46 27
26 46 27
115 188 152
116 188 152
116 189 153
117 189 154
117 190 154
118 191 155
119 191 155
119 192 156
120 192 157
121 193 157
121 194 158
122 194 159
123 195 159
123 196 160
132 218 166
133 219 167
133 219 167
126 198 163
135 221 169
127 200 164
136 222 170
128 201 165
137 224 171
138 225 172
139 225 173
140 226 174
140 227 174
141 228 175
142 228 176
134 207 171
143 230 177
144 230 178
145 231 179
137 210 174
146 233 180
139 212 176
148 234 182
148 235 182
141 214 178
142 214 178
142 215 179
143 216 180
144 216 180
144 217 181
153 239 187
146 218 182
146 219 183
147 220 184
147 220 184
148 221 185
149 221 185
149 222 186
158 244 192
159 244 193
159 245 193
160 245 194
160 246 194
161 246 195
161 246 195
162 247 196
154 226 191
162 248 197
155 227 192
155 227 192
164 249 198
156 228 193
156 228 193
156 228 193
157 228 194
157 229 194
165 250 199
157 229 194
158 229 195
158 229 195
158 230 195
158 230 195
166 251 201
167 251 201
167 251 201
167 251 201
167 251 201
167 251 201
159 230 196
159 230 196
159 230 196
159 230 196
159 230 196
159 230 196
159 229 196
167 250 201
159 229 196
159 229 195
158 229 195
166 249 201
166 249 200
158 228 195
158 228 195
158 228 195
157 228 194
157 227 194
102 174 139
102 174 139
102 174 139
102 174 139
86 138 92
86 138 93
86 138 93
86 138 93
87 138 93
87 138 93
87 138 93
29 45 32
30 46 32
30 46 32
34 56 46
34 56 46
34 56 46
37 63 48
34 56 46
34 56 46
37 62 48
34 56 46
34 56 46
102 174 139
110 195 144
102 174 139
102 174 139
110 195 144
102 174 139
110 195 144
110 195 144
102 174 139
110 195 144
110 195 144
110 195 144
110 195 144
110 195 144
110 195 144
110 195 144
110 195 144
110 195 144
94 160 98
94 160 98
32 52 34
29 48 30
26 42 29
26 42 29
26 42 29
26 42 29
26 42 29
26 42 29
26 42 29
26 42 29
26 42 29
26 42 29
26 42 29
26 42 29
26 42 29
95 160 98
95 160 98
110 195 144
110 195 144
110 195 144
110 195 144
110 195 144
110 195 144
110 195 144
110 195 144
110 195 144
110 195 144
110 195 144
110 195 144
110 195 144
95 160 98
95 160 98
95 160 99
32 52 34
37 63 48
37 63 48
37 63 48
37 63 48
37 63 48
37 63 48
111 195 145
110 195 145
110 195 145
110 195 145
110 195 145
102 174 139
102 174 139
102 174 139
102 174 139
102 174 139
102 174 139
102 174 139
102 174 139
102 174 139
102 174 139
102 174 139
102 174 139
102 174 139
87 139 93
30 46 33
30 49 32
30 49 32
30 49 32
30 49 32
30 49 32
30 49 32
30 49 32
30 49 32
30 49 32
30 49 32
30 49 32
103 174 140
103 174 140
103 174 140
103 174 140
103 174 140
103 174 140
103 174 140
111 195 145
111 195 145
111 195 145
111 195 145
111 195 145
103 174 140
103 174 140
103 174 140
103 174 140
103 174 140
103 174 140
103 174 140
103 174 140
103 174 140
103 174 140
103 174 140
111 195 145
111 195 145
111 195 145
37 63 49
35 57 47
37 63 49
37 63 49
37 63 49
37 63 49
37 63 49
37 63 49
35 57 47
35 57 47
35 57 47
35 57 47
35 57 47
35 57 47
35 57 47
35 57 47
35 57 47
35 57 47
35 57 47
29 49 31
111 196 145
111 196 145
111 196 145
111 196 145
111 196 145
111 196 145
111 196 145
111 196 145
111 196 145
111 196 145
111 196 145
111 196 145
103 175 140
103 175 140
103 175 140
35 57 47
35 57 47
35 57 47
35 57 47
36 57 47
38 64 49
36 58 48
36 58 48
36 58 48
28 48 30
28 48 29
104 176 141
104 176 141
105 177 141
36 58 48
36 58 48
37 58 48
37 59 48
37 59 49
37 59 49
37 59 49
38 60 49
38 60 50
38 60 50
25 41 27
25 40 27
24 40 26
116 202 150
116 202 150
116 202 151
117 203 151
117 203 151
109 182 146
110 182 147
118 204 152
119 205 153
119 205 153
112 184 148
120 206 154
121 206 155
113 185 150
113 186 150
114 186 151
26 46 27
26 46 27
115 188 152
116 188 152
116 189 153
117 189 154
126 212 160
118 191 155
119 191 155
119 192 156
120 192 157
129 215 163
121 194 158
130 216 164
131 217 165
123 196 160
124 196 161
133 219 167
125 198 162
126 198 163
127 199 163
136 222 170
136 222 170
23 38 24
129 202 166
138 225 172
131 204 167
140 226 174
140 227 174
141 228 175
142 228 176
143 229 177
135 208 172
144 230 178
145 231 179
137 210 174
146 233 180
147 233 181
140 212 176
148 235 182
149 235 183
142 214 178
151 237 185
143 216 180
144 216 181
153 239 187
153 239 187
154 240 188
146 219 183
147 220 184
148 220 184
148 221 185
157 243 191
149 222 186
150 222 187
159 244 193
159 245 193
160 245 194
160 246 194
161 246 195
161 246 195
162 247 196
162 247 196
163 248 197
163 248 197
155 227 192
156 227 192
156 228 193
156 228 193
157 228 193
157 229 194
157 229 194
157 229 194
166 251 200
158 229 195
158 230 195
158 230 195
166 251 201
167 251 201
167 251 201
167 251 201
167 251 201
167 251 201
167 251 201
159 230 196
167 251 201
159 230 196
159 230 196
159 230 196
159 230 196
167 251 201
159 230 196
159 230 196
159 229 196
159 229 196
158 229 195
166 249 201
166 249 200
158 228 195
158 228 195
158 228 195
158 228 194
110 195 144
102 174 139
102 174 139
102 174 139
86 138 92
86 138 93
86 138 93
86 138 93
87 138 93
87 138 93
87 138 93
30 45 32
30 46 32
37 63 48
37 63 48
34 56 46
34 56 46
34 56 46
37 62 48
34 56 46
37 62 48
102 174 139
102 174 139
102 174 139
102 174 139
102 174 139
110 195 144
110 195 144
110 195 144
110 195 144
110 195 144
110 195 144
110 195 144
110 195 144
110 195 144
110 195 144
102 174 139
110 195 144
110 195 144
110 195 144
94 160 98
94 160 98
94 160 98
32 52 34
32 52 34
26 42 29
26 42 29
26 42 29
26 42 29
26 42 29
26 42 29
26 42 29
26 42 29
26 42 29
26 42 29
26 42 29
26 42 29
26 42 29
76 128 82
95 160 98
110 195 144
110 195 144
110 195 144
110 195 144
110 195 144
110 195 144
110 195 144
110 195 144
110 195 144
110 195 144
110 195 144
110 195 144
95 160 98
95 160 98
95 160 98
95 160 99
32 52 35
37 63 48
37 63 48
37 63 48
37 63 48
37 63 48
110 195 145
110 195 145
110 195 145
110 195 145
102 174 139
102 174 139
110 195 145
102 174 139
102 174 139
102 174 139
102 174 139
102 174 139
102 174 139
102 174 139
102 174 139
102 174 139
102 174 139
102 174 139
87 138 93
87 139 93
30 46 33
30 50 32
30 50 32
30 50 32
30 50 32
30 50 32
30 50 32
27 43 30
27 43 30
35 57 47
35 57 47
35 57 47
111 195 145
111 195 145
111 195 145
111 195 145
111 195 145
111 195 145
111 195 145
111 195 145
111 195 145
111 195 145
111 195 145
111 195 145
111 195 145
111 195 145
103 174 140
103 174 140
103 174 140
103 174 140
103 174 140
103 174 140
103 174 140
103 174 140
103 174 140
103 174 140
111 195 145
111 195 145
37 63 48
37 63 48
37 63 48
37 63 48
37 63 48
37 63 48
37 63 49
37 63 49
35 57 47
35 57 47
35 57 47
35 57 47
35 57 47
35 57 47
35 57 47
37 63 49
35 57 47
35 57 47
35 57 47
29 49 31
111 196 145
111 196 145
111 196 145
111 196 145
111 196 145
111 196 145
111 196 145
111 196 145
111 196 145
111 196 145
111 196 145
111 196 145
103 175 140
103 175 140
103 175 140
35 57 47
35 57 47
35 57 47
35 57 47
36 57 47
36 58 47
36 58 48
36 58 48
36 58 48
28 48 30
28 48 29
104 176 141
104 176 141
105 177 141
105 177 142
36 58 48
37 58 48
37 59 48
37 59 49
40 66 50
40 66 51
40 66 51
40 66 51
41 67 52
25 41 27
25 40 27
24 40 27
116 202 150
108 180 145
108 181 145
117 203 151
109 181 146
109 182 146
110 182 147
110 183 147
111 183 147
119 205 153
120 205 154
120 206 154
121 206 155
121 207 155
113 186 150
82 148 85
26 46 27
26 46 27
26 46 27
116 188 152
116 189 153
117 189 154
117 190 154
118 191 155
119 191 155
119 192 156
120 192 157
129 215 163
121 194 158
122 194 159
122 195 159
123 196 160
124 196 161
133 219 167
133 219 167
134 220 168
135 221 169
136 222 170
23 39 25
23 38 24
137 224 171
138 225 172
131 204 167
140 226 174
140 227 174
141 228 175
142 228 176
134 207 171
143 230 177
144 230 178
145 231 179
146 232 180
138 211 175
139 212 176
140 212 176
148 235 183
141 214 178
150 236 184
151 237 185
143 216 180
152 238 186
144 217 181
145 218 182
154 240 188
146 219 183
147 220 184
148 220 184
148 221 185
149 221 186
149 222 186
150 223 187
151 223 187
159 245 193
160 246 194
152 224 189
161 246 195
161 247 195
162 247 196
162 247 196
163 248 197
163 248 197
163 249 198
156 228 193
156 228 193
156 228 193
157 228 194
157 229 194
157 229 194
158 229 194
158 229 195
158 230 195
166 251 200
158 230 195
159 230 195
159 230 196
167 251 201
167 251 201
167 252 201
159 231 196
159 231 196
159 231 196
159 231 196
167 252 201
167 252 201
159 231 196
159 231 196
159 230 196
159 230 196
159 230 196
159 230 196
159 230 196
159 229 196
159 229 195
166 250 201
166 249 201
158 228 195
158 228 195
158 228 195
102 174 139
110 195 144
110 195 144
86 138 92
86 138 92
86 138 93
86 138 93
86 138 93
87 138 93
87 138 93
87 138 93
30 45 32
30 46 32
34 56 46
34 56 46
37 63 48
34 56 46
34 56 46
34 56 46
110 195 144
102 174 139
102 174 139
102 174 139
102 174 139
110 195 144
102 174 139
110 195 144
110 195 144
110 195 144
110 195 144
110 195 144
110 195 144
110 195 144
110 195 144
110 195 144
110 195 144
110 195 144
110 195 144
102 174 139
102 174 139
94 160 98
94 160 98
94 160 98
32 52 34
32 52 34
26 42 29
26 42 29
26 42 29
26 42 29
26 42 29
26 42 29
26 42 29
26 42 29
26 42 29
26 42 29
29 49 30
26 42 29
26 42 29
29 48 30
110 195 144
110 195 144
110 195 144
110 195 144
102 174 139
102 174 139
102 174 139
102 174 139
102 174 139
102 174 139
102 174 139
102 174 139
102 174 139
86 138 93
95 160 98
95 160 98
95 160 99
37 63 48
37 63 48
35 57 47
37 63 48
110 195 145
110 195 145
110 195 145
110 195 145
110 195 145
110 195 145
110 195 145
110 195 145
102 174 139
102 174 139
102 174 139
110 195 145
102 174 139
102 174 139
102 174 139
102 174 139
102 174 139
102 174 139
110 195 145
102 174 139
87 138 93
87 139 93
30 46 33
35 57 47
35 57 47
35 57 47
35 57 47
35 57 47
35 57 47
35 57 47
35 57 47
35 57 47
103 174 140
103 174 140
111 195 145
111 195 145
111 195 145
111 195 145
111 195 145
111 195 145
111 195 145
111 195 145
103 174 140
111 195 145
111 195 145
111 195 145
103 174 140
103 174 140
103 174 140
103 174 140
103 174 140
103 174 140
103 174 140
103 174 140
111 195 145
103 174 140
103 174 140
111 195 145
111 195 145
111 195 145
37 63 48
37 63 48
37 63 48
37 63 48
35 57 47
37 63 48
37 63 48
37 63 48
35 57 47
37 63 48
35 57 47
35 57 47
37 63 49
37 63 49
35 57 47
35 57 47
37 63 49
35 57 47
35 57 47
29 49 31
110 196 145
111 196 145
111 196 145
111 196 145
111 196 145
111 196 145
111 196 145
111 196 145
111 196 145
111 196 145
111 196 145
111 196 145
111 196 145
111 196 145
103 175 140
35 57 47
35 57 47
35 57 47
35 57 47
35 57 47
36 58 47
36 58 48
36 58 48
36 58 48
28 48 30
28 48 29
112 198 146
112 198 147
113 198 147
113 198 147
39 65 50
39 65 50
39 65 50
39 65 50
40 66 50
40 66 51
40 66 51
40 66 51
41 67 52
25 41 27
25 41 27
24 40 27
24 40 26
116 202 150
108 181 145
117 203 151
109 181 146
118 203 152
110 182 147
118 204 152
119 205 153
119 205 153
120 205 154
120 206 154
121 206 155
121 207 155
113 186 150
26 46 28
26 46 27
26 46 27
26 46 27
124 210 158
116 189 153
117 189 154
117 190 154
118 191 155
127 213 161
119 192 156
120 192 157
120 193 157
121 194 158
122 194 159
122 195 159
131 217 165
124 196 161
125 197 161
133 219 167
126 198 163
127 199 163
136 222 170
23 39 25
23 39 25
23 38 24
138 225 172
139 225 173
140 226 174
140 227 174
141 228 175
142 228 176
143 229 177
143 230 177
136 209 173
145 231 179
146 232 180
146 233 180
147 233 181
148 234 182
140 213 177
141 214 178
142 214 178
142 215 179
143 216 180
144 216 181
153 239 187
145 218 182
154 240 188
146 219 183
147 220 184
148 220 184
156 243 190
149 221 186
149 222 186
150 223 187
151 223 187
151 224 188
160 246 194
160 246 194
161 247 195
161 247 195
154 226 191
154 226 191
155 227 192
163 248 197
164 249 198
156 228 193
156 228 193
157 228 193
157 229 194
157 229 194
157 229 194
158 229 195
166 251 200
166 252 200
166 252 200
158 230 195
167 252 201
159 231 196
159 231 196
159 231 196
159 231 196
167 253 201
159 231 196
159 231 196
159 231 196
167 253 201
159 231 196
167 253 201
159 231 196
167 252 202
167 252 201
167 251 201
167 251 201
167 251 201
167 251 201
159 229 196
159 229 196
159 229 196
158 229 195
166 249 200
166 249 200
102 174 139
102 174 139
102 174 139
86 138 92
86 138 93
86 138 93
86 138 93
86 138 93
87 138 93
87 138 93
87 138 93
30 45 32
34 56 46
34 56 46
37 63 48
34 56 46
34 56 46
34 56 46
102 174 139
102 174 139
102 174 139
110 195 144
102 174 139
102 174 139
102 174 139
102 174 139
102 174 139
110 195 144
110 195 144
110 195 144
110 195 144
110 195 144
110 195 144
110 195 144
110 195 144
102 174 139
102 174 139
102 174 139
110 195 144
94 160 98
94 160 98
94 160 98
95 160 98
32 52 34
32 52 34
32 52 34
26 42 29
26 42 29
26 42 29
26 42 29
26 42 29
26 42 29
26 42 29
37 62 48
37 62 48
37 62 48
37 62 48
36 62 48
110 195 144
102 174 139
102 174 139
102 174 139
102 174 139
102 174 139
102 174 139
102 174 139
102 174 139
102 174 139
102 174 139
102 174 139
102 174 139
102 174 139
87 138 93
95 160 98
95 160 98
95 160 99
111 195 145
111 195 145
110 195 145
110 195 145
110 195 145
110 195 145
110 195 145
110 195 145
110 195 145
110 195 145
110 195 145
110 195 145
102 174 139
102 174 139
102 174 139
102 174 139
102 174 139
102 174 139
102 174 139
102 174 139
102 174 139
102 174 139
102 174 139
102 174 139
87 138 93
87 139 93
30 46 33
35 57 47
37 63 49
35 57 47
35 57 47
35 57 47
35 57 47
37 63 49
35 57 47
103 174 140
103 174 140
103 174 140
111 195 145
111 195 145
111 195 145
111 195 145
111 195 145
111 195 145
111 195 145
111 195 145
111 195 145
111 195 145
111 195 145
103 174 140
103 174 140
111 195 145
103 174 140
103 174 139
103 174 139
103 174 139
103 174 139
103 174 139
103 174 139
103 174 139
103 174 139
111 195 145
111 195 145
111 195 145
37 63 48
37 63 48
37 63 48
37 63 48
37 63 48
111 195 145
111 195 145
111 195 145
103 174 140
103 174 140
103 174 140
35 57 47
35 57 47
35 57 47
35 57 47
35 57 47
35 57 47
35 57 47
37 63 49
35 57 47
110 196 145
111 196 145
103 174 139
111 196 145
111 196 145
111 196 145
111 196 145
111 196 145
111 196 145
111 196 145
111 196 145
111 196 145
103 175 140
103 175 140
103 175 140
35 57 47
35 57 47
35 57 47
38 64 49
35 57 47
36 57 47
36 58 48
36 58 48
36 58 48
28 48 30
28 48 29
25 41 27
112 198 147
113 198 147
113 198 147
39 65 50
39 65 50
39 65 50
39 65 50
40 66 50
40 66 51
40 66 51
40 66 51
41 67 51
25 41 27
25 41 27
24 40 27
24 40 26
108 180 145
108 181 145
117 203 151
109 181 146
109 182 146
118 204 152
118 204 152
111 183 147
119 205 153
120 205 154
120 206 154
112 185 149
121 207 155
121 207 156
26 46 28
26 46 28
26 46 27
26 46 27
26 46 27
116 189 153
117 189 154
117 190 154
118 191 155
119 191 155
119 192 156
120 192 157
120 193 157
121 194 158
122 194 159
122 195 159
123 196 160
124 196 161
124 197 161
133 219 167
134 220 168
135 221 169
135 222 170
23 39 25
23 39 25
23 38 24
138 225 172
139 225 173
140 226 174
140 227 174
141 228 175
134 206 170
134 207 171
143 230 177
144 231 178
145 231 179
146 232 180
146 233 180
139 212 176
140 212 176
148 235 183
149 236 183
142 214 178
151 237 185
143 216 180
144 216 181
144 217 181
145 218 182
154 240 188
146 219 183
147 220 184
156 242 190
156 243 191
157 243 191
149 222 186
158 244 192
151 223 187
159 246 193
160 246 194
152 225 189
161 247 195
161 247 196
162 248 196
162 248 197
163 248 197
155 227 192
164 249 198
156 228 193
164 250 198
165 250 199
165 250 199
157 229 194
165 251 200
158 230 194
166 252 200
166 252 200
166 252 201
167 252 201
159 231 195
159 231 196
159 231 196
159 231 196
159 231 196
167 253 201
159 231 196
159 231 196
159 231 196
159 231 196
159 231 196
159 231 196
159 231 196
167 253 201
167 252 202
167 252 202
167 252 201
167 251 201
167 251 201
167 251 201
159 230 196
159 229 196
159 229 196
166 249 201
166 249 200
