P3
320 240
255
95 145 166
95 145 166
95 145 166
95 145 166
95 145 166
95 145 166
95 145 166
95 145 166
95 145 166
95 145 166
95 145 166
95 145 166
95 145 166
95 145 166
95 145 166
95 145 166
95 145 166
95 145 166
95 145 166
95 145 166
95 145 166
95 145 166
95 145 166
95 145 166
95 145 166
95 145 166
95 145 166
95 145 166
95 145 166
95 145 166
95 145 166
95 145 166
95 145 166
95 145 166
95 145 166
95 145 166
95 145 166
95 145 166
95 145 166
95 145 166
95 145 166
95 145 166
95 145 166
95 145 166
95 145 166
95 145 166
95 145 166
95 145 166
95 145 166
95 145 166
95 145 166
95 145 166
95 145 166
95 145 166
95 146 166
95 146 166
95 146 166
95 146 166
95 146 166
95 146 166
95 146 166
95 146 166
95 146 166
95 146 166
95 146 166
95 146 166
95 146 166
95 146 166
95 146 166
95 146 166
95 146 166
95 146 166
95 146 166
95 146 166
95 146 166
95 146 166
95 146 166
95 146 166
95 146 166
95 146 166
95 146 166
95 146 166
95 146 166
95 146 166
95 146 166
95 146 166
95 146 166
95 146 166
95 146 166
95 146 166
95 146 166
95 146 166
95 146 166
95 146 166
95 146 166
95 146 166
95 146 166
95 146 166
95 146 166
95 146 166
95 146 166
95 146 166
95 146 166
95 146 166
95 146 166
95 146 166
95 146 166
95 146 166
95 146 166
95 146 166
95 146 166
95 146 166
95 146 166
95 146 166
95 146 166
95 146 166
95 146 166
95 146 166
95 146 166
95 146 166
95 146 166
95 146 166
95 146 166
95 146 166
95 146 166
95 146 166
95 146 166
95 146 166
95 146 166
95 146 166
95 146 166
95 146 166
95 146 166
95 146 166
95 146 166
95 146 166
95 146 166
95 146 166
95 146 166
95 146 166
95 146 166
95 146 166
95 146 166
95 146 166
95 146 166
95 146 166
95 146 166
95 146 166
95 146 166
95 146 166
95 146 166
95 146 166
95 146 166
95 146 166
95 146 166
95 146 166
95 146 166
95 146 166
95 146 166
95 146 166
95 146 166
95 146 166
95 146 166
95 146 166
95 146 166
95 146 166
95 146 166
95 146 166
95 146 166
95 146 166
95 146 166
95 146 166
95 146 166
95 146 166
95 146 166
95 146 166
95 146 166
95 146 166
95 146 166
95 146 166
95 146 166
95 146 166
95 146 166
95 146 166
95 146 166
95 146 166
95 146 166
95 146 166
95 146 166
95 146 166
95 146 166
95 146 166
95 146 166
95 146 166
95 146 166
95 146 166
95 146 166
95 146 166
95 146 166
95 146 166
95 146 166
95 146 166
95 146 166
95 146 166
95 146 166
95 146 166
95 146 166
95 146 166
95 146 166
95 146 166
95 146 166
95 146 166
95 146 166
95 146 166
95 146 166
95 146 166
95 146 166
95 146 166
95 146 166
95 146 166
95 146 166
95 146 166
95 146 166
95 146 166
95 146 166
95 146 166
95 146 166
95 146 166
95 146 166
95 146 166
95 146 166
95 146 166
95 146 166
95 146 166
95 146 166
95 146 166
95 146 166
95 146 166
95 146 166
95 146 166
95 146 166
95 146 166
95 146 166
95 146 166
95 146 166
95 146 166
95 146 166
95 146 166
95 146 166
95 146 166
95 146 166
95 146 166
95 146 166
95 146 166
95 146 166
95 146 166
95 146 166
95 146 166
95 146 166
95 146 166
95 146 166
95 146 166
95 146 166
95 146 166
95 146 166
95 146 166
95 145 166
95 145 166
95 145 166
95 145 166
95 145 166
95 145 166
95 145 166
95 145 166
95 145 166
95 145 166
95 145 166
95 145 166
95 145 166
95 145 166
95 145 166
95 145 166
95 145 166
95 145 166
95 145 166
95 145 166
95 145 166
95 145 166
95 145 166
95 145 166
95 145 166
95 145 166
95 145 166
95 145 166
95 145 166
95 145 166
95 145 166
95 145 166
95 145 166
95 145 166
95 145 166
95 145 166
95 145 166
95 145 166
95 145 166
95 145 166
95 145 166
95 145 166
95 145 166
95 145 166
95 145 166
95 145 166
95 145 166
95 145 166
95 145 166
95 145 166
95 145 166
95 145 166
95 145 166
95 145 166
95 145 166
95 145 166
95 145 166
95 145 166
95 145 166
95 145 166
95 145 166
95 145 166
95 145 166
95 145 166
95 145 166
95 145 166
95 145 166
95 145 166
95 145 166
95 145 166
95 145 166
95 145 166
95 145 166
95 145 166
95 145 166
95 145 166
95 145 166
95 145 166
95 145 166
95 145 166
95 145 166
95 145 166
95 145 166
95 145 166
95 145 166
95 145 166
95 145 166
95 145 166
95 145 166
95 145 166
95 145 166
95 145 166
95 145 166
95 145 166
95 145 166
95 145 166
95 145 166
95 145 166
95 145 166
95 145 166
95 145 166
95 145 166
95 145 166
95 145 166
95 145 166
95 145 166
95 145 166
95 145 166
95 145 166
95 145 166
95 145 166
95 145 166
95 145 166
95 145 166
95 145 166
95 145 166
95 145 166
95 145 166
95 145 166
95 145 166
95 145 166
95 145 166
95 145 166
95 145 166
95 145 166
95 145 166
95 145 166
95 145 166
95 145 166
95 145 166
95 145 166
95 145 166
95 145 166
95 145 166
95 145 166
95 145 166
95 145 166
95 145 166
95 145 166
95 145 166
95 145 166
95 145 166
95 145 166
95 145 166
95 145 166
95 145 166
95 145 166
95 145 166
95 145 166
95 145 166
95 145 166
95 145 166
95 145 166
95 145 166
95 145 166
95 145 166
95 145 166
95 145 166
95 145 166
95 145 166
95 145 166
95 145 166
95 145 166
95 145 166
95 145 166
95 145 166
95 145 166
95 145 166
95 145 166
95 145 166
95 145 166
95 145 166
95 145 166
95 145 166
95 145 166
95 145 166
95 145 166
95 145 166
95 145 166
95 145 166
95 145 166
95 145 166
95 145 166
95 145 166
95 145 166
95 145 166
95 145 166
95 145 166
95 145 166
95 145 166
95 145 166
95 145 166
95 145 166
95 145 166
95 145 166
95 145 166
95 145 166
95 145 166
95 145 166
95 145 166
95 145 166
95 145 166
95 145 166
95 145 166
95 145 166
95 145 166
95 145 166
95 145 166
95 145 166
95 145 166
95 145 166
95 145 166
95 145 166
95 145 166
95 145 166
95 145 166
95 145 166
95 145 166
95 145 166
95 145 166
95 145 166
95 145 166
95 145 166
95 145 166
95 145 166
95 145 166
95 145 166
95 145 166
95 145 166
95 145 166
95 145 166
95 145 166
95 145 166
95 145 166
95 145 166
95 145 166
95 145 166
95 145 166
95 145 166
95 145 166
95 145 166
95 145 166
95 145 166
95 145 166
95 145 166
95 145 166
95 145 166
95 145 166
95 145 166
95 145 166
95 145 166
95 145 166
95 145 166
95 145 166
95 145 166
95 145 166
95 145 166
95 145 166
95 145 166
95 145 166
95 145 166
95 145 166
95 145 166
95 145 166
95 145 166
95 145 166
95 145 166
95 145 166
95 145 166
95 145 166
95 145 166
95 145 166
95 145 166
95 145 166
95 145 166
95 145 166
95 145 166
95 145 166
95 145 166
95 145 166
95 145 166
95 145 166
95 145 166
95 145 166
95 145 166
95 145 166
95 145 166
95 145 166
95 145 166
95 145 166
95 145 166
95 145 166
95 145 166
95 145 166
95 145 166
95 145 166
95 145 166
95 145 166
95 145 166
95 145 166
95 145 166
95 145 166
95 145 166
95 145 166
95 145 166
95 145 166
95 145 166
95 145 166
95 145 166
95 145 166
95 145 166
95 145 166
95 145 166
95 145 166
95 145 166
95 145 166
95 145 166
95 145 166
95 145 166
95 145 166
95 145 166
95 145 166
95 145 166
95 145 166
95 145 166
95 145 166
95 145 166
95 145 166
95 145 166
95 145 166
95 145 166
95 145 166
95 145 166
95 145 166
95 145 166
95 145 166
95 145 166
95 145 166
95 145 166
95 145 166
95 145 166
95 145 166
95 145 166
95 145 166
95 145 166
95 145 166
95 145 166
95 145 166
95 145 166
95 145 166
95 145 166
95 145 166
95 145 166
95 145 166
95 145 166
95 145 166
95 145 166
95 145 166
95 145 166
95 145 166
95 145 166
95 145 166
95 145 166
95 145 166
95 145 166
95 145 166
95 145 166
95 145 166
95 145 166
95 145 166
95 145 166
95 145 166
95 145 166
95 145 166
95 145 165
95 145 165
95 145 165
95 145 165
95 145 165
95 145 165
95 145 165
95 145 165
95 145 165
95 145 165
95 145 165
95 145 165
95 145 165
95 145 165
95 145 165
95 145 165
95 145 165
95 145 165
95 145 165
95 145 165
95 145 165
95 145 165
95 145 166
95 145 166
95 145 166
95 145 166
95 145 166
95 145 166
95 145 166
95 145 166
95 145 166
95 145 166
95 145 166
95 145 166
95 145 166
95 145 166
95 145 166
95 145 166
95 145 166
95 145 166
95 145 166
95 145 166
95 145 166
95 145 166
95 145 166
95 145 166
95 145 166
95 145 166
95 145 166
95 145 166
95 145 166
95 145 166
95 145 166
95 145 166
95 145 166
95 145 166
95 145 166
95 145 166
95 145 166
95 145 166
95 145 166
95 145 166
95 145 166
95 145 166
95 145 166
95 145 166
95 145 166
95 145 166
95 145 166
95 145 166
95 145 166
95 145 166
95 145 166
95 145 166
95 145 166
95 145 166
95 145 166
95 145 166
95 145 166
95 145 166
95 145 166
95 145 166
95 145 166
95 145 166
95 145 166
95 145 166
95 145 166
95 145 166
95 145 166
95 145 166
95 145 166
95 145 166
95 145 166
95 145 166
95 145 166
95 145 166
95 145 166
95 145 166
95 145 166
95 145 166
95 145 166
95 145 166
95 145 166
95 145 166
95 145 166
95 145 166
95 145 166
95 145 166
95 145 166
95 145 166
95 145 166
95 145 166
95 145 166
95 145 166
95 145 166
95 145 166
95 145 166
95 145 166
95 145 166
95 145 166
95 145 166
95 145 166
95 145 166
95 145 166
95 145 166
95 145 166
95 145 166
95 145 166
95 145 166
95 145 166
95 145 166
95 145 166
95 145 166
95 145 166
95 145 166
95 145 166
95 145 166
95 145 166
95 145 166
95 145 166
95 145 166
95 145 166
95 145 166
95 145 166
95 145 166
95 145 166
95 145 166
95 145 166
95 145 166
95 145 166
95 145 166
95 145 166
95 145 166
95 145 166
95 145 166
95 145 166
95 145 166
95 145 166
95 145 166
95 145 166
95 145 166
95 145 166
95 145 166
95 145 166
95 145 166
95 145 166
95 145 166
95 145 166
95 145 166
95 145 166
95 145 166
95 145 166
95 145 166
95 145 166
95 145 166
95 145 166
95 145 166
95 145 166
95 145 166
95 145 166
95 145 166
95 145 166
95 145 166
95 145 166
95 145 166
95 145 166
95 145 166
95 145 166
95 145 166
95 145 166
95 145 166
95 145 166
95 145 166
95 145 166
95 145 166
95 145 166
95 145 166
95 145 166
95 145 166
95 145 166
95 145 166
95 145 166
95 145 166
95 145 166
95 145 166
95 145 166
95 145 166
95 145 166
95 145 166
95 145 166
95 145 166
95 145 166
95 145 166
95 145 166
95 145 166
95 145 166
95 145 166
95 145 166
95 145 166
95 145 166
95 145 166
95 145 166
95 145 166
95 145 166
95 145 166
95 145 166
95 145 166
95 145 166
95 145 166
95 145 166
95 145 166
95 145 166
95 145 166
95 145 166
95 145 166
95 145 166
95 145 166
95 145 166
95 145 166
95 145 166
95 145 166
95 145 166
95 145 166
95 145 166
95 145 166
95 145 166
95 145 166
95 145 166
95 145 166
95 145 166
95 145 166
95 145 166
95 145 166
95 145 166
95 145 166
95 145 166
95 145 166
95 145 166
95 145 166
95 145 166
95 145 166
95 145 166
95 145 166
95 145 166
95 145 166
95 145 166
95 145 166
95 145 166
95 145 166
95 145 166
95 145 166
95 145 166
95 145 166
95 145 166
95 145 166
95 145 166
95 145 166
95 145 166
95 145 166
95 145 166
95 145 166
95 145 166
95 145 166
95 145 166
95 145 166
95 145 166
95 145 166
95 145 166
95 145 166
95 145 166
95 145 166
95 145 166
95 145 166
95 145 166
95 145 166
95 145 166
95 145 166
95 145 166
95 145 165
95 145 165
95 145 165
95 145 165
95 145 165
95 145 165
95 145 165
95 145 165
95 145 165
95 145 165
95 145 165
95 145 165
95 145 165
95 145 165
95 145 165
95 145 165
95 145 165
95 145 165
95 145 165
95 145 165
95 145 165
95 145 165
95 145 165
95 145 165
95 145 165
95 145 165
95 145 165
95 145 165
95 145 165
95 145 165
95 145 165
95 145 165
95 145 165
95 145 165
95 145 165
95 145 165
95 145 165
95 145 165
95 145 165
95 145 165
95 145 165
95 145 165
95 145 165
95 145 165
95 145 165
95 145 165
95 145 165
95 145 165
95 145 165
95 145 165
95 145 165
95 145 165
95 145 165
95 145 165
95 145 165
95 145 165
95 145 165
95 145 165
95 145 165
95 145 165
95 145 165
95 145 165
95 145 165
95 145 165
95 145 165
95 145 165
95 145 165
95 145 165
95 145 165
95 145 165
95 145 165
95 145 165
95 145 165
95 145 165
95 145 165
95 145 165
95 145 165
95 145 165
95 145 165
95 145 165
95 145 165
95 145 165
95 145 165
95 145 165
95 145 165
95 145 165
95 145 165
95 145 165
95 145 165
95 145 165
95 145 165
95 145 165
95 145 165
95 145 165
95 145 165
95 145 165
95 145 165
95 145 165
95 145 165
95 145 165
95 145 165
95 145 165
95 145 165
95 145 165
95 145 165
95 145 165
95 145 165
95 145 165
95 145 165
95 145 165
95 145 165
95 145 165
95 145 165
95 145 165
95 145 165
95 145 165
95 145 165
95 145 165
95 145 165
95 145 165
95 145 165
95 145 165
95 145 165
95 145 165
95 145 165
95 145 165
95 145 165
95 145 165
95 145 165
95 145 165
95 145 165
95 145 165
95 145 165
95 145 165
95 145 165
95 145 165
95 145 165
95 145 165
95 145 165
95 145 165
95 145 165
95 145 165
95 145 165
95 145 165
95 145 165
95 145 165
95 145 165
95 145 165
95 145 165
95 145 165
95 145 165
95 145 165
95 145 165
95 145 165
95 145 165
95 145 165
95 145 165
95 145 165
95 145 165
95 145 165
95 145 165
95 145 165
95 145 165
95 145 165
95 145 165
95 145 165
95 145 165
95 145 165
95 145 165
95 145 165
95 145 165
95 145 165
95 145 165
95 145 165
95 145 165
95 145 165
95 145 165
95 145 165
95 145 165
95 145 165
95 145 165
95 145 165
95 145 165
95 145 165
95 145 165
95 145 165
95 145 165
95 145 165
95 145 165
95 145 165
95 145 165
95 145 165
95 145 165
95 145 165
95 145 165
95 145 165
95 145 165
95 145 165
95 145 165
95 145 165
95 145 165
95 145 165
95 145 165
95 145 165
95 145 165
95 145 165
95 145 165
95 145 165
95 145 165
95 145 165
95 145 165
95 145 165
95 145 165
95 145 165
95 145 165
95 145 165
95 145 165
95 145 165
95 145 165
95 145 165
95 145 165
95 145 165
95 145 165
95 145 165
95 145 165
95 145 165
95 145 165
95 145 165
95 145 165
95 145 165
95 145 165
95 145 165
95 145 165
95 145 165
95 145 165
95 145 165
95 145 165
95 145 165
95 145 165
95 145 165
95 145 165
95 145 165
95 145 165
95 145 165
95 145 165
95 145 165
95 145 165
95 145 165
95 145 165
95 145 165
95 145 165
95 145 165
95 145 165
95 145 165
95 145 165
95 145 165
95 145 165
95 145 165
95 145 165
95 145 165
95 145 165
95 145 165
95 145 165
95 145 165
95 145 165
95 145 165
95 145 165
95 145 165
95 145 165
95 145 165
95 145 165
95 145 165
95 145 165
95 145 165
95 145 165
95 145 165
95 145 165
95 145 165
95 145 165
95 145 165
95 145 165
95 145 165
95 145 165
95 145 165
95 145 165
95 145 165
95 145 165
95 145 165
95 145 165
95 145 165
95 145 165
95 145 165
95 145 165
95 145 165
95 145 165
95 145 165
95 145 165
95 145 165
95 145 165
95 145 165
95 145 165
95 145 165
95 145 165
95 145 165
95 145 165
95 145 165
95 145 165
95 145 165
95 145 165
95 145 165
95 145 165
95 145 165
95 145 165
95 145 165
95 145 165
95 145 165
95 145 165
95 145 165
95 145 165
95 145 165
95 145 165
95 145 165
95 145 165
95 145 165
95 145 165
95 145 165
95 145 165
95 145 165
95 145 165
95 145 165
95 145 165
95 145 165
95 145 165
95 145 165
95 145 165
95 145 165
95 145 165
95 145 165
95 145 165
95 145 165
95 145 165
95 145 165
95 145 165
95 145 165
95 145 165
95 145 165
95 145 165
95 145 165
95 145 165
95 145 165
95 145 165
95 145 165
95 145 165
95 145 165
95 145 165
95 145 165
95 145 165
95 145 165
95 145 165
95 145 165
95 145 165
95 145 165
95 145 165
95 145 165
95 145 165
95 145 165
95 145 165
95 145 165
95 145 165
95 145 165
95 145 165
95 145 165
95 145 165
95 145 165
95 145 165
95 145 165
95 145 165
95 145 165
95 145 165
95 145 165
95 145 165
95 145 165
95 145 165
95 145 165
95 145 165
95 145 165
95 145 165
95 145 165
95 145 165
95 145 165
95 145 165
95 145 165
95 145 165
95 145 165
95 145 165
95 145 165
95 145 165
95 145 165
95 145 165
95 145 165
95 145 165
95 145 165
95 145 165
95 145 165
95 145 165
95 145 165
95 145 165
95 145 165
95 145 165
95 145 165
95 145 165
95 145 165
95 145 165
95 145 165
95 145 165
95 145 165
95 145 165
95 145 165
95 145 165
95 145 165
95 145 165
95 145 165
95 145 165
95 145 165
95 145 165
95 145 165
95 145 165
95 145 165
95 145 165
95 145 165
95 145 165
95 145 165
95 145 165
95 145 165
95 145 165
95 145 165
95 145 165
95 145 165
95 145 165
95 145 165
95 145 165
95 145 165
95 145 165
95 145 165
95 145 165
95 145 165
95 145 165
95 145 165
95 145 165
95 145 165
95 145 165
95 145 165
95 145 165
95 145 165
95 145 165
95 145 165
95 145 165
95 145 165
95 145 165
95 145 165
95 145 165
95 145 165
95 145 165
95 145 165
95 145 165
95 145 165
95 145 165
95 145 165
95 145 165
95 145 165
95 145 165
95 145 165
95 145 165
95 145 165
95 145 165
95 145 165
95 145 165
95 145 165
95 145 165
95 145 165
95 145 165
95 145 165
95 145 165
95 145 165
95 145 165
95 145 165
95 145 165
95 145 165
95 145 165
95 145 165
95 145 165
95 145 165
95 145 165
95 145 165
95 145 165
95 145 165
95 145 165
95 145 165
95 145 165
95 145 165
95 145 165
95 145 165
95 145 165
95 145 165
95 145 165
95 145 165
95 145 165
95 145 165
95 145 165
95 145 165
95 145 165
95 145 165
95 145 165
95 145 165
95 145 165
95 145 165
95 145 165
95 145 165
95 145 165
95 145 165
95 145 165
95 145 165
95 145 165
95 145 165
95 145 165
95 145 165
95 145 165
95 145 165
95 145 165
95 145 165
95 145 165
95 145 165
95 145 165
95 145 165
95 145 165
95 145 165
95 145 165
95 145 165
95 145 165
95 145 165
95 145 165
95 145 165
95 145 165
95 145 165
95 145 165
95 145 165
95 145 165
95 145 165
95 145 165
95 145 165
95 145 165
95 145 165
95 145 165
95 145 165
95 145 165
95 145 165
95 145 165
95 145 165
95 145 165
95 145 165
95 145 165
95 145 165
95 145 165
95 145 165
95 145 165
95 145 165
95 145 165
95 145 165
95 145 165
95 145 165
95 145 165
95 145 165
95 145 165
95 145 165
95 145 165
95 145 165
95 145 165
95 145 165
95 145 165
95 145 165
95 145 165
95 145 165
95 145 165
95 145 165
95 145 165
95 145 165
95 145 165
95 145 165
95 145 165
95 145 165
95 145 165
95 145 165
95 145 165
95 145 165
95 145 165
95 145 165
95 145 165
95 145 165
95 145 165
95 145 165
95 145 165
95 145 165
95 145 165
95 145 165
95 145 165
95 145 165
95 145 165
95 145 165
95 145 165
95 145 165
95 145 165
95 145 165
95 145 165
95 145 165
95 145 165
95 145 165
95 145 165
95 145 165
95 145 165
95 145 165
95 145 165
95 145 165
95 145 165
95 145 165
95 145 165
95 145 165
95 145 165
95 145 165
95 145 165
95 145 165
95 145 165
95 145 165
95 145 165
95 145 165
95 145 165
95 145 165
95 145 165
95 145 165
95 145 165
95 145 165
95 145 165
95 145 165
95 145 165
95 145 165
95 145 165
95 145 165
95 145 165
95 145 165
95 145 165
95 145 165
95 145 165
95 145 165
95 145 165
95 145 165
95 145 165
95 145 165
95 145 165
95 145 165
95 145 165
95 145 165
95 145 165
95 145 165
94 144 165
94 144 165
94 144 165
94 144 165
94 144 165
94 144 165
94 144 165
94 144 165
94 144 165
94 144 165
94 144 165
94 144 165
94 144 165
94 144 165
94 144 165
94 144 165
94 144 165
94 144 165
94 144 165
94 144 165
94 144 165
94 144 165
94 144 165
94 144 165
94 144 165
94 144 165
94 144 165
94 144 165
94 144 165
94 144 165
94 144 165
94 144 165
94 144 165
94 144 165
94 144 165
94 144 165
94 144 165
94 144 165
94 144 165
94 144 165
94 144 165
94 144 165
94 144 165
94 144 165
94 144 165
94 144 165
94 144 165
94 144 165
94 144 165
94 144 165
94 144 165
94 144 165
95 144 165
95 144 165
95 144 165
95 144 165
95 144 165
95 144 165
95 144 165
95 144 165
95 144 165
95 144 165
95 144 165
95 144 165
95 144 165
95 144 165
95 144 165
95 144 165
95 144 165
95 144 165
95 144 165
95 144 165
95 144 165
95 144 165
95 144 165
95 144 165
95 144 165
95 144 165
95 144 165
95 144 165
95 144 165
95 144 165
95 144 165
95 144 165
95 144 165
95 144 165
95 145 165
95 145 165
95 145 165
95 145 165
95 145 165
95 145 165
95 145 165
95 145 165
95 145 165
95 145 165
95 145 165
95 145 165
95 145 165
95 145 165
95 145 165
95 145 165
95 145 165
95 145 165
95 145 165
95 145 165
95 145 165
95 145 165
95 145 165
95 145 165
95 145 165
95 145 165
95 145 165
95 145 165
95 145 165
95 145 165
95 145 165
95 145 165
95 145 165
95 145 165
95 145 165
95 145 165
95 145 165
95 145 165
95 145 165
95 145 165
95 145 165
95 145 165
95 145 165
95 145 165
95 145 165
95 145 165
95 145 165
95 145 165
95 145 165
95 145 165
95 145 165
95 145 165
95 145 165
95 145 165
95 145 165
95 145 165
95 145 165
95 145 165
95 145 165
95 145 165
95 145 165
95 145 165
95 145 165
95 145 165
95 145 165
95 145 165
95 145 165
95 145 165
95 145 165
95 145 165
95 145 165
95 145 165
95 145 165
95 145 165
95 145 165
95 145 165
95 145 165
95 145 165
95 145 165
95 145 165
95 145 165
95 145 165
95 145 165
95 145 165
95 145 165
95 145 165
95 145 165
95 145 165
95 145 165
95 145 165
95 145 165
95 145 165
95 145 165
95 145 165
95 145 165
95 145 165
95 145 165
95 145 165
95 145 165
95 145 165
95 145 165
95 145 165
95 145 165
95 145 165
95 145 165
95 145 165
95 145 165
95 145 165
95 145 165
95 145 165
95 145 165
95 145 165
95 145 165
95 145 165
95 145 165
95 145 165
95 145 165
95 145 165
95 145 165
95 145 165
95 145 165
95 145 165
95 145 165
95 145 165
95 145 165
95 145 165
95 145 165
95 145 165
95 145 165
95 145 165
95 145 165
95 145 165
95 145 165
95 145 165
95 145 165
95 145 165
95 145 165
95 145 165
95 145 165
95 145 165
95 145 165
95 145 165
95 145 165
95 145 165
95 145 165
95 145 165
95 145 165
95 145 165
95 144 165
95 144 165
95 144 165
95 144 165
95 144 165
95 144 165
95 144 165
95 144 165
95 144 165
95 144 165
95 144 165
95 144 165
95 144 165
95 144 165
95 144 165
95 144 165
95 144 165
95 144 165
95 144 165
95 144 165
95 144 165
95 144 165
95 144 165
95 144 165
95 144 165
95 144 165
95 144 165
95 144 165
95 144 165
95 144 165
95 144 165
95 144 165
95 144 165
95 144 165
94 144 165
94 144 165
94 144 165
94 144 165
94 144 165
94 144 165
94 144 165
94 144 165
94 144 165
94 144 165
94 144 165
94 144 165
94 144 165
94 144 165
94 144 165
94 144 165
94 144 165
94 144 165
94 144 165
94 144 165
94 144 165
94 144 165
94 144 165
94 144 165
94 144 165
94 144 165
94 144 165
94 144 165
94 144 165
94 144 165
94 144 165
94 144 165
94 144 165
94 144 165
94 144 165
94 144 165
94 144 165
94 144 165
94 144 165
94 144 165
94 144 165
94 144 165
94 144 165
94 144 165
94 144 165
94 144 165
94 144 165
94 144 165
94 144 165
94 144 165
94 144 165
94 144 165
94 144 165
94 144 165
94 144 165
94 144 165
94 144 165
94 144 165
94 144 165
94 144 165
94 144 165
94 144 165
94 144 165
94 144 165
94 144 165
94 144 165
94 144 165
94 144 165
94 144 165
94 144 165
94 144 165
94 144 165
94 144 165
94 144 165
94 144 165
94 144 165
94 144 165
94 144 165
94 144 165
94 144 165
94 144 165
94 144 165
94 144 165
94 144 165
94 144 165
94 144 165
94 144 165
94 144 165
94 144 165
94 144 165
94 144 165
94 144 165
94 144 165
94 144 165
94 144 165
94 144 165
94 144 165
94 144 165
94 144 165
94 144 165
94 144 165
94 144 165
94 144 165
94 144 165
94 144 165
94 144 165
94 144 165
94 144 165
94 144 165
94 144 165
94 144 165
94 144 165
94 144 165
94 144 165
94 144 165
94 144 165
94 144 165
94 144 165
94 144 165
94 144 165
94 144 165
94 144 165
94 144 165
94 144 165
94 144 165
94 144 165
94 144 165
94 144 165
94 144 165
94 144 165
94 144 165
94 144 165
94 144 165
94 144 165
94 144 165
94 144 165
94 144 165
94 144 165
94 144 165
94 144 165
94 144 165
94 144 165
94 144 165
94 144 165
94 144 165
94 144 165
94 144 165
94 144 165
94 144 165
94 144 165
94 144 165
94 144 165
94 144 165
94 144 165
94 144 165
94 144 165
94 144 165
94 144 165
94 144 165
94 144 165
94 144 165
94 144 165
94 144 165
94 144 165
94 144 165
94 144 165
94 144 165
94 144 165
94 144 165
94 144 165
94 144 165
94 144 165
94 144 165
94 144 165
94 144 165
94 144 165
94 144 165
94 144 165
94 144 165
94 144 165
94 144 165
94 144 165
94 144 165
94 144 165
94 144 165
94 144 165
94 144 165
94 144 165
94 144 165
94 144 165
94 144 165
94 144 165
94 144 165
94 144 165
94 144 165
94 144 165
94 144 165
94 144 165
94 144 165
94 144 165
94 144 165
94 144 165
94 144 165
94 144 165
94 144 165
94 144 165
94 144 165
94 144 165
94 144 165
94 144 165
94 144 165
94 144 165
94 144 165
94 144 165
94 144 165
94 144 165
94 144 165
94 144 165
94 144 165
94 144 165
94 144 165
94 144 165
94 144 165
94 144 165
94 144 165
94 144 165
94 144 165
94 144 165
94 144 165
94 144 165
94 144 165
94 144 165
94 144 165
94 144 165
94 144 165
94 144 165
94 144 165
94 144 165
94 144 165
94 144 165
94 144 165
94 144 165
94 144 165
94 144 165
94 144 165
94 144 165
94 144 165
94 144 165
94 144 165
94 144 165
94 144 165
94 144 165
94 144 165
94 144 165
94 144 165
94 144 165
94 144 165
94 144 165
94 144 165
94 144 165
94 144 165
94 144 165
94 144 165
94 144 165
94 144 165
94 144 165
94 144 165
94 144 165
94 144 165
94 144 165
94 144 165
94 144 165
94 144 165
94 144 165
94 144 165
94 144 165
94 144 165
94 144 165
94 144 165
94 144 165
94 144 165
94 144 165
94 144 165
94 144 165
94 144 165
94 144 165
94 144 165
94 144 165
94 144 165
94 144 165
94 144 165
94 144 165
94 144 165
94 144 165
94 144 165
94 144 165
94 144 165
94 144 165
94 144 165
94 144 165
94 144 165
94 144 165
94 144 165
94 144 165
94 144 165
94 144 165
94 144 165
94 144 165
94 144 165
94 144 165
94 144 165
94 144 165
94 144 165
94 144 165
94 144 165
94 144 165
94 144 165
94 144 165
94 144 165
94 144 165
94 144 165
94 144 165
94 144 165
94 144 165
94 144 165
94 144 165
94 144 165
94 144 165
94 144 165
94 144 165
94 144 165
94 144 165
94 144 165
94 144 165
94 144 165
94 144 165
94 144 165
94 144 165
94 144 165
94 144 165
94 144 165
94 144 165
94 144 165
94 144 165
94 144 165
94 144 165
94 144 165
94 144 165
94 144 165
94 144 165
94 144 165
94 144 165
94 144 165
94 144 165
94 144 165
94 144 165
94 144 165
94 144 165
94 144 165
94 144 165
94 144 165
94 144 165
94 144 165
94 144 165
94 144 165
94 144 165
94 144 165
94 144 165
94 144 165
94 144 165
94 144 165
94 144 165
94 144 164
94 144 164
94 144 164
94 144 164
94 144 164
94 144 164
94 144 164
94 144 164
94 144 164
94 144 164
94 144 164
94 144 164
94 144 164
94 144 164
94 144 164
94 144 164
94 144 164
94 144 164
94 144 164
94 144 164
94 144 164
94 144 164
94 144 164
94 144 164
94 144 164
94 144 164
94 144 164
94 144 164
94 144 164
94 144 164
94 144 164
94 144 164
94 144 164
94 144 164
94 144 164
94 144 164
94 144 164
94 144 164
94 144 164
94 144 164
94 144 164
94 144 164
94 144 164
94 144 164
94 144 164
94 144 164
94 144 164
94 144 164
94 144 164
94 144 164
94 144 164
94 144 164
94 144 164
94 144 164
94 144 164
94 144 164
94 144 164
94 144 164
94 144 164
94 144 164
94 144 164
94 144 164
94 144 164
94 144 164
94 144 164
94 144 164
94 144 164
94 144 164
94 144 164
94 144 164
94 144 164
94 144 164
94 144 164
94 144 164
94 144 164
94 144 164
94 144 164
94 144 164
94 144 164
94 144 164
94 144 164
94 144 164
94 144 164
94 144 164
94 144 164
94 144 164
94 144 164
94 144 164
94 144 164
94 144 164
94 144 164
94 144 164
94 144 164
94 144 164
94 144 164
94 144 164
94 144 164
94 144 164
94 144 164
94 144 164
94 144 164
94 144 164
94 144 164
94 144 164
94 144 164
94 144 164
94 144 164
94 144 164
94 144 164
94 144 164
94 144 164
94 144 164
94 144 164
94 144 164
94 144 164
94 144 164
94 144 164
94 144 164
94 144 164
94 144 164
94 144 164
94 144 164
94 144 164
94 144 164
94 144 164
94 144 164
94 144 164
94 144 164
94 144 164
94 144 164
94 144 164
94 144 164
94 144 164
94 144 164
94 144 164
94 144 164
94 144 164
94 144 164
94 144 164
94 144 164
94 144 164
94 144 164
94 144 164
94 144 164
94 144 164
94 144 164
94 144 164
94 144 164
94 144 164
94 144 164
94 144 164
94 144 164
94 144 164
94 144 164
94 144 164
94 144 164
94 144 164
94 144 164
94 144 164
94 144 164
94 144 164
94 144 164
94 144 164
94 144 164
94 144 164
94 144 164
94 144 164
94 144 164
94 144 164
94 144 164
94 144 164
94 144 164
94 144 164
94 144 164
94 144 164
94 144 164
94 144 164
94 144 164
94 144 164
94 144 164
94 144 164
94 144 164
94 144 164
94 144 164
94 144 164
94 144 164
94 144 164
94 144 164
94 144 164
94 144 164
94 144 164
94 144 164
94 144 164
94 144 164
94 144 164
94 144 164
94 144 164
94 144 164
94 144 164
94 144 164
94 144 164
94 144 164
94 144 164
94 144 164
94 144 164
94 144 164
94 144 164
94 144 164
94 144 164
94 144 164
94 144 164
94 144 164
94 144 164
94 144 164
94 144 164
94 144 164
94 144 164
94 144 164
94 144 164
94 144 164
94 144 164
94 144 164
94 144 164
94 144 164
94 144 164
94 144 164
94 144 164
94 144 164
94 144 164
94 144 164
94 144 164
94 144 164
94 144 164
94 144 164
94 144 164
94 144 164
94 144 164
94 144 164
94 144 164
94 144 164
94 144 164
94 144 164
94 144 164
94 144 164
94 144 164
94 144 164
94 144 164
94 144 164
94 144 164
94 144 164
94 144 164
94 144 164
94 144 164
94 144 164
94 144 164
94 144 164
94 144 164
94 144 164
94 144 164
94 144 164
94 144 164
94 144 164
94 144 164
94 144 164
94 144 164
94 144 164
94 144 164
94 144 164
94 144 164
94 144 164
94 144 164
94 144 164
94 144 164
94 144 164
94 144 164
94 144 164
94 144 164
94 144 164
94 144 164
94 144 164
94 144 164
94 144 164
94 144 164
94 144 164
94 144 164
94 144 164
94 144 164
94 144 164
94 144 164
94 144 164
94 144 164
94 144 164
94 144 164
94 144 164
94 144 164
94 144 164
94 144 164
94 144 164
94 144 164
94 144 164
94 144 164
94 144 164
94 144 164
94 144 164
94 144 164
94 144 164
94 144 164
94 144 164
94 144 164
94 144 164
94 144 164
94 144 164
94 144 164
94 144 164
94 144 164
94 144 164
94 144 164
94 144 164
94 144 164
94 144 164
94 144 164
94 144 164
94 144 164
94 144 164
94 144 164
94 144 164
94 144 164
94 144 164
94 144 164
94 144 164
94 144 164
94 144 164
94 144 164
94 144 164
94 144 164
94 144 164
94 144 164
94 144 164
94 144 164
94 144 164
94 144 164
94 144 164
94 144 164
94 144 164
94 144 164
94 144 164
94 144 164
94 144 164
94 144 164
94 144 164
94 144 164
94 144 164
94 144 164
94 144 164
94 144 164
94 144 164
94 144 164
94 144 164
94 144 164
94 144 164
94 144 164
94 144 164
94 144 164
94 144 164
94 144 164
94 144 164
94 144 164
94 144 164
94 144 164
94 144 164
94 144 164
94 144 164
94 144 164
94 144 164
94 144 164
94 144 164
94 144 164
94 144 164
94 144 164
94 144 164
94 144 164
94 144 164
94 144 164
94 144 164
94 144 164
94 144 164
94 144 164
94 144 164
94 144 164
94 144 164
94 144 164
94 144 164
94 144 164
94 144 164
94 144 164
94 144 164
94 144 164
94 144 164
94 144 164
94 144 164
94 144 164
94 144 164
94 144 164
94 144 164
94 144 164
94 144 164
94 144 164
94 144 164
94 144 164
94 144 164
94 144 164
94 144 164
94 144 164
94 144 164
94 144 164
94 144 164
94 144 164
94 144 164
94 144 164
94 144 164
94 144 164
94 144 164
94 144 164
94 144 164
94 144 164
94 144 164
94 144 164
94 144 164
94 144 164
94 144 164
94 144 164
94 144 164
94 144 164
94 144 164
94 144 164
94 144 164
94 144 164
94 144 164
94 144 164
94 144 164
94 144 164
94 144 164
94 144 164
94 144 164
94 144 164
94 144 164
94 144 164
94 144 164
94 144 164
94 144 164
94 144 164
94 144 164
94 144 164
94 144 164
94 144 164
94 144 164
94 144 164
94 144 164
94 144 164
94 144 164
94 144 164
94 144 164
94 144 164
94 144 164
94 144 164
94 144 164
94 144 164
94 144 164
94 144 164
94 144 164
94 144 164
94 144 164
94 144 164
94 144 164
94 144 164
94 144 164
94 144 164
94 144 164
94 144 164
94 144 164
94 144 164
94 144 164
94 144 164
94 144 164
94 144 164
94 144 164
94 144 164
94 144 164
94 144 164
94 144 164
94 144 164
94 144 164
94 144 164
94 144 164
94 144 164
94 144 164
94 144 164
94 144 164
94 144 164
94 144 164
94 144 164
94 144 164
94 144 164
94 144 164
94 144 164
94 144 164
94 144 164
94 144 164
94 144 164
94 144 164
94 144 164
94 144 164
94 144 164
94 144 164
94 144 164
94 144 164
94 144 164
94 144 164
94 144 164
94 144 164
94 144 164
94 144 164
94 144 164
94 144 164
94 144 164
94 144 164
94 144 164
94 144 164
94 144 164
94 144 164
94 144 164
94 144 164
94 144 164
94 144 164
94 144 164
94 144 164
94 144 164
94 144 164
94 144 164
94 144 164
94 144 164
94 144 164
94 144 164
94 144 164
94 144 164
94 144 164
94 144 164
94 144 164
94 144 164
94 144 164
94 144 164
94 144 164
94 144 164
94 144 164
94 144 164
94 144 164
94 144 164
94 144 164
94 144 164
94 144 164
94 144 164
94 144 164
94 144 164
94 144 164
94 144 164
94 144 164
94 144 164
94 144 164
94 144 164
94 144 164
94 144 164
94 144 164
94 144 164
94 144 164
94 144 164
94 144 164
94 144 164
94 144 164
94 144 164
94 144 164
94 144 164
94 144 164
94 144 164
94 144 164
94 144 164
94 144 164
94 144 164
94 144 164
94 144 164
94 144 164
94 144 164
94 144 164
94 144 164
94 144 164
94 144 164
94 144 164
94 144 164
94 144 164
94 144 164
94 144 164
94 144 164
94 144 164
94 144 164
94 144 164
94 144 164
94 144 164
94 144 164
94 144 164
94 144 164
94 144 164
94 144 164
94 144 164
94 144 164
94 144 164
94 144 164
94 144 164
94 144 164
94 144 164
94 144 164
94 144 164
94 144 164
94 144 164
94 144 164
94 144 164
94 144 164
94 144 164
94 144 164
94 144 164
94 144 164
94 144 164
94 144 164
94 144 164
94 144 164
94 144 164
94 144 164
94 144 164
94 144 164
94 144 164
94 144 164
94 144 164
94 144 164
94 144 164
94 144 164
94 144 164
94 144 164
94 144 164
94 144 164
94 144 164
94 144 164
94 144 164
94 144 164
94 144 164
94 144 164
94 144 164
94 144 164
94 144 164
94 144 164
94 144 164
94 144 164
94 144 164
94 144 164
94 144 164
94 144 164
94 144 164
94 144 164
94 144 164
94 144 164
94 144 164
94 144 164
94 144 164
94 144 164
94 144 164
94 144 164
94 144 164
94 144 164
94 144 164
94 144 164
94 144 164
94 144 164
94 144 164
94 144 164
94 144 164
94 144 164
94 144 164
94 144 164
94 144 164
94 144 164
94 144 164
94 144 164
94 144 164
94 144 164
94 144 164
94 144 164
94 144 164
94 144 164
94 144 164
94 144 164
94 144 164
94 144 164
94 144 164
94 144 164
94 144 164
94 144 164
94 144 164
94 144 164
94 144 164
94 144 164
94 144 164
94 144 164
94 144 164
94 144 164
94 144 164
94 144 164
94 144 164
94 144 164
94 144 164
94 144 164
94 144 164
94 144 164
94 144 164
94 144 164
94 144 164
94 144 164
94 144 164
94 144 164
94 144 164
94 144 164
94 144 164
94 144 164
94 144 164
94 144 164
94 144 164
94 144 164
94 144 164
94 144 164
94 144 164
94 144 164
94 144 164
94 144 164
94 144 164
94 144 164
94 144 164
94 144 164
94 144 164
94 144 164
94 144 164
94 144 164
94 144 164
94 144 164
94 144 164
94 144 164
94 144 164
94 144 164
94 144 164
94 144 164
94 144 164
94 144 164
94 144 164
94 144 164
94 144 164
94 144 164
94 144 164
94 144 164
94 144 164
94 144 164
94 144 164
94 144 164
94 144 164
94 144 164
94 144 164
94 144 164
94 144 164
94 144 164
94 144 164
94 144 164
94 144 164
94 144 164
94 144 164
94 144 164
94 144 164
94 144 164
94 144 164
94 144 164
94 144 164
94 144 164
94 144 164
94 144 164
94 144 164
94 144 164
94 144 164
94 144 164
94 144 164
94 144 164
94 144 164
94 144 164
94 144 164
94 144 164
94 144 164
94 144 164
94 144 164
94 144 164
94 144 164
94 144 164
94 144 164
94 144 164
94 144 164
94 144 164
94 144 164
94 144 164
94 144 164
94 144 164
94 144 164
94 144 164
94 144 164
94 144 164
94 144 164
94 144 164
94 144 164
94 144 164
94 144 164
94 144 164
94 144 164
94 144 164
94 144 164
94 144 164
94 144 164
94 144 164
94 144 164
94 144 164
94 144 164
94 144 164
94 144 164
94 144 164
94 144 164
94 144 164
94 144 164
94 144 164
94 144 164
94 144 164
94 144 164
94 144 164
94 144 164
94 144 164
94 144 164
94 144 164
94 144 164
94 144 164
94 144 164
94 144 164
94 144 164
94 144 164
94 144 164
94 144 164
94 144 164
94 144 164
94 144 164
94 144 164
94 144 164
94 144 164
94 144 164
94 144 164
94 144 164
94 144 164
94 144 164
94 144 164
94 144 164
94 144 164
94 144 164
94 144 164
94 144 164
94 144 164
94 144 164
94 144 164
94 144 164
94 144 164
94 144 164
94 144 164
94 144 164
94 144 164
94 144 164
94 144 164
94 144 164
94 144 164
94 144 164
94 144 164
94 144 164
94 144 164
94 144 164
94 144 164
94 144 164
94 144 164
94 144 164
94 144 164
94 144 164
94 144 164
94 144 164
94 144 164
94 144 164
94 144 164
94 144 164
94 144 164
94 144 164
94 144 164
94 144 164
94 144 164
94 144 164
94 144 164
94 144 164
94 144 164
94 144 164
94 144 164
94 144 164
94 144 164
94 144 164
94 144 164
94 144 164
94 144 164
94 144 164
94 144 164
94 144 164
94 144 164
94 144 164
94 144 164
94 144 164
94 144 164
94 144 164
94 144 164
94 144 164
94 144 164
94 144 164
94 144 164
94 144 164
94 144 164
94 144 164
94 144 164
94 144 164
94 144 164
94 144 164
94 144 164
94 144 164
94 144 164
94 144 164
94 144 164
94 144 164
94 144 164
94 144 164
94 144 164
94 144 164
94 144 164
94 144 164
94 144 164
94 144 164
94 144 164
94 144 164
94 144 164
94 144 164
94 144 164
94 144 164
94 144 164
94 144 164
94 144 164
94 144 164
94 144 164
94 144 164
94 144 164
94 144 164
94 144 164
94 144 164
94 144 164
94 144 164
94 144 164
94 144 164
94 144 164
94 144 164
94 144 164
94 144 164
94 144 164
94 144 164
94 144 164
94 144 164
94 144 164
94 144 164
94 144 164
94 144 164
94 144 164
94 144 164
94 144 164
94 144 164
94 144 164
94 144 164
94 144 164
94 144 164
94 144 164
94 144 164
94 144 164
94 144 164
94 144 164
94 144 164
94 144 164
94 144 164
94 144 164
94 144 164
94 144 164
94 144 164
94 144 164
94 144 164
94 144 164
94 144 164
94 144 164
94 144 164
94 144 164
94 144 164
94 144 164
94 144 164
94 144 164
94 144 164
94 144 164
94 144 164
94 144 164
94 144 164
94 144 164
94 144 164
94 144 164
94 144 164
94 144 164
94 144 164
94 144 164
94 144 164
94 144 164
94 144 164
94 144 164
94 144 164
94 144 164
94 144 164
94 144 164
94 144 164
94 144 164
94 144 164
94 144 164
94 144 164
94 144 164
94 144 164
94 144 164
94 144 164
94 144 164
94 144 164
94 144 164
94 144 164
94 144 164
94 144 164
94 144 164
94 144 164
94 144 164
94 144 164
94 144 164
94 144 164
94 144 164
94 144 164
94 144 164
94 144 164
94 144 164
94 144 164
94 144 164
94 144 164
94 144 164
94 144 164
94 144 164
94 144 164
94 144 164
94 144 164
94 144 164
94 144 164
94 144 164
94 144 164
94 144 164
94 144 164
94 144 164
94 144 164
94 144 164
94 144 164
94 144 164
94 144 164
94 144 164
94 144 164
94 144 164
94 144 164
94 144 164
94 144 164
94 144 164
94 144 164
94 144 164
94 144 164
94 144 164
94 144 164
94 144 164
94 144 164
94 144 164
94 144 164
94 144 164
94 144 164
94 144 164
94 144 164
94 144 164
94 144 164
94 144 164
94 144 164
94 144 164
94 144 164
94 144 164
94 144 164
94 144 164
94 144 164
94 144 164
94 144 164
94 144 164
94 144 164
94 144 164
94 144 164
94 144 164
94 144 164
94 144 164
94 144 164
94 144 164
94 144 164
94 144 164
94 144 164
94 144 164
94 144 164
94 144 164
94 144 164
94 144 164
94 144 164
94 144 164
94 144 164
94 144 164
94 144 164
94 144 164
94 144 164
94 144 164
94 144 164
94 144 164
94 144 164
94 144 164
94 144 164
94 144 164
94 144 164
94 144 164
94 144 164
94 144 164
94 144 164
94 144 164
94 144 164
94 144 164
94 144 164
94 144 164
94 144 164
94 144 164
94 144 164
94 144 164
94 144 164
94 144 164
94 144 164
94 144 164
94 144 164
94 144 164
94 144 164
94 144 164
94 144 164
94 144 164
94 144 164
94 144 164
94 144 164
94 144 164
94 144 164
94 144 164
94 144 164
94 144 164
94 144 164
94 144 164
94 144 164
94 144 164
94 144 164
94 144 164
94 144 164
94 144 164
94 144 164
94 144 164
94 144 164
94 144 164
94 144 164
94 144 164
94 144 164
94 144 164
94 144 164
94 144 164
94 144 164
94 144 164
94 144 164
94 144 164
94 144 164
94 144 164
94 144 164
94 144 164
94 144 164
94 144 164
94 144 164
94 144 164
94 144 164
94 144 164
94 144 164
94 144 164
94 144 164
94 144 164
94 144 164
94 144 164
94 144 164
94 144 164
94 144 164
94 144 164
94 144 164
94 144 164
94 144 164
94 144 164
94 144 164
94 144 164
94 144 164
94 144 164
94 144 164
94 144 164
94 144 164
94 144 164
94 144 164
94 144 164
94 144 164
94 144 164
94 144 164
94 144 164
94 144 164
94 144 164
94 144 164
94 144 164
94 144 164
94 144 164
94 144 164
94 144 164
94 144 164
94 144 164
94 144 164
94 144 164
94 144 164
94 144 164
94 144 164
94 144 164
94 144 164
94 144 164
94 144 164
94 144 164
94 144 164
94 144 164
94 144 164
94 144 164
94 144 164
94 144 164
94 144 164
94 144 164
94 144 164
94 144 164
94 144 164
94 144 164
94 144 164
94 144 164
94 144 164
94 144 164
94 144 164
94 144 164
94 144 164
94 144 164
94 144 164
94 144 164
94 144 164
94 144 164
94 144 164
94 144 164
94 144 164
94 144 164
94 144 164
94 144 164
94 144 164
94 144 164
94 144 164
94 144 164
94 144 164
94 144 164
94 144 164
94 144 164
94 144 164
94 144 164
94 144 164
94 144 164
94 144 164
94 144 164
94 144 164
94 144 164
94 144 164
94 144 164
94 144 164
94 144 164
94 144 164
94 144 164
94 144 164
94 144 164
94 144 164
94 144 164
94 144 164
94 144 164
94 144 164
94 144 164
94 144 164
94 144 164
94 144 164
94 144 164
94 144 164
94 144 164
94 144 164
94 144 164
94 144 164
94 144 164
94 144 164
94 144 164
94 144 164
94 144 164
94 144 164
94 144 164
94 144 164
94 144 164
94 144 164
94 144 164
94 144 164
94 144 164
94 144 164
94 144 164
94 144 164
94 144 164
94 144 164
94 144 164
94 144 164
94 144 164
94 144 164
94 144 164
94 144 164
94 144 164
94 144 164
94 144 164
94 144 164
94 144 164
94 144 164
94 144 164
94 144 164
94 144 164
94 144 164
94 144 164
94 144 164
94 144 164
94 144 164
94 144 164
94 144 164
94 144 164
94 144 164
94 144 164
94 144 164
94 144 164
94 144 164
94 144 164
94 144 164
94 144 164
94 144 164
94 144 164
94 144 164
94 144 164
94 144 164
94 144 164
94 144 164
94 144 164
94 144 164
94 144 164
94 144 164
94 144 164
94 144 164
94 144 164
94 144 164
94 144 164
94 144 164
94 144 164
94 144 164
94 144 164
94 144 164
94 144 164
94 144 164
94 144 164
94 144 164
94 144 164
94 144 164
94 144 164
94 144 164
94 144 164
94 144 164
94 144 164
94 144 164
94 144 164
94 144 164
94 144 164
94 144 164
94 144 164
94 144 164
94 144 164
94 144 164
94 144 164
94 144 164
94 144 164
94 144 164
94 144 164
94 144 164
94 144 164
94 144 164
94 144 164
94 144 164
94 144 164
94 144 164
94 144 164
94 144 164
94 144 164
94 144 164
94 144 164
94 144 164
94 144 164
94 144 164
94 144 164
94 144 164
94 144 164
94 144 164
94 144 164
94 144 164
94 144 164
94 144 164
94 144 164
94 144 164
94 144 164
94 144 164
94 144 164
94 144 164
94 144 164
94 144 164
94 144 164
94 144 164
94 144 164
94 144 164
94 144 164
94 144 164
94 144 164
94 144 164
94 144 164
94 144 164
94 144 164
94 144 164
94 144 164
94 144 164
94 144 164
94 144 164
94 144 164
94 144 164
94 144 164
94 144 164
94 144 164
94 144 164
94 144 164
94 144 164
94 144 164
94 144 164
94 144 164
94 144 164
94 144 164
94 144 164
94 144 164
94 144 164
94 144 164
94 144 164
94 144 164
94 144 164
94 144 164
94 144 164
94 144 164
94 144 164
94 144 164
94 144 164
94 144 164
94 144 164
94 144 164
94 144 164
94 144 164
94 144 164
94 144 164
94 144 164
94 144 164
94 144 164
94 144 164
94 144 164
94 144 164
94 144 164
94 144 164
94 144 164
94 144 164
94 144 164
94 144 164
94 144 164
94 144 164
94 144 164
94 144 164
94 144 164
94 144 164
94 144 164
94 144 164
94 144 164
94 144 164
94 144 164
94 144 164
94 144 164
94 144 164
94 144 164
94 144 164
94 144 164
94 144 164
94 144 164
94 144 164
94 144 164
94 144 164
94 144 164
94 144 164
94 144 164
94 144 164
94 144 164
94 144 164
94 144 164
94 144 164
94 144 164
94 144 164
94 144 164
94 144 164
94 144 164
94 144 164
94 144 164
94 144 164
94 144 164
94 144 164
94 144 164
94 144 164
94 144 164
94 144 164
94 144 164
94 144 164
94 144 164
94 144 164
94 144 164
94 144 164
94 144 164
94 144 164
94 144 164
94 144 164
94 144 164
94 144 164
94 144 164
94 144 164
94 144 164
94 144 164
94 144 164
94 144 164
94 144 164
94 144 164
94 144 164
94 144 164
94 144 164
94 144 164
94 144 164
94 144 164
94 144 164
94 144 164
94 144 164
94 144 164
94 144 164
94 144 164
94 144 164
94 144 164
94 144 164
94 144 164
94 144 164
94 144 164
94 144 164
94 144 164
94 144 164
94 144 164
94 144 164
94 144 164
94 144 164
94 144 164
94 144 164
94 144 164
94 144 164
94 144 164
94 144 164
94 144 164
94 144 164
94 144 164
94 144 164
94 144 164
94 144 164
94 144 164
94 144 164
94 144 164
94 144 164
94 144 164
94 144 164
94 144 164
94 144 164
94 144 164
94 144 164
94 144 164
94 144 164
94 144 164
94 144 164
94 144 164
94 144 164
94 144 164
94 144 164
94 144 164
94 144 164
94 144 164
94 144 164
94 144 164
94 144 164
94 144 164
94 144 164
94 144 164
94 144 164
94 144 164
94 144 164
94 144 164
94 144 164
94 144 164
94 144 164
94 144 164
94 144 164
94 144 164
94 144 164
94 144 164
94 144 164
94 144 164
94 144 164
94 144 164
94 144 164
94 144 164
94 144 164
94 144 164
94 144 164
94 144 164
94 144 164
94 144 164
94 144 164
94 144 164
94 144 164
94 144 164
94 144 164
94 144 164
94 144 164
94 144 164
94 144 164
94 144 164
94 144 164
94 144 164
94 144 164
94 144 164
94 144 164
94 144 164
94 144 164
94 144 164
94 144 164
94 144 164
94 144 164
94 144 164
94 144 164
94 144 164
94 144 164
94 144 164
94 144 164
94 144 164
94 144 164
94 144 164
94 144 164
94 144 164
94 144 164
94 144 164
94 144 164
94 144 164
94 144 164
94 144 164
94 144 164
94 144 164
94 144 164
94 144 164
94 144 164
94 144 164
94 144 164
94 144 164
94 144 164
94 144 164
94 144 164
94 144 164
94 144 164
94 144 164
94 144 164
94 144 164
94 144 164
94 144 164
94 144 164
94 144 164
94 144 164
94 144 164
94 144 164
94 144 164
94 144 164
94 144 164
94 144 164
94 144 164
94 144 164
94 144 164
94 144 164
94 144 164
94 144 164
94 144 164
94 144 164
94 144 164
94 144 164
94 144 164
94 144 164
94 144 164
94 144 164
94 144 164
94 144 164
94 144 164
94 144 164
94 144 164
94 144 164
94 144 164
94 144 164
94 144 164
94 144 164
94 144 164
94 144 164
94 144 164
94 144 164
94 144 164
94 144 164
94 144 164
94 144 164
94 144 164
94 144 164
94 144 164
94 144 164
94 144 164
94 144 164
94 144 164
94 144 164
94 144 164
94 144 164
94 144 164
94 144 164
94 144 164
94 144 164
94 144 164
94 144 164
94 144 164
94 144 164
94 144 164
94 144 164
94 144 164
94 144 164
94 144 164
94 144 164
94 144 164
94 144 164
94 144 164
94 144 164
94 144 164
94 144 164
94 144 164
94 144 164
94 144 164
94 144 164
94 144 164
94 144 164
94 144 164
94 144 164
94 144 164
94 144 164
94 144 164
94 144 164
94 144 164
94 144 164
94 144 164
94 144 164
94 144 164
94 144 164
94 144 164
94 144 164
94 144 164
94 144 164
94 144 164
94 144 164
94 144 164
94 144 164
94 144 164
94 144 164
94 144 164
94 144 164
94 144 164
94 144 164
94 144 164
94 144 164
94 144 164
94 144 164
94 144 164
94 144 164
94 144 164
94 144 164
94 144 164
94 144 164
94 144 164
94 144 164
94 144 164
94 144 164
94 144 164
94 144 164
94 144 164
94 144 164
94 144 164
94 144 164
94 144 164
94 144 164
94 144 164
94 144 164
94 144 164
94 144 164
94 144 164
94 144 164
94 144 164
94 144 164
94 144 164
94 144 164
94 144 164
94 144 164
94 144 164
94 144 164
94 144 164
94 144 164
94 144 164
94 144 164
94 144 164
94 144 164
94 144 164
94 144 164
94 144 164
94 144 164
94 144 164
94 144 164
94 144 164
94 144 164
94 144 164
94 144 164
94 144 164
94 144 164
94 144 164
94 144 164
94 144 164
94 144 164
94 144 164
94 144 164
94 144 164
94 144 164
94 144 164
94 144 164
94 144 164
94 144 164
94 144 164
94 144 164
94 144 164
94 144 164
94 144 164
94 144 164
94 144 164
94 144 164
94 144 164
94 144 164
94 144 164
94 144 164
94 144 164
94 144 164
94 144 164
94 144 164
94 144 164
94 144 164
94 144 164
94 144 164
94 144 164
94 144 164
94 144 164
94 144 164
94 144 164
94 144 164
94 144 164
94 144 164
94 144 164
94 144 164
94 144 164
94 144 164
94 144 164
94 144 164
94 144 164
94 144 164
94 144 164
94 144 164
94 144 164
94 144 164
94 144 164
94 144 164
94 144 164
94 144 164
94 144 164
94 144 164
94 144 164
94 144 164
94 144 164
94 144 164
94 144 164
94 144 164
94 144 164
94 144 164
94 144 164
94 144 164
94 144 164
94 144 164
94 144 164
94 144 164
94 144 164
94 144 164
94 144 164
94 144 164
94 144 164
94 144 164
94 144 164
94 144 164
94 144 164
94 144 164
94 144 164
94 144 164
94 144 164
94 144 164
94 144 164
94 144 164
94 144 164
94 144 164
94 144 164
94 144 164
94 144 164
94 144 164
94 144 164
94 144 164
94 144 164
94 144 164
94 144 164
94 144 164
94 144 164
94 144 164
94 144 164
94 144 164
94 144 164
94 144 164
94 144 164
94 144 164
94 144 164
94 144 164
94 144 164
94 144 164
94 144 164
94 144 164
94 144 164
94 144 164
94 144 164
94 144 164
94 144 164
94 144 164
94 144 164
94 144 164
94 144 164
94 144 164
94 144 164
94 144 164
94 144 164
94 144 164
94 144 164
94 144 164
94 144 164
94 144 164
94 144 164
94 144 164
94 144 164
94 144 164
94 144 164
94 144 164
94 144 164
94 144 164
94 144 164
94 144 164
94 144 164
94 144 164
94 144 164
94 144 164
94 144 164
94 144 164
94 144 164
94 144 164
94 144 164
94 144 164
94 144 164
94 144 164
94 144 164
94 144 164
94 144 164
94 144 164
94 144 164
94 144 164
94 144 164
94 144 164
94 144 164
94 144 164
94 144 164
94 144 164
94 144 164
94 144 164
94 144 164
94 144 164
94 144 164
94 144 164
94 144 164
94 144 164
94 144 164
94 144 164
94 144 164
94 144 164
94 144 164
94 144 164
94 144 164
94 144 164
94 144 164
94 144 164
94 144 164
94 144 164
94 144 164
94 144 164
94 144 164
94 144 164
94 144 164
94 144 164
94 144 164
94 144 164
94 144 164
94 144 164
94 144 164
94 144 164
94 144 164
94 144 164
94 144 164
94 144 164
94 144 164
94 144 164
94 144 164
94 144 164
94 144 164
94 144 164
94 144 164
94 144 164
94 144 164
94 144 164
94 144 164
94 144 164
94 144 164
94 144 164
94 144 164
94 144 164
94 144 164
94 144 164
94 144 164
94 144 164
94 144 164
94 144 164
94 144 164
94 144 164
94 144 164
94 144 164
94 144 164
94 144 164
94 144 164
94 144 164
94 144 164
94 144 164
94 144 164
94 144 164
94 144 164
94 144 164
94 144 164
94 144 164
94 144 164
94 144 164
94 144 164
94 144 164
94 144 164
94 144 164
94 144 164
94 144 164
94 144 164
94 144 164
94 144 164
94 144 164
94 144 164
94 144 164
94 144 164
94 144 164
94 144 164
94 144 164
94 144 164
94 144 164
94 144 164
94 144 164
94 144 164
94 144 164
94 144 164
94 144 164
94 144 164
94 144 164
94 144 164
94 144 164
94 144 164
94 144 164
94 144 164
94 144 164
94 144 164
94 144 164
94 144 164
94 144 164
94 144 164
94 144 164
94 144 164
94 144 164
94 144 164
94 144 164
94 144 164
94 144 164
94 144 164
94 144 164
94 144 164
94 144 164
94 144 164
94 144 164
94 144 164
94 144 164
94 144 164
94 144 164
94 144 164
94 144 164
94 144 164
94 144 164
94 144 164
94 144 164
94 144 164
94 144 164
94 144 164
94 144 164
94 144 164
94 144 164
94 144 164
94 144 164
94 144 164
94 144 164
94 144 164
94 144 164
94 144 164
94 144 164
94 144 164
94 144 164
94 144 164
94 144 164
94 144 164
94 144 164
94 144 164
94 144 164
94 144 164
94 144 164
94 144 164
94 144 164
94 144 164
94 144 164
94 144 164
94 144 164
94 144 164
94 144 164
94 144 164
94 144 164
94 144 164
94 144 164
94 144 164
94 144 164
94 144 164
94 144 164
94 144 164
94 144 164
94 144 164
94 144 164
94 144 164
94 144 164
94 144 164
94 144 164
94 144 164
94 144 164
94 144 164
94 144 164
94 144 164
94 144 164
94 144 164
94 144 164
94 144 164
94 144 164
94 144 164
94 144 164
94 144 164
94 144 164
94 144 164
94 144 164
94 144 164
94 144 164
94 144 164
94 144 164
94 144 164
94 144 164
94 144 164
94 144 164
94 144 164
94 144 164
94 144 164
94 144 164
94 144 164
94 144 164
94 144 164
94 144 164
94 144 164
94 144 164
94 144 164
94 144 164
94 144 164
94 144 164
94 144 164
94 144 164
94 144 164
94 144 164
94 144 164
94 144 164
94 144 164
94 144 164
94 144 164
94 144 164
94 144 164
94 144 164
94 144 164
94 144 164
94 144 164
94 144 164
94 144 164
94 144 164
94 144 164
94 144 164
94 144 164
94 144 164
94 144 164
94 144 164
94 144 164
94 144 164
94 144 164
94 144 164
94 144 164
94 144 164
94 144 164
94 144 164
94 144 164
94 144 164
94 144 164
94 144 164
94 144 164
94 144 164
94 144 164
94 144 164
94 144 164
94 144 164
94 144 164
94 144 164
94 144 164
94 144 164
94 144 164
94 144 164
94 144 164
94 144 164
94 144 164
94 144 164
94 144 164
94 144 164
94 144 164
94 144 164
94 144 164
94 144 164
94 144 164
94 144 164
94 144 164
94 144 164
94 144 164
94 144 164
94 144 164
94 144 164
94 144 164
94 144 164
94 144 164
94 144 164
94 144 164
94 144 164
94 144 164
94 144 164
94 144 164
94 144 164
94 144 164
94 144 164
94 144 164
94 144 164
94 144 164
94 144 164
94 144 164
94 144 164
94 144 164
94 144 164
94 144 164
94 144 164
94 144 164
94 144 164
94 144 164
94 144 164
94 144 164
94 144 164
94 144 164
94 144 164
94 144 164
94 144 164
94 144 164
94 144 164
94 144 164
94 144 164
94 144 164
94 144 164
94 144 164
94 144 164
94 144 164
94 144 164
94 144 164
94 144 164
94 144 164
94 144 164
94 144 164
94 144 164
94 144 164
94 144 164
94 144 164
94 144 164
94 144 164
94 144 164
94 144 164
94 144 164
94 144 164
94 144 164
94 144 164
94 144 164
94 144 164
94 144 164
94 144 164
94 144 164
94 144 164
94 144 164
94 144 164
94 144 164
94 144 164
94 144 164
94 144 164
94 144 164
94 144 164
94 144 164
94 144 164
94 144 164
94 144 164
94 144 164
94 144 164
94 144 164
94 144 164
94 144 164
94 144 164
94 144 164
94 144 164
94 144 164
94 144 164
94 144 164
94 144 164
94 144 164
94 144 164
94 144 164
94 144 164
94 144 164
94 144 164
94 144 164
94 144 164
94 144 164
94 144 164
94 144 164
94 144 164
94 144 164
94 144 164
94 144 164
94 144 164
94 144 164
94 144 164
94 144 164
94 144 164
94 144 164
94 144 164
94 144 164
94 144 164
94 144 164
94 144 164
94 144 164
94 144 164
94 144 164
94 144 164
94 144 164
94 144 164
94 144 164
94 144 164
94 144 164
94 144 164
94 144 164
94 144 164
94 144 164
94 144 164
94 144 164
94 144 164
94 144 164
94 144 164
94 144 164
94 144 164
94 144 164
94 144 164
94 144 164
94 144 164
94 144 164
94 144 164
94 144 164
94 144 164
94 144 164
94 144 164
94 144 164
94 144 164
94 144 164
94 144 164
94 144 164
94 144 164
94 144 164
94 144 164
94 144 164
94 144 164
94 144 164
94 144 164
94 144 164
94 144 164
94 144 164
94 144 164
94 144 164
94 144 164
94 144 164
94 144 164
94 144 164
94 144 164
94 144 164
94 144 164
94 144 164
94 144 164
94 144 164
94 144 164
94 144 164
94 144 164
94 144 164
94 144 164
94 144 164
94 144 164
94 144 164
94 144 164
94 144 164
94 144 164
94 144 164
94 144 164
94 144 164
94 144 164
94 144 164
94 144 164
94 144 164
94 144 164
94 144 164
94 144 164
94 144 164
94 144 164
94 144 164
94 144 164
94 144 164
94 144 164
94 144 164
94 144 164
94 144 164
94 144 164
94 144 164
94 144 164
94 144 164
94 144 164
94 144 164
94 144 164
94 144 164
94 144 164
94 144 164
94 144 164
94 144 164
94 144 164
94 144 164
94 144 164
94 144 164
94 144 164
94 144 164
94 144 164
94 144 164
94 144 164
94 144 164
94 144 164
94 144 164
94 144 164
94 144 164
94 144 164
94 144 164
94 144 164
94 144 164
94 144 164
94 144 164
94 144 164
94 144 164
94 144 164
94 144 164
94 144 164
94 144 164
94 144 164
94 144 164
94 144 164
94 144 164
94 144 164
94 144 164
94 144 164
94 144 164
94 144 164
94 144 164
94 144 164
94 144 164
94 144 164
94 144 164
94 144 164
94 144 164
94 144 164
94 144 164
94 144 164
94 144 164
94 144 164
94 144 164
94 144 164
94 144 164
94 144 164
94 144 164
94 144 164
94 144 164
94 144 164
94 144 164
94 144 164
94 144 164
94 144 164
94 144 164
94 144 164
94 144 164
94 144 164
94 144 164
94 144 164
94 144 164
94 144 164
94 144 164
94 144 164
94 144 164
94 144 164
94 144 164
94 144 164
94 144 164
94 144 164
94 144 164
94 144 164
94 144 164
94 144 164
94 144 164
94 144 164
94 144 164
94 144 164
94 144 164
94 144 164
94 144 164
94 144 164
94 144 164
94 144 164
94 144 164
94 144 164
94 144 164
94 144 164
94 144 164
94 144 164
94 144 164
94 144 164
94 144 164
94 144 164
94 144 164
94 144 164
94 144 164
94 144 164
94 144 164
94 144 164
94 144 164
94 144 164
94 144 164
94 144 164
94 144 164
94 144 164
94 144 164
94 144 164
94 144 164
94 144 164
94 144 164
94 144 164
94 144 164
94 144 164
94 144 164
94 144 164
94 144 164
94 144 164
94 144 164
94 144 164
94 144 164
94 144 164
94 144 164
94 144 164
94 144 164
94 144 164
94 144 164
94 144 164
94 144 164
94 144 164
94 144 164
94 144 164
94 144 164
94 144 164
94 144 164
94 144 164
94 144 164
94 144 164
94 144 164
94 144 164
94 144 164
94 144 164
94 144 164
94 144 164
94 144 164
94 144 164
94 144 164
94 144 164
94 144 164
94 144 164
94 144 164
94 144 164
94 144 164
94 144 164
94 144 164
94 144 164
94 144 164
94 144 164
94 144 164
94 144 164
94 144 164
94 144 164
94 144 164
94 144 164
94 144 164
94 144 164
94 144 164
94 144 164
94 144 164
94 144 164
94 144 164
94 144 164
94 144 164
94 144 164
94 144 164
94 144 164
94 144 164
94 144 164
94 144 164
94 144 164
94 144 164
94 144 164
94 144 164
94 144 164
94 144 164
94 144 164
94 144 164
94 144 164
94 144 164
94 144 164
94 144 164
94 144 164
94 144 164
94 144 164
94 144 164
94 144 164
94 144 164
94 144 164
94 144 164
94 144 164
94 144 164
94 144 164
94 144 164
94 144 164
94 144 164
94 144 164
94 144 164
94 144 164
94 144 164
94 144 164
94 144 164
94 144 164
94 144 164
94 144 164
94 144 164
94 144 164
94 144 164
94 144 164
94 144 164
94 144 164
94 144 164
94 144 164
94 144 164
94 144 164
94 144 164
94 144 164
94 144 164
94 144 164
94 144 164
94 144 164
94 144 164
94 144 164
94 144 164
94 144 164
94 144 164
94 144 164
94 144 164
94 144 164
94 144 164
94 144 164
94 144 164
94 144 164
94 144 164
94 144 164
94 144 164
94 144 164
94 144 164
94 144 164
94 144 164
94 144 164
94 144 164
94 144 164
94 144 164
94 144 164
94 144 164
94 144 164
94 144 164
94 144 164
94 144 164
94 144 164
94 144 164
94 144 164
94 144 164
94 144 164
94 144 164
94 144 164
94 144 164
94 144 164
94 144 164
94 144 164
94 144 164
94 144 164
94 144 164
94 144 164
94 144 164
94 144 164
94 144 164
94 144 164
94 144 164
94 144 164
94 144 164
94 144 164
94 144 164
94 144 164
94 144 164
94 144 164
94 144 164
94 144 164
94 144 164
94 144 164
94 144 164
94 144 164
94 144 164
94 144 164
94 144 164
94 144 164
94 144 164
94 144 164
94 144 164
94 144 164
94 144 164
94 144 164
94 144 164
94 144 164
94 144 164
94 144 164
94 144 164
94 144 164
94 144 164
94 144 164
94 144 164
94 144 164
94 144 164
94 144 164
94 144 164
94 144 164
94 144 164
94 144 164
94 144 164
94 144 164
94 144 164
94 144 164
94 144 164
94 144 164
94 144 164
94 144 164
94 144 164
94 144 164
94 144 164
94 144 164
94 144 164
94 144 164
94 144 164
94 144 164
94 144 164
94 144 164
94 144 164
94 144 164
94 144 164
94 144 164
94 144 164
94 144 164
94 144 164
94 144 164
94 144 164
94 144 164
94 144 164
94 144 164
94 144 164
94 144 164
94 144 164
94 144 164
94 144 164
94 144 164
94 144 164
94 144 164
94 144 164
94 144 164
94 144 164
94 144 164
94 144 164
94 144 164
94 144 164
94 144 164
94 144 164
94 144 164
94 144 164
94 144 164
94 144 164
94 144 164
94 144 164
94 144 164
94 144 164
94 144 164
94 144 164
94 144 164
94 144 164
94 144 164
94 144 164
94 144 164
94 144 164
94 144 164
94 144 164
94 144 164
94 144 164
94 144 164
94 144 164
94 144 164
94 144 164
94 144 164
94 144 164
94 144 164
94 144 164
94 144 164
94 144 164
94 144 164
94 144 164
94 144 164
94 144 164
94 144 164
94 144 164
94 144 164
94 144 164
94 144 164
94 144 164
94 144 164
94 144 164
94 144 164
94 144 164
94 144 164
94 144 164
94 144 164
94 144 164
94 144 164
94 144 164
94 144 164
94 144 164
94 144 164
94 144 164
94 144 164
94 144 164
94 144 164
94 144 164
94 144 164
94 144 164
94 144 164
94 144 164
94 144 164
94 144 164
94 144 164
94 144 164
94 144 164
94 144 164
94 144 164
94 144 164
94 144 164
94 144 164
94 144 164
94 144 164
94 144 164
94 144 164
94 144 164
94 144 164
94 144 164
94 144 164
94 144 164
94 144 164
94 144 164
94 144 164
94 144 164
94 144 164
94 144 164
94 144 164
94 144 164
94 144 164
94 144 164
94 144 164
94 144 164
94 144 164
94 144 164
94 144 164
94 144 164
94 144 164
94 144 164
94 144 164
94 144 164
94 144 164
94 144 164
94 144 164
94 144 164
94 144 164
94 144 164
94 144 164
94 144 164
94 144 164
94 144 164
94 144 164
94 144 164
94 144 164
94 144 164
94 144 164
94 144 164
94 144 164
94 144 164
94 144 164
94 144 164
94 144 164
94 144 164
94 144 164
94 144 164
94 144 164
94 144 164
94 144 164
94 144 164
94 144 164
94 144 164
94 144 164
94 144 164
94 144 164
94 144 164
94 144 164
94 144 164
94 144 164
94 144 164
94 144 164
94 144 164
94 144 164
94 144 164
94 144 164
94 144 164
94 144 164
94 144 164
94 144 164
94 144 164
94 144 164
94 144 164
94 144 164
94 144 164
94 144 164
94 144 164
94 144 164
94 144 164
94 144 164
94 144 164
94 144 164
94 144 164
94 144 164
94 144 164
94 144 164
94 144 164
94 144 164
94 144 164
94 144 164
94 144 164
94 144 164
94 144 164
94 144 164
94 144 164
94 144 164
94 144 164
94 144 164
94 144 164
94 144 164
94 144 164
94 144 164
94 144 164
94 144 164
94 144 164
94 144 164
94 144 164
94 144 164
94 144 164
94 144 164
94 144 164
94 144 164
94 144 164
94 144 164
94 144 164
94 144 164
94 144 164
94 144 164
94 144 164
94 144 164
94 144 164
94 144 164
94 144 164
94 144 164
94 144 164
94 144 164
94 144 164
94 144 164
94 144 164
94 144 164
94 144 164
94 144 164
94 144 164
94 144 164
94 144 164
94 144 164
94 144 164
94 144 164
94 144 164
94 144 164
94 144 164
94 144 164
94 144 164
94 144 164
94 144 164
94 144 164
94 144 164
94 144 164
94 144 164
94 144 164
94 144 164
94 144 164
94 144 164
94 144 164
94 144 164
94 144 164
94 144 164
94 144 164
94 144 164
94 144 164
94 144 164
94 144 164
94 144 164
94 144 164
94 144 164
94 144 164
94 144 164
94 144 164
94 144 164
94 144 164
94 144 164
94 144 164
94 144 164
94 144 164
94 144 164
94 144 164
94 144 164
94 144 164
94 144 164
94 144 164
94 144 164
94 144 164
94 144 164
94 144 164
94 144 164
94 144 164
94 144 164
94 144 164
94 144 164
94 144 164
94 144 164
94 144 164
94 144 164
94 144 164
94 144 164
94 144 164
94 144 164
94 144 164
94 144 164
94 144 164
94 144 164
94 144 164
94 144 164
94 144 164
94 144 164
94 144 164
94 144 164
94 144 164
94 144 164
94 144 164
94 144 164
94 144 164
94 144 164
94 144 164
94 144 164
94 144 164
94 144 164
94 144 164
94 144 164
94 144 164
94 144 164
94 144 164
94 144 164
94 144 164
94 144 164
94 144 164
94 144 164
94 144 164
94 144 164
94 144 164
94 144 164
94 144 164
94 144 164
94 144 164
94 144 164
94 144 164
94 144 164
94 144 164
94 144 164
94 144 164
94 144 164
94 144 164
94 144 164
94 144 164
94 144 164
94 144 164
94 144 164
94 144 164
94 144 164
94 144 164
94 144 164
94 144 164
94 144 164
94 144 164
94 144 164
94 144 164
94 144 164
94 144 164
94 144 164
94 144 164
94 144 164
94 144 164
94 144 164
94 144 164
94 144 164
94 144 164
94 144 164
94 144 164
94 144 164
94 144 164
94 144 164
94 144 164
94 144 164
94 144 164
94 144 164
94 144 164
94 144 164
94 144 164
94 144 164
94 144 164
94 144 164
94 144 164
94 144 164
94 144 164
94 144 164
94 144 164
94 144 164
94 144 164
94 144 164
94 144 164
94 144 164
94 144 164
94 144 164
94 144 164
94 144 164
94 144 164
94 144 164
94 144 164
94 144 164
94 144 164
94 144 164
94 144 164
94 144 164
94 144 164
94 144 164
94 144 164
94 144 164
94 144 164
94 144 164
94 144 164
94 144 164
94 144 164
94 144 164
94 144 164
94 144 164
94 144 164
94 144 164
94 144 164
94 144 164
94 144 164
94 144 164
94 144 164
94 144 164
94 144 164
94 144 164
94 144 164
94 144 164
94 144 164
94 144 164
94 144 164
94 144 164
94 144 164
94 144 164
94 144 164
94 144 164
94 144 164
94 144 164
94 144 164
94 144 164
94 144 164
94 144 164
94 144 164
94 144 164
94 144 164
94 144 164
94 144 164
94 144 164
94 144 164
94 144 164
94 144 164
94 144 164
94 144 164
94 144 164
94 144 164
94 144 164
94 144 164
94 144 164
94 144 164
94 144 164
94 144 164
94 144 164
94 144 164
94 144 164
94 144 164
94 144 164
94 144 164
94 144 164
94 144 164
94 144 164
94 144 164
94 144 164
94 144 164
94 144 164
94 144 164
94 144 164
94 144 164
94 144 164
94 144 164
94 144 164
94 144 164
94 144 164
94 144 164
94 144 164
94 144 164
94 144 164
94 144 164
94 144 164
94 144 164
94 144 164
94 144 164
94 144 164
94 144 164
94 144 164
94 144 164
94 144 164
94 144 164
94 144 164
94 144 164
94 144 164
94 144 164
94 144 164
94 144 164
94 144 164
94 144 164
94 144 164
94 144 164
94 144 164
94 144 164
94 144 164
94 144 164
94 144 164
94 144 164
94 144 164
94 144 164
94 144 164
94 144 164
94 144 164
94 144 164
94 144 164
94 144 164
94 144 164
94 144 164
94 144 164
94 144 164
94 144 164
94 144 164
94 144 164
94 144 164
94 144 164
94 144 164
94 144 164
94 144 164
94 144 164
94 144 164
94 144 164
94 144 164
94 144 164
94 144 164
94 144 164
94 144 164
94 144 164
94 144 164
94 144 164
94 144 164
94 144 164
94 144 164
94 144 164
94 144 164
94 144 164
94 144 164
94 144 164
94 144 164
94 144 164
94 144 164
94 144 164
94 144 164
94 144 164
94 144 164
94 144 164
94 144 164
94 144 164
94 144 164
94 144 164
94 144 164
94 144 164
94 144 164
94 144 164
94 144 164
94 144 164
94 144 164
94 144 164
94 144 164
94 144 164
94 144 164
94 144 164
94 144 164
94 144 164
94 144 164
94 144 164
94 144 164
94 144 164
94 144 164
94 144 164
94 144 164
94 144 164
94 144 164
94 144 164
94 144 164
94 144 164
94 144 164
94 144 164
94 144 164
94 144 164
94 144 164
94 144 164
94 144 164
94 144 164
94 144 164
94 144 164
94 144 164
94 144 164
94 144 164
94 144 164
94 144 164
94 144 164
94 144 164
94 144 164
94 144 164
94 144 164
94 144 164
94 144 164
94 144 164
94 144 164
94 144 164
94 144 164
94 144 164
94 144 164
94 144 164
94 144 164
94 144 164
94 144 164
94 144 164
94 144 164
94 144 164
94 144 164
94 144 164
94 144 164
94 144 164
94 144 164
94 144 164
94 144 164
94 144 164
94 144 164
94 144 164
94 144 164
94 144 164
94 144 164
94 144 164
94 144 164
94 144 164
94 144 164
94 144 164
94 144 164
94 144 164
94 144 164
94 144 164
94 144 164
94 144 164
94 144 164
94 144 164
94 144 164
94 144 164
94 144 164
94 144 164
94 144 164
94 144 164
94 144 164
94 144 164
94 144 164
94 144 164
94 144 164
94 144 164
94 144 164
94 144 164
94 144 164
94 144 164
94 144 164
94 144 164
94 144 164
94 144 164
94 144 164
94 144 164
94 144 164
94 144 164
94 144 164
94 144 164
94 144 164
94 144 164
94 144 164
94 144 164
94 144 164
94 144 164
94 144 164
94 144 164
94 144 164
94 144 164
94 144 164
94 144 164
94 144 164
94 144 164
94 144 164
94 144 164
94 144 164
94 144 164
94 144 164
94 144 164
94 144 164
94 144 164
94 144 164
94 144 164
94 144 164
94 144 164
94 144 164
94 144 164
94 144 164
94 144 164
94 144 164
94 144 164
94 144 164
94 144 164
94 144 164
94 144 164
94 144 164
94 144 164
94 144 164
94 144 164
94 144 164
94 144 164
94 144 164
94 144 164
94 144 164
94 144 164
94 144 164
94 144 164
94 144 164
94 144 164
94 144 164
94 144 164
94 144 164
94 144 164
94 144 164
94 144 164
94 144 164
94 144 164
94 144 164
94 144 164
94 144 164
94 144 164
94 144 164
94 144 164
94 144 164
94 144 164
94 144 164
94 144 164
94 144 164
94 144 164
94 144 164
94 144 164
94 144 164
94 144 164
94 144 164
94 144 164
94 144 164
94 144 164
94 144 164
94 144 164
94 144 164
94 144 164
94 144 164
94 144 164
94 144 164
94 144 164
94 144 164
94 144 164
94 144 164
94 144 164
94 144 164
94 144 164
94 144 164
94 144 164
94 144 164
94 144 164
94 144 164
94 144 164
94 144 164
94 144 164
94 144 164
94 144 164
94 144 164
94 144 164
94 144 164
94 144 164
94 144 164
94 144 164
94 144 164
94 144 164
94 144 164
94 144 164
94 144 164
94 144 164
94 144 164
94 144 164
94 144 164
94 144 164
94 144 164
94 144 164
94 144 164
94 144 164
94 144 164
94 144 164
94 144 164
94 144 164
94 144 164
94 144 164
94 144 164
94 144 164
94 144 164
94 144 164
94 144 164
94 144 164
94 144 164
94 144 164
94 144 164
94 144 164
94 144 164
94 144 164
94 144 164
94 144 164
94 144 164
94 144 164
94 144 164
94 144 164
94 144 164
94 144 164
94 144 164
94 144 164
94 144 164
94 144 164
94 144 164
94 144 164
94 144 164
94 144 164
94 144 164
94 144 164
94 144 164
94 144 164
94 144 164
94 144 164
94 144 164
94 144 164
94 144 164
94 144 164
94 144 164
94 144 164
94 144 164
94 144 164
94 144 164
94 144 164
94 144 164
94 144 164
94 144 164
94 144 164
94 144 164
94 144 164
94 144 164
94 144 164
94 144 164
94 144 164
94 144 164
94 144 164
94 144 164
94 144 164
94 144 164
94 144 164
94 144 164
94 144 164
94 144 164
94 144 164
94 144 164
94 144 164
94 144 164
94 144 164
94 144 164
94 144 164
94 144 164
94 144 164
94 144 164
94 144 164
94 144 164
94 144 164
94 144 164
94 144 164
94 144 164
94 144 164
94 144 164
94 144 164
94 144 164
94 144 164
94 144 164
94 144 164
94 144 164
94 144 164
94 144 164
94 144 164
94 144 164
94 144 164
94 144 164
94 144 164
94 144 164
94 144 164
94 144 164
94 144 164
94 144 164
94 144 164
94 144 164
94 144 164
94 144 164
94 144 164
94 144 164
94 144 164
94 144 164
94 144 164
94 144 164
94 144 164
94 144 164
94 144 164
94 144 164
94 144 164
94 144 164
94 144 164
94 144 164
94 144 164
94 144 164
94 144 164
94 144 164
94 144 164
94 144 164
94 144 164
94 144 164
94 144 164
94 144 164
94 144 164
94 144 164
94 144 164
94 144 164
94 144 164
94 144 164
94 144 164
94 144 164
94 144 164
94 144 164
94 144 164
94 144 164
94 144 164
94 144 164
94 144 164
94 144 164
94 144 164
94 144 164
94 144 164
94 144 164
94 144 164
94 144 164
94 144 164
94 144 164
94 144 164
94 144 164
94 144 164
94 144 164
94 144 164
94 144 164
94 144 164
94 144 164
94 144 164
94 144 164
94 144 164
94 144 164
94 144 164
94 144 164
94 144 164
94 144 164
94 144 164
94 144 164
94 144 164
94 144 164
94 144 164
94 144 164
94 144 164
94 144 164
94 144 164
94 144 164
94 144 164
94 144 164
94 144 164
94 144 164
94 144 164
94 144 164
94 144 164
94 144 164
94 144 164
94 144 164
94 144 164
94 144 164
94 144 164
94 144 164
94 144 164
94 144 164
94 144 164
94 144 164
94 144 164
94 144 164
94 144 164
94 144 164
94 144 164
94 144 164
94 144 164
94 144 164
94 144 164
94 144 164
94 144 164
94 144 164
94 144 164
94 144 164
94 144 164
94 144 164
94 144 164
94 144 164
94 144 164
94 144 164
94 144 164
94 144 164
94 144 164
94 144 164
94 144 164
94 144 164
94 144 164
94 144 164
94 144 164
94 144 164
94 144 164
94 144 164
94 144 164
94 144 164
94 144 164
94 144 164
94 144 164
94 144 164
94 144 164
94 144 164
94 144 164
94 144 164
94 144 164
94 144 164
94 144 164
94 144 164
94 144 164
94 144 164
94 144 164
94 144 164
94 144 164
94 144 164
94 144 164
94 144 164
94 144 164
94 144 164
94 144 164
94 144 164
94 144 164
94 144 164
94 144 164
94 144 164
94 144 164
94 144 164
94 144 164
94 144 164
94 144 164
94 144 164
94 144 164
94 144 164
94 144 164
94 144 164
94 144 164
94 144 164
94 144 164
94 144 164
94 144 164
94 144 164
94 144 164
94 144 164
94 144 164
94 144 164
94 144 164
94 144 164
94 144 164
94 144 164
94 144 164
94 144 164
94 144 164
94 144 164
94 144 164
94 144 164
94 144 164
94 144 164
94 144 164
94 144 164
94 144 164
94 144 164
94 144 164
94 144 164
94 144 164
94 144 164
94 144 164
94 144 164
94 144 164
94 144 164
94 144 164
94 144 164
94 144 164
94 144 164
94 144 164
94 144 164
94 144 164
94 144 164
94 144 164
94 144 164
94 144 164
94 144 164
94 144 164
94 144 164
94 144 164
94 144 164
94 144 164
94 144 164
94 144 164
94 144 164
94 144 164
94 144 164
94 144 164
94 144 164
94 144 164
94 144 164
94 144 164
94 144 164
94 144 164
94 144 164
94 144 164
94 144 164
94 144 164
94 144 164
94 144 164
94 144 164
94 144 164
94 144 164
94 144 164
94 144 164
94 144 164
94 144 164
94 144 164
94 144 164
94 144 164
94 144 164
94 144 164
94 144 164
94 144 164
94 144 164
94 144 164
94 144 164
94 144 164
94 144 164
94 144 164
94 144 164
94 144 164
94 144 164
94 144 164
94 144 164
94 144 164
94 144 164
94 144 164
94 144 164
94 144 164
94 144 164
94 144 164
94 144 164
94 144 164
94 144 164
94 144 164
94 144 164
94 144 164
94 144 164
94 144 164
94 144 164
94 144 164
94 144 164
94 144 164
94 144 164
94 144 164
94 144 164
94 144 164
94 144 164
94 144 164
94 144 164
94 144 164
94 144 164
94 144 164
94 144 164
94 144 164
94 144 164
94 144 164
94 144 164
94 144 164
94 144 164
94 144 164
94 144 164
94 144 164
94 144 164
94 144 164
94 144 164
94 144 164
94 144 164
94 144 164
94 144 164
94 144 164
94 144 164
94 144 164
94 144 164
94 144 164
94 144 164
94 144 164
94 144 164
94 144 164
94 144 164
94 144 164
94 144 164
94 144 164
94 144 164
94 144 164
94 144 164
94 144 164
94 144 164
94 144 164
94 144 164
94 144 164
94 144 164
94 144 164
94 144 164
94 144 164
94 144 164
94 144 164
94 144 164
94 144 164
94 144 164
94 144 164
94 144 164
94 144 164
94 144 164
94 144 164
94 144 164
94 144 164
94 144 164
94 144 164
94 144 164
94 144 164
94 144 164
94 144 164
94 144 164
94 144 164
94 144 164
94 144 164
94 144 164
94 144 164
94 144 164
94 144 164
94 144 164
94 144 164
94 144 164
94 144 164
94 144 164
94 144 164
94 144 164
94 144 164
94 144 164
94 144 164
94 144 164
94 144 164
94 144 164
94 144 164
94 144 164
94 144 164
94 144 164
94 144 164
94 144 164
94 144 164
94 144 164
94 144 164
94 144 164
94 144 164
94 144 164
94 144 164
94 144 164
94 144 164
94 144 164
94 144 164
94 144 164
94 144 164
94 144 164
94 144 164
94 144 164
94 144 164
94 144 164
94 144 164
94 144 164
94 144 164
94 144 164
94 144 164
94 144 164
94 144 164
94 144 164
94 144 164
94 144 164
94 144 164
94 144 164
94 144 164
94 144 164
94 144 164
94 144 164
94 144 164
94 144 164
94 144 164
94 144 164
94 144 164
94 144 164
94 144 164
94 144 164
94 144 164
94 144 164
94 144 164
94 144 164
94 144 164
94 144 164
94 144 164
94 144 164
94 144 164
94 144 164
94 144 164
94 144 164
94 144 164
94 144 164
94 144 164
94 144 164
94 144 164
94 144 164
94 144 164
94 144 164
94 144 164
94 144 164
94 144 164
94 144 164
94 144 164
94 144 164
94 144 164
94 144 164
94 144 164
94 144 164
94 144 164
94 144 164
94 144 164
94 144 164
94 144 164
94 144 164
94 144 164
94 144 164
94 144 164
94 144 164
94 144 164
94 144 164
94 144 164
94 144 164
94 144 164
94 144 164
94 144 164
94 144 164
94 144 164
94 144 164
94 144 164
94 144 164
94 144 164
94 144 164
94 144 164
94 144 164
94 144 164
94 144 164
94 144 164
94 144 164
94 144 164
94 144 164
94 144 164
94 144 164
94 144 164
94 144 164
94 144 164
94 144 164
94 144 164
94 144 164
94 144 164
94 144 164
94 144 164
94 144 164
94 144 164
94 144 164
94 144 164
94 144 164
94 144 164
94 144 164
94 144 164
94 144 164
94 144 164
94 144 164
94 144 164
94 144 164
94 144 164
94 144 164
94 144 164
94 144 164
94 144 164
94 144 164
94 144 164
94 144 164
94 144 164
94 144 164
94 144 164
94 144 164
94 144 164
94 144 164
94 144 164
94 144 164
94 144 164
94 144 164
94 144 164
94 144 164
94 144 164
94 144 164
94 144 164
94 144 164
94 144 164
94 144 164
94 144 164
94 144 164
94 144 164
94 144 164
94 144 164
94 144 164
94 144 164
94 144 164
94 144 164
94 144 164
94 144 164
94 144 164
94 144 164
94 144 164
94 144 164
94 144 164
94 144 164
94 144 164
94 144 164
94 144 164
94 144 164
94 144 164
94 144 164
94 144 164
94 144 164
94 144 164
94 144 164
94 144 164
94 144 164
94 144 164
94 144 164
94 144 164
94 144 164
94 144 164
94 144 164
94 144 164
94 144 164
94 144 164
94 144 164
94 144 164
94 144 164
94 144 164
94 144 164
94 144 164
94 144 164
94 144 164
94 144 164
94 144 164
94 144 164
94 144 164
94 144 164
94 144 164
94 144 164
94 144 164
94 144 164
94 144 164
94 144 164
94 144 164
94 144 164
94 144 164
94 144 164
94 144 164
94 144 164
94 144 164
94 144 164
94 144 164
94 144 164
94 144 164
94 144 164
94 144 164
94 144 164
94 144 164
94 144 164
94 144 164
94 144 164
94 144 164
94 144 164
94 144 164
94 144 164
94 144 164
94 144 164
94 144 164
94 144 164
94 144 164
94 144 164
94 144 164
94 144 164
94 144 164
94 144 164
94 144 164
94 144 164
94 144 164
94 144 164
94 144 164
94 144 164
94 144 164
94 144 164
94 144 164
94 144 164
94 144 164
94 144 164
94 144 164
94 144 164
94 144 164
94 144 164
94 144 164
94 144 164
94 144 164
94 144 164
94 144 164
94 144 164
94 144 164
94 144 164
94 144 164
94 144 164
94 144 164
94 144 164
94 144 164
94 144 164
94 144 164
94 144 164
94 144 164
94 144 164
94 144 164
94 144 164
94 144 164
94 144 164
94 144 164
94 144 164
94 144 164
94 144 164
94 144 164
94 144 164
94 144 164
94 144 164
94 144 164
94 144 164
94 144 164
94 144 164
94 144 164
94 144 164
94 144 164
94 144 164
94 144 164
94 144 164
94 144 164
94 144 164
94 144 164
94 144 164
94 144 164
94 144 164
94 144 164
94 144 164
94 144 164
94 144 164
94 144 164
94 144 164
94 144 164
94 144 164
94 144 164
94 144 164
94 144 164
94 144 164
94 144 164
94 144 164
94 144 164
94 144 164
94 144 164
94 144 164
94 144 164
94 144 164
94 144 164
94 144 164
94 144 164
94 144 164
94 144 164
94 144 164
94 144 164
94 144 164
94 144 164
94 144 164
94 144 164
94 144 164
94 144 164
94 144 164
94 144 164
94 144 164
94 144 164
94 144 164
94 144 164
94 144 164
94 144 164
94 144 164
94 144 164
94 144 164
94 144 164
94 144 164
94 144 164
94 144 164
94 144 164
94 144 164
94 144 164
94 144 164
94 144 164
94 144 164
94 144 164
94 144 164
94 144 164
94 144 164
94 144 164
94 144 164
94 144 164
94 144 164
94 144 164
94 144 164
94 144 164
94 144 164
94 144 164
94 144 164
94 144 164
94 144 164
94 144 164
94 144 164
94 144 164
94 144 164
94 144 164
94 144 164
94 144 164
94 144 164
94 144 164
94 144 164
94 144 164
94 144 164
94 144 164
94 144 164
94 144 164
94 144 164
94 144 164
94 144 164
94 144 164
94 144 164
94 144 164
94 144 164
94 144 164
94 144 164
94 144 164
94 144 164
94 144 164
94 144 164
94 144 164
94 144 164
94 144 164
94 144 164
94 144 164
94 144 164
94 144 164
94 144 164
94 144 164
94 144 164
94 144 164
94 144 164
94 144 164
94 144 164
94 144 164
94 144 164
94 144 164
94 144 164
94 144 164
94 144 164
94 144 164
94 144 164
94 144 164
94 144 164
94 144 164
94 144 164
94 144 164
94 144 164
94 144 164
94 144 164
94 144 164
94 144 164
94 144 164
94 144 164
94 144 164
94 144 164
94 144 164
94 144 164
94 144 164
94 144 164
94 144 164
94 144 164
94 144 164
94 144 164
94 144 164
94 144 164
94 144 164
94 144 164
94 144 164
94 144 164
94 144 164
94 144 164
94 144 164
94 144 164
94 144 164
94 144 164
94 144 164
94 144 164
94 144 164
94 144 164
94 144 164
94 144 164
94 144 164
94 144 164
94 144 164
94 144 164
94 144 164
94 144 164
94 144 164
94 144 164
94 144 164
94 144 164
94 144 164
94 144 164
94 144 164
94 144 164
94 144 164
94 144 164
94 144 164
94 144 164
94 144 164
94 144 164
94 144 164
94 144 164
94 144 164
94 144 164
94 144 164
94 144 164
94 144 164
94 144 164
94 144 164
94 144 164
94 144 164
94 144 164
94 144 164
94 144 164
94 144 164
94 144 164
94 144 164
94 144 164
94 144 164
94 144 164
94 144 164
94 144 164
94 144 164
94 144 164
94 144 164
94 144 164
94 144 164
94 144 164
94 144 164
94 144 164
94 144 164
94 144 164
94 144 164
94 144 164
94 144 164
94 144 164
94 144 164
94 144 164
94 144 164
94 144 164
94 144 164
94 144 164
94 144 164
94 144 164
94 144 164
94 144 164
94 144 164
94 144 164
94 144 164
94 144 164
94 144 164
94 144 164
94 144 164
94 144 164
94 144 164
94 144 164
94 144 164
94 144 164
94 144 164
94 144 164
94 144 164
94 144 164
94 144 164
94 144 164
94 144 164
94 144 164
94 144 164
94 144 164
94 144 164
94 144 164
94 144 164
94 144 164
94 144 164
94 144 164
94 144 164
94 144 164
94 144 164
94 144 164
94 144 164
94 144 164
94 144 164
94 144 164
94 144 164
94 144 164
94 144 164
94 144 164
94 144 164
94 144 164
94 144 164
94 144 164
94 144 164
94 144 164
94 144 164
94 144 164
94 144 164
94 144 164
94 144 164
94 144 164
94 144 164
94 144 164
94 144 164
94 144 164
94 144 164
94 144 164
94 144 164
94 144 164
94 144 164
94 144 164
94 144 164
94 144 164
94 144 164
94 144 164
94 144 164
94 144 164
94 144 164
94 144 164
94 144 164
94 144 164
94 144 164
94 144 164
94 144 164
94 144 164
94 144 164
94 144 164
94 144 164
94 144 164
94 144 164
94 144 164
94 144 164
94 144 164
94 144 164
94 144 164
94 144 164
94 144 164
94 144 164
94 144 164
94 144 164
94 144 164
94 144 164
94 144 164
94 144 164
94 144 164
94 144 164
94 144 164
94 144 164
94 144 164
94 144 164
94 144 164
94 144 164
94 144 164
94 144 164
94 144 164
94 144 164
94 144 164
94 144 164
94 144 164
94 144 164
94 144 164
94 144 164
94 144 164
94 144 164
94 144 164
94 144 164
94 144 164
94 144 164
94 144 164
94 144 164
94 144 164
94 144 164
94 144 164
94 144 164
94 144 164
94 144 164
94 144 164
94 144 164
94 144 164
94 144 164
94 144 164
94 144 164
94 144 164
94 144 164
94 144 164
94 144 164
94 144 164
94 144 164
94 144 164
94 144 164
94 144 164
94 144 164
94 144 164
94 144 164
94 144 164
94 144 164
94 144 164
94 144 164
94 144 164
94 144 164
94 144 164
94 144 164
94 144 164
94 144 164
94 144 164
94 144 164
94 144 164
94 144 164
94 144 164
94 144 164
94 144 164
94 144 164
94 144 164
94 144 164
94 144 164
94 144 164
94 144 164
94 144 164
94 144 164
94 144 164
94 144 164
94 144 164
94 144 164
94 144 164
94 144 164
94 144 164
94 144 164
94 144 164
94 144 164
94 144 164
94 144 164
94 144 164
94 144 164
94 144 164
94 144 164
94 144 164
94 144 164
94 144 164
94 144 164
94 144 164
94 144 164
94 144 164
94 144 164
94 144 164
94 144 164
94 144 164
94 144 164
94 144 164
94 144 164
94 144 164
94 144 164
94 144 164
94 144 164
94 144 164
94 144 164
94 144 164
94 144 164
94 144 164
94 144 164
94 144 164
94 144 164
94 144 164
94 144 164
94 144 164
94 144 164
94 144 164
94 144 164
94 144 164
94 144 164
94 144 164
94 144 164
94 144 164
94 144 164
94 144 164
94 144 164
94 144 164
94 144 164
94 144 164
94 144 164
94 144 164
94 144 164
94 144 164
94 144 164
94 144 164
94 144 164
94 144 164
94 144 164
94 144 164
94 144 164
94 144 164
94 144 164
94 144 164
94 144 164
94 144 164
94 144 164
94 144 164
94 144 164
94 144 164
94 144 164
94 144 164
94 144 164
94 144 164
94 144 164
94 144 164
94 144 164
94 144 164
94 144 164
94 144 164
94 144 164
94 144 164
94 144 164
94 144 164
94 144 164
94 144 164
94 144 164
94 144 164
94 144 164
94 144 164
94 144 164
94 144 164
94 144 164
94 144 164
94 144 164
94 144 164
94 144 164
94 144 164
94 144 164
94 144 164
94 144 164
94 144 164
94 144 164
94 144 164
94 144 164
94 144 164
94 144 164
94 144 164
94 144 164
94 144 164
94 144 164
94 144 164
94 144 164
94 144 164
94 144 164
94 144 164
94 144 164
94 144 164
94 144 164
94 144 164
94 144 164
94 144 164
94 144 164
94 144 164
94 144 164
94 144 164
94 144 164
94 144 164
94 144 164
94 144 164
94 144 164
94 144 164
94 144 164
94 144 164
94 144 164
94 144 164
94 144 164
94 144 164
94 144 164
94 144 164
94 144 164
94 144 164
94 144 164
94 144 164
94 144 164
94 144 164
94 144 164
94 144 164
94 144 164
94 144 164
94 144 164
94 144 164
94 144 164
94 144 164
94 144 164
94 144 164
94 144 164
94 144 164
94 144 164
94 144 164
94 144 164
94 144 164
94 144 164
94 144 164
94 144 164
94 144 164
94 144 164
94 144 164
94 144 164
94 144 164
94 144 164
94 144 164
94 144 164
94 144 164
94 144 164
94 144 164
94 144 164
94 144 164
94 144 164
94 144 164
94 144 164
94 144 164
94 144 164
94 144 164
94 144 164
94 144 164
94 144 164
94 144 164
94 144 164
94 144 164
94 144 164
94 144 164
94 144 164
94 144 164
94 144 164
94 144 164
94 144 164
94 144 164
94 144 164
94 144 164
94 144 164
94 144 164
94 144 164
94 144 164
94 144 164
94 144 164
94 144 164
94 144 164
94 144 164
94 144 164
94 144 164
94 144 164
94 144 164
94 144 164
94 144 164
94 144 164
94 144 164
94 144 164
94 144 164
94 144 164
94 144 164
94 144 164
94 144 164
94 144 164
94 144 164
94 144 164
94 144 164
94 144 164
94 144 164
94 144 164
94 144 164
94 144 164
94 144 164
94 144 164
94 144 164
94 144 164
94 144 164
94 144 164
94 144 164
94 144 164
94 144 164
94 144 164
94 144 164
94 144 164
94 144 164
94 144 164
94 144 164
94 144 164
94 144 164
94 144 164
94 144 164
94 144 164
94 144 164
94 144 164
94 144 164
94 144 164
94 144 164
94 144 164
94 144 164
94 144 164
94 144 164
94 144 164
94 144 164
94 144 164
94 144 164
94 144 164
94 144 164
94 144 164
94 144 164
94 144 164
94 144 164
94 144 164
94 144 164
94 144 164
94 144 164
94 144 164
94 144 164
94 144 164
94 144 164
94 144 164
94 144 164
94 144 164
94 144 164
94 144 164
94 144 164
94 144 164
94 144 164
94 144 164
94 144 164
94 144 164
94 144 164
94 144 164
94 144 164
94 144 164
94 144 164
94 144 164
94 144 164
94 144 164
94 144 164
94 144 164
94 144 164
94 144 164
94 144 164
94 144 164
94 144 164
94 144 164
94 144 164
94 144 164
94 144 164
94 144 164
94 144 164
94 144 164
94 144 164
94 144 164
94 144 164
94 144 164
94 144 164
94 144 164
94 144 164
94 144 164
94 144 164
94 144 164
94 144 164
94 144 164
94 144 164
94 144 164
94 144 164
94 144 164
94 144 164
94 144 164
94 144 164
94 144 164
94 144 164
94 144 164
94 144 164
94 144 164
94 144 164
94 144 164
94 144 164
94 144 164
94 144 164
94 144 164
94 144 164
94 144 164
94 144 164
94 144 164
94 144 164
94 144 164
94 144 164
94 144 164
94 144 164
94 144 164
94 144 164
94 144 164
94 144 164
94 144 164
94 144 164
94 144 164
94 144 164
94 144 164
94 144 164
94 144 164
94 144 164
94 144 164
94 144 164
94 144 164
94 144 164
94 144 164
94 144 164
94 144 164
94 144 164
94 144 164
94 144 164
94 144 164
94 144 164
94 144 164
94 144 164
94 144 164
94 144 164
94 144 164
94 144 164
94 144 164
94 144 164
94 144 164
94 144 164
94 144 164
94 144 164
94 144 164
94 144 164
94 144 164
94 144 164
94 144 164
94 144 164
94 144 164
94 144 164
94 144 164
94 144 164
94 144 164
94 144 164
94 144 164
94 144 164
94 144 164
94 144 164
94 144 164
94 144 164
94 144 164
94 144 164
94 144 164
94 144 164
94 144 164
94 144 164
94 144 164
94 144 164
94 144 164
94 144 164
94 144 164
94 144 164
94 144 164
94 144 164
94 144 164
94 144 164
94 144 164
94 144 164
94 144 164
94 144 164
94 144 164
94 144 164
94 144 164
94 144 164
94 144 164
94 144 164
94 144 164
94 144 164
94 144 164
94 144 164
94 144 164
94 144 164
94 144 164
94 144 164
94 144 164
94 144 164
94 144 164
94 144 164
94 144 164
94 144 164
94 144 164
94 144 164
94 144 164
94 144 164
94 144 164
94 144 164
94 144 164
94 144 164
94 144 164
94 144 164
94 144 164
94 144 164
94 144 164
94 144 164
94 144 164
94 144 164
94 144 164
94 144 164
94 144 164
94 144 164
94 144 164
94 144 164
94 144 164
94 144 164
94 144 164
94 144 164
94 144 164
94 144 164
94 144 164
94 144 164
94 144 164
94 144 164
94 144 164
94 144 164
94 144 164
94 144 164
94 144 164
94 144 164
94 144 164
94 144 164
94 144 164
94 144 164
94 144 164
94 144 164
94 144 164
94 144 164
94 144 164
94 144 164
94 144 164
94 144 164
94 144 164
94 144 164
94 144 164
94 144 164
94 144 164
94 144 164
94 144 164
94 144 164
94 144 164
94 144 164
94 144 164
94 144 164
94 144 164
94 144 164
94 144 164
94 144 164
94 144 164
94 144 164
94 144 164
94 144 164
94 144 164
94 144 164
94 144 164
94 144 164
94 144 164
94 144 164
94 144 164
94 144 164
94 144 164
94 144 164
94 144 164
94 144 164
94 144 164
94 144 164
94 144 164
94 144 164
94 144 164
94 144 164
94 144 164
94 144 164
94 144 164
94 144 164
94 144 164
94 144 164
94 144 164
94 144 164
94 144 164
94 144 164
94 144 164
94 144 164
94 144 164
94 144 164
94 144 164
94 144 164
94 144 164
94 144 164
94 144 164
94 144 164
94 144 164
94 144 164
94 144 164
94 144 164
94 144 164
94 144 164
94 144 164
94 144 164
94 144 164
94 144 164
94 144 164
94 144 164
94 144 164
94 144 164
94 144 164
94 144 164
94 144 164
94 144 164
94 144 164
94 144 164
94 144 164
94 144 164
94 144 164
94 144 164
94 144 164
94 144 164
94 144 164
94 144 164
94 144 164
94 144 164
94 144 164
94 144 164
94 144 164
94 144 164
94 144 164
94 144 164
94 144 164
94 144 164
94 144 164
94 144 164
94 144 164
94 144 164
94 144 164
94 144 164
94 144 164
94 144 164
94 144 164
94 144 164
94 144 164
94 144 164
94 144 164
94 144 164
94 144 164
94 144 164
94 144 164
94 144 164
94 144 164
94 144 164
94 144 164
94 144 164
94 144 164
94 144 164
94 144 164
94 144 164
94 144 164
94 144 164
94 144 164
94 144 164
94 144 164
94 144 164
94 144 164
94 144 164
94 144 164
94 144 164
94 144 164
94 144 164
94 144 164
94 144 164
94 144 164
94 144 164
94 144 164
94 144 164
94 144 164
94 144 164
94 144 164
94 144 164
94 144 164
94 144 164
94 144 164
94 144 164
94 144 164
94 144 164
94 144 164
94 144 164
94 144 164
94 144 164
94 144 164
94 144 164
94 144 164
94 144 164
94 144 164
94 144 164
94 144 164
94 144 164
94 144 164
94 144 164
94 144 164
94 144 164
94 144 164
94 144 164
94 144 164
94 144 164
94 144 164
94 144 164
94 144 164
94 144 164
94 144 164
94 144 164
94 144 164
94 144 164
94 144 164
94 144 164
94 144 164
94 144 164
94 144 164
94 144 164
94 144 164
94 144 164
94 144 164
94 144 164
94 144 164
94 144 164
94 144 164
94 144 164
94 144 164
94 144 164
94 144 164
94 144 164
94 144 164
94 144 164
94 144 164
94 144 164
94 144 164
94 144 164
94 144 164
94 144 164
94 144 164
94 144 164
94 144 164
94 144 164
94 144 164
94 144 164
94 144 164
94 144 164
94 144 164
94 144 164
94 144 164
94 144 164
94 144 164
94 144 164
94 144 164
94 144 164
94 144 164
94 144 164
94 144 164
94 144 164
94 144 164
94 144 164
94 144 164
94 144 164
94 144 164
94 144 164
94 144 164
94 144 164
94 144 164
94 144 164
94 144 164
94 144 164
94 144 164
94 144 164
94 144 164
94 144 164
94 144 164
94 144 164
94 144 164
94 144 164
94 144 164
94 144 164
94 144 164
94 144 164
94 144 164
94 144 164
94 144 164
94 144 164
94 144 164
94 144 164
94 144 164
94 144 164
94 144 164
94 144 164
94 144 164
94 144 164
94 144 164
94 144 164
94 144 164
94 144 164
94 144 164
94 144 164
94 144 164
94 144 164
94 144 164
94 144 164
94 144 164
94 144 164
94 144 164
94 144 164
94 144 164
94 144 164
94 144 164
94 144 164
94 144 164
94 144 164
94 144 164
94 144 164
94 144 164
94 144 164
94 144 164
94 144 164
94 144 164
94 144 164
94 144 164
94 144 164
94 144 164
94 144 164
94 144 164
94 144 164
94 144 164
94 144 164
94 144 164
94 144 164
94 144 164
94 144 164
94 144 164
94 144 164
94 144 164
94 144 164
94 144 164
94 144 164
94 144 164
94 144 164
94 144 164
94 144 164
94 144 164
94 144 164
94 144 164
94 144 164
94 144 164
94 144 164
94 144 164
94 144 164
94 144 164
94 144 164
94 144 164
94 144 164
94 144 164
94 144 164
94 144 164
94 144 164
94 144 164
94 144 164
94 144 164
94 144 164
94 144 164
94 144 164
94 144 164
94 144 164
94 144 164
94 144 164
94 144 164
94 144 164
94 144 164
94 144 164
94 144 164
94 144 164
94 144 164
94 144 164
94 144 164
94 144 164
94 144 164
94 144 164
94 144 164
94 144 164
94 144 164
94 144 164
94 144 164
94 144 164
94 144 164
94 144 164
94 144 164
94 144 164
94 144 164
94 144 164
94 144 164
94 144 164
94 144 164
94 144 164
94 144 164
94 144 164
94 144 164
94 144 164
94 144 164
94 144 164
94 144 164
94 144 164
94 144 164
94 144 164
94 144 164
94 144 164
94 144 164
94 144 164
94 144 164
94 144 164
94 144 164
94 144 164
94 144 164
94 144 164
94 144 164
94 144 164
94 144 164
94 144 164
94 144 164
94 144 164
94 144 164
94 144 164
94 144 164
94 144 164
94 144 164
94 144 164
94 144 164
94 144 164
94 144 164
94 144 164
94 144 164
94 144 164
94 144 164
94 144 164
94 144 164
94 144 164
94 144 164
94 144 164
94 144 164
94 144 164
94 144 164
94 144 164
94 144 164
94 144 164
94 144 164
94 144 164
94 144 164
94 144 164
94 144 164
94 144 164
94 144 164
94 144 164
94 144 164
94 144 164
94 144 164
94 144 164
94 144 164
94 144 164
94 144 164
94 144 164
94 144 164
94 144 164
94 144 164
94 144 164
94 144 164
94 144 164
94 144 164
94 144 164
94 144 164
94 144 164
94 144 164
94 144 164
94 144 164
94 144 164
94 144 164
94 144 164
94 144 164
94 144 164
94 144 164
94 144 164
94 144 164
94 144 164
94 144 164
94 144 164
94 144 164
94 144 164
94 144 164
94 144 164
94 144 164
94 144 164
94 144 164
94 144 164
94 144 164
94 144 164
94 144 164
94 144 164
94 144 164
94 144 164
94 144 164
94 144 164
94 144 164
94 144 164
94 144 164
94 144 164
94 144 164
94 144 164
94 144 164
94 144 164
94 144 164
94 144 164
94 144 164
94 144 164
94 144 164
94 144 164
94 144 164
94 144 164
94 144 164
94 144 164
94 144 164
94 144 164
94 144 164
94 144 164
94 144 164
94 144 164
94 144 164
94 144 164
94 144 164
94 144 164
94 144 164
94 144 164
94 144 164
94 144 164
94 144 164
94 144 164
94 144 164
94 144 164
94 144 164
94 144 164
94 144 164
94 144 164
94 144 164
94 144 164
94 144 164
94 144 164
94 144 164
94 144 164
94 144 164
94 144 164
94 144 164
94 144 164
94 144 164
94 144 164
94 144 164
94 144 164
94 144 164
94 144 164
94 144 164
94 144 164
94 144 164
94 144 164
94 144 164
94 144 164
94 144 164
94 144 164
94 144 164
94 144 164
94 144 164
94 144 164
94 144 164
94 144 164
94 144 164
94 144 164
94 144 164
94 144 164
94 144 164
94 144 164
94 144 164
94 144 164
94 144 164
94 144 164
94 144 164
94 144 164
94 144 164
94 144 164
94 144 164
94 144 164
94 144 164
94 144 164
94 144 164
94 144 164
94 144 164
94 144 164
94 144 164
94 144 164
94 144 164
94 144 164
94 144 164
94 144 164
94 144 164
94 144 164
94 144 164
94 144 164
94 144 164
94 144 164
94 144 164
94 144 164
94 144 164
94 144 164
94 144 164
94 144 164
94 144 164
94 144 164
94 144 164
94 144 164
94 144 164
94 144 164
94 144 164
94 144 164
94 144 164
94 144 164
94 144 164
94 144 164
94 144 164
94 144 164
94 144 164
94 144 164
94 144 164
94 144 164
94 144 164
94 144 164
94 144 164
94 144 164
94 144 164
94 144 164
94 144 164
94 144 164
94 144 164
94 144 164
94 144 164
94 144 164
94 144 164
94 144 164
94 144 164
94 144 164
94 144 164
94 144 164
94 144 164
94 144 164
94 144 164
94 144 164
94 144 164
94 144 164
94 144 164
94 144 164
94 144 164
94 144 164
94 144 164
94 144 164
94 144 164
94 144 164
94 144 164
94 144 164
94 144 164
94 144 164
94 144 164
94 144 164
94 144 164
94 144 164
94 144 164
94 144 164
94 144 164
94 144 164
94 144 164
94 144 164
94 144 164
94 144 164
94 144 164
94 144 164
94 144 164
94 144 164
94 144 164
94 144 164
94 144 164
94 144 164
94 144 164
94 144 164
94 144 164
94 144 164
94 144 164
94 144 164
94 144 164
94 144 164
94 144 164
94 144 164
94 144 164
94 144 164
94 144 164
94 144 164
94 144 164
94 144 164
94 144 164
94 144 164
94 144 164
94 144 164
94 144 164
94 144 164
94 144 164
94 144 164
94 144 164
94 144 164
94 144 164
94 144 164
94 144 164
94 144 164
94 144 164
94 144 164
94 144 164
94 144 164
94 144 164
94 144 164
94 144 164
94 144 164
94 144 164
94 144 164
94 144 164
94 144 164
94 144 164
94 144 164
94 144 164
94 144 164
94 144 164
94 144 164
94 144 164
94 144 164
94 144 164
94 144 164
94 144 164
94 144 164
94 144 164
94 144 164
94 144 164
94 144 164
94 144 164
94 144 164
94 144 164
94 144 164
94 144 164
94 144 164
94 144 164
94 144 164
94 144 164
94 144 164
94 144 164
94 144 164
94 144 164
94 144 164
94 144 164
94 144 164
94 144 164
94 144 164
94 144 164
94 144 164
94 144 164
94 144 164
94 144 164
94 144 164
94 144 164
94 144 164
94 144 164
94 144 164
94 144 164
94 144 164
94 144 164
94 144 164
94 144 164
94 144 164
94 144 164
94 144 164
94 144 164
94 144 164
94 144 164
94 144 164
94 144 164
94 144 164
94 144 164
94 144 164
94 144 164
94 144 164
94 144 164
94 144 164
94 144 164
94 144 164
94 144 164
94 144 164
94 144 164
94 144 164
94 144 164
94 144 164
94 144 164
94 144 164
94 144 164
94 144 164
94 144 164
94 144 164
94 144 164
94 144 164
94 144 164
94 144 164
94 144 164
94 144 164
94 144 164
94 144 164
94 144 164
94 144 164
94 144 164
94 144 164
94 144 164
94 144 164
94 144 164
94 144 164
94 144 164
94 144 164
94 144 164
94 144 164
94 144 164
94 144 164
94 144 164
94 144 164
94 144 164
94 144 164
94 144 164
94 144 164
94 144 164
94 144 164
94 144 164
94 144 164
94 144 164
94 144 164
94 144 164
94 144 164
94 144 164
94 144 164
94 144 164
94 144 164
94 144 164
94 144 164
94 144 164
94 144 164
94 144 164
94 144 164
94 144 164
94 144 164
94 144 164
94 144 164
94 144 164
94 144 164
94 144 164
94 144 164
94 144 164
94 144 164
94 144 164
94 144 164
94 144 164
94 144 164
94 144 164
94 144 164
94 144 164
94 144 164
94 144 164
94 144 164
94 144 164
94 144 164
94 144 164
94 144 164
94 144 164
94 144 164
94 144 164
94 144 164
94 144 164
94 144 164
94 144 164
94 144 164
94 144 164
94 144 164
94 144 164
94 144 164
94 144 164
94 144 164
94 144 164
94 144 164
94 144 164
94 144 164
94 144 164
94 144 164
94 144 164
94 144 164
94 144 164
94 144 164
94 144 164
94 144 164
94 144 164
94 144 164
94 144 164
94 144 164
94 144 164
94 144 164
94 144 164
94 144 164
94 144 164
94 144 164
94 144 164
94 144 164
94 144 164
94 144 164
94 144 164
94 144 164
94 144 164
94 144 164
94 144 164
94 144 164
94 144 164
94 144 164
94 144 164
94 144 164
94 144 164
94 144 164
94 144 164
94 144 164
94 144 164
94 144 164
94 144 164
94 144 164
94 144 164
94 144 164
94 144 164
94 144 164
94 144 164
94 144 164
94 144 164
94 144 164
94 144 164
94 144 164
94 144 164
94 144 164
94 144 164
94 144 164
94 144 164
94 144 164
94 144 164
94 144 164
94 144 164
94 144 164
94 144 164
94 144 164
94 144 164
94 144 164
94 144 164
94 144 164
94 144 164
94 144 164
94 144 164
94 144 164
94 144 164
94 144 164
94 144 164
94 144 164
94 144 164
94 144 164
94 144 164
94 144 164
94 144 164
94 144 164
94 144 164
94 144 164
94 144 164
94 144 164
94 144 164
94 144 164
94 144 164
94 144 164
94 144 164
94 144 164
94 144 164
94 144 164
94 144 164
94 144 164
94 144 164
94 144 164
94 144 164
94 144 164
94 144 164
94 144 164
94 144 164
94 144 164
94 144 164
94 144 164
94 144 164
94 144 164
94 144 164
94 144 164
94 144 164
94 144 164
94 144 164
94 144 164
94 144 164
94 144 164
94 144 164
94 144 164
94 144 164
94 144 164
94 144 164
94 144 164
94 144 164
94 144 164
94 144 164
94 144 164
94 144 164
94 144 164
94 144 164
94 144 164
94 144 164
94 144 164
94 144 164
94 144 164
94 144 164
94 144 164
94 144 164
94 144 164
94 144 164
94 144 164
94 144 164
94 144 164
94 144 164
94 144 164
94 144 164
94 144 164
94 144 164
94 144 164
94 144 164
94 144 164
94 144 164
94 144 164
94 144 164
94 144 164
94 144 164
94 144 164
94 144 164
94 144 164
94 144 164
94 144 164
94 144 164
94 144 164
94 144 164
94 144 164
94 144 164
94 144 164
94 144 164
94 144 164
94 144 164
94 144 164
94 144 164
94 144 164
94 144 164
94 144 164
94 144 164
94 144 164
94 144 164
94 144 164
94 144 164
94 144 164
94 144 164
94 144 164
94 144 164
94 144 164
94 144 164
94 144 164
94 144 164
94 144 164
94 144 164
94 144 164
94 144 164
94 144 164
94 144 164
94 144 164
94 144 164
94 144 164
94 144 164
94 144 164
94 144 164
94 144 164
94 144 164
94 144 164
94 144 164
94 144 164
94 144 164
94 144 164
94 144 164
94 144 164
94 144 164
94 144 164
94 144 164
94 144 164
94 144 164
94 144 164
94 144 164
94 144 164
94 144 164
94 144 164
94 144 164
94 144 164
94 144 164
94 144 164
94 144 164
94 144 164
94 144 164
94 144 164
94 144 164
94 144 164
94 144 164
94 144 164
94 144 164
94 144 164
94 144 164
94 144 164
94 144 164
94 144 164
94 144 164
94 144 164
94 144 164
94 144 164
94 144 164
94 144 164
94 144 164
94 144 164
94 144 164
94 144 164
94 144 164
94 144 164
94 144 164
94 144 164
94 144 164
94 144 164
94 144 164
94 144 164
94 144 164
94 144 164
94 144 164
94 144 164
94 144 164
94 144 164
94 144 164
94 144 164
94 144 164
94 144 164
94 144 164
94 144 164
94 144 164
94 144 164
94 144 164
94 144 164
94 144 164
94 144 164
94 144 164
94 144 164
94 144 164
94 144 164
94 144 164
94 144 164
94 144 164
94 144 164
94 144 164
94 144 164
94 144 164
94 144 164
94 144 164
94 144 164
94 144 164
94 144 164
94 144 164
94 144 164
94 144 164
94 144 164
94 144 164
94 144 164
94 144 164
94 144 164
94 144 164
94 144 164
94 144 164
94 144 164
94 144 164
94 144 164
94 144 164
94 144 164
94 144 164
94 144 164
94 144 164
94 144 164
94 144 164
94 144 164
94 144 164
94 144 164
94 144 164
94 144 164
94 144 164
94 144 164
94 144 164
94 144 164
94 144 164
94 144 164
94 144 164
94 144 164
94 144 164
94 144 164
94 144 164
94 144 164
94 144 164
94 144 164
94 144 164
94 144 164
94 144 164
94 144 164
94 144 164
94 144 164
94 144 164
94 144 164
94 144 164
94 144 164
94 144 164
94 144 164
94 144 164
94 144 164
94 144 164
94 144 164
94 144 164
94 144 164
94 144 164
94 144 164
94 144 164
94 144 164
94 144 164
94 144 164
94 144 164
94 144 164
94 144 164
94 144 164
94 144 164
94 144 164
94 144 164
94 144 164
94 144 164
94 144 164
94 144 164
94 144 164
94 144 164
94 144 164
94 144 164
94 144 164
94 144 164
94 144 164
94 144 164
94 144 164
94 144 164
94 144 164
94 144 164
94 144 164
94 144 164
94 144 164
94 144 164
94 144 164
94 144 164
94 144 164
94 144 164
94 144 164
94 144 164
94 144 164
94 144 164
94 144 164
94 144 164
94 144 164
94 144 164
94 144 164
94 144 164
94 144 164
94 144 164
94 144 164
94 144 164
94 144 164
94 144 164
94 144 164
94 144 164
94 144 164
94 144 164
94 144 164
94 144 164
94 144 164
94 144 164
94 144 164
94 144 164
94 144 164
94 144 164
94 144 164
94 144 164
94 144 164
94 144 164
94 144 164
94 144 164
94 144 164
94 144 164
94 144 164
94 144 164
94 144 164
94 144 164
94 144 164
94 144 164
94 144 164
94 144 164
94 144 164
94 144 164
94 144 164
94 144 164
94 144 164
94 144 164
94 144 164
94 144 164
94 144 164
94 144 164
94 144 164
94 144 164
94 144 164
94 144 164
94 144 164
94 144 164
94 144 164
94 144 164
94 144 164
94 144 164
94 144 164
94 144 164
94 144 164
94 144 164
94 144 164
94 144 164
94 144 164
94 144 164
94 144 164
94 144 164
94 144 164
94 144 164
94 144 164
94 144 164
94 144 164
94 144 164
94 144 164
94 144 164
94 144 164
94 144 164
94 144 164
94 144 164
94 144 164
94 144 164
94 144 164
94 144 164
94 144 164
94 144 164
94 144 164
94 144 164
94 144 164
94 144 164
94 144 164
94 144 164
94 144 164
94 144 164
94 144 164
94 144 164
94 144 164
94 144 164
94 144 164
94 144 164
94 144 164
94 144 164
94 144 164
94 144 164
94 144 164
94 144 164
94 144 164
94 144 164
94 144 164
94 144 164
94 144 164
94 144 164
94 144 164
94 144 164
94 144 164
94 144 164
94 144 164
94 144 164
94 144 164
94 144 164
94 144 164
94 144 164
94 144 164
94 144 164
94 144 164
94 144 164
94 144 164
94 144 164
94 144 164
94 144 164
94 144 164
94 144 164
94 144 164
94 144 164
94 144 164
94 144 164
94 144 164
94 144 164
94 144 164
94 144 164
94 144 164
94 144 164
94 144 164
94 144 164
94 144 164
94 144 164
94 144 164
94 144 164
94 144 164
94 144 164
94 144 164
94 144 164
94 144 164
94 144 164
94 144 164
94 144 164
94 144 164
94 144 164
94 144 164
94 144 164
94 144 164
94 144 164
94 144 164
94 144 164
94 144 164
94 144 164
94 144 164
94 144 164
94 144 164
94 144 164
94 144 164
94 144 164
94 144 164
94 144 164
94 144 164
94 144 164
94 144 164
94 144 164
94 144 164
94 144 164
94 144 164
94 144 164
94 144 164
94 144 164
94 144 164
94 144 164
94 144 164
94 144 164
94 144 164
94 144 164
94 144 164
94 144 164
94 144 164
94 144 164
94 144 164
94 144 164
94 144 164
94 144 164
94 144 164
94 144 164
94 144 164
94 144 164
94 144 164
94 144 164
94 144 164
94 144 164
94 144 164
94 144 164
94 144 164
94 144 164
94 144 164
94 144 164
94 144 164
94 144 164
94 144 164
94 144 164
94 144 164
94 144 164
94 144 164
94 144 164
94 144 164
94 144 164
94 144 164
94 144 164
94 144 164
94 144 164
94 144 164
94 144 164
94 144 164
94 144 164
94 144 164
94 144 164
94 144 164
94 144 164
94 144 164
94 144 164
94 144 164
94 144 164
94 144 164
94 144 164
94 144 164
94 144 164
94 144 164
94 144 164
94 144 164
94 144 164
94 144 164
94 144 164
94 144 164
94 144 164
94 144 164
94 144 164
94 144 164
94 144 164
94 144 164
94 144 164
94 144 164
94 144 164
94 144 164
94 144 164
94 144 164
94 144 164
94 144 164
94 144 164
94 144 164
94 144 164
94 144 164
94 144 164
94 144 164
94 144 164
94 144 164
94 144 164
94 144 164
94 144 164
94 144 164
94 144 164
94 144 164
94 144 164
94 144 164
94 144 164
94 144 164
94 144 164
94 144 164
94 144 164
94 144 164
94 144 164
94 144 164
94 144 164
94 144 164
94 144 164
94 144 164
94 144 164
94 144 164
94 144 164
94 144 164
94 144 164
94 144 164
94 144 164
94 144 164
94 144 164
94 144 164
94 144 164
94 144 164
94 144 164
94 144 164
94 144 164
94 144 164
94 144 164
94 144 164
94 144 164
94 144 164
94 144 164
94 144 164
94 144 164
94 144 164
94 144 164
94 144 164
94 144 164
94 144 164
94 144 164
94 144 164
94 144 164
94 144 164
94 144 164
94 144 164
94 144 164
94 144 164
94 144 164
94 144 164
94 144 164
94 144 164
94 144 164
94 144 164
94 144 164
94 144 164
94 144 164
94 144 164
94 144 164
94 144 164
94 144 164
94 144 164
94 144 164
94 144 164
94 144 164
94 144 164
94 144 164
94 144 164
94 144 164
94 144 164
94 144 164
94 144 164
94 144 164
94 144 164
94 144 164
94 144 164
94 144 164
94 144 164
94 144 164
94 144 164
94 144 164
94 144 164
94 144 164
94 144 164
94 144 164
94 144 164
94 144 164
94 144 164
94 144 164
94 144 164
94 144 164
94 144 164
94 144 164
94 144 164
94 144 164
94 144 164
94 144 164
94 144 164
94 144 164
94 144 164
94 144 164
94 144 164
94 144 164
94 144 164
94 144 164
94 144 164
94 144 164
94 144 164
94 144 164
94 144 164
94 144 164
94 144 164
94 144 164
94 144 164
94 144 164
94 144 164
94 144 164
94 144 164
94 144 164
94 144 164
94 144 164
94 144 164
94 144 164
94 144 164
94 144 164
94 144 164
94 144 164
94 144 164
94 144 164
94 144 164
94 144 164
94 144 164
94 144 164
94 144 164
94 144 164
94 144 164
94 144 164
94 144 164
94 144 164
94 144 164
94 144 164
94 144 164
94 144 164
94 144 164
94 144 164
94 144 164
94 144 164
94 144 164
94 144 164
94 144 164
94 144 164
94 144 164
94 144 164
94 144 164
94 144 164
94 144 164
94 144 164
94 144 164
94 144 164
94 144 164
94 144 164
94 144 164
94 144 164
94 144 164
94 144 164
94 144 164
94 144 164
94 144 164
94 144 164
94 144 164
94 144 164
94 144 164
94 144 164
94 144 164
94 144 164
94 144 164
94 144 164
94 144 164
94 144 164
94 144 164
94 144 164
94 144 164
94 144 164
94 144 164
94 144 164
94 144 164
94 144 164
94 144 164
94 144 164
94 144 164
94 144 164
94 144 164
94 144 164
94 144 164
94 144 164
94 144 164
94 144 164
94 144 164
94 144 164
94 144 164
94 144 164
94 144 164
94 144 164
94 144 164
94 144 164
94 144 164
94 144 164
94 144 164
94 144 164
94 144 164
94 144 164
94 144 164
94 144 164
94 144 164
94 144 164
94 144 164
94 144 164
94 144 164
94 144 164
94 144 164
94 144 164
94 144 164
94 144 164
94 144 164
94 144 164
94 144 164
94 144 164
94 144 164
94 144 164
94 144 164
94 144 164
94 144 164
94 144 164
94 144 164
94 144 164
94 144 164
94 144 164
94 144 164
94 144 164
94 144 164
94 144 164
94 144 164
94 144 164
94 144 164
94 144 164
94 144 164
94 144 164
94 144 164
94 144 164
94 144 164
94 144 164
94 144 164
94 144 164
94 144 164
94 144 164
94 144 164
94 144 164
94 144 164
94 144 164
94 144 164
94 144 164
94 144 164
94 144 164
94 144 164
94 144 164
94 144 164
94 144 164
94 144 164
94 144 164
94 144 164
94 144 164
94 144 164
94 144 164
94 144 164
94 144 164
94 144 164
94 144 164
94 144 164
94 144 164
94 144 164
94 144 164
94 144 164
94 144 164
94 144 164
94 144 164
94 144 164
94 144 164
94 144 164
94 144 164
94 144 164
94 144 164
94 144 164
94 144 164
94 144 164
94 144 164
94 144 164
94 144 164
94 144 164
94 144 164
94 144 164
94 144 164
94 144 164
94 144 164
94 144 164
94 144 164
94 144 164
94 144 164
94 144 164
94 144 164
94 144 164
94 144 164
94 144 164
94 144 164
94 144 164
94 144 164
94 144 164
94 144 164
94 144 164
94 144 164
94 144 164
94 144 164
94 144 164
94 144 164
94 144 164
94 144 164
94 144 164
94 144 164
94 144 164
94 144 164
94 144 164
94 144 164
94 144 164
94 144 164
94 144 164
94 144 164
94 144 164
94 144 164
94 144 164
94 144 164
94 144 164
94 144 164
94 144 164
94 144 164
94 144 164
94 144 164
94 144 164
94 144 164
94 144 164
94 144 164
94 144 164
94 144 164
94 144 164
94 144 164
94 144 164
94 144 164
94 144 164
94 144 164
94 144 164
94 144 164
94 144 164
94 144 164
94 144 164
94 144 164
94 144 164
94 144 164
94 144 164
94 144 164
94 144 164
94 144 164
94 144 164
94 144 164
94 144 164
94 144 164
94 144 164
94 144 164
94 144 164
94 144 164
94 144 164
94 144 164
94 144 164
94 144 164
94 144 164
94 144 164
94 144 164
94 144 164
94 144 164
94 144 164
94 144 164
94 144 164
94 144 164
94 144 164
94 144 164
94 144 164
94 144 164
94 144 164
94 144 164
94 144 164
94 144 164
94 144 164
94 144 164
94 144 164
94 144 164
94 144 164
94 144 164
94 144 164
94 144 164
94 144 164
94 144 164
94 144 164
94 144 164
94 144 164
94 144 164
94 144 164
94 144 164
94 144 164
94 144 164
94 144 164
94 144 164
94 144 164
94 144 164
94 144 164
94 144 164
94 144 164
94 144 164
94 144 164
94 144 164
94 144 164
94 144 164
94 144 164
94 144 164
94 144 164
94 144 164
94 144 164
94 144 164
94 144 164
94 144 164
94 144 164
94 144 164
94 144 164
94 144 164
94 144 164
94 144 164
94 144 164
94 144 164
94 144 164
94 144 164
94 144 164
94 144 164
94 144 164
94 144 164
94 144 164
94 144 164
94 144 164
94 144 164
94 144 164
94 144 164
94 144 164
94 144 164
94 144 164
94 144 164
94 144 164
94 144 164
94 144 164
94 144 164
94 144 164
94 144 164
94 144 164
94 144 164
94 144 164
94 144 164
94 144 164
94 144 164
94 144 164
94 144 164
94 144 164
94 144 164
94 144 164
94 144 164
94 144 164
94 144 164
94 144 164
94 144 164
94 144 164
94 144 164
94 144 164
94 144 164
94 144 164
94 144 164
94 144 164
94 144 164
94 144 164
94 144 164
94 144 164
94 144 164
94 144 164
94 144 164
94 144 164
94 144 164
94 144 164
94 144 164
94 144 164
94 144 164
94 144 164
94 144 164
94 144 164
94 144 164
94 144 164
94 144 164
94 144 164
94 144 164
94 144 164
94 144 164
94 144 164
94 144 164
94 144 164
94 144 164
94 144 164
94 144 164
94 144 164
94 144 164
94 144 164
94 144 164
94 144 164
94 144 164
94 144 164
94 144 164
94 144 164
94 144 164
94 144 164
94 144 164
94 144 164
94 144 164
94 144 164
94 144 164
94 144 164
94 144 164
94 144 164
94 144 164
94 144 164
94 144 164
94 144 164
94 144 164
94 144 164
94 144 164
94 144 164
94 144 164
94 144 164
94 144 164
94 144 164
94 144 164
94 144 164
94 144 164
94 144 164
94 144 164
94 144 164
94 144 164
94 144 164
94 144 164
94 144 164
94 144 164
94 144 164
94 144 164
94 144 164
94 144 164
94 144 164
94 144 164
94 144 164
94 144 164
94 144 164
94 144 164
94 144 164
94 144 164
94 144 164
94 144 164
94 144 164
94 144 164
94 144 164
94 144 164
94 144 164
94 144 164
94 144 164
94 144 164
94 144 164
94 144 164
94 144 164
94 144 164
94 144 164
94 144 164
94 144 164
94 144 164
94 144 164
94 144 164
94 144 164
94 144 164
94 144 164
94 144 164
94 144 164
94 144 164
94 144 164
94 144 164
94 144 164
94 144 164
94 144 164
94 144 164
94 144 164
94 144 164
94 144 164
94 144 164
94 144 164
94 144 164
94 144 164
94 144 164
94 144 164
94 144 164
94 144 164
94 144 164
94 144 164
94 144 164
94 144 164
94 144 164
94 144 164
94 144 164
94 144 164
94 144 164
94 144 164
94 144 164
94 144 164
94 144 164
94 144 164
94 144 164
94 144 164
94 144 164
94 144 164
94 144 164
94 144 164
94 144 164
94 144 164
94 144 164
94 144 164
94 144 164
94 144 164
94 144 164
94 144 164
94 144 164
94 144 164
94 144 164
94 144 164
94 144 164
94 144 164
94 144 164
94 144 164
94 144 164
94 144 164
94 144 164
94 144 164
94 144 164
94 144 164
94 144 164
94 144 164
94 144 164
94 144 164
94 144 164
94 144 164
94 144 164
94 144 164
94 144 164
94 144 164
94 144 164
94 144 164
94 144 164
94 144 164
94 144 164
94 144 164
94 144 164
94 144 164
94 144 164
94 144 164
94 144 164
94 144 164
94 144 164
94 144 164
94 144 164
94 144 164
94 144 164
94 144 164
94 144 164
94 144 164
94 144 164
94 144 164
94 144 164
94 144 164
94 144 164
94 144 164
94 144 164
94 144 164
94 144 164
94 144 164
94 144 164
94 144 164
94 144 164
94 144 164
94 144 164
94 144 164
94 144 164
94 144 164
94 144 164
94 144 164
94 144 164
94 144 164
94 144 164
94 144 164
94 144 164
94 144 164
94 144 164
94 144 164
94 144 164
94 144 164
94 144 164
94 144 164
94 144 164
94 144 164
94 144 164
94 144 164
94 144 164
94 144 164
94 144 164
94 144 164
94 144 164
94 144 164
94 144 164
94 144 164
94 144 164
94 144 164
94 144 164
94 144 164
94 144 164
94 144 164
94 144 164
94 144 164
94 144 164
94 144 164
94 144 164
94 144 164
94 144 164
94 144 164
94 144 164
94 144 164
94 144 164
94 144 164
94 144 164
94 144 164
94 144 164
94 144 164
94 144 164
94 144 164
94 144 164
94 144 164
94 144 164
94 144 164
94 144 164
94 144 164
94 144 164
94 144 164
94 144 164
94 144 164
94 144 164
94 144 164
94 144 164
94 144 164
94 144 164
94 144 164
94 144 164
94 144 164
94 144 164
94 144 164
94 144 164
94 144 164
94 144 164
94 144 164
94 144 164
94 144 164
94 144 164
94 144 164
94 144 164
94 144 164
94 144 164
94 144 164
94 144 164
94 144 164
94 144 164
94 144 164
94 144 164
94 144 164
94 144 164
94 144 164
94 144 164
94 144 164
94 144 164
94 144 164
94 144 164
94 144 164
94 144 164
94 144 164
94 144 164
94 144 164
94 144 164
94 144 164
94 144 164
94 144 164
94 144 164
94 144 164
94 144 164
94 144 164
94 144 164
94 144 164
94 144 164
94 144 164
94 144 164
94 144 164
94 144 164
94 144 164
94 144 164
94 144 164
94 144 164
94 144 164
94 144 164
94 144 164
94 144 164
94 144 164
94 144 164
94 144 164
94 144 164
94 144 164
94 144 164
94 144 164
94 144 164
94 144 164
94 144 164
94 144 164
94 144 164
94 144 164
94 144 164
94 144 164
94 144 164
94 144 164
94 144 164
94 144 164
94 144 164
94 144 164
94 144 164
94 144 164
94 144 164
94 144 164
94 144 164
94 144 164
94 144 164
94 144 164
94 144 164
94 144 164
94 144 164
94 144 164
94 144 164
94 144 164
94 144 164
94 144 164
94 144 164
94 144 164
94 144 164
94 144 164
94 144 164
94 144 164
94 144 164
94 144 164
94 144 164
94 144 164
94 144 164
94 144 164
94 144 164
94 144 164
94 144 164
94 144 164
94 144 164
94 144 164
94 144 164
94 144 164
94 144 164
94 144 164
94 144 164
94 144 164
94 144 164
94 144 164
94 144 164
94 144 164
94 144 164
94 144 164
94 144 164
94 144 164
94 144 164
94 144 164
94 144 164
94 144 164
94 144 164
94 144 164
94 144 164
94 144 164
94 144 164
94 144 164
94 144 164
94 144 164
94 144 164
94 144 164
94 144 164
94 144 164
94 144 164
94 144 164
94 144 164
94 144 164
94 144 164
94 144 164
94 144 164
94 144 164
94 144 164
94 144 164
94 144 164
94 144 164
94 144 164
94 144 164
94 144 164
94 144 164
94 144 164
94 144 164
94 144 164
94 144 164
94 144 164
94 144 164
94 144 164
94 144 164
94 144 164
94 144 164
94 144 164
94 144 164
94 144 164
94 144 164
94 144 164
94 144 164
94 144 164
94 144 164
94 144 164
94 144 164
94 144 164
94 144 164
94 144 164
94 144 164
94 144 164
94 144 164
94 144 164
94 144 164
94 144 164
94 144 164
94 144 164
94 144 164
94 144 164
94 144 164
94 144 164
94 144 164
94 144 164
94 144 164
94 144 164
94 144 164
94 144 164
94 144 164
94 144 164
94 144 164
94 144 164
94 144 164
94 144 164
94 144 164
94 144 164
94 144 164
94 144 164
94 144 164
94 144 164
94 144 164
94 144 164
94 144 164
94 144 164
94 144 164
94 144 164
94 144 164
94 144 164
94 144 164
94 144 164
94 144 164
94 144 164
94 144 164
94 144 164
94 144 164
94 144 164
94 144 164
94 144 164
94 144 164
94 144 164
94 144 164
94 144 164
94 144 164
94 144 164
94 144 164
94 144 164
94 144 164
94 144 164
94 144 164
94 144 164
94 144 164
94 144 164
94 144 164
94 144 164
94 144 164
94 144 164
94 144 164
94 144 164
94 144 164
94 144 164
94 144 164
94 144 164
94 144 164
94 144 164
94 144 164
94 144 164
94 144 164
94 144 164
94 144 164
94 144 164
94 144 164
94 144 164
94 144 164
94 144 164
94 144 164
94 144 164
94 144 164
94 144 164
94 144 164
94 144 164
94 144 164
94 144 164
94 144 164
94 144 164
94 144 164
94 144 164
94 144 164
94 144 164
94 144 164
94 144 164
94 144 164
94 144 164
94 144 164
94 144 164
94 144 164
94 144 164
94 144 164
94 144 164
94 144 164
94 144 164
94 144 164
94 144 164
94 144 164
94 144 164
94 144 164
94 144 164
94 144 164
94 144 164
94 144 164
94 144 164
94 144 164
94 144 164
94 144 164
94 144 164
94 144 164
94 144 164
94 144 164
94 144 164
94 144 164
94 144 164
94 144 164
94 144 164
94 144 164
94 144 164
94 144 164
94 144 164
94 144 164
94 144 164
94 144 164
94 144 164
94 144 164
94 144 164
94 144 164
94 144 164
94 144 164
94 144 164
94 144 164
94 144 164
94 144 164
94 144 164
94 144 164
94 144 164
94 144 164
94 144 164
94 144 164
94 144 164
94 144 164
94 144 164
94 144 164
94 144 164
94 144 164
94 144 164
94 144 164
94 144 164
94 144 164
94 144 164
94 144 164
94 144 164
94 144 164
94 144 164
94 144 164
94 144 164
94 144 164
94 144 164
94 144 164
94 144 164
94 144 164
94 144 164
94 144 164
94 144 164
94 144 164
94 144 164
94 144 164
94 144 164
94 144 164
94 144 164
94 144 164
94 144 164
94 144 164
94 144 164
94 144 164
94 144 164
94 144 164
94 144 164
94 144 164
94 144 164
94 144 164
94 144 164
94 144 164
94 144 164
94 144 164
94 144 164
94 144 164
94 144 164
94 144 164
94 144 164
94 144 164
94 144 164
94 144 164
94 144 164
94 144 164
94 144 164
94 144 164
94 144 164
94 144 164
94 144 164
94 144 164
94 144 164
94 144 164
94 144 164
94 144 164
94 144 164
94 144 164
94 144 164
94 144 164
94 144 164
94 144 164
94 144 164
94 144 164
94 144 164
94 144 164
94 144 164
94 144 164
94 144 164
94 144 164
94 144 164
94 144 164
94 144 164
94 144 164
94 144 164
94 144 164
94 144 164
94 144 164
94 144 164
94 144 164
94 144 164
94 144 164
94 144 164
94 144 164
94 144 164
94 144 164
94 144 164
94 144 164
94 144 164
94 144 164
94 144 164
94 144 164
94 144 164
94 144 164
94 144 164
94 144 164
94 144 164
94 144 164
94 144 164
94 144 164
94 144 164
94 144 164
94 144 164
94 144 164
94 144 164
94 144 164
94 144 164
94 144 164
94 144 164
94 144 164
94 144 164
94 144 164
94 144 164
94 144 164
94 144 164
94 144 164
94 144 164
94 144 164
94 144 164
94 144 164
94 144 164
94 144 164
94 144 164
94 144 164
94 144 164
94 144 164
94 144 164
94 144 164
94 144 164
94 144 164
94 144 164
94 144 164
94 144 164
94 144 164
94 144 164
94 144 164
94 144 164
94 144 164
94 144 164
94 144 164
94 144 164
94 144 164
94 144 164
94 144 164
94 144 164
94 144 164
94 144 164
94 144 164
94 144 164
94 144 164
94 144 164
94 144 164
94 144 164
94 144 164
94 144 164
94 144 164
94 144 164
94 144 164
94 144 164
94 144 164
94 144 164
94 144 164
94 144 164
94 144 164
94 144 164
94 144 164
94 144 164
94 144 164
94 144 164
94 144 164
94 144 164
94 144 164
94 144 164
94 144 164
94 144 164
94 144 164
94 144 164
94 144 164
94 144 164
94 144 164
94 144 164
94 144 164
94 144 164
94 144 164
94 144 164
94 144 164
94 144 164
94 144 164
94 144 164
94 144 164
94 144 164
94 144 164
94 144 164
94 144 164
94 144 164
94 144 164
94 144 164
94 144 164
94 144 164
94 144 164
94 144 164
94 144 164
94 144 164
94 144 164
94 144 164
94 144 164
94 144 164
94 144 164
94 144 164
94 144 164
94 144 164
94 144 164
94 144 164
94 144 164
94 144 164
94 144 164
94 144 164
94 144 164
94 144 164
94 144 164
94 144 164
94 144 164
94 144 164
94 144 164
94 144 164
94 144 164
94 144 164
94 144 164
94 144 164
94 144 164
94 144 164
94 144 164
94 144 164
94 144 164
94 144 164
94 144 164
94 144 164
94 144 164
94 144 164
94 144 164
94 144 164
94 144 164
94 144 164
94 144 164
94 144 164
94 144 164
94 144 164
94 144 164
94 144 164
94 144 164
94 144 164
94 144 164
94 144 164
94 144 164
94 144 164
94 144 164
94 144 164
94 144 164
94 144 164
94 144 164
94 144 164
94 144 164
94 144 164
94 144 164
94 144 164
94 144 164
94 144 164
94 144 164
94 144 164
94 144 164
94 144 164
94 144 164
94 144 164
94 144 164
94 144 164
94 144 164
94 144 164
94 144 164
94 144 164
94 144 164
94 144 164
94 144 164
94 144 164
94 144 164
94 144 164
94 144 164
94 144 164
94 144 164
94 144 164
94 144 164
94 144 164
94 144 164
94 144 164
94 144 164
94 144 164
94 144 164
94 144 164
94 144 164
94 144 164
94 144 164
94 144 164
94 144 164
94 144 164
94 144 164
94 144 164
94 144 164
94 144 164
94 144 164
94 144 164
94 144 164
94 144 164
94 144 164
94 144 164
94 144 164
94 144 164
94 144 164
94 144 164
94 144 164
94 144 164
94 144 164
94 144 164
94 144 164
94 144 164
94 144 164
94 144 164
94 144 164
94 144 164
94 144 164
94 144 164
94 144 164
94 144 164
94 144 164
94 144 164
94 144 164
94 144 164
94 144 164
94 144 164
94 144 164
94 144 164
94 144 164
94 144 164
94 144 164
94 144 164
94 144 164
94 144 164
94 144 164
94 144 164
94 144 164
94 144 164
94 144 164
94 144 164
94 144 164
94 144 164
94 144 164
94 144 164
94 144 164
94 144 164
94 144 164
94 144 164
94 144 164
94 144 164
94 144 164
94 144 164
94 144 164
94 144 164
94 144 164
94 144 164
94 144 164
94 144 164
94 144 164
94 144 164
94 144 164
94 144 164
94 144 164
94 144 164
94 144 164
94 144 164
94 144 164
94 144 164
94 144 164
94 144 164
94 144 164
94 144 164
94 144 164
94 144 164
94 144 164
94 144 164
94 144 164
94 144 164
94 144 164
94 144 164
94 144 164
94 144 164
94 144 164
94 144 164
94 144 164
94 144 164
94 144 164
94 144 164
94 144 164
94 144 164
94 144 164
94 144 164
94 144 164
94 144 164
94 144 164
94 144 164
94 144 164
94 144 164
94 144 164
94 144 164
94 144 164
94 144 164
94 144 164
94 144 164
94 144 164
94 144 164
94 144 164
94 144 164
94 144 164
94 144 164
94 144 164
94 144 164
94 144 164
94 144 164
94 144 164
94 144 164
94 144 164
94 144 164
94 144 164
94 144 164
94 144 164
94 144 164
94 144 164
94 144 164
94 144 164
94 144 164
94 144 164
94 144 164
94 144 164
94 144 164
94 144 164
94 144 164
94 144 164
94 144 164
94 144 164
94 144 164
94 144 164
94 144 164
94 144 164
94 144 164
94 144 164
94 144 164
94 144 164
94 144 164
94 144 164
94 144 164
94 144 164
94 144 164
94 144 164
94 144 164
94 144 164
94 144 164
94 144 164
94 144 164
94 144 164
94 144 164
94 144 164
94 144 164
94 144 164
94 144 164
94 144 164
94 144 164
94 144 164
94 144 164
94 144 164
94 144 164
94 144 164
94 144 164
94 144 164
94 144 164
94 144 164
94 144 164
94 144 164
94 144 164
94 144 164
94 144 164
94 144 164
94 144 164
94 144 164
94 144 164
94 144 164
94 144 164
94 144 164
94 144 164
94 144 164
94 144 164
94 144 164
94 144 164
94 144 164
94 144 164
94 144 164
94 144 164
94 144 164
94 144 164
94 144 164
94 144 164
94 144 164
94 144 164
94 144 164
94 144 164
94 144 164
94 144 164
94 144 164
94 144 164
94 144 164
94 144 164
94 144 164
94 144 164
94 144 164
94 144 164
94 144 164
94 144 164
94 144 164
94 144 164
94 144 164
94 144 164
94 144 164
94 144 164
94 144 164
94 144 164
94 144 164
94 144 164
94 144 164
94 144 164
94 144 164
94 144 164
94 144 164
94 144 164
94 144 164
94 144 164
94 144 164
94 144 164
94 144 164
94 144 164
94 144 164
94 144 164
94 144 164
94 144 164
94 144 164
94 144 164
94 144 164
94 144 164
94 144 164
94 144 164
94 144 164
94 144 164
94 144 164
94 144 164
94 144 164
94 144 164
94 144 164
94 144 164
94 144 164
94 144 164
94 144 164
94 144 164
94 144 164
94 144 164
94 144 164
94 144 164
94 144 164
94 144 164
94 144 164
94 144 164
94 144 164
94 144 164
94 144 164
94 144 164
94 144 164
94 144 164
94 144 164
94 144 164
94 144 164
94 144 164
94 144 164
94 144 164
94 144 164
94 144 164
94 144 164
94 144 164
94 144 164
94 144 164
94 144 164
94 144 164
94 144 164
94 144 164
94 144 164
94 144 164
94 144 164
94 144 164
94 144 164
94 144 164
94 144 164
94 144 164
94 144 164
94 144 164
94 144 164
94 144 164
94 144 164
94 144 164
94 144 164
94 144 164
94 144 164
94 144 164
94 144 164
94 144 164
94 144 164
94 144 164
94 144 164
94 144 164
94 144 164
94 144 164
94 144 164
94 144 164
94 144 164
94 144 164
94 144 164
94 144 164
94 144 164
94 144 164
94 144 164
94 144 164
94 144 164
94 144 164
94 144 164
94 144 164
94 144 164
94 144 164
94 144 164
94 144 164
94 144 164
94 144 164
94 144 164
94 144 164
94 144 164
94 144 164
94 144 164
94 144 164
94 144 164
94 144 164
94 144 164
94 144 164
94 144 164
94 144 164
94 144 164
94 144 164
94 144 164
94 144 164
94 144 164
94 144 164
94 144 164
94 144 164
94 144 164
94 144 164
94 144 164
94 144 164
94 144 164
94 144 164
94 144 164
94 144 164
94 144 164
94 144 164
94 144 164
94 144 164
94 144 164
94 144 164
94 144 164
94 144 164
94 144 164
94 144 164
94 144 164
94 144 164
94 144 164
94 144 164
94 144 164
94 144 164
94 144 164
94 144 164
94 144 164
94 144 164
94 144 164
94 144 164
94 144 164
94 144 164
94 144 164
94 144 164
94 144 164
94 144 164
94 144 164
94 144 164
94 144 164
94 144 164
94 144 164
94 144 164
94 144 164
94 144 164
94 144 164
94 144 164
94 144 164
94 144 164
94 144 164
94 144 164
94 144 164
94 144 164
94 144 164
94 144 164
94 144 164
94 144 164
94 144 164
94 144 164
94 144 164
94 144 164
94 144 164
94 144 164
94 144 164
94 144 164
94 144 164
94 144 164
94 144 164
94 144 164
94 144 164
94 144 164
94 144 164
94 144 164
94 144 164
94 144 164
94 144 164
94 144 164
94 144 164
94 144 164
94 144 164
94 144 164
94 144 164
94 144 164
94 144 164
94 144 164
94 144 164
94 144 164
94 144 164
94 144 164
94 144 164
94 144 164
94 144 164
94 144 164
94 144 164
94 144 164
94 144 164
94 144 164
94 144 164
94 144 164
94 144 164
94 144 164
94 144 164
94 144 164
94 144 164
94 144 164
94 144 164
94 144 164
94 144 164
94 144 164
94 144 164
94 144 164
94 144 164
94 144 164
94 144 164
94 144 164
94 144 164
94 144 164
94 144 164
94 144 164
94 144 164
94 144 164
94 144 164
94 144 164
94 144 164
94 144 164
94 144 164
94 144 164
94 144 164
94 144 164
94 144 164
94 144 164
94 144 164
94 144 164
94 144 164
94 144 164
94 144 164
94 144 164
94 144 164
94 144 164
94 144 164
94 144 164
94 144 164
94 144 164
94 144 164
94 144 164
94 144 164
94 144 164
94 144 164
94 144 164
94 144 164
94 144 164
94 144 164
94 144 164
94 144 164
94 144 164
94 144 164
94 144 164
94 144 164
94 144 164
94 144 164
94 144 164
94 144 164
94 144 164
94 144 164
94 144 164
94 144 164
94 144 164
94 144 164
94 144 164
94 144 164
94 144 164
94 144 164
94 144 164
94 144 164
94 144 164
94 144 164
94 144 164
94 144 164
94 144 164
94 144 164
94 144 164
94 144 164
94 144 164
94 144 164
94 144 164
94 144 164
94 144 164
94 144 164
94 144 164
94 144 164
94 144 164
94 144 164
94 144 164
94 144 164
94 144 164
94 144 164
94 144 164
94 144 164
94 144 164
94 144 164
94 144 164
94 144 164
94 144 164
94 144 164
94 144 164
94 144 164
94 144 164
94 144 164
94 144 164
94 144 164
94 144 164
94 144 164
94 144 164
94 144 164
94 144 164
94 144 164
94 144 164
94 144 164
94 144 164
94 144 164
94 144 164
94 144 164
94 144 164
94 144 164
94 144 164
94 144 164
94 144 164
94 144 164
94 144 164
94 144 164
94 144 164
94 144 164
94 144 164
94 144 164
94 144 164
94 144 164
94 144 164
94 144 164
94 144 164
94 144 164
94 144 164
94 144 164
94 144 164
94 144 164
94 144 164
94 144 164
94 144 164
94 144 164
94 144 164
94 144 164
94 144 164
94 144 164
94 144 164
94 144 164
94 144 164
94 144 164
94 144 164
94 144 164
94 144 164
94 144 164
94 144 164
94 144 164
94 144 164
94 144 164
94 144 164
94 144 164
94 144 164
94 144 164
94 144 164
94 144 164
94 144 164
94 144 164
94 144 164
94 144 164
94 144 164
94 144 164
94 144 164
94 144 164
94 144 164
94 144 164
94 144 164
94 144 164
94 144 164
94 144 164
94 144 164
94 144 164
94 144 164
94 144 164
94 144 164
94 144 164
94 144 164
94 144 164
94 144 164
94 144 164
94 144 164
94 144 164
94 144 164
94 144 164
94 144 164
94 144 164
94 144 164
94 144 164
94 144 164
94 144 164
94 144 164
94 144 164
94 144 164
94 144 164
94 144 164
94 144 164
94 144 164
94 144 164
94 144 164
94 144 164
94 144 164
94 144 164
94 144 164
94 144 164
94 144 164
94 144 164
94 144 164
94 144 164
94 144 164
94 144 164
94 144 164
94 144 164
94 144 164
94 144 164
94 144 164
94 144 164
94 144 164
94 144 164
94 144 164
94 144 164
94 144 164
94 144 164
94 144 164
94 144 164
94 144 164
94 144 164
94 144 164
94 144 164
94 144 164
94 144 164
94 144 164
94 144 164
94 144 164
94 144 164
94 144 164
94 144 164
94 144 164
94 144 164
94 144 164
94 144 164
94 144 164
94 144 164
94 144 164
94 144 164
94 144 164
94 144 164
94 144 164
94 144 164
94 144 164
94 144 164
94 144 164
94 144 164
94 144 164
94 144 164
94 144 164
94 144 164
94 144 164
94 144 164
94 144 164
94 144 164
94 144 164
94 144 164
94 144 164
94 144 164
94 144 164
94 144 164
94 144 164
94 144 164
94 144 164
94 144 164
94 144 164
94 144 164
94 144 164
94 144 164
94 144 164
94 144 164
94 144 164
94 144 164
94 144 164
94 144 164
94 144 164
94 144 164
94 144 164
94 144 164
94 144 164
94 144 164
94 144 164
94 144 164
94 144 164
94 144 164
94 144 164
94 144 164
94 144 164
94 144 164
94 144 164
94 144 164
94 144 164
94 144 164
94 144 164
94 144 164
94 144 164
94 144 164
94 144 164
94 144 164
94 144 164
94 144 164
94 144 164
94 144 164
94 144 164
94 144 164
94 144 164
94 144 164
94 144 164
94 144 164
94 144 164
94 144 164
94 144 164
94 144 164
94 144 164
94 144 164
94 144 164
94 144 164
94 144 164
94 144 164
94 144 164
94 144 164
94 144 164
94 144 164
94 144 164
94 144 164
94 144 164
94 144 164
94 144 164
94 144 164
94 144 164
94 144 164
94 144 164
94 144 164
94 144 164
94 144 164
94 144 164
94 144 164
94 144 164
94 144 164
94 144 164
94 144 164
94 144 164
94 144 164
94 144 164
94 144 164
94 144 164
94 144 164
94 144 164
94 144 164
94 144 164
94 144 164
94 144 164
94 144 164
94 144 164
94 144 164
94 144 164
94 144 164
94 144 164
94 144 164
94 144 164
94 144 164
94 144 164
94 144 164
94 144 164
94 144 164
94 144 164
94 144 164
94 144 164
94 144 164
94 144 164
94 144 164
94 144 164
94 144 164
94 144 164
94 144 164
94 144 164
94 144 164
94 144 164
94 144 164
94 144 164
94 144 164
94 144 164
94 144 164
94 144 164
94 144 164
94 144 164
94 144 164
94 144 164
94 144 164
94 144 164
94 144 164
94 144 164
94 144 164
94 144 164
94 144 164
94 144 164
94 144 164
94 144 164
94 144 164
94 144 164
94 144 164
94 144 164
94 144 164
94 144 164
94 144 164
94 144 164
94 144 164
94 144 164
94 144 164
94 144 164
94 144 164
94 144 164
94 144 164
94 144 164
94 144 164
94 144 164
94 144 164
94 144 164
94 144 164
94 144 164
94 144 164
94 144 164
94 144 164
94 144 164
94 144 164
94 144 164
94 144 164
94 144 164
94 144 164
94 144 164
94 144 164
94 144 164
94 144 164
94 144 164
94 144 164
94 144 164
94 144 164
94 144 164
94 144 164
94 144 164
94 144 164
94 144 164
94 144 164
94 144 164
94 144 164
94 144 164
94 144 164
94 144 164
94 144 164
94 144 164
94 144 164
94 144 164
94 144 164
94 144 164
94 144 164
94 144 164
94 144 164
94 144 164
94 144 164
94 144 164
94 144 164
94 144 164
94 144 164
94 144 164
94 144 164
94 144 164
94 144 164
94 144 164
94 144 164
94 144 164
94 144 164
94 144 164
94 144 164
94 144 164
94 144 164
94 144 164
94 144 164
94 144 164
94 144 164
94 144 164
94 144 164
94 144 164
94 144 164
94 144 164
94 144 164
94 144 164
94 144 164
94 144 164
94 144 164
94 144 164
94 144 164
94 144 164
94 144 164
94 144 164
94 144 164
94 144 164
94 144 164
94 144 164
94 144 164
94 144 164
94 144 164
94 144 164
94 144 164
94 144 164
94 144 164
94 144 164
94 144 164
94 144 164
94 144 164
94 144 164
94 144 164
94 144 164
94 144 164
94 144 164
94 144 164
94 144 164
94 144 164
94 144 164
94 144 164
94 144 164
94 144 164
94 144 164
94 144 164
94 144 164
94 144 164
94 144 164
94 144 164
94 144 164
94 144 164
94 144 164
94 144 164
94 144 164
94 144 164
94 144 164
94 144 164
94 144 164
94 144 164
94 144 164
94 144 164
94 144 164
94 144 164
94 144 164
94 144 164
94 144 164
94 144 164
94 144 164
94 144 164
94 144 164
94 144 164
94 144 164
94 144 164
94 144 164
94 144 164
94 144 164
94 144 164
94 144 164
94 144 164
94 144 164
94 144 164
94 144 164
94 144 164
94 144 164
94 144 164
94 144 164
94 144 164
94 144 164
94 144 164
94 144 164
94 144 164
94 144 164
94 144 164
94 144 164
94 144 164
94 144 164
94 144 164
94 144 164
94 144 164
94 144 164
94 144 164
94 144 164
94 144 164
94 144 164
94 144 164
94 144 164
94 144 164
94 144 164
94 144 164
94 144 164
94 144 164
94 144 164
94 144 164
94 144 164
94 144 164
94 144 164
94 144 164
94 144 164
94 144 164
94 144 164
94 144 164
94 144 164
94 144 164
94 144 164
94 144 164
94 144 164
94 144 164
94 144 164
94 144 164
94 144 164
94 144 164
94 144 164
94 144 164
94 144 164
94 144 164
94 144 164
94 144 164
94 144 164
94 144 164
94 144 164
94 144 164
94 144 164
94 144 164
94 144 164
94 144 164
94 144 164
94 144 164
94 144 164
94 144 164
94 144 164
94 144 164
94 144 164
94 144 164
94 144 164
94 144 164
94 144 164
94 144 164
94 144 164
94 144 164
94 144 164
94 144 164
94 144 164
94 144 164
94 144 164
94 144 164
94 144 164
94 144 164
94 144 164
94 144 164
94 144 164
94 144 164
94 144 164
94 144 164
94 144 164
94 144 164
94 144 164
94 144 164
94 144 164
94 144 164
94 144 164
94 144 164
94 144 164
94 144 164
94 144 164
94 144 164
94 144 164
94 144 164
94 144 164
94 144 164
94 144 164
94 144 164
94 144 164
94 144 164
94 144 164
94 144 164
94 144 164
94 144 164
94 144 164
94 144 164
94 144 164
94 144 164
94 144 164
94 144 164
94 144 164
94 144 164
94 144 164
94 144 164
94 144 164
94 144 164
94 144 164
94 144 164
94 144 164
94 144 164
94 144 164
94 144 164
94 144 164
94 144 164
94 144 164
94 144 164
94 144 164
94 144 164
94 144 164
94 144 164
94 144 164
94 144 164
94 144 164
94 144 164
94 144 164
94 144 164
94 144 164
94 144 164
94 144 164
94 144 164
94 144 164
94 144 164
94 144 164
94 144 164
94 144 164
94 144 164
94 144 164
94 144 164
94 144 164
94 144 164
94 144 164
94 144 164
94 144 164
94 144 164
94 144 164
94 144 164
94 144 164
94 144 164
94 144 164
94 144 164
94 144 164
94 144 164
94 144 164
94 144 164
94 144 164
94 144 164
94 144 164
94 144 164
94 144 164
94 144 164
94 144 164
94 144 164
94 144 164
94 144 164
94 144 164
94 144 164
94 144 164
94 144 164
94 144 164
94 144 164
94 144 164
94 144 164
94 144 164
94 144 164
94 144 164
94 144 164
94 144 164
94 144 164
94 144 164
94 144 164
94 144 164
94 144 164
94 144 164
94 144 164
94 144 164
94 144 164
94 144 164
94 144 164
94 144 164
94 144 164
94 144 164
94 144 164
94 144 164
94 144 164
94 144 164
94 144 164
94 144 164
94 144 164
94 144 164
94 144 164
94 144 164
94 144 164
94 144 164
94 144 164
94 144 164
94 144 164
94 144 164
94 144 164
94 144 164
94 144 164
94 144 164
94 144 164
94 144 164
94 144 164
94 144 164
94 144 164
94 144 164
94 144 164
94 144 164
94 144 164
94 144 164
94 144 164
94 144 164
94 144 164
94 144 164
94 144 164
94 144 164
94 144 164
94 144 164
94 144 164
94 144 164
94 144 164
94 144 164
94 144 164
94 144 164
94 144 164
94 144 164
94 144 164
94 144 164
94 144 164
94 144 164
94 144 164
94 144 164
94 144 164
94 144 164
94 144 164
94 144 164
94 144 164
94 144 164
94 144 164
94 144 164
94 144 164
94 144 164
94 144 164
94 144 164
94 144 164
94 144 164
94 144 164
94 144 164
94 144 164
94 144 164
94 144 164
94 144 164
94 144 164
94 144 164
94 144 164
94 144 164
94 144 164
94 144 164
94 144 164
94 144 164
94 144 164
94 144 164
94 144 164
94 144 164
94 144 164
94 144 164
94 144 164
94 144 164
94 144 164
94 144 164
94 144 164
94 144 164
94 144 164
94 144 164
94 144 164
94 144 164
94 144 164
94 144 164
94 144 164
94 144 164
94 144 164
94 144 164
94 144 164
94 144 164
94 144 164
94 144 164
94 144 164
94 144 164
94 144 164
94 144 164
94 144 164
94 144 164
94 144 164
94 144 164
94 144 164
94 144 164
94 144 164
94 144 164
94 144 164
94 144 164
94 144 164
94 144 164
94 144 164
94 144 164
94 144 164
94 144 164
94 144 164
94 144 164
94 144 164
94 144 164
94 144 164
94 144 164
94 144 164
94 144 164
94 144 164
94 144 164
94 144 164
94 144 164
94 144 164
94 144 164
94 144 164
94 144 164
94 144 164
94 144 164
94 144 164
94 144 164
94 144 164
94 144 164
94 144 164
94 144 164
94 144 164
94 144 164
94 144 164
94 144 164
94 144 164
94 144 164
94 144 164
94 144 164
94 144 164
94 144 164
94 144 164
94 144 164
94 144 164
94 144 164
94 144 164
94 144 164
94 144 164
94 144 164
94 144 164
94 144 164
94 144 164
94 144 164
94 144 164
94 144 164
94 144 164
94 144 164
94 144 164
94 144 164
94 144 164
94 144 164
94 144 164
94 144 164
94 144 164
94 144 164
94 144 164
94 144 164
94 144 164
94 144 164
94 144 164
94 144 164
94 144 164
94 144 164
94 144 164
94 144 164
94 144 164
94 144 164
94 144 164
94 144 164
94 144 164
94 144 164
94 144 164
94 144 164
94 144 164
94 144 164
94 144 164
94 144 164
94 144 164
94 144 164
94 144 164
94 144 164
94 144 164
94 144 164
94 144 164
94 144 164
94 144 164
94 144 164
94 144 164
94 144 164
94 144 164
94 144 164
94 144 164
94 144 164
94 144 164
94 144 164
94 144 164
94 144 164
94 144 164
94 144 164
94 144 164
94 144 164
94 144 164
94 144 164
94 144 164
94 144 164
94 144 164
94 144 164
94 144 164
94 144 164
94 144 164
94 144 164
94 144 164
94 144 164
94 144 164
94 144 164
94 144 164
94 144 164
94 144 164
94 144 164
94 144 164
94 144 164
94 144 164
94 144 164
94 144 164
94 144 164
94 144 164
94 144 164
94 144 164
94 144 164
94 144 164
94 144 164
94 144 164
94 144 164
94 144 164
94 144 164
94 144 164
94 144 164
94 144 164
94 144 164
94 144 164
94 144 164
94 144 164
94 144 164
94 144 164
94 144 164
94 144 164
94 144 164
94 144 164
94 144 164
94 144 164
94 144 164
94 144 164
94 144 164
94 144 164
94 144 164
94 144 164
94 144 164
94 144 164
94 144 164
94 144 164
94 144 164
94 144 164
94 144 164
94 144 164
94 144 164
94 144 164
94 144 164
94 144 164
94 144 164
94 144 164
94 144 164
94 144 164
94 144 164
94 144 164
94 144 164
94 144 164
94 144 164
94 144 164
94 144 164
94 144 164
94 144 164
94 144 164
94 144 164
94 144 164
94 144 164
94 144 164
94 144 164
94 144 164
94 144 164
94 144 164
94 144 164
94 144 164
94 144 164
94 144 164
94 144 164
94 144 164
94 144 164
94 144 164
94 144 164
94 144 164
94 144 164
94 144 164
94 144 164
94 144 164
94 144 164
94 144 164
94 144 164
94 144 164
94 144 164
94 144 164
94 144 164
94 144 164
94 144 164
94 144 164
94 144 164
94 144 164
94 144 164
94 144 164
94 144 164
94 144 164
94 144 164
94 144 164
94 144 164
94 144 164
94 144 164
94 144 164
94 144 164
94 144 164
94 144 164
94 144 164
94 144 164
94 144 164
94 144 164
94 144 164
94 144 164
94 144 164
94 144 164
94 144 164
94 144 164
94 144 164
94 144 164
94 144 164
94 144 164
94 144 164
94 144 164
94 144 164
94 144 164
94 144 164
94 144 164
94 144 164
94 144 164
94 144 164
94 144 164
94 144 164
94 144 164
94 144 164
94 144 164
94 144 164
94 144 164
94 144 164
94 144 164
94 144 164
94 144 164
94 144 164
94 144 164
94 144 164
94 144 164
94 144 164
94 144 164
94 144 164
94 144 164
94 144 164
94 144 164
94 144 164
94 144 164
94 144 164
94 144 164
94 144 164
94 144 164
94 144 164
94 144 164
94 144 164
94 144 164
94 144 164
94 144 164
94 144 164
94 144 164
94 144 164
94 144 164
94 144 164
94 144 164
94 144 164
94 144 164
94 144 164
94 144 164
94 144 164
94 144 164
94 144 164
94 144 164
94 144 164
94 144 164
94 144 164
94 144 164
94 144 164
94 144 164
94 144 164
94 144 164
94 144 164
94 144 164
94 144 164
94 144 164
94 144 164
94 144 164
94 144 164
94 144 164
94 144 164
94 144 164
94 144 164
94 144 164
94 144 164
94 144 164
94 144 164
94 144 164
94 144 164
94 144 164
94 144 164
94 144 164
94 144 164
94 144 164
94 144 164
94 144 164
94 144 164
94 144 164
94 144 164
94 144 164
94 144 164
94 144 164
94 144 164
94 144 164
94 144 164
94 144 164
94 144 164
94 144 164
94 144 164
94 144 164
94 144 164
94 144 164
94 144 164
94 144 164
94 144 164
94 144 164
94 144 164
94 144 164
94 144 164
94 144 164
94 144 164
94 144 164
94 144 164
94 144 164
94 144 164
94 144 164
94 144 164
94 144 164
94 144 164
94 144 164
94 144 164
94 144 164
94 144 164
94 144 164
94 144 164
94 144 164
94 144 164
94 144 164
94 144 164
94 144 164
94 144 164
94 144 164
94 144 164
94 144 164
94 144 164
94 144 164
94 144 164
94 144 164
94 144 164
94 144 164
94 144 164
94 144 164
94 144 164
94 144 164
94 144 164
94 144 164
94 144 164
94 144 164
94 144 164
94 144 164
94 144 164
94 144 164
94 144 164
94 144 164
94 144 164
94 144 164
94 144 164
94 144 164
94 144 164
94 144 164
94 144 164
94 144 164
94 144 164
94 144 164
94 144 164
94 144 164
94 144 164
94 144 164
94 144 164
94 144 164
94 144 164
94 144 164
94 144 164
94 144 164
94 144 164
94 144 164
94 144 164
94 144 164
94 144 164
94 144 164
94 144 164
94 144 164
94 144 164
94 144 164
94 144 164
94 144 164
94 144 164
94 144 164
94 144 164
94 144 164
94 144 164
94 144 164
94 144 164
94 144 164
94 144 164
94 144 164
94 144 164
94 144 164
94 144 164
94 144 164
94 144 164
94 144 164
94 144 164
94 144 164
94 144 164
94 144 164
94 144 164
94 144 164
94 144 164
94 144 164
94 144 164
94 144 164
94 144 164
94 144 164
94 144 164
94 144 164
94 144 164
94 144 164
94 144 164
94 144 164
94 144 164
94 144 164
94 144 164
94 144 164
94 144 164
94 144 164
94 144 164
94 144 164
94 144 164
94 144 164
94 144 164
94 144 164
94 144 164
94 144 164
94 144 164
94 144 164
94 144 164
94 144 164
94 144 164
94 144 164
94 144 164
94 144 164
94 144 164
94 144 164
94 144 164
94 144 164
94 144 164
94 144 164
94 144 164
94 144 164
94 144 164
94 144 164
94 144 164
94 144 164
94 144 164
94 144 164
94 144 164
94 144 164
94 144 164
94 144 164
94 144 164
94 144 164
94 144 164
94 144 164
94 144 164
94 144 164
94 144 164
94 144 164
94 144 164
94 144 164
94 144 164
94 144 164
94 144 164
94 144 164
94 144 164
94 144 164
94 144 164
94 144 164
94 144 164
94 144 164
94 144 164
94 144 164
94 144 164
94 144 164
94 144 164
94 144 164
94 144 164
94 144 164
94 144 164
94 144 164
94 144 164
94 144 164
94 144 164
94 144 164
94 144 164
94 144 164
94 144 164
94 144 164
94 144 164
94 144 164
94 144 164
94 144 164
94 144 164
94 144 164
94 144 164
94 144 164
94 144 164
94 144 164
94 144 164
94 144 164
94 144 164
94 144 164
94 144 164
94 144 164
94 144 164
94 144 164
94 144 164
94 144 164
94 144 164
94 144 164
94 144 164
94 144 164
94 144 164
94 144 164
94 144 164
94 144 164
94 144 164
94 144 164
94 144 164
94 144 164
94 144 164
94 144 164
94 144 164
94 144 164
94 144 164
94 144 164
94 144 164
94 144 164
94 144 164
94 144 164
94 144 164
94 144 164
94 144 164
94 144 164
94 144 164
94 144 164
94 144 164
94 144 164
94 144 164
94 144 164
94 144 164
94 144 164
94 144 164
94 144 164
94 144 164
94 144 164
94 144 164
94 144 164
94 144 164
94 144 164
94 144 164
94 144 164
94 144 164
94 144 164
94 144 164
94 144 164
94 144 164
94 144 164
94 144 164
94 144 164
94 144 164
94 144 164
94 144 164
94 144 164
94 144 164
94 144 164
94 144 164
94 144 164
94 144 164
94 144 164
94 144 164
94 144 164
94 144 164
94 144 164
94 144 164
94 144 164
94 144 164
94 144 164
94 144 164
94 144 164
94 144 164
94 144 164
94 144 164
94 144 164
94 144 164
94 144 164
94 144 164
94 144 164
94 144 164
94 144 164
94 144 164
94 144 164
94 144 164
94 144 164
94 144 164
94 144 164
94 144 164
94 144 164
94 144 164
94 144 164
94 144 164
94 144 164
94 144 164
94 144 164
94 144 164
94 144 164
94 144 164
94 144 164
94 144 164
94 144 164
94 144 164
94 144 164
94 144 164
94 144 164
94 144 164
94 144 164
94 144 164
94 144 164
94 144 164
94 144 164
94 144 164
94 144 164
94 144 164
94 144 164
94 144 164
94 144 164
94 144 164
94 144 164
94 144 164
94 144 164
94 144 164
94 144 164
94 144 164
94 144 164
94 144 164
94 144 164
94 144 164
94 144 164
94 144 164
94 144 164
94 144 164
94 144 164
94 144 164
94 144 164
94 144 164
94 144 164
94 144 164
94 144 164
94 144 164
94 144 164
94 144 164
94 144 164
94 144 164
94 144 164
94 144 164
94 144 164
94 144 164
94 144 164
94 144 164
94 144 164
94 144 164
94 144 164
94 144 164
94 144 164
94 144 164
94 144 164
94 144 164
94 144 164
94 144 164
94 144 164
94 144 164
94 144 164
94 144 164
94 144 164
94 144 164
94 144 164
94 144 164
94 144 164
94 144 164
94 144 164
94 144 164
94 144 164
94 144 164
94 144 164
94 144 164
94 144 164
94 144 164
94 144 164
94 144 164
94 144 164
94 144 164
94 144 164
94 144 164
94 144 164
94 144 164
94 144 164
94 144 164
94 144 164
94 144 164
94 144 164
94 144 164
94 144 164
94 144 164
94 144 164
94 144 164
94 144 164
94 144 164
94 144 164
94 144 164
94 144 164
94 144 164
94 144 164
94 144 164
94 144 164
94 144 164
94 144 164
94 144 164
94 144 164
94 144 164
94 144 164
94 144 164
94 144 164
94 144 164
94 144 164
94 144 164
94 144 164
94 144 164
94 144 164
94 144 164
94 144 164
94 144 164
94 144 164
94 144 164
94 144 164
94 144 164
94 144 164
94 144 164
94 144 164
94 144 164
94 144 164
94 144 164
94 144 164
94 144 164
94 144 164
94 144 164
94 144 164
94 144 164
94 144 164
94 144 164
94 144 164
94 144 164
94 144 164
94 144 164
94 144 164
94 144 164
94 144 164
94 144 164
94 144 164
94 144 164
94 144 164
94 144 164
94 144 164
94 144 164
94 144 164
94 144 164
94 144 164
94 144 164
94 144 164
94 144 164
94 144 164
94 144 164
94 144 164
94 144 164
94 144 164
94 144 164
94 144 164
94 144 164
94 144 164
94 144 164
94 144 164
94 144 164
94 144 164
94 144 164
94 144 164
94 144 164
94 144 164
94 144 164
94 144 164
94 144 164
94 144 164
94 144 164
94 144 164
94 144 164
94 144 164
94 144 164
94 144 164
94 144 164
94 144 164
94 144 164
94 144 164
94 144 164
94 144 164
94 144 164
94 144 164
94 144 164
94 144 164
94 144 164
94 144 164
94 144 164
94 144 164
94 144 164
94 144 164
94 144 164
94 144 164
94 144 164
94 144 164
94 144 164
94 144 164
94 144 164
94 144 164
94 144 164
94 144 164
94 144 164
94 144 164
94 144 164
94 144 164
94 144 164
94 144 164
94 144 164
94 144 164
94 144 164
94 144 164
94 144 164
94 144 164
94 144 164
94 144 164
94 144 164
94 144 164
94 144 164
94 144 164
94 144 164
94 144 164
94 144 164
94 144 164
94 144 164
94 144 164
94 144 164
94 144 164
94 144 164
94 144 164
94 144 164
94 144 164
94 144 164
94 144 164
94 144 164
94 144 164
94 144 164
94 144 164
94 144 164
94 144 164
94 144 164
94 144 164
94 144 164
94 144 164
94 144 164
94 144 164
94 144 164
94 144 164
94 144 164
94 144 164
94 144 164
94 144 164
94 144 164
94 144 164
94 144 164
94 144 164
94 144 164
94 144 164
94 144 164
94 144 164
94 144 164
94 144 164
94 144 164
94 144 164
94 144 164
94 144 164
94 144 164
94 144 164
94 144 164
94 144 164
94 144 164
94 144 164
94 144 164
94 144 164
94 144 164
94 144 164
94 144 164
94 144 164
94 144 164
94 144 164
94 144 164
94 144 164
94 144 164
94 144 164
94 144 164
94 144 164
94 144 164
94 144 164
94 144 164
94 144 164
94 144 164
94 144 164
94 144 164
94 144 164
94 144 164
94 144 164
94 144 164
94 144 164
94 144 164
94 144 164
94 144 164
94 144 164
94 144 164
94 144 164
94 144 164
94 144 164
94 144 164
94 144 164
94 144 164
94 144 164
94 144 164
94 144 164
94 144 164
94 144 164
94 144 164
94 144 164
94 144 164
94 144 164
94 144 164
94 144 164
94 144 164
94 144 164
94 144 164
94 144 164
94 144 164
94 144 164
94 144 164
94 144 164
94 144 164
94 144 164
94 144 164
94 144 164
94 144 164
94 144 164
94 144 164
94 144 164
94 144 164
94 144 164
94 144 164
94 144 164
94 144 164
94 144 164
94 144 164
94 144 164
94 144 164
94 144 164
94 144 164
94 144 164
94 144 164
94 144 164
94 144 164
94 144 164
94 144 164
94 144 164
94 144 164
94 144 164
94 144 164
94 144 164
94 144 164
94 144 164
94 144 164
94 144 164
94 144 164
94 144 164
94 144 164
94 144 164
94 144 164
94 144 164
94 144 164
94 144 164
94 144 164
94 144 164
94 144 164
94 144 164
94 144 164
94 144 164
94 144 164
94 144 164
94 144 164
94 144 164
94 144 164
94 144 164
94 144 164
94 144 164
94 144 164
94 144 164
94 144 164
94 144 164
94 144 164
94 144 164
94 144 164
94 144 164
94 144 164
94 144 164
94 144 164
94 144 164
94 144 164
94 144 164
94 144 164
94 144 164
94 144 164
94 144 164
94 144 164
94 144 164
94 144 164
94 144 164
94 144 164
94 144 164
94 144 164
94 144 164
94 144 164
94 144 164
94 144 164
94 144 164
94 144 164
94 144 164
94 144 164
94 144 164
94 144 164
94 144 164
94 144 164
94 144 164
94 144 164
94 144 164
94 144 164
94 144 164
94 144 164
94 144 164
94 144 164
94 144 164
94 144 164
94 144 164
94 144 164
94 144 164
94 144 164
94 144 164
94 144 164
94 144 164
94 144 164
94 144 164
94 144 164
94 144 164
94 144 164
94 144 164
94 144 164
94 144 164
94 144 164
94 144 164
94 144 164
94 144 164
94 144 164
94 144 164
94 144 164
94 144 164
94 144 164
94 144 164
94 144 164
94 144 164
94 144 164
94 144 164
94 144 164
94 144 164
94 144 164
94 144 164
94 144 164
94 144 164
94 144 164
94 144 164
94 144 164
94 144 164
94 144 164
94 144 164
94 144 164
94 144 164
94 144 164
94 144 164
94 144 164
94 144 164
94 144 164
94 144 164
94 144 164
94 144 164
94 144 164
94 144 164
94 144 164
94 144 164
94 144 164
94 144 164
94 144 164
94 144 164
94 144 164
94 144 164
94 144 164
94 144 164
94 144 164
94 144 164
94 144 164
94 144 164
94 144 164
94 144 164
94 144 164
94 144 164
94 144 164
94 144 164
94 144 164
94 144 164
94 144 164
94 144 164
94 144 164
94 144 164
94 144 164
94 144 164
94 144 164
94 144 164
94 144 164
94 144 164
94 144 164
94 144 164
94 144 164
94 144 164
94 144 164
94 144 164
94 144 164
94 144 164
94 144 164
94 144 164
94 144 164
94 144 164
94 144 164
94 144 164
94 144 164
94 144 164
94 144 164
94 144 164
94 144 164
94 144 164
94 144 164
94 144 164
94 144 164
94 144 164
94 144 164
94 144 164
94 144 164
94 144 164
94 144 164
94 144 164
94 144 164
94 144 164
94 144 164
94 144 164
94 144 164
94 144 164
94 144 164
94 144 164
94 144 164
94 144 164
94 144 164
94 144 164
94 144 164
94 144 164
94 144 164
94 144 164
94 144 164
94 144 164
94 144 164
94 144 164
94 144 164
94 144 164
94 144 164
94 144 164
94 144 164
94 144 164
94 144 164
94 144 164
94 144 164
94 144 164
94 144 164
94 144 164
94 144 164
94 144 164
94 144 164
94 144 164
94 144 164
94 144 164
94 144 164
94 144 164
94 144 164
94 144 164
94 144 164
94 144 164
94 144 164
94 144 164
94 144 164
94 144 164
94 144 164
94 144 164
94 144 164
94 144 164
94 144 164
94 144 164
94 144 164
94 144 164
94 144 164
94 144 164
94 144 164
94 144 164
94 144 164
94 144 164
94 144 164
94 144 164
94 144 164
94 144 164
94 144 164
94 144 164
94 144 164
94 144 164
94 144 164
94 144 164
94 144 164
94 144 164
94 144 164
94 144 164
94 144 164
94 144 164
94 144 164
94 144 164
94 144 164
94 144 164
94 144 164
94 144 164
94 144 164
94 144 164
94 144 164
94 144 164
94 144 164
94 144 164
94 144 164
94 144 164
94 144 164
94 144 164
94 144 164
94 144 164
94 144 164
94 144 164
94 144 164
94 144 164
94 144 164
94 144 164
94 144 164
94 144 164
94 144 164
94 144 164
94 144 164
94 144 164
94 144 164
94 144 164
94 144 164
94 144 164
94 144 164
94 144 164
94 144 164
94 144 164
94 144 164
94 144 164
94 144 164
94 144 164
94 144 164
94 144 164
94 144 164
94 144 164
94 144 164
94 144 164
94 144 164
94 144 164
94 144 164
94 144 164
94 144 164
94 144 164
94 144 164
94 144 164
94 144 164
94 144 164
94 144 164
94 144 164
94 144 164
94 144 164
94 144 164
94 144 164
94 144 164
94 144 164
94 144 164
94 144 164
94 144 164
94 144 164
94 144 164
94 144 164
94 144 164
94 144 164
94 144 164
94 144 164
94 144 164
94 144 164
94 144 164
94 144 164
94 144 164
94 144 164
94 144 164
94 144 164
94 144 164
94 144 164
94 144 164
94 144 164
94 144 164
94 144 164
94 144 164
94 144 164
94 144 164
94 144 164
94 144 164
94 144 164
94 144 164
94 144 164
94 144 164
94 144 164
94 144 164
94 144 164
94 144 164
94 144 164
94 144 164
94 144 164
94 144 164
94 144 164
94 144 164
94 144 164
94 144 164
94 144 164
94 144 164
94 144 164
94 144 164
94 144 164
94 144 164
94 144 164
94 144 164
94 144 164
94 144 164
94 144 164
94 144 164
94 144 164
94 144 164
94 144 164
94 144 164
94 144 164
94 144 164
94 144 164
94 144 164
94 144 164
94 144 164
94 144 164
94 144 164
94 144 164
94 144 164
94 144 164
94 144 164
94 144 164
94 144 164
94 144 164
94 144 164
94 144 164
94 144 164
94 144 164
94 144 164
94 144 164
94 144 164
94 144 164
94 144 164
94 144 164
94 144 164
94 144 164
94 144 164
94 144 164
94 144 164
94 144 164
94 144 164
94 144 164
94 144 164
94 144 164
94 144 164
94 144 164
94 144 164
94 144 164
94 144 164
94 144 164
94 144 164
94 144 164
94 144 164
94 144 164
94 144 164
94 144 164
94 144 164
94 144 164
94 144 164
94 144 164
94 144 164
94 144 164
94 144 164
94 144 164
94 144 164
94 144 164
94 144 164
94 144 164
94 144 164
94 144 164
94 144 164
94 144 164
94 144 164
94 144 164
94 144 164
94 144 164
94 144 164
94 144 164
94 144 164
94 144 164
94 144 164
94 144 164
94 144 164
94 144 164
94 144 164
94 144 164
94 144 164
94 144 164
94 144 164
94 144 164
94 144 164
94 144 164
94 144 164
94 144 164
94 144 164
94 144 164
94 144 164
94 144 164
94 144 164
94 144 164
94 144 164
94 144 164
94 144 164
94 144 164
94 144 164
94 144 164
94 144 164
94 144 164
94 144 164
94 144 164
94 144 164
94 144 164
94 144 164
94 144 164
94 144 164
94 144 164
94 144 164
94 144 164
94 144 164
94 144 164
94 144 164
94 144 164
94 144 164
94 144 164
94 144 164
94 144 164
94 144 164
94 144 164
94 144 164
94 144 164
94 144 164
94 144 164
94 144 164
94 144 164
94 144 164
94 144 164
94 144 164
94 144 164
94 144 164
94 144 164
94 144 164
94 144 164
94 144 164
94 144 164
94 144 164
94 144 164
94 144 164
94 144 164
94 144 164
94 144 164
94 144 164
94 144 164
94 144 164
94 144 164
94 144 164
94 144 164
94 144 164
94 144 164
94 144 164
94 144 164
94 144 164
94 144 164
94 144 164
94 144 164
94 144 164
94 144 164
94 144 164
94 144 164
94 144 164
94 144 164
94 144 164
94 144 164
94 144 164
94 144 164
94 144 164
94 144 164
94 144 164
94 144 164
94 144 164
94 144 164
94 144 164
94 144 164
94 144 164
94 144 164
94 144 164
94 144 164
94 144 164
94 144 164
94 144 164
94 144 164
94 144 164
94 144 164
94 144 164
94 144 164
94 144 164
94 144 164
94 144 164
94 144 164
94 144 164
94 144 164
94 144 164
94 144 164
94 144 164
94 144 164
94 144 164
94 144 164
94 144 164
94 144 164
94 144 164
94 144 164
94 144 164
94 144 164
94 144 164
94 144 164
94 144 164
94 144 164
94 144 164
94 144 164
94 144 164
94 144 164
94 144 164
94 144 164
94 144 164
94 144 164
94 144 164
94 144 164
94 144 164
94 144 164
94 144 164
94 144 164
94 144 164
94 144 164
94 144 164
94 144 164
94 144 164
94 144 164
94 144 164
94 144 164
94 144 164
94 144 164
94 144 164
94 144 164
94 144 164
94 144 164
94 144 164
94 144 164
94 144 164
94 144 164
94 144 164
94 144 164
94 144 164
94 144 164
94 144 164
94 144 164
94 144 164
94 144 164
94 144 164
94 144 164
94 144 164
94 144 164
94 144 164
94 144 164
94 144 164
94 144 164
94 144 164
94 144 164
94 144 164
94 144 164
94 144 164
94 144 164
94 144 164
94 144 164
94 144 164
94 144 164
94 144 164
94 144 164
94 144 164
94 144 164
94 144 164
94 144 164
94 144 164
94 144 164
94 144 164
94 144 164
94 144 164
94 144 164
94 144 164
94 144 164
94 144 164
94 144 164
94 144 164
94 144 164
94 144 164
94 144 164
94 144 164
94 144 164
94 144 164
94 144 164
94 144 164
94 144 164
94 144 164
94 144 164
94 144 164
94 144 164
94 144 164
94 144 164
94 144 164
94 144 164
94 144 164
94 144 164
94 144 164
94 144 164
94 144 164
94 144 164
94 144 164
94 144 164
94 144 164
94 144 164
94 144 164
94 144 164
94 144 164
94 144 164
94 144 164
94 144 164
94 144 164
94 144 164
94 144 164
94 144 164
94 144 164
94 144 164
94 144 164
94 144 164
94 144 164
94 144 164
94 144 164
94 144 164
94 144 164
94 144 164
94 144 164
94 144 164
94 144 164
94 144 164
94 144 164
94 144 164
94 144 164
94 144 164
94 144 164
94 144 164
94 144 164
94 144 164
94 144 164
94 144 164
94 144 164
94 144 164
94 144 164
94 144 164
94 144 164
94 144 164
94 144 164
94 144 164
94 144 164
94 144 164
94 144 164
94 144 164
94 144 164
94 144 164
94 144 164
94 144 164
94 144 164
94 144 164
94 144 164
94 144 164
94 144 164
94 144 164
94 144 164
94 144 164
94 144 164
94 144 164
94 144 164
94 144 164
94 144 164
94 144 164
94 144 164
94 144 164
94 144 164
94 144 164
94 144 164
94 144 164
94 144 164
94 144 164
94 144 164
94 144 164
94 144 164
94 144 164
94 144 164
94 144 164
94 144 164
94 144 164
94 144 164
94 144 164
94 144 164
94 144 164
94 144 164
94 144 164
94 144 164
94 144 164
94 144 164
94 144 164
94 144 164
94 144 164
94 144 164
94 144 164
94 144 164
94 144 164
94 144 164
94 144 164
94 144 164
94 144 164
94 144 164
94 144 164
94 144 164
94 144 164
94 144 164
94 144 164
94 144 164
94 144 164
94 144 164
94 144 164
94 144 164
94 144 164
94 144 164
94 144 164
94 144 164
94 144 164
94 144 164
94 144 164
94 144 164
94 144 164
94 144 164
94 144 164
94 144 164
94 144 164
94 144 164
94 144 164
94 144 164
94 144 164
94 144 164
94 144 164
94 144 164
94 144 164
94 144 164
94 144 164
94 144 164
94 144 164
94 144 164
94 144 164
94 144 164
94 144 164
94 144 164
94 144 164
94 144 164
94 144 164
94 144 164
94 144 164
94 144 164
94 144 164
94 144 164
94 144 164
94 144 164
94 144 164
94 144 164
94 144 164
94 144 164
94 144 164
94 144 164
94 144 164
94 144 164
94 144 164
94 144 164
94 144 164
94 144 164
94 144 164
94 144 164
94 144 164
94 144 164
94 144 164
94 144 164
94 144 164
94 144 164
94 144 164
94 144 164
94 144 164
94 144 164
94 144 164
94 144 164
94 144 164
94 144 164
94 144 164
94 144 164
94 144 164
94 144 164
94 144 164
94 144 164
94 144 164
94 144 164
94 144 164
94 144 164
94 144 164
94 144 164
94 144 164
94 144 164
94 144 164
94 144 164
94 144 164
94 144 164
94 144 164
94 144 164
94 144 164
94 144 164
94 144 164
94 144 164
94 144 164
94 144 164
94 144 164
94 144 164
94 144 164
94 144 164
94 144 164
94 144 164
94 144 164
94 144 164
94 144 164
94 144 164
94 144 164
94 144 164
94 144 164
94 144 164
94 144 164
94 144 164
94 144 164
94 144 164
94 144 164
94 144 164
94 144 164
94 144 164
94 144 164
94 144 164
94 144 164
94 144 164
94 144 164
94 144 164
94 144 164
94 144 164
94 144 164
94 144 164
94 144 164
94 144 164
94 144 164
94 144 164
94 144 164
94 144 164
94 144 164
94 144 164
94 144 164
94 144 164
94 144 164
94 144 164
94 144 164
94 144 164
94 144 164
94 144 164
94 144 164
94 144 164
94 144 164
94 144 164
94 144 164
94 144 164
94 144 164
94 144 164
94 144 164
94 144 164
94 144 164
94 144 164
94 144 164
94 144 164
94 144 164
94 144 164
94 144 164
94 144 164
94 144 164
94 144 164
94 144 164
94 144 164
94 144 164
94 144 164
94 144 164
94 144 164
94 144 164
94 144 164
94 144 164
94 144 164
94 144 164
94 144 164
94 144 164
94 144 164
94 144 164
94 144 164
94 144 164
94 144 164
94 144 164
94 144 164
94 144 164
94 144 164
94 144 164
94 144 164
94 144 164
94 144 164
94 144 164
94 144 164
94 144 164
94 144 164
94 144 164
94 144 164
94 144 164
94 144 164
94 144 164
94 144 164
94 144 164
94 144 164
94 144 164
94 144 164
94 144 164
94 144 164
94 144 164
94 144 164
94 144 164
94 144 164
94 144 164
94 144 164
94 144 164
94 144 164
94 144 164
94 144 164
94 144 164
94 144 164
94 144 164
94 144 164
94 144 164
94 144 164
94 144 164
94 144 164
94 144 164
94 144 164
94 144 164
94 144 164
94 144 164
94 144 164
94 144 164
94 144 164
94 144 164
94 144 164
94 144 164
94 144 164
94 144 164
94 144 164
94 144 164
94 144 164
94 144 164
94 144 164
94 144 164
94 144 164
94 144 164
94 144 164
94 144 164
94 144 164
94 144 164
94 144 164
94 144 164
94 144 164
94 144 164
94 144 164
94 144 164
94 144 164
94 144 164
94 144 164
94 144 164
94 144 164
94 144 164
94 144 164
94 144 164
94 144 164
94 144 164
94 144 164
94 144 164
94 144 164
94 144 164
94 144 164
94 144 164
94 144 164
94 144 164
94 144 164
94 144 164
94 144 164
94 144 164
94 144 164
94 144 164
94 144 164
94 144 164
94 144 164
94 144 164
94 144 164
94 144 164
94 144 164
94 144 164
94 144 164
94 144 164
94 144 164
94 144 164
94 144 164
94 144 164
94 144 164
94 144 164
94 144 164
94 144 164
94 144 164
94 144 164
94 144 164
94 144 164
94 144 164
94 144 164
94 144 164
94 144 164
94 144 164
94 144 164
94 144 164
94 144 164
94 144 164
94 144 164
94 144 164
94 144 164
94 144 164
94 144 164
94 144 164
94 144 164
94 144 164
94 144 164
94 144 164
94 144 164
94 144 164
94 144 164
94 144 164
94 144 164
94 144 164
94 144 164
94 144 164
94 144 164
94 144 164
94 144 164
94 144 164
94 144 164
94 144 164
94 144 164
94 144 164
94 144 164
94 144 164
94 144 164
94 144 164
94 144 164
94 144 164
94 144 164
94 144 164
94 144 164
94 144 164
94 144 164
94 144 164
94 144 164
94 144 164
94 144 164
94 144 164
94 144 164
94 144 164
94 144 164
94 144 164
94 144 164
94 144 164
94 144 164
94 144 164
94 144 164
94 144 164
94 144 164
94 144 164
94 144 164
94 144 164
94 144 164
94 144 164
94 144 164
94 144 164
94 144 164
94 144 164
94 144 164
94 144 164
94 144 164
94 144 164
94 144 164
94 144 164
94 144 164
94 144 164
94 144 164
94 144 164
94 144 164
94 144 164
94 144 164
94 144 164
94 144 164
94 144 164
94 144 164
94 144 164
94 144 164
94 144 164
94 144 164
94 144 164
94 144 164
94 144 164
94 144 164
94 144 164
94 144 164
94 144 164
94 144 164
94 144 164
94 144 164
94 144 164
94 144 164
94 144 164
94 144 164
94 144 164
94 144 164
94 144 164
94 144 164
94 144 164
94 144 164
94 144 164
94 144 164
94 144 164
94 144 164
94 144 164
94 144 164
94 144 164
94 144 164
94 144 164
94 144 164
94 144 164
94 144 164
94 144 164
94 144 164
94 144 164
94 144 164
94 144 164
94 144 164
94 144 164
94 144 164
94 144 164
94 144 164
94 144 164
94 144 164
94 144 164
94 144 164
94 144 164
94 144 164
94 144 164
94 144 164
94 144 164
94 144 164
94 144 164
94 144 164
94 144 164
94 144 164
94 144 164
94 144 164
94 144 164
94 144 164
94 144 164
94 144 164
94 144 164
94 144 164
94 144 164
94 144 164
94 144 164
94 144 164
94 144 164
94 144 164
94 144 164
94 144 164
94 144 164
94 144 164
94 144 164
94 144 164
94 144 164
94 144 164
94 144 164
94 144 164
94 144 164
94 144 164
94 144 164
94 144 164
94 144 164
94 144 164
94 144 164
94 144 164
94 144 164
94 144 164
94 144 164
94 144 164
94 144 164
94 144 164
94 144 164
94 144 164
94 144 164
94 144 164
94 144 164
94 144 164
94 144 164
94 144 164
94 144 164
94 144 164
94 144 164
94 144 164
94 144 164
94 144 164
94 144 164
94 144 164
94 144 164
94 144 164
94 144 164
94 144 164
94 144 164
94 144 164
94 144 164
94 144 164
94 144 164
94 144 164
94 144 164
94 144 164
94 144 164
94 144 164
94 144 164
94 144 164
94 144 164
94 144 164
94 144 164
94 144 164
94 144 164
94 144 164
94 144 164
94 144 164
94 144 164
94 144 164
94 144 164
94 144 164
94 144 164
94 144 164
94 144 164
94 144 164
94 144 164
94 144 164
94 144 164
94 144 164
94 144 164
94 144 164
94 144 164
94 144 164
94 144 164
94 144 164
94 144 164
94 144 164
94 144 164
94 144 164
94 144 164
94 144 164
94 144 164
94 144 164
94 144 164
94 144 164
94 144 164
94 144 164
94 144 164
94 144 164
94 144 164
94 144 164
94 144 164
94 144 164
94 144 164
94 144 164
94 144 164
94 144 164
94 144 164
94 144 164
94 144 164
94 144 164
94 144 164
94 144 164
94 144 164
94 144 164
94 144 164
94 144 164
94 144 164
94 144 164
94 144 164
94 144 164
94 144 164
94 144 164
94 144 164
94 144 164
94 144 164
94 144 164
94 144 164
94 144 164
94 144 164
94 144 164
94 144 164
94 144 164
94 144 164
94 144 164
94 144 164
94 144 164
94 144 164
94 144 164
94 144 164
94 144 164
94 144 164
94 144 164
94 144 164
94 144 164
94 144 164
94 144 164
94 144 164
94 144 164
94 144 164
94 144 164
94 144 164
94 144 164
94 144 164
94 144 164
94 144 164
94 144 164
94 144 164
94 144 164
94 144 164
94 144 164
94 144 164
94 144 164
94 144 164
94 144 164
94 144 164
94 144 164
94 144 164
94 144 164
94 144 164
94 144 164
94 144 164
94 144 164
94 144 164
94 144 164
94 144 164
94 144 164
94 144 164
94 144 164
94 144 164
94 144 164
94 144 164
94 144 164
94 144 164
94 144 164
94 144 164
94 144 164
94 144 164
94 144 164
94 144 164
94 144 164
94 144 164
94 144 164
94 144 164
94 144 164
94 144 164
94 144 164
94 144 164
94 144 164
94 144 164
94 144 164
94 144 164
94 144 164
94 144 164
94 144 164
94 144 164
94 144 164
94 144 164
94 144 164
94 144 164
94 144 164
94 144 164
94 144 164
94 144 164
94 144 164
94 144 164
94 144 164
94 144 164
94 144 164
94 144 164
94 144 164
94 144 164
94 144 164
94 144 164
94 144 164
94 144 164
94 144 164
94 144 164
94 144 164
94 144 164
94 144 164
94 144 164
94 144 164
94 144 164
94 144 164
94 144 164
94 144 164
94 144 164
94 144 164
94 144 164
94 144 164
94 144 164
94 144 164
94 144 164
94 144 164
94 144 164
94 144 164
94 144 164
94 144 164
94 144 164
94 144 164
94 144 164
94 144 164
94 144 164
94 144 164
94 144 164
94 144 164
94 144 164
94 144 164
94 144 164
94 144 164
94 144 164
94 144 164
94 144 164
94 144 164
94 144 164
94 144 164
94 144 164
94 144 164
94 144 164
94 144 164
94 144 164
94 144 164
94 144 164
94 144 164
94 144 164
94 144 164
94 144 164
94 144 164
94 144 164
94 144 164
94 144 164
94 144 164
94 144 164
94 144 164
94 144 164
94 144 164
94 144 164
94 144 164
94 144 164
94 144 164
94 144 164
94 144 164
94 144 164
94 144 164
94 144 164
94 144 164
94 144 164
94 144 164
94 144 164
94 144 164
94 144 164
94 144 164
94 144 164
94 144 164
94 144 164
94 144 164
94 144 164
94 144 164
94 144 164
94 144 164
94 144 164
94 144 164
94 144 164
94 144 164
94 144 164
94 144 164
94 144 164
94 144 164
94 144 164
94 144 164
94 144 164
94 144 164
94 144 164
94 144 164
94 144 164
94 144 164
94 144 164
94 144 164
94 144 164
94 144 164
94 144 164
94 144 164
94 144 164
94 144 164
94 144 164
94 144 164
94 144 164
94 144 164
94 144 164
94 144 164
94 144 164
94 144 164
94 144 164
94 144 164
94 144 164
94 144 164
94 144 164
94 144 164
94 144 164
94 144 164
94 144 164
94 144 164
94 144 164
94 144 164
94 144 164
94 144 164
94 144 164
94 144 164
94 144 164
94 144 164
94 144 164
94 144 164
94 144 164
94 144 164
94 144 164
94 144 164
94 144 164
94 144 164
94 144 164
94 144 164
94 144 164
94 144 164
94 144 164
94 144 164
94 144 164
94 144 164
94 144 164
94 144 164
94 144 164
94 144 164
94 144 164
94 144 164
94 144 164
94 144 164
94 144 164
94 144 164
94 144 164
94 144 164
94 144 164
94 144 164
94 144 164
94 144 164
94 144 164
94 144 164
94 144 164
94 144 164
94 144 164
94 144 164
94 144 164
94 144 164
94 144 164
94 144 164
94 144 164
94 144 164
94 144 164
94 144 164
94 144 164
94 144 164
94 144 164
94 144 164
94 144 164
94 144 164
94 144 164
94 144 164
94 144 164
94 144 164
94 144 164
94 144 164
94 144 164
94 144 164
94 144 164
94 144 164
94 144 164
94 144 164
94 144 164
94 144 164
94 144 164
94 144 164
94 144 164
94 144 164
94 144 164
94 144 164
94 144 164
94 144 164
94 144 164
94 144 164
94 144 164
94 144 164
94 144 164
94 144 164
94 144 164
94 144 164
94 144 164
94 144 164
94 144 164
94 144 164
94 144 164
94 144 164
94 144 164
94 144 164
94 144 164
94 144 164
94 144 164
94 144 164
94 144 164
94 144 164
94 144 164
94 144 164
94 144 164
94 144 164
94 144 164
94 144 164
94 144 164
94 144 164
94 144 164
94 144 164
94 144 164
94 144 164
94 144 164
94 144 164
94 144 164
94 144 164
94 144 164
94 144 164
94 144 164
94 144 164
94 144 164
94 144 164
94 144 164
94 144 164
94 144 164
94 144 164
94 144 164
94 144 164
94 144 164
94 144 164
94 144 164
94 144 164
94 144 164
94 144 164
94 144 164
94 144 164
94 144 164
94 144 164
94 144 164
94 144 164
94 144 164
94 144 164
94 144 164
94 144 164
94 144 164
94 144 164
94 144 164
94 144 164
94 144 164
94 144 164
94 144 164
94 144 164
94 144 164
94 144 164
94 144 164
94 144 164
94 144 164
94 144 164
94 144 164
94 144 164
94 144 164
94 144 164
94 144 164
94 144 164
94 144 164
94 144 164
94 144 164
94 144 164
94 144 164
94 144 164
94 144 164
94 144 164
94 144 164
94 144 164
94 144 164
94 144 164
94 144 164
94 144 164
94 144 164
94 144 164
94 144 164
94 144 164
94 144 164
94 144 164
94 144 164
94 144 164
94 144 164
94 144 164
94 144 164
94 144 164
94 144 164
94 144 164
94 144 164
94 144 164
94 144 164
94 144 164
94 144 164
94 144 164
94 144 164
94 144 164
94 144 164
94 144 164
94 144 164
94 144 164
94 144 164
94 144 164
94 144 164
94 144 164
94 144 164
94 144 164
94 144 164
94 144 164
94 144 164
94 144 164
94 144 164
94 144 164
94 144 164
94 144 164
94 144 164
94 144 164
94 144 164
94 144 164
94 144 164
94 144 164
94 144 164
94 144 164
94 144 164
94 144 164
94 144 164
94 144 164
94 144 164
94 144 164
94 144 164
94 144 164
94 144 164
94 144 164
94 144 164
94 144 164
94 144 164
94 144 164
94 144 164
94 144 164
94 144 164
94 144 164
94 144 164
94 144 164
94 144 164
94 144 164
94 144 164
94 144 164
94 144 164
94 144 164
94 144 164
94 144 164
94 144 164
94 144 164
94 144 164
94 144 164
94 144 164
94 144 164
94 144 164
94 144 164
94 144 164
94 144 164
94 144 164
94 144 164
94 144 164
94 144 164
94 144 164
94 144 164
94 144 164
94 144 164
94 144 164
94 144 164
94 144 164
94 144 164
94 144 164
94 144 164
94 144 164
94 144 164
94 144 164
94 144 164
94 144 164
94 144 164
94 144 164
94 144 164
94 144 164
94 144 164
94 144 164
94 144 164
94 144 164
94 144 164
94 144 164
94 144 164
94 144 164
94 144 164
94 144 164
94 144 164
94 144 164
94 144 164
94 144 164
94 144 164
94 144 164
94 144 164
94 144 164
94 144 164
94 144 164
94 144 164
94 144 164
94 144 164
94 144 164
94 144 164
94 144 164
94 144 164
94 144 164
94 144 164
94 144 164
94 144 164
94 144 164
94 144 164
94 144 164
94 144 164
94 144 164
94 144 164
94 144 164
94 144 164
94 144 164
94 144 164
94 144 164
94 144 164
94 144 164
94 144 164
94 144 164
94 144 164
94 144 164
94 144 164
94 144 164
94 144 164
94 144 164
94 144 164
94 144 164
94 144 164
94 144 164
94 144 164
94 144 164
94 144 164
94 144 164
94 144 164
94 144 164
94 144 164
94 144 164
94 144 164
94 144 164
94 144 164
94 144 164
94 144 164
94 144 164
94 144 164
94 144 164
94 144 164
94 144 164
94 144 164
94 144 164
94 144 164
94 144 164
94 144 164
94 144 164
94 144 164
94 144 164
94 144 164
94 144 164
94 144 164
94 144 164
94 144 164
94 144 164
94 144 164
94 144 164
94 144 164
94 144 164
94 144 164
94 144 164
94 144 164
94 144 164
94 144 164
94 144 164
94 144 164
94 144 164
94 144 164
94 144 164
94 144 164
94 144 164
94 144 164
94 144 164
94 144 164
94 144 164
94 144 164
94 144 164
94 144 164
94 144 164
94 144 164
94 144 164
94 144 164
94 144 164
94 144 164
94 144 164
94 144 164
94 144 164
94 144 164
94 144 164
94 144 164
94 144 164
94 144 164
94 144 164
94 144 164
94 144 164
94 144 164
94 144 164
94 144 164
94 144 164
94 144 164
94 144 164
94 144 164
94 144 164
94 144 164
94 144 164
94 144 164
94 144 164
94 144 164
94 144 164
94 144 164
94 144 164
94 144 164
94 144 164
94 144 164
94 144 164
94 144 164
94 144 164
94 144 164
94 144 164
94 144 164
94 144 164
94 144 164
94 144 164
94 144 164
94 144 164
94 144 164
94 144 164
94 144 164
94 144 164
94 144 164
94 144 164
94 144 164
94 144 164
94 144 164
94 144 164
94 144 164
94 144 164
94 144 164
94 144 164
94 144 164
94 144 164
94 144 164
94 144 164
94 144 164
94 144 164
94 144 164
94 144 164
94 144 164
94 144 164
94 144 164
94 144 164
94 144 164
94 144 164
94 144 164
94 144 164
94 144 164
94 144 164
94 144 164
94 144 164
94 144 164
94 144 164
94 144 164
94 144 164
94 144 164
94 144 164
94 144 164
94 144 164
94 144 164
94 144 164
94 144 164
94 144 164
94 144 164
94 144 164
94 144 164
94 144 164
94 144 164
94 144 164
94 144 164
94 144 164
94 144 164
94 144 164
94 144 164
94 144 164
94 144 164
94 144 164
94 144 164
94 144 164
94 144 164
94 144 164
94 144 164
94 144 164
94 144 164
94 144 164
94 144 164
94 144 164
94 144 164
94 144 164
94 144 164
94 144 164
94 144 164
94 144 164
94 144 164
94 144 164
94 144 164
94 144 164
94 144 164
94 144 164
94 144 164
94 144 164
94 144 164
94 144 164
94 144 164
94 144 164
94 144 164
94 144 164
94 144 164
94 144 164
94 144 164
94 144 164
94 144 164
94 144 164
94 144 164
94 144 164
94 144 164
94 144 164
94 144 164
94 144 164
94 144 164
94 144 164
94 144 164
94 144 164
94 144 164
94 144 164
94 144 164
94 144 164
94 144 164
94 144 164
94 144 164
94 144 164
94 144 164
94 144 164
94 144 164
94 144 164
94 144 164
94 144 164
94 144 164
94 144 164
94 144 164
94 144 164
94 144 164
94 144 164
94 144 164
94 144 164
94 144 164
94 144 164
94 144 164
94 144 164
94 144 164
94 144 164
94 144 164
94 144 164
94 144 164
94 144 164
94 144 164
94 144 164
94 144 164
94 144 164
94 144 164
188 121 166
188 121 166
188 121 166
188 121 166
188 121 166
188 121 166
188 121 166
188 121 166
188 121 166
94 144 164
94 144 164
94 144 164
94 144 164
94 144 164
94 144 164
94 144 164
94 144 164
94 144 164
94 144 164
94 144 164
94 144 164
94 144 164
94 144 164
94 144 164
94 144 164
94 144 164
94 144 164
94 144 164
94 144 164
94 144 164
94 144 164
94 144 164
94 144 164
94 144 164
94 144 164
94 144 164
94 144 164
94 144 164
94 144 164
94 144 164
94 144 164
94 144 164
94 144 164
94 144 164
94 144 164
94 144 164
94 144 164
94 144 164
94 144 164
94 144 164
94 144 164
94 144 164
94 144 164
94 144 164
94 144 164
94 144 164
94 144 164
94 144 164
94 144 164
94 144 164
94 144 164
94 144 164
94 144 164
94 144 164
94 144 164
94 144 164
94 144 164
94 144 164
94 144 164
94 144 164
94 144 164
94 144 164
94 144 164
94 144 164
94 144 164
94 144 164
94 144 164
94 144 164
94 144 164
94 144 164
94 144 164
94 144 164
94 144 164
94 144 164
94 144 164
94 144 164
94 144 164
94 144 164
94 144 164
94 144 164
94 144 164
94 144 164
94 144 164
94 144 164
94 144 164
94 144 164
94 144 164
94 144 164
94 144 164
94 144 164
94 144 164
94 144 164
94 144 164
94 144 164
94 144 164
94 144 164
94 144 164
94 144 164
94 144 164
94 144 164
94 144 164
94 144 164
94 144 164
94 144 164
94 144 164
94 144 164
94 144 164
94 144 164
94 144 164
94 144 164
94 144 164
94 144 164
94 144 164
94 144 164
94 144 164
94 144 164
94 144 164
94 144 164
94 144 164
94 144 164
94 144 164
94 144 164
94 144 164
94 144 164
94 144 164
94 144 164
94 144 164
94 144 164
94 144 164
94 144 164
94 144 164
94 144 164
94 144 164
94 144 164
94 144 164
94 144 164
94 144 164
94 144 164
94 144 164
94 144 164
94 144 164
94 144 164
94 144 164
94 144 164
94 144 164
94 144 164
94 144 164
94 144 164
94 144 164
94 144 164
94 144 164
94 144 164
94 144 164
94 144 164
94 144 164
94 144 164
94 144 164
94 144 164
94 144 164
94 144 164
94 144 164
94 144 164
94 144 164
94 144 164
94 144 164
94 144 164
94 144 164
94 144 164
94 144 164
94 144 164
94 144 164
94 144 164
94 144 164
94 144 164
94 144 164
94 144 164
94 144 164
94 144 164
94 144 164
94 144 164
94 144 164
94 144 164
94 144 164
94 144 164
94 144 164
94 144 164
94 144 164
94 144 164
94 144 164
94 144 164
94 144 164
94 144 164
94 144 164
94 144 164
94 144 164
94 144 164
94 144 164
94 144 164
94 144 164
94 144 164
94 144 164
94 144 164
94 144 164
94 144 164
94 144 164
94 144 164
94 144 164
94 144 164
94 144 164
94 144 164
94 144 164
94 144 164
94 144 164
94 144 164
94 144 164
94 144 164
94 144 164
94 144 164
94 144 164
94 144 164
94 144 164
94 144 164
94 144 164
94 144 164
94 144 164
94 144 164
94 144 164
94 144 164
94 144 164
94 144 164
94 144 164
94 144 164
94 144 164
94 144 164
94 144 164
94 144 164
94 144 164
94 144 164
94 144 164
94 144 164
94 144 164
94 144 164
94 144 164
94 144 164
94 144 164
94 144 164
94 144 164
94 144 164
94 144 164
94 144 164
94 144 164
94 144 164
94 144 164
94 144 164
94 144 164
94 144 164
94 144 164
94 144 164
94 144 164
94 144 164
94 144 164
94 144 164
94 144 164
94 144 164
94 144 164
94 144 164
94 144 164
94 144 164
94 144 164
94 144 164
94 144 164
94 144 164
94 144 164
94 144 164
94 144 164
94 144 164
94 144 164
94 144 164
94 144 164
94 144 164
94 144 164
94 144 164
94 144 164
94 144 164
94 144 164
94 144 164
94 144 164
94 144 164
94 144 164
94 144 164
94 144 164
94 144 164
94 144 164
94 144 164
94 144 164
94 144 164
94 144 164
94 144 164
94 144 164
94 144 164
94 144 164
94 144 164
94 144 164
188 120 166
188 120 166
188 120 166
162 119 156
162 119 156
162 119 156
162 119 156
162 119 156
162 119 156
162 119 156
188 120 166
188 120 166
188 120 166
162 119 156
162 119 156
162 119 156
162 119 156
162 119 156
162 119 156
162 119 156
162 119 156
188 120 166
94 144 164
94 144 164
94 144 164
94 144 164
94 144 164
94 144 164
94 144 164
94 144 164
94 144 164
94 144 164
94 144 164
94 144 164
94 144 164
94 144 164
94 144 164
94 144 164
94 144 164
94 144 164
94 144 164
94 144 164
94 144 164
94 144 164
94 144 164
94 144 164
94 144 164
94 144 164
94 144 164
94 144 164
94 144 164
94 144 164
94 144 164
94 144 164
94 144 164
94 144 164
94 144 164
94 144 164
94 144 164
94 144 164
94 144 164
94 144 164
94 144 164
94 144 164
94 144 164
94 144 164
94 144 164
94 144 164
94 144 164
94 144 164
94 144 164
94 144 164
94 144 164
94 144 164
94 144 164
94 144 164
94 144 164
94 144 164
94 144 164
94 144 164
94 144 164
94 144 164
94 144 164
94 144 164
94 144 164
94 144 164
94 144 164
94 144 164
94 144 164
94 144 164
94 144 164
94 144 164
94 144 164
94 144 164
94 144 164
94 144 164
94 144 164
94 144 164
94 144 164
94 144 164
94 144 164
94 144 164
94 144 164
94 144 164
94 144 164
94 144 164
94 144 164
94 144 164
94 144 164
94 144 164
94 144 164
94 144 164
94 144 164
94 144 164
94 144 164
94 144 164
94 144 164
94 144 164
94 144 164
94 144 164
94 144 164
94 144 164
94 144 164
94 144 164
94 144 164
94 144 164
94 144 164
94 144 164
94 144 164
94 144 164
94 144 164
94 144 164
94 144 164
94 144 164
94 144 164
94 144 164
94 144 164
94 144 164
94 144 164
94 144 164
94 144 164
94 144 164
94 144 164
94 144 164
94 144 164
94 144 164
94 144 164
94 144 164
94 144 164
94 144 164
94 144 164
94 144 164
94 144 164
94 144 164
94 144 164
94 144 164
94 144 164
94 144 164
94 144 164
94 144 164
94 144 164
94 144 164
94 144 164
94 144 164
94 144 164
94 144 164
94 144 164
94 144 164
94 144 164
94 144 164
94 144 164
94 144 164
94 144 164
94 144 164
94 144 164
94 144 164
94 144 164
94 144 164
94 144 164
94 144 164
94 144 164
94 144 164
94 144 164
94 144 164
94 144 164
94 144 164
94 144 164
94 144 164
94 144 164
94 144 164
94 144 164
94 144 164
94 144 164
94 144 164
94 144 164
94 144 164
94 144 164
94 144 164
94 144 164
94 144 164
94 144 164
94 144 164
94 144 164
94 144 164
94 144 164
94 144 164
94 144 164
94 144 164
94 144 164
94 144 164
94 144 164
94 144 164
94 144 164
94 144 164
94 144 164
94 144 164
94 144 164
94 144 164
94 144 164
94 144 164
94 144 164
94 144 164
94 144 164
94 144 164
94 144 164
94 144 164
94 144 164
94 144 164
94 144 164
94 144 164
94 144 164
94 144 164
94 144 164
94 144 164
94 144 164
94 144 164
94 144 164
94 144 164
94 144 164
94 144 164
94 144 164
94 144 164
94 144 164
94 144 164
94 144 164
94 144 164
94 144 164
94 144 164
94 144 164
94 144 164
94 144 164
94 144 164
94 144 164
94 144 164
94 144 164
94 144 164
94 144 164
94 144 164
94 144 164
94 144 164
94 144 164
94 144 164
94 144 164
94 144 164
94 144 164
94 144 164
94 144 164
94 144 164
94 144 164
94 144 164
94 144 164
94 144 164
94 144 164
94 144 164
94 144 164
94 144 164
94 144 164
94 144 164
94 144 164
94 144 164
94 144 164
94 144 164
94 144 164
94 144 164
94 144 164
94 144 164
94 144 164
94 144 164
94 144 164
94 144 164
94 144 164
94 144 164
94 144 164
94 144 164
94 144 164
94 144 164
94 144 164
94 144 164
94 144 164
94 144 164
94 144 164
94 144 164
94 144 164
94 144 164
94 144 164
94 144 164
94 144 164
94 144 164
94 144 164
94 144 164
94 144 164
94 144 164
94 144 164
162 119 156
162 119 156
162 119 156
162 119 156
162 119 156
162 119 156
188 120 165
188 120 165
188 120 165
188 120 165
188 120 165
162 119 156
162 119 156
162 119 156
162 119 156
188 120 165
188 120 165
188 120 165
188 120 165
188 120 165
188 120 165
162 119 156
162 119 156
162 119 156
162 119 156
188 120 165
188 120 165
188 120 165
188 120 165
188 120 165
188 120 165
188 120 165
162 119 156
162 119 156
162 119 156
94 144 164
94 144 164
94 144 164
94 144 164
94 144 164
94 144 164
94 144 164
94 144 164
94 144 164
94 144 164
94 144 164
94 144 164
94 144 164
94 144 164
94 144 164
94 144 164
94 144 164
94 144 164
94 144 164
94 144 164
94 144 164
94 144 164
94 144 164
94 144 164
94 144 164
94 144 164
94 144 164
94 144 164
94 144 164
94 144 164
94 144 164
94 144 164
94 144 164
94 144 164
94 144 164
94 144 164
94 144 164
94 144 164
94 144 164
94 144 164
94 144 164
94 144 164
94 144 164
94 144 164
94 144 164
94 144 164
94 144 164
94 144 164
94 144 164
94 144 164
94 144 164
94 144 164
94 144 164
94 144 164
94 144 164
94 144 164
94 144 164
94 144 164
94 144 164
94 144 164
94 144 164
94 144 164
94 144 164
94 144 164
94 144 164
94 144 164
94 144 164
94 144 164
94 144 164
94 144 164
94 144 164
94 144 164
94 144 164
94 144 164
94 144 164
94 144 164
94 144 164
94 144 164
94 144 164
94 144 164
94 144 164
94 144 164
94 144 164
94 144 164
94 144 164
94 144 164
94 144 164
94 144 164
94 144 164
94 144 164
94 144 164
94 144 164
94 144 164
94 144 164
94 144 164
94 144 164
94 144 164
94 144 164
94 144 164
94 144 164
94 144 164
94 144 164
94 144 164
94 144 164
94 144 164
94 144 164
94 144 164
94 144 164
94 144 164
94 144 164
94 144 164
94 144 164
94 144 164
94 144 164
94 144 164
94 144 164
94 144 164
94 144 164
94 144 164
94 144 164
94 144 164
94 144 164
94 144 164
94 144 164
94 144 164
94 144 164
94 144 164
94 144 164
94 144 164
94 144 164
94 144 164
94 144 164
94 144 164
94 144 164
94 144 164
94 144 164
94 144 164
94 144 164
94 144 164
94 144 164
94 144 164
94 144 164
94 144 164
94 144 164
94 144 164
94 144 164
94 144 164
94 144 164
94 144 164
94 144 164
94 144 164
94 144 164
94 144 164
94 144 164
94 144 164
94 144 164
94 144 164
94 144 164
94 144 164
94 144 164
94 144 164
94 144 164
94 144 164
94 144 164
94 144 164
94 144 164
94 144 164
94 144 164
94 144 164
94 144 164
94 144 164
94 144 164
94 144 164
94 144 164
94 144 164
94 144 164
94 144 164
94 144 164
94 144 164
94 144 164
94 144 164
94 144 164
94 144 164
94 144 164
94 144 164
94 144 164
94 144 164
94 144 164
94 144 164
94 144 164
94 144 164
94 144 164
94 144 164
94 144 164
94 144 164
94 144 164
94 144 164
94 144 164
94 144 164
94 144 164
94 144 164
94 144 164
94 144 164
94 144 164
94 144 164
94 144 164
94 144 164
94 144 164
94 144 164
94 144 164
94 144 164
94 144 164
94 144 164
94 144 164
94 144 164
94 144 164
94 144 164
94 144 164
94 144 164
94 144 164
94 144 164
94 144 164
94 144 164
94 144 164
94 144 164
94 144 164
94 144 164
94 144 164
94 144 164
94 144 164
94 144 164
94 144 164
94 144 164
94 144 164
94 144 164
94 144 164
94 144 164
94 144 164
94 144 164
94 144 164
94 144 164
94 144 164
94 144 164
94 144 164
94 144 164
94 144 164
94 144 164
94 144 164
94 144 164
94 144 164
94 144 164
94 144 164
94 144 164
94 144 164
94 144 164
94 144 164
94 144 164
94 144 164
94 144 164
94 144 164
94 144 164
94 144 164
94 144 164
94 144 164
94 144 164
94 144 164
94 144 164
94 144 164
94 144 164
94 144 164
94 144 164
94 144 164
94 144 164
94 144 164
94 144 164
94 144 164
94 144 164
94 144 164
94 144 164
94 144 164
94 144 164
94 144 164
94 144 164
59 34 46
59 34 46
137 75 102
162 118 156
162 118 156
162 118 156
188 120 165
188 120 165
188 120 165
188 120 165
188 120 165
188 120 165
188 120 165
162 118 156
162 118 156
162 118 156
162 118 156
188 120 165
188 120 165
188 120 165
188 120 165
188 120 165
188 120 165
162 118 156
162 118 156
162 118 156
162 118 156
162 118 156
188 120 165
188 120 165
188 120 165
188 120 165
162 118 156
162 118 156
162 118 156
162 118 156
162 118 156
162 118 156
162 118 156
163 76 111
94 144 164
94 144 164
94 144 164
94 144 164
94 144 164
94 144 164
94 144 164
94 144 164
94 144 164
94 144 164
94 144 164
94 144 164
94 144 164
94 144 164
94 144 164
94 144 164
94 144 164
94 144 164
94 144 164
94 144 164
94 144 164
94 144 164
94 144 164
94 144 164
94 144 164
94 144 164
94 144 164
94 144 164
94 144 164
94 144 164
94 144 164
94 144 164
94 144 164
94 144 164
94 144 164
94 144 164
94 144 164
94 144 164
94 144 164
94 144 164
94 144 164
94 144 164
94 144 164
94 144 164
94 144 164
94 144 164
94 144 164
94 144 164
94 144 164
94 144 164
94 144 164
94 144 164
94 144 164
94 144 164
94 144 164
94 144 164
94 144 164
94 144 164
94 144 164
94 144 164
94 144 164
94 144 164
94 144 164
94 144 164
94 144 164
94 144 164
94 144 164
94 144 164
94 144 164
94 144 164
94 144 164
94 144 164
94 144 164
94 144 164
94 144 164
94 144 164
94 144 164
94 144 164
94 144 164
94 144 164
94 144 164
94 144 164
94 144 164
94 144 164
94 144 164
94 144 164
94 144 164
94 144 164
94 144 164
94 144 164
94 144 164
94 144 164
94 144 164
94 144 164
94 144 164
94 144 164
94 144 164
94 144 164
94 144 164
94 144 164
94 144 164
94 144 164
94 144 164
94 144 164
94 144 164
94 144 164
94 144 164
94 144 164
94 144 164
94 144 164
94 144 164
94 144 164
94 144 164
94 144 164
94 144 164
94 144 164
94 144 164
94 144 164
94 144 164
94 144 164
94 144 164
94 144 164
94 144 164
94 144 164
94 144 164
94 144 164
94 144 164
94 144 164
94 144 164
94 144 164
94 144 164
94 144 164
94 144 164
94 144 164
94 144 164
94 144 164
94 144 164
94 144 164
94 144 164
94 144 164
94 144 164
94 144 164
94 144 164
94 144 164
94 144 164
94 144 164
94 144 164
94 144 164
94 144 164
94 144 164
94 144 164
94 144 164
94 144 164
94 144 164
94 144 164
94 144 164
94 144 164
94 144 164
94 144 164
94 144 164
94 144 164
94 144 164
94 144 164
94 144 164
94 144 164
94 144 164
94 144 164
94 144 164
94 144 164
94 144 164
94 144 164
94 144 164
94 144 164
94 144 164
94 144 164
94 144 164
94 144 164
94 144 164
94 144 164
94 144 164
94 144 164
94 144 164
94 144 164
94 144 164
94 144 164
94 144 164
94 144 164
94 144 164
94 144 164
94 144 164
94 144 164
94 144 164
94 144 164
94 144 164
94 144 164
94 144 164
94 144 164
94 144 164
94 144 164
94 144 164
94 144 164
94 144 164
94 144 164
94 144 164
94 144 164
94 144 164
94 144 164
94 144 164
94 144 164
94 144 164
94 144 164
94 144 164
94 144 164
94 144 164
94 144 164
94 144 164
94 144 164
94 144 164
94 144 164
94 144 164
94 144 164
94 144 164
94 144 164
94 144 164
94 144 164
94 144 164
94 144 164
94 144 164
94 144 164
94 144 164
94 144 164
94 144 164
94 144 164
94 144 164
94 144 164
94 144 164
94 144 164
94 144 164
94 144 164
94 144 164
94 144 164
94 144 164
94 144 164
94 144 164
94 144 164
94 144 164
94 144 164
94 144 164
94 144 164
94 144 164
94 144 164
94 144 164
94 144 164
94 144 164
94 144 164
94 144 164
94 144 164
94 144 164
94 144 164
94 144 164
94 144 164
94 144 164
94 144 164
94 144 164
94 144 164
94 144 164
94 144 164
94 144 164
94 144 164
94 144 164
94 144 164
94 144 164
94 144 164
94 144 164
94 144 164
94 144 164
94 144 164
94 144 164
94 144 164
94 144 164
59 34 46
59 34 46
59 34 46
59 34 46
51 33 43
51 33 42
51 33 42
137 74 101
188 119 165
188 119 165
162 118 156
162 118 156
162 118 156
162 118 156
162 118 156
162 118 156
162 118 156
162 118 156
188 119 165
188 119 165
188 119 165
188 119 165
162 118 156
162 118 156
162 118 156
162 118 156
162 118 156
162 118 156
188 119 165
188 119 165
188 119 165
188 119 165
188 119 165
137 74 101
59 33 45
59 33 45
59 34 45
59 34 45
59 34 46
59 34 46
94 144 164
94 144 164
94 144 164
94 144 164
94 144 164
94 144 164
94 144 164
94 144 164
94 144 164
94 144 164
94 144 164
94 144 164
94 144 164
94 144 164
94 144 164
94 144 164
94 144 164
94 144 164
94 144 164
94 144 164
94 144 164
94 144 164
94 144 164
94 144 164
94 144 164
94 144 164
94 144 164
94 144 164
94 144 164
94 144 164
94 144 164
94 144 164
94 144 164
94 144 164
94 144 164
94 144 164
94 144 164
94 144 164
94 144 164
94 144 164
94 144 164
94 144 164
94 144 164
94 144 164
94 144 164
94 144 164
94 144 164
94 144 164
94 144 164
94 144 164
94 144 164
94 144 164
94 144 164
94 144 164
94 144 164
94 144 164
94 144 164
94 144 164
94 144 164
94 144 164
94 144 164
94 144 164
94 144 164
94 144 164
94 144 164
94 144 164
94 144 164
94 144 164
94 144 164
94 144 164
94 144 164
94 144 164
94 144 164
94 144 164
94 144 164
94 144 164
94 144 164
94 144 164
94 144 164
94 144 164
94 144 164
94 144 164
94 144 164
94 144 164
94 144 164
94 144 164
94 144 164
94 144 164
94 144 164
94 144 164
94 144 164
94 144 164
94 144 164
94 144 164
94 144 164
94 144 164
94 144 164
94 144 164
94 144 164
94 144 164
94 144 164
94 144 164
94 144 164
94 144 164
94 144 164
94 144 164
94 144 164
94 144 164
94 144 164
94 144 164
94 144 164
94 144 164
94 144 164
94 144 164
94 144 164
94 144 164
94 144 164
94 144 164
94 144 164
94 144 164
94 144 164
94 144 164
94 144 164
94 144 164
94 144 164
94 144 164
94 144 164
94 144 164
94 144 164
94 144 164
94 144 164
94 144 164
94 144 164
94 144 164
94 144 164
94 144 164
94 144 164
94 144 164
94 144 164
94 144 164
94 144 164
94 144 164
94 144 164
94 144 164
94 144 164
94 144 164
94 144 164
94 144 164
94 144 164
94 144 164
94 144 164
94 144 164
94 144 164
94 144 164
94 144 164
94 144 164
94 144 164
94 144 164
94 144 164
94 144 164
94 144 164
94 144 164
94 144 164
94 144 164
94 144 164
94 144 164
94 144 164
94 144 164
94 144 164
94 144 164
94 144 164
94 144 164
94 144 164
94 144 164
94 144 164
94 144 164
94 144 164
94 144 164
94 144 164
94 144 164
94 144 164
94 144 164
94 144 164
94 144 164
94 144 164
94 144 164
94 144 164
94 144 164
94 144 164
94 144 164
94 144 164
94 144 164
94 144 164
94 144 164
94 144 164
94 144 164
94 144 164
94 144 164
94 144 164
94 144 164
94 144 164
94 144 164
94 144 164
94 144 164
94 144 164
94 144 164
94 144 164
94 144 164
94 144 164
94 144 164
94 144 164
94 144 164
94 144 164
94 144 164
94 144 164
94 144 164
94 144 164
94 144 164
94 144 164
94 144 164
94 144 164
94 144 164
94 144 164
94 144 164
94 144 164
94 144 164
94 144 164
94 144 164
94 144 164
94 144 164
94 144 164
94 144 164
94 144 164
94 144 164
94 144 164
94 144 164
94 144 164
94 144 164
94 144 164
94 144 164
94 144 164
94 144 164
94 144 164
94 144 164
94 144 164
94 144 164
94 144 164
94 144 164
94 144 164
94 144 164
94 144 164
94 144 164
94 144 164
94 144 164
94 144 164
94 144 164
94 144 164
94 144 164
94 144 164
94 144 164
94 144 164
94 144 164
94 144 164
94 144 164
94 144 164
94 144 164
94 144 164
94 144 164
94 144 164
94 144 164
94 144 164
94 144 164
94 144 164
94 144 164
94 144 164
94 144 164
94 144 164
94 144 164
94 144 164
94 144 164
59 34 46
59 34 46
59 34 46
59 34 46
59 34 45
51 33 42
51 33 42
50 33 42
50 33 42
58 33 44
50 32 42
58 32 44
162 118 155
162 118 155
162 118 155
188 119 165
188 119 165
188 119 165
188 119 165
188 119 165
188 119 165
188 119 165
188 119 165
162 118 155
162 118 155
162 118 155
162 118 155
163 75 110
50 32 41
58 33 44
50 32 42
50 33 42
50 33 42
51 33 42
51 33 42
59 33 45
59 34 45
59 34 45
59 34 46
59 34 46
94 144 164
94 144 164
94 144 164
94 144 164
94 144 164
94 144 164
94 144 164
94 144 164
94 144 164
94 144 164
94 144 164
94 144 164
94 144 164
94 144 164
94 144 164
94 144 164
94 144 164
94 144 164
94 144 164
94 144 164
94 144 164
94 144 164
94 144 164
94 144 164
94 144 164
94 144 164
94 144 164
94 144 164
94 144 164
94 144 164
94 144 164
94 144 164
94 144 164
94 144 164
94 144 164
94 144 164
94 144 164
94 144 164
94 144 164
94 144 164
94 144 164
94 144 164
94 144 164
94 144 164
94 144 164
94 144 164
94 144 164
94 144 164
94 144 164
94 144 164
94 144 164
94 144 164
94 144 164
94 144 164
94 144 164
94 144 164
94 144 164
94 144 164
94 144 164
94 144 164
94 144 164
94 144 164
94 144 164
94 144 164
94 144 164
94 144 164
94 144 164
94 144 164
94 144 164
94 144 164
94 144 164
94 144 164
94 144 164
94 144 164
94 144 164
94 144 164
94 144 164
94 144 164
94 144 164
94 144 164
94 144 164
94 144 164
94 144 164
94 144 164
94 144 164
94 144 164
94 144 164
94 144 164
94 144 164
94 144 164
94 144 164
94 144 164
94 144 164
94 144 164
94 144 164
94 144 164
94 144 164
94 144 164
94 144 164
94 144 164
94 144 164
94 144 164
94 144 164
94 144 164
94 144 164
94 144 164
94 144 164
94 144 164
94 144 164
94 144 164
94 144 164
94 144 164
94 144 164
94 144 164
94 144 164
94 144 164
94 144 164
94 144 164
94 144 164
94 144 164
94 144 164
94 144 164
94 144 164
94 144 164
94 144 164
94 144 164
94 144 164
94 144 164
94 144 164
94 144 164
94 144 164
94 144 164
94 144 164
94 144 164
94 144 164
94 144 164
94 144 164
94 144 164
94 144 164
94 144 164
94 144 164
94 144 164
94 144 164
94 144 164
94 144 164
94 144 164
94 144 164
94 144 164
94 144 164
94 144 164
94 144 164
94 144 164
94 144 164
94 144 164
94 144 164
94 144 164
94 144 164
94 144 164
94 144 164
94 144 164
94 144 164
94 144 164
94 144 164
94 144 164
94 144 164
94 144 164
94 144 164
94 144 164
94 144 164
94 144 164
94 144 164
94 144 164
94 144 164
94 144 164
94 144 164
94 144 164
94 144 164
94 144 164
94 144 164
94 144 164
94 144 164
94 144 164
94 144 164
94 144 164
94 144 164
94 144 164
94 144 164
94 144 164
94 144 164
94 144 164
94 144 164
94 144 164
94 144 164
94 144 164
94 144 164
94 144 164
94 144 164
94 144 164
94 144 164
94 144 164
94 144 164
94 144 164
94 144 164
94 144 164
94 144 164
94 144 164
94 144 164
94 144 164
94 144 164
94 144 164
94 144 164
94 144 164
94 144 164
94 144 164
94 144 164
94 144 164
94 144 164
94 144 164
94 144 164
94 144 164
94 144 164
94 144 164
94 144 164
94 144 164
94 144 164
94 144 164
94 144 164
94 144 164
94 144 164
94 144 164
94 144 164
94 144 164
94 144 164
94 144 164
94 144 164
94 144 164
94 144 164
94 144 164
94 144 164
94 144 164
94 144 164
94 144 164
94 144 164
94 144 164
94 144 164
94 144 164
94 144 164
94 144 164
94 144 164
94 144 164
94 144 164
94 144 164
94 144 164
94 144 164
94 144 164
94 144 164
94 144 164
94 144 164
94 144 164
94 144 164
94 144 164
94 144 164
94 144 164
94 144 164
94 144 164
94 144 164
94 144 164
94 144 164
94 144 164
94 144 164
94 144 164
94 144 164
94 144 164
94 144 164
94 144 164
94 144 164
94 144 164
94 144 164
94 144 164
94 144 164
59 34 46
59 34 46
59 34 46
59 34 46
51 33 43
51 33 42
51 33 42
51 33 42
50 33 42
58 33 45
58 33 44
58 33 44
58 32 44
58 32 44
50 32 41
50 32 41
49 31 41
188 119 164
188 119 164
188 119 164
188 119 164
136 73 100
49 31 41
50 32 41
50 32 41
58 32 44
58 32 44
58 32 44
58 33 44
58 33 44
50 32 42
50 33 42
50 33 42
51 33 42
51 33 42
59 34 45
59 34 45
59 34 46
59 34 46
59 34 46
94 144 164
94 144 164
94 144 164
94 144 164
94 144 164
94 144 164
94 144 164
94 144 164
94 144 164
94 144 164
94 144 164
94 144 164
94 144 164
94 144 164
94 144 164
94 144 164
94 144 164
94 144 164
94 144 164
94 144 164
94 144 164
94 144 164
94 144 164
94 144 164
94 144 164
94 144 164
94 144 164
94 144 164
94 144 164
94 144 164
94 144 164
94 144 164
94 144 164
94 144 164
94 144 164
94 144 164
94 144 164
94 144 164
94 144 164
94 144 164
94 144 164
94 144 164
94 144 164
94 144 164
94 144 164
94 144 164
94 144 164
94 144 164
94 144 164
94 144 164
94 144 164
94 144 164
94 144 164
94 144 164
94 144 164
94 144 164
94 144 164
94 144 164
94 144 164
94 144 164
94 144 164
94 144 164
94 144 164
94 144 164
94 144 164
94 144 164
94 144 164
94 144 164
94 144 164
94 144 164
94 144 164
94 144 164
94 144 164
94 144 164
94 144 164
94 144 164
94 144 164
94 144 164
94 144 164
94 144 164
94 144 164
94 144 164
94 144 164
94 144 164
94 144 164
94 144 164
94 144 164
94 144 164
94 144 164
94 144 164
94 144 164
94 144 164
94 144 164
94 144 164
94 144 164
94 144 164
94 144 164
94 144 164
94 144 164
94 144 164
94 144 164
94 144 164
94 144 164
94 144 164
94 144 164
94 144 164
94 144 164
94 144 164
94 144 164
94 144 164
94 144 164
94 144 164
94 144 164
94 144 164
94 144 164
94 144 164
94 144 164
94 144 164
94 144 164
94 144 164
94 144 164
94 144 164
94 144 164
94 144 164
94 144 164
94 144 164
94 144 164
94 144 164
94 144 164
94 144 164
94 144 164
94 144 164
94 144 164
94 144 164
94 144 164
94 144 164
94 144 164
94 144 164
94 144 164
94 144 164
94 144 164
94 144 164
94 144 164
94 144 164
94 144 164
94 144 164
94 144 164
94 144 164
94 144 164
94 144 164
94 144 164
94 144 164
94 144 164
94 144 164
94 144 164
94 144 164
94 144 164
94 144 164
94 144 164
94 144 164
94 144 164
94 144 164
94 144 164
94 144 164
94 144 164
94 144 164
94 144 164
94 144 164
94 144 164
94 144 164
94 144 164
94 144 164
94 144 164
94 144 164
94 144 164
94 144 164
94 144 164
94 144 164
94 144 164
94 144 164
94 144 164
94 144 164
94 144 164
94 144 164
94 144 164
94 144 164
94 144 164
94 144 164
94 144 164
94 144 164
94 144 164
94 144 164
94 144 164
94 144 164
94 144 164
94 144 164
94 144 164
94 144 164
94 144 164
94 144 164
94 144 164
94 144 164
94 144 164
94 144 164
94 144 164
94 144 164
94 144 164
94 144 164
94 144 164
94 144 164
94 144 164
94 144 164
94 144 164
94 144 164
94 144 164
94 144 164
94 144 164
94 144 164
94 144 164
94 144 164
94 144 164
94 144 164
94 144 164
94 144 164
94 144 164
94 144 164
94 144 164
94 144 164
94 144 164
94 144 164
94 144 164
94 144 164
94 144 164
94 144 164
94 144 164
94 144 164
94 144 164
94 144 164
94 144 164
94 144 164
94 144 164
94 144 164
94 144 164
94 144 164
94 144 164
94 144 164
94 144 164
94 144 164
94 144 164
94 144 164
94 144 164
94 144 164
94 144 164
94 144 164
94 144 164
94 144 164
94 144 164
94 144 164
94 144 164
94 144 164
94 144 164
94 144 164
94 144 164
94 144 164
94 144 164
94 144 164
94 144 164
94 144 164
94 144 164
94 144 164
94 144 164
94 144 164
94 144 164
94 144 164
94 144 164
94 144 164
94 144 164
94 144 164
94 144 164
94 144 164
59 34 46
59 34 46
59 34 46
59 34 46
51 33 43
51 33 42
51 33 42
51 33 42
50 33 42
58 33 45
58 33 44
58 33 44
58 32 44
58 32 44
50 32 41
50 32 41
49 31 41
49 31 40
49 31 40
49 31 40
49 31 40
49 31 41
50 31 41
50 32 41
50 32 41
50 32 41
58 32 44
58 32 44
50 32 41
58 33 44
50 32 42
50 33 42
50 33 42
51 33 42
51 33 42
59 34 45
59 34 45
51 33 43
59 34 46
59 34 46
94 144 164
94 144 164
94 144 164
94 144 164
94 144 164
94 144 164
94 144 164
94 144 164
94 144 164
94 144 164
94 144 164
94 144 164
94 144 164
94 144 164
94 144 164
94 144 164
94 144 164
94 144 164
94 144 164
94 144 164
94 144 164
94 144 164
94 144 164
94 144 164
94 144 164
94 144 164
94 144 164
94 144 164
94 144 164
94 144 164
94 144 164
94 144 164
94 144 164
94 144 164
94 144 164
94 144 164
94 144 164
94 144 164
94 144 164
94 144 164
94 144 164
94 144 164
94 144 164
94 144 164
94 144 164
94 144 164
94 144 164
94 144 164
94 144 164
94 144 164
94 144 164
94 144 164
94 144 164
94 144 164
94 144 164
94 144 164
94 144 164
94 144 164
94 144 164
94 144 164
94 144 164
94 144 164
94 144 164
94 144 164
94 144 164
94 144 164
94 144 164
94 144 164
94 144 164
94 144 164
94 144 164
94 144 164
94 144 164
94 144 164
94 144 164
94 144 164
94 144 164
94 144 164
94 144 164
94 144 164
94 144 164
94 144 164
94 144 164
94 144 164
94 144 164
94 144 164
94 144 164
94 144 164
94 144 164
94 144 164
94 144 164
94 144 164
94 144 164
94 144 164
94 144 164
94 144 164
94 144 164
94 144 164
94 144 164
94 144 164
94 144 164
94 144 164
94 144 164
94 144 164
94 144 164
94 144 164
94 144 164
94 144 164
94 144 164
94 144 164
94 144 164
94 144 164
94 144 164
94 144 164
94 144 164
94 144 164
94 144 164
94 144 164
94 144 164
94 144 164
94 144 164
94 144 164
94 144 164
94 144 164
94 144 164
94 144 164
94 144 164
94 144 164
94 144 164
94 144 164
94 144 164
94 144 164
94 144 164
94 144 164
94 144 164
94 144 164
94 144 164
94 144 164
94 144 164
94 144 164
94 144 164
94 144 164
94 144 164
94 144 164
94 144 164
94 144 164
94 144 164
94 144 164
94 144 164
94 144 164
94 144 164
94 144 164
94 144 164
94 144 164
94 144 164
94 144 164
94 144 164
94 144 164
94 144 164
94 144 164
94 144 164
94 144 164
94 144 164
94 144 164
94 144 164
94 144 164
94 144 164
94 144 164
94 144 164
94 144 164
94 144 164
94 144 164
94 144 164
94 144 164
94 144 164
94 144 164
94 144 164
94 144 164
94 144 164
94 144 164
94 144 164
94 144 164
94 144 164
94 144 164
94 144 164
94 144 164
94 144 164
94 144 164
94 144 164
94 144 164
94 144 164
94 144 164
94 144 164
94 144 164
94 144 164
94 144 164
94 144 164
94 144 164
94 144 164
94 144 164
94 144 164
94 144 164
94 144 164
94 144 164
94 144 164
94 144 164
94 144 164
94 144 164
94 144 164
94 144 164
94 144 164
94 144 164
94 144 164
94 144 164
94 144 164
94 144 164
94 144 164
94 144 164
94 144 164
94 144 164
94 144 164
94 144 164
94 144 164
94 144 164
94 144 164
94 144 164
94 144 164
94 144 164
94 144 164
94 144 164
94 144 164
94 144 164
94 144 164
94 144 164
94 144 164
94 144 164
94 144 164
94 144 164
94 144 164
94 144 164
94 144 164
94 144 164
94 144 164
94 144 164
94 144 164
94 144 164
94 144 164
94 144 164
94 144 164
94 144 164
94 144 164
94 144 164
94 144 164
94 144 164
94 144 164
94 144 164
94 144 164
94 144 164
94 144 164
94 144 164
94 144 164
94 144 164
94 144 164
94 144 164
94 144 164
94 144 164
94 144 164
94 144 164
94 144 164
94 144 164
94 144 164
94 144 164
94 144 164
94 144 164
94 144 164
94 144 164
94 144 164
94 144 164
94 144 164
94 144 164
59 34 46
59 34 46
59 34 46
59 34 46
51 33 43
51 33 42
51 33 42
51 33 42
50 33 42
58 33 45
58 33 44
58 33 44
58 32 44
58 32 44
50 32 41
50 32 41
49 31 41
49 31 40
49 31 40
49 31 40
49 31 40
49 31 41
50 31 41
50 32 41
50 32 41
58 32 44
58 32 44
58 32 44
58 33 44
58 33 44
50 32 42
50 33 42
51 33 42
51 33 42
51 33 42
59 34 45
59 34 45
59 34 46
59 34 46
59 34 46
94 144 164
94 144 164
94 144 164
94 144 164
94 144 164
94 144 164
94 144 164
94 144 164
94 144 164
94 144 164
94 144 164
94 144 164
94 144 164
94 144 164
94 144 164
94 144 164
94 144 164
94 144 164
94 144 164
94 144 164
94 144 164
94 144 164
94 144 164
94 144 164
94 144 164
94 144 164
94 144 164
94 144 164
94 144 164
94 144 164
94 144 164
94 144 164
94 144 164
94 144 164
94 144 164
94 144 164
94 144 164
94 144 164
94 144 164
94 144 164
94 144 164
94 144 164
94 144 164
94 144 164
94 144 164
94 144 164
94 144 164
94 144 164
94 144 164
94 144 164
94 144 164
94 144 164
94 144 164
94 144 164
94 144 164
94 144 164
94 144 164
94 144 164
94 144 164
94 144 164
94 144 164
94 144 164
94 144 164
94 144 164
94 144 164
94 144 164
94 144 164
94 144 164
94 144 164
94 144 164
94 144 164
94 144 164
94 144 164
94 144 164
94 144 164
94 144 164
94 144 164
94 144 164
94 144 164
94 144 164
94 144 164
94 144 164
94 144 164
94 144 164
94 144 164
94 144 164
94 144 164
94 144 164
94 144 164
94 144 164
94 144 164
94 144 164
94 144 164
94 144 164
94 144 164
94 144 164
94 144 164
94 144 164
94 144 164
94 144 164
94 144 164
94 144 164
94 144 164
94 144 164
94 144 164
94 144 164
94 144 164
94 144 164
94 144 164
94 144 164
94 144 164
94 144 164
94 144 164
94 144 164
94 144 164
94 144 164
94 144 164
94 144 164
94 144 164
94 144 164
94 144 164
94 144 164
94 144 164
94 144 164
94 144 164
94 144 164
94 144 164
94 144 164
94 144 164
94 144 164
94 144 164
94 144 164
94 144 164
94 144 164
94 144 164
94 144 164
94 144 164
94 144 164
94 144 164
94 144 164
94 144 164
94 144 164
94 144 164
94 144 164
94 144 164
94 144 164
94 144 164
94 144 164
94 144 164
94 144 164
94 144 164
94 144 164
94 144 164
94 144 164
94 144 164
94 144 164
94 144 164
94 144 164
94 144 164
94 144 164
94 144 164
94 144 164
94 144 164
94 144 164
94 144 164
94 144 164
94 144 164
94 144 164
94 144 164
94 144 164
94 144 164
94 144 164
94 144 164
94 144 164
94 144 164
94 144 164
94 144 164
94 144 164
94 144 164
94 144 164
94 144 164
94 144 164
94 144 164
94 144 164
94 144 164
94 144 164
94 144 164
94 144 164
94 144 164
94 144 164
94 144 164
94 144 164
94 144 164
94 144 164
94 144 164
94 144 164
94 144 164
94 144 164
94 144 164
94 144 164
94 144 164
94 144 164
94 144 164
94 144 164
94 144 164
94 144 164
94 144 164
94 144 164
94 144 164
94 144 164
94 144 164
94 144 164
94 144 164
94 144 164
94 144 164
94 144 164
94 144 164
94 144 164
94 144 164
94 144 164
94 144 164
94 144 164
94 144 164
94 144 164
94 144 164
94 144 164
94 144 164
94 144 164
94 144 164
94 144 164
94 144 164
94 144 164
94 144 164
94 144 164
94 144 164
94 144 164
94 144 164
94 144 164
94 144 164
94 144 164
94 144 164
94 144 164
94 144 164
94 144 164
94 144 164
94 144 164
94 144 164
94 144 164
94 144 164
94 144 164
94 144 164
94 144 164
94 144 164
94 144 164
94 144 164
94 144 164
94 144 164
94 144 164
94 144 164
94 144 164
94 144 164
94 144 164
94 144 164
94 144 164
94 144 164
94 144 164
94 144 164
94 144 164
94 144 164
94 144 164
94 144 164
94 144 164
94 144 164
94 144 164
94 144 164
94 144 164
94 144 164
129 196 164
129 196 164
129 196 164
59 34 46
59 34 46
59 34 46
59 34 46
51 33 43
51 33 43
51 33 42
51 33 42
50 33 42
58 33 45
58 33 44
50 32 41
58 32 44
58 32 44
50 32 41
50 32 41
49 31 41
57 32 43
49 31 40
49 31 40
49 31 40
49 31 41
50 32 41
50 32 41
50 32 41
58 32 44
50 32 41
58 33 44
58 33 44
58 33 44
50 33 42
50 33 42
51 33 42
51 33 42
51 33 42
59 34 45
59 34 45
59 34 46
59 34 46
59 34 46
94 144 164
94 144 164
94 144 164
94 144 164
94 144 164
94 144 164
94 144 164
94 144 164
94 144 164
94 144 164
94 144 164
94 144 164
94 144 164
94 144 164
94 144 164
94 144 164
94 144 164
94 144 164
94 144 164
94 144 164
94 144 164
94 144 164
94 144 164
94 144 164
94 144 164
94 144 164
94 144 164
94 144 164
94 144 164
94 144 164
94 144 164
94 144 164
94 144 164
94 144 164
94 144 164
94 144 164
94 144 164
94 144 164
94 144 164
94 144 164
94 144 164
94 144 164
94 144 164
94 144 164
94 144 164
94 144 164
94 144 164
94 144 164
94 144 164
94 144 164
94 144 164
94 144 164
94 144 164
94 144 164
94 144 164
94 144 164
94 144 164
94 144 164
94 144 164
94 144 164
94 144 164
94 144 164
94 144 164
94 144 164
94 144 164
94 144 164
94 144 164
94 144 164
94 144 164
94 144 164
94 144 164
94 144 164
94 144 164
94 144 164
94 144 164
94 144 164
94 144 164
94 144 164
94 144 164
94 144 164
94 144 164
94 144 164
94 144 164
94 144 164
94 144 164
94 144 164
94 144 164
94 144 164
94 144 164
94 144 164
94 144 164
94 144 164
94 144 164
94 144 164
94 144 164
94 144 164
94 144 164
94 144 164
94 144 164
94 144 164
94 144 164
94 144 164
94 144 164
94 144 164
94 144 164
94 144 164
94 144 164
94 144 164
94 144 164
94 144 164
94 144 164
94 144 164
94 144 164
94 144 164
94 144 164
94 144 164
94 144 164
94 144 164
94 144 164
94 144 164
94 144 164
94 144 164
94 144 164
94 144 164
94 144 164
94 144 164
94 144 164
94 144 164
94 144 164
94 144 164
94 144 164
94 144 164
94 144 164
94 144 164
94 144 164
94 144 164
94 144 164
94 144 164
94 144 164
94 144 164
94 144 164
94 144 164
94 144 164
94 144 164
94 144 164
94 144 164
94 144 164
94 144 164
94 144 164
94 144 164
94 144 164
94 144 164
94 144 164
94 144 164
94 144 164
94 144 164
94 144 164
94 144 164
94 144 164
94 144 164
94 144 164
94 144 164
94 144 164
94 144 164
94 144 164
94 144 164
94 144 164
94 144 164
94 144 164
94 144 164
94 144 164
94 144 164
94 144 164
94 144 164
94 144 164
94 144 164
94 144 164
94 144 164
94 144 164
94 144 164
94 144 164
94 144 164
94 144 164
94 144 164
94 144 164
94 144 164
94 144 164
94 144 164
94 144 164
94 144 164
94 144 164
94 144 164
94 144 164
94 144 164
94 144 164
94 144 164
94 144 164
94 144 164
94 144 164
94 144 164
94 144 164
94 144 164
94 144 164
94 144 164
94 144 164
94 144 164
94 144 164
94 144 164
94 144 164
94 144 164
94 144 164
94 144 164
94 144 164
94 144 164
94 144 164
94 144 164
94 144 164
94 144 164
94 144 164
94 144 164
94 144 164
94 144 164
94 144 164
94 144 164
94 144 164
94 144 164
94 144 164
94 144 164
94 144 164
94 144 164
94 144 164
94 144 164
94 144 164
94 144 164
94 144 164
94 144 164
94 144 164
94 144 164
94 144 164
94 144 164
94 144 164
94 144 164
94 144 164
94 144 164
94 144 164
94 144 164
94 144 164
94 144 164
94 144 164
94 144 164
94 144 164
94 144 164
94 144 164
94 144 164
94 144 164
94 144 164
94 144 164
94 144 164
94 144 164
94 144 164
94 144 164
94 144 164
94 144 164
94 144 164
94 144 164
94 144 164
94 144 164
94 144 164
94 144 164
94 144 164
94 144 164
94 144 164
94 144 164
94 144 164
94 144 164
94 144 164
94 144 164
67 84 79
66 83 79
68 88 80
52 34 44
59 34 46
59 34 46
59 34 46
51 33 43
59 34 45
51 33 42
51 33 42
50 33 42
58 33 45
58 33 44
58 33 44
58 32 44
58 32 44
50 32 41
50 32 41
50 31 41
49 31 41
49 31 40
49 31 40
49 31 41
49 31 41
50 32 41
50 32 41
58 32 44
58 32 44
58 32 44
58 33 44
58 33 44
58 33 44
50 33 42
58 33 45
51 33 42
51 33 42
51 33 42
59 34 45
59 34 45
59 34 46
59 34 46
51 34 43
94 144 164
94 144 164
94 144 164
94 144 164
94 144 164
94 144 164
94 144 164
94 144 164
94 144 164
94 144 164
94 144 164
94 144 164
94 144 164
94 144 164
94 144 164
94 144 164
94 144 164
94 144 164
94 144 164
94 144 164
94 144 164
94 144 164
94 144 164
94 144 164
94 144 164
94 144 164
94 144 164
94 144 164
94 144 164
94 144 164
94 144 164
94 144 164
94 144 164
94 144 164
94 144 164
94 144 164
94 144 164
94 144 164
94 144 164
94 144 164
94 144 164
94 144 164
94 144 164
94 144 164
94 144 164
94 144 164
94 144 164
94 144 164
94 144 164
94 144 164
94 144 164
94 144 164
94 144 164
94 144 164
94 144 164
94 144 164
94 144 164
94 144 164
94 144 164
94 144 164
94 144 164
94 144 164
94 144 164
94 144 164
94 144 164
94 144 164
94 144 164
94 144 164
94 144 164
94 144 164
94 144 164
94 144 164
94 144 164
94 144 164
94 144 164
94 144 164
94 144 164
94 144 164
94 144 164
94 144 164
94 144 164
94 144 164
94 144 164
94 144 164
94 144 164
94 144 164
94 144 164
94 144 164
94 144 164
94 144 164
94 144 164
94 144 164
94 144 164
94 144 164
94 144 164
94 144 164
94 144 164
94 144 164
94 144 164
94 144 164
94 144 164
94 144 164
94 144 164
94 144 164
94 144 164
94 144 164
94 144 164
94 144 164
94 144 164
94 144 164
94 144 164
94 144 164
94 144 164
94 144 164
94 144 164
94 144 164
94 144 164
94 144 164
94 144 164
94 144 164
94 144 164
94 144 164
94 144 164
94 144 164
94 144 164
94 144 164
94 144 164
94 144 164
94 144 164
94 144 164
94 144 164
94 144 164
94 144 164
94 144 164
94 144 164
94 144 164
94 144 164
94 144 164
94 144 164
94 144 164
94 144 164
94 144 164
94 144 164
94 144 164
94 144 164
94 144 164
94 144 164
94 144 164
94 144 164
94 144 164
94 144 164
94 144 164
94 144 164
94 144 164
94 144 164
94 144 164
94 144 164
94 144 164
94 144 164
94 144 164
94 144 164
94 144 164
94 144 164
94 144 164
94 144 164
94 144 164
94 144 164
94 144 164
94 144 164
94 144 164
94 144 164
94 144 164
94 144 164
94 144 164
94 144 164
94 144 164
94 144 164
94 144 164
94 144 164
94 144 164
94 144 164
94 144 164
94 144 164
94 144 164
94 144 164
94 144 164
94 144 164
94 144 164
94 144 164
94 144 164
94 144 164
94 144 164
94 144 164
94 144 164
94 144 164
94 144 164
94 144 164
94 144 164
94 144 164
94 144 164
94 144 164
94 144 164
94 144 164
94 144 164
94 144 164
94 144 164
94 144 164
94 144 164
94 144 164
94 144 164
94 144 164
94 144 164
94 144 164
94 144 164
94 144 164
94 144 164
94 144 164
94 144 164
94 144 164
94 144 164
94 144 164
94 144 164
94 144 164
94 144 164
94 144 164
94 144 164
94 144 164
94 144 164
94 144 164
94 144 164
94 144 164
94 144 164
94 144 164
94 144 164
94 144 164
94 144 164
94 144 164
94 144 164
94 144 164
94 144 164
94 144 164
94 144 164
94 144 164
94 144 164
94 144 164
94 144 164
94 144 164
94 144 164
94 144 164
94 144 164
94 144 164
94 144 164
94 144 164
94 144 164
94 144 164
94 144 164
94 144 164
94 144 164
94 144 164
94 144 164
94 144 164
94 144 164
94 144 164
94 144 164
94 144 164
94 144 164
94 144 164
94 144 164
94 144 164
94 144 164
94 144 164
94 144 164
94 144 164
94 144 164
94 144 164
94 144 164
94 144 164
67 84 79
66 83 79
68 88 80
52 34 44
51 34 43
51 34 43
51 34 43
59 34 46
51 33 43
51 33 42
51 33 42
51 33 42
58 33 45
58 33 44
58 33 44
58 32 44
58 32 44
50 32 41
50 32 41
50 31 41
49 31 41
49 31 40
49 31 40
49 31 41
50 31 41
50 32 41
50 32 41
58 32 44
58 32 44
58 32 44
58 33 44
58 33 44
58 33 45
50 33 42
50 33 42
51 33 42
51 33 42
51 33 42
59 34 45
51 33 43
51 34 43
51 34 43
51 34 43
127 196 163
121 180 159
127 196 163
121 180 159
127 196 163
127 196 163
94 144 164
94 144 164
94 144 164
94 144 164
94 144 164
94 144 164
94 144 164
94 144 164
94 144 164
94 144 164
94 144 164
94 144 164
94 144 164
94 144 164
94 144 164
94 144 164
94 144 164
94 144 164
94 144 164
94 144 164
94 144 164
94 144 164
94 144 164
94 144 164
94 144 164
94 144 164
94 144 164
94 144 164
94 144 164
94 144 164
94 144 164
94 144 164
94 144 164
94 144 164
94 144 164
94 144 164
94 144 164
94 144 164
94 144 164
94 144 164
94 144 164
94 144 164
94 144 164
94 144 164
94 144 164
94 144 164
94 144 164
94 144 164
94 144 164
94 144 164
94 144 164
94 144 164
94 144 164
94 144 164
94 144 164
94 144 164
94 144 164
94 144 164
94 144 164
94 144 164
94 144 164
94 144 164
94 144 164
94 144 164
94 144 164
94 144 164
94 144 164
94 144 164
94 144 164
94 144 164
94 144 164
94 144 164
94 144 164
94 144 164
94 144 164
94 144 164
94 144 164
94 144 164
94 144 164
94 144 164
94 144 164
94 144 164
94 144 164
94 144 164
94 144 164
94 144 164
94 144 164
94 144 164
94 144 164
94 144 164
94 144 164
94 144 164
94 144 164
94 144 164
94 144 164
94 144 164
94 144 164
94 144 164
94 144 164
94 144 164
94 144 164
94 144 164
94 144 164
94 144 164
94 144 164
94 144 164
94 144 164
94 144 164
94 144 164
94 144 164
94 144 164
94 144 164
94 144 164
94 144 164
94 144 164
94 144 164
94 144 164
94 144 164
94 144 164
94 144 164
94 144 164
94 144 164
94 144 164
94 144 164
94 144 164
94 144 164
94 144 164
94 144 164
94 144 164
94 144 164
94 144 164
94 144 164
94 144 164
94 144 164
94 144 164
94 144 164
94 144 164
94 144 164
94 144 164
94 144 164
94 144 164
94 144 164
94 144 164
94 144 164
94 144 164
94 144 164
94 144 164
94 144 164
94 144 164
94 144 164
94 144 164
94 144 164
94 144 164
94 144 164
94 144 164
94 144 164
94 144 164
94 144 164
94 144 164
94 144 164
94 144 164
94 144 164
94 144 164
94 144 164
94 144 164
94 144 164
94 144 164
94 144 164
94 144 164
94 144 164
94 144 164
94 144 164
94 144 164
94 144 164
94 144 164
94 144 164
94 144 164
94 144 164
94 144 164
94 144 164
94 144 164
94 144 164
94 144 164
94 144 164
94 144 164
94 144 164
94 144 164
94 144 164
94 144 164
94 144 164
94 144 164
94 144 164
94 144 164
94 144 164
94 144 164
94 144 164
94 144 164
94 144 164
94 144 164
94 144 164
94 144 164
94 144 164
94 144 164
94 144 164
94 144 164
94 144 164
94 144 164
94 144 164
94 144 164
94 144 164
94 144 164
94 144 164
94 144 164
94 144 164
94 144 164
94 144 164
94 144 164
94 144 164
94 144 164
94 144 164
94 144 164
94 144 164
94 144 164
94 144 164
94 144 164
94 144 164
94 144 164
94 144 164
94 144 164
94 144 164
94 144 164
94 144 164
94 144 164
94 144 164
94 144 164
94 144 164
94 144 164
94 144 164
94 144 164
94 144 164
94 144 164
94 144 164
94 144 164
94 144 164
94 144 164
94 144 164
94 144 164
94 144 164
94 144 164
94 144 164
94 144 164
94 144 164
94 144 164
94 144 164
94 144 164
94 144 164
94 144 164
94 144 164
94 144 164
94 144 164
94 144 164
94 144 164
94 144 164
94 144 164
94 144 164
94 144 164
94 144 164
94 144 164
94 144 164
94 144 164
94 144 164
67 84 79
68 88 80
66 83 79
52 34 44
51 34 43
51 34 43
51 34 43
59 34 46
59 34 45
59 33 45
59 33 45
58 33 45
58 33 45
58 33 45
58 33 44
58 33 44
58 32 44
50 32 41
50 32 41
50 32 41
49 31 41
49 31 40
49 31 40
49 31 41
50 31 41
50 32 41
58 32 44
50 32 41
58 32 44
58 32 44
58 33 44
58 33 44
58 33 45
50 33 42
58 33 45
58 33 45
59 33 45
51 33 42
51 33 43
51 33 43
51 34 43
51 34 43
51 34 43
127 196 162
121 180 158
127 196 163
121 180 158
127 196 163
121 180 158
127 196 163
127 196 163
121 180 159
121 180 159
94 144 164
94 144 164
94 144 164
94 144 164
94 144 164
94 144 164
94 144 164
94 144 164
94 144 164
94 144 164
94 144 164
94 144 164
94 144 164
94 144 164
94 144 164
94 144 164
94 144 164
94 144 164
94 144 164
94 144 164
94 144 164
94 144 164
94 144 164
94 144 164
94 144 164
94 144 164
94 144 164
94 144 164
94 144 164
94 144 164
94 144 164
94 144 164
94 144 164
94 144 164
94 144 164
94 144 164
94 144 164
94 144 164
94 144 164
94 144 164
94 144 164
94 144 164
94 144 164
94 144 164
94 144 164
94 144 164
94 144 164
94 144 164
94 144 164
94 144 164
94 144 164
94 144 164
94 144 164
94 144 164
94 144 164
94 144 164
94 144 164
94 144 164
94 144 164
94 144 164
94 144 164
94 144 164
94 144 164
94 144 164
94 144 164
94 144 164
94 144 164
94 144 164
94 144 164
94 144 164
94 144 164
94 144 164
94 144 164
94 144 164
94 144 164
94 144 164
94 144 164
94 144 164
94 144 164
94 144 164
94 144 164
94 144 164
94 144 164
94 144 164
94 144 164
94 144 164
94 144 164
94 144 164
94 144 164
94 144 164
94 144 164
94 144 164
94 144 164
94 144 164
94 144 164
94 144 164
94 144 164
94 144 164
94 144 164
94 144 164
94 144 164
94 144 164
94 144 164
94 144 164
94 144 164
94 144 164
94 144 164
94 144 164
94 144 164
94 144 164
94 144 164
94 144 164
94 144 164
94 144 164
94 144 164
94 144 164
94 144 164
94 144 164
94 144 164
94 144 164
94 144 164
94 144 164
94 144 164
94 144 164
94 144 164
94 144 164
94 144 164
94 144 164
94 144 164
94 144 164
94 144 164
94 144 164
94 144 164
94 144 164
94 144 164
94 144 164
94 144 164
94 144 164
94 144 164
94 144 164
94 144 164
94 144 164
94 144 164
94 144 164
94 144 164
94 144 164
94 144 164
94 144 164
94 144 164
94 144 164
94 144 164
94 144 164
94 144 164
94 144 164
94 144 164
94 144 164
94 144 164
94 144 164
94 144 164
94 144 164
94 144 164
94 144 164
94 144 164
94 144 164
94 144 164
94 144 164
94 144 164
94 144 164
94 144 164
94 144 164
94 144 164
94 144 164
94 144 164
94 144 164
94 144 164
94 144 164
94 144 164
94 144 164
94 144 164
94 144 164
94 144 164
94 144 164
94 144 164
94 144 164
94 144 164
94 144 164
94 144 164
94 144 164
94 144 164
94 144 164
94 144 164
94 144 164
94 144 164
94 144 164
94 144 164
94 144 164
94 144 164
94 144 164
94 144 164
94 144 164
94 144 164
94 144 164
94 144 164
94 144 164
94 144 164
94 144 164
94 144 164
94 144 164
94 144 164
94 144 164
94 144 164
94 144 164
94 144 164
94 144 164
94 144 164
94 144 164
94 144 164
94 144 164
94 144 164
94 144 164
94 144 164
94 144 164
94 144 164
94 144 164
94 144 164
94 144 164
94 144 164
94 144 164
94 144 164
94 144 164
94 144 164
94 144 164
94 144 164
94 144 164
94 144 164
94 144 164
94 144 164
94 144 164
94 144 164
94 144 164
94 144 164
94 144 164
94 144 164
94 144 164
94 144 164
94 144 164
94 144 164
94 144 164
94 144 164
94 144 164
94 144 164
94 144 164
94 144 164
94 144 164
94 144 164
94 144 164
94 144 164
94 144 164
94 144 164
94 144 164
94 144 164
94 144 164
94 144 164
94 144 164
68 88 80
128 196 164
122 181 160
66 83 79
66 83 79
66 83 78
52 34 44
52 34 43
51 34 43
51 34 43
51 33 43
59 34 45
51 33 42
51 33 42
58 33 45
50 33 42
50 32 42
50 32 42
50 32 41
58 32 44
50 32 41
50 32 41
50 32 41
49 31 41
49 31 40
49 31 40
57 32 43
50 32 41
50 32 41
50 32 41
50 32 41
58 32 44
50 32 41
50 32 42
50 32 42
50 33 42
50 33 42
58 33 45
58 33 45
59 33 45
59 34 45
51 33 43
51 33 43
51 34 43
51 34 43
51 34 43
126 196 162
120 180 158
120 180 158
126 196 162
120 180 158
126 196 162
120 180 158
120 180 158
120 180 158
120 180 158
128 196 164
128 196 164
123 181 160
123 181 160
123 181 160
68 88 80
94 144 164
94 144 164
94 144 164
94 144 164
94 144 164
94 144 164
94 144 164
94 144 164
94 144 164
94 144 164
94 144 164
94 144 164
94 144 164
94 144 164
94 144 164
94 144 164
94 144 164
94 144 164
94 144 164
94 144 164
94 144 164
94 144 164
94 144 164
94 144 164
94 144 164
94 144 164
94 144 164
94 144 164
94 144 164
94 144 164
94 144 164
94 144 164
94 144 164
94 144 164
94 144 164
94 144 164
94 144 164
94 144 164
94 144 164
94 144 164
94 144 164
94 144 164
94 144 164
94 144 164
94 144 164
94 144 164
94 144 164
94 144 164
94 144 164
94 144 164
94 144 164
94 144 164
94 144 164
94 144 164
94 144 164
94 144 164
94 144 164
94 144 164
94 144 164
94 144 164
94 144 164
94 144 164
94 144 164
94 144 164
94 144 164
94 144 164
94 144 164
94 144 164
94 144 164
94 144 164
94 144 164
94 144 164
94 144 164
94 144 164
94 144 164
94 144 164
94 144 164
94 144 164
94 144 164
94 144 164
94 144 164
94 144 164
94 144 164
94 144 164
94 144 164
94 144 164
94 144 164
94 144 164
94 144 164
94 144 164
94 144 164
94 144 164
94 144 164
94 144 164
94 144 164
94 144 164
94 144 164
94 144 164
94 144 164
94 144 164
94 144 164
94 144 164
94 144 164
94 144 164
94 144 164
94 144 164
94 144 164
94 144 164
94 144 164
94 144 164
94 144 164
94 144 164
94 144 164
94 144 164
94 144 164
94 144 164
94 144 164
94 144 164
94 144 164
94 144 164
94 144 164
94 144 164
94 144 164
94 144 164
94 144 164
94 144 164
94 144 164
94 144 164
94 144 164
94 144 164
94 144 164
94 144 164
94 144 164
94 144 164
94 144 164
94 144 164
94 144 164
94 144 164
94 144 164
94 144 164
94 144 164
94 144 164
94 144 164
94 144 164
94 144 164
94 144 164
94 144 164
94 144 164
94 144 164
94 144 164
94 144 164
94 144 164
94 144 164
94 144 164
94 144 164
94 144 164
94 144 164
94 144 164
94 144 164
94 144 164
94 144 164
94 144 164
94 144 164
94 144 164
94 144 164
94 144 164
94 144 164
94 144 164
94 144 164
94 144 164
94 144 164
94 144 164
94 144 164
94 144 164
94 144 164
94 144 164
94 144 164
94 144 164
94 144 164
94 144 164
94 144 164
94 144 164
94 144 164
94 144 164
94 144 164
94 144 164
94 144 164
94 144 164
94 144 164
94 144 164
94 144 164
94 144 164
94 144 164
94 144 164
94 144 164
94 144 164
94 144 164
94 144 164
94 144 164
94 144 164
94 144 164
94 144 164
94 144 164
94 144 164
94 144 164
94 144 164
94 144 164
94 144 164
94 144 164
94 144 164
94 144 164
94 144 164
94 144 164
94 144 164
94 144 164
94 144 164
94 144 164
94 144 164
94 144 164
94 144 164
94 144 164
94 144 164
94 144 164
94 144 164
94 144 164
94 144 164
94 144 164
94 144 164
94 144 164
94 144 164
94 144 164
94 144 164
94 144 164
94 144 164
94 144 164
94 144 164
94 144 164
94 144 164
94 144 164
94 144 164
94 144 164
94 144 164
94 144 164
94 144 164
94 144 164
94 144 164
94 144 164
94 144 164
94 144 164
94 144 164
94 144 164
94 144 164
94 144 164
94 144 164
94 144 164
94 144 164
94 144 164
94 144 164
67 84 79
68 88 80
66 83 78
66 83 79
66 83 79
68 88 80
52 34 44
52 34 43
51 34 43
51 34 43
51 34 43
59 34 45
59 34 45
59 33 45
58 33 45
50 33 42
50 33 42
50 32 42
50 32 41
50 32 41
58 32 44
58 32 44
58 32 44
49 31 41
49 31 40
49 31 41
49 31 41
57 32 44
58 32 44
58 32 44
58 32 44
50 32 41
58 33 44
50 32 42
50 32 42
50 33 42
58 33 45
58 33 45
59 33 45
59 33 45
59 34 45
51 33 43
51 34 43
51 34 43
51 34 43
51 34 43
126 196 161
126 196 161
120 180 157
120 180 157
126 196 161
126 196 161
120 180 157
120 180 157
120 180 157
126 196 162
122 180 160
122 180 160
67 87 79
66 83 78
68 88 80
68 88 80
94 144 164
94 144 164
94 144 164
94 144 164
94 144 164
94 144 164
94 144 164
94 144 164
94 144 164
94 144 164
94 144 164
94 144 164
94 144 164
94 144 164
94 144 164
94 144 164
94 144 164
94 144 164
94 144 164
94 144 164
94 144 164
94 144 164
94 144 164
94 144 164
94 144 164
94 144 164
94 144 164
94 144 164
94 144 164
94 144 164
94 144 164
94 144 164
94 144 164
94 144 164
94 144 164
94 144 164
94 144 164
94 144 164
94 144 164
94 144 164
94 144 164
94 144 164
94 144 164
94 144 164
94 144 164
94 144 164
94 144 164
94 144 164
94 144 164
94 144 164
94 144 164
94 144 164
94 144 164
94 144 164
94 144 164
94 144 164
94 144 164
94 144 164
94 144 164
94 144 164
94 144 164
94 144 164
94 144 164
94 144 164
94 144 164
94 144 164
94 144 164
94 144 164
94 144 164
94 144 164
94 144 164
94 144 164
94 144 164
94 144 164
94 144 164
94 144 164
94 144 164
94 144 164
94 144 164
94 144 164
94 144 164
94 144 164
94 144 164
94 144 164
94 144 164
94 144 164
94 144 164
94 144 164
94 144 164
94 144 164
94 144 164
94 144 164
94 144 164
94 144 164
94 144 164
94 144 164
94 144 164
94 144 164
94 144 164
94 144 164
94 144 164
94 144 164
94 144 164
94 144 164
94 144 164
94 144 164
94 144 164
94 144 164
94 144 164
94 144 164
94 144 164
94 144 164
94 144 164
94 144 164
94 144 164
94 144 164
94 144 164
94 144 164
94 144 164
94 144 164
94 144 164
94 144 164
94 144 164
94 144 164
94 144 164
94 144 164
94 144 164
94 144 164
94 144 164
94 144 164
94 144 164
94 144 164
94 144 164
94 144 164
94 144 164
94 144 164
94 144 164
94 144 164
94 144 164
94 144 164
94 144 164
94 144 164
94 144 164
94 144 164
94 144 164
94 144 164
94 144 164
94 144 164
94 144 164
94 144 164
94 144 164
94 144 164
94 144 164
94 144 164
94 144 164
94 144 164
94 144 164
94 144 164
94 144 164
94 144 164
94 144 164
94 144 164
94 144 164
94 144 164
94 144 164
94 144 164
94 144 164
94 144 164
94 144 164
94 144 164
94 144 164
94 144 164
94 144 164
94 144 164
94 144 164
94 144 164
94 144 164
94 144 164
94 144 164
94 144 164
94 144 164
94 144 164
94 144 164
94 144 164
94 144 164
94 144 164
94 144 164
94 144 164
94 144 164
94 144 164
94 144 164
94 144 164
94 144 164
94 144 164
94 144 164
94 144 164
94 144 164
94 144 164
94 144 164
94 144 164
94 144 164
94 144 164
94 144 164
94 144 164
94 144 164
94 144 164
94 144 164
94 144 164
94 144 164
94 144 164
94 144 164
94 144 164
94 144 164
94 144 164
94 144 164
94 144 164
94 144 164
94 144 164
94 144 164
94 144 164
94 144 164
94 144 164
94 144 164
94 144 164
120 180 158
120 180 158
126 196 162
126 196 162
120 180 157
99 144 113
61 78 73
94 144 164
94 144 164
94 144 164
94 144 164
94 144 164
94 144 164
94 144 164
94 144 164
94 144 164
94 144 164
94 144 164
94 144 164
94 144 164
94 144 164
94 144 164
94 144 164
94 144 164
94 144 164
94 144 164
94 144 164
94 144 164
94 144 164
94 144 164
94 144 164
94 144 164
94 144 164
94 144 164
67 84 79
66 83 79
68 88 80
66 83 79
66 83 79
66 83 79
52 34 44
52 34 44
51 34 43
51 34 43
51 34 43
59 34 46
59 34 45
59 33 45
58 33 45
58 33 45
50 33 42
50 32 42
50 32 41
50 32 41
58 32 44
50 32 41
58 32 44
57 32 43
57 32 43
57 32 43
57 32 43
58 32 44
58 32 44
58 32 44
50 32 41
50 32 41
50 32 41
50 32 42
50 32 42
50 33 42
58 33 45
58 33 45
59 33 45
59 33 45
59 34 45
51 33 43
51 34 43
51 34 43
51 34 43
51 34 43
125 196 161
125 196 161
119 180 157
125 196 161
119 180 157
126 196 161
126 196 161
119 180 157
119 180 157
119 180 157
63 83 73
127 196 163
127 196 163
65 82 77
66 83 79
69 88 81
94 144 164
94 144 164
94 144 164
94 144 164
94 144 164
94 144 164
94 144 164
94 144 164
94 144 164
94 144 164
94 144 164
94 144 164
94 144 164
94 144 164
94 144 164
94 144 164
94 144 164
94 144 164
94 144 164
94 144 164
94 144 164
94 144 164
94 144 164
94 144 164
94 144 164
94 144 164
94 144 164
94 144 164
94 144 164
94 144 164
94 144 164
94 144 164
94 144 164
94 144 164
94 144 164
94 144 164
94 144 164
94 144 164
94 144 164
94 144 164
94 144 164
94 144 164
94 144 164
94 144 164
94 144 164
94 144 164
94 144 164
94 144 164
94 144 164
94 144 164
94 144 164
94 144 164
94 144 164
94 144 164
94 144 164
94 144 164
94 144 164
94 144 164
94 144 164
94 144 164
94 144 164
94 144 164
94 144 164
94 144 164
94 144 164
94 144 164
94 144 164
94 144 164
94 144 164
94 144 164
94 144 164
94 144 164
94 144 164
94 144 164
94 144 164
94 144 164
94 144 164
94 144 164
94 144 164
94 144 164
94 144 164
94 144 164
94 144 164
94 144 164
94 144 164
94 144 164
94 144 164
94 144 164
94 144 164
94 144 164
94 144 164
94 144 164
94 144 164
94 144 164
94 144 164
94 144 164
94 144 164
94 144 164
94 144 164
94 144 164
94 144 164
94 144 164
94 144 164
94 144 164
94 144 164
94 144 164
94 144 164
94 144 164
94 144 164
94 144 164
94 144 164
94 144 164
94 144 164
94 144 164
94 144 164
94 144 164
94 144 164
94 144 164
94 144 164
94 144 164
94 144 164
94 144 164
94 144 164
94 144 164
94 144 164
94 144 164
94 144 164
94 144 164
94 144 164
94 144 164
94 144 164
94 144 164
94 144 164
94 144 164
94 144 164
94 144 164
94 144 164
94 144 164
94 144 164
94 144 164
94 144 164
94 144 164
94 144 164
94 144 164
94 144 164
94 144 164
94 144 164
94 144 164
94 144 164
94 144 164
94 144 164
94 144 164
94 144 164
94 144 164
94 144 164
94 144 164
94 144 164
94 144 164
94 144 164
94 144 164
94 144 164
94 144 164
94 144 164
94 144 164
94 144 164
94 144 164
94 144 164
94 144 164
94 144 164
94 144 164
94 144 164
94 144 164
94 144 164
94 144 164
94 144 164
94 144 164
94 144 164
94 144 164
94 144 164
94 144 164
94 144 164
94 144 164
94 144 164
94 144 164
94 144 164
94 144 164
94 144 164
94 144 164
94 144 164
94 144 164
94 144 164
94 144 164
94 144 164
94 144 164
94 144 164
94 144 164
94 144 164
94 144 164
94 144 164
94 144 164
94 144 164
94 144 164
94 144 164
94 144 164
94 144 164
94 144 164
94 144 164
94 144 164
94 144 164
94 144 164
94 144 164
94 144 164
94 144 164
94 144 164
94 144 164
94 144 164
94 144 164
94 144 164
120 180 157
126 196 161
126 196 161
126 196 161
126 196 161
120 180 157
62 82 73
63 83 73
63 83 73
61 78 72
61 78 72
61 78 72
61 78 73
94 144 164
94 144 164
94 144 164
94 144 164
94 144 164
94 144 164
94 144 164
94 144 164
94 144 164
94 144 164
94 144 164
94 144 164
94 144 164
94 144 164
94 144 164
94 144 164
94 144 164
94 144 164
94 144 164
94 144 164
94 144 164
94 144 164
94 144 164
94 144 164
94 144 164
94 144 164
94 144 164
74 99 93
66 83 79
66 83 78
66 83 79
66 83 79
68 88 80
52 34 44
52 34 44
51 34 43
51 34 43
51 34 43
59 34 46
59 34 45
59 33 45
58 33 45
50 33 42
50 33 42
50 32 42
50 32 42
50 32 41
58 32 44
58 32 44
58 32 44
57 32 43
57 32 43
57 32 43
57 32 43
58 32 44
58 32 44
58 32 44
58 32 44
50 32 41
50 32 41
50 32 42
50 32 42
50 33 42
50 33 42
58 33 45
59 33 45
59 34 45
59 34 45
51 33 43
51 34 43
51 34 43
51 34 43
51 34 43
125 196 160
125 196 160
119 179 156
125 196 160
119 179 156
125 196 160
125 196 160
125 196 161
59 76 70
61 81 72
62 82 72
121 180 158
121 180 158
63 80 75
68 88 80
94 144 164
94 144 164
94 144 164
94 144 164
94 144 164
94 144 164
94 144 164
94 144 164
94 144 164
94 144 164
94 144 164
94 144 164
94 144 164
94 144 164
94 144 164
94 144 164
94 144 164
94 144 164
94 144 164
94 144 164
94 144 164
94 144 164
94 144 164
94 144 164
94 144 164
94 144 164
94 144 164
94 144 164
94 144 164
94 144 164
94 144 164
94 144 164
94 144 164
94 144 164
94 144 164
94 144 164
94 144 164
94 144 164
94 144 164
94 144 164
94 144 164
94 144 164
94 144 164
94 144 164
94 144 164
94 144 164
94 144 164
94 144 164
94 144 164
94 144 164
94 144 164
94 144 164
94 144 164
94 144 164
94 144 164
94 144 164
94 144 164
94 144 164
94 144 164
94 144 164
94 144 164
94 144 164
94 144 164
94 144 164
94 144 164
94 144 164
94 144 164
94 144 164
94 144 164
94 144 164
94 144 164
94 144 164
94 144 164
94 144 164
94 144 164
94 144 164
94 144 164
94 144 164
94 144 164
94 144 164
94 144 164
94 144 164
94 144 164
94 144 164
94 144 164
94 144 164
94 144 164
94 144 164
94 144 164
94 144 164
94 144 164
94 144 164
94 144 164
94 144 164
94 144 164
94 144 164
94 144 164
94 144 164
94 144 164
94 144 164
94 144 164
94 144 164
94 144 164
94 144 164
94 144 164
94 144 164
94 144 164
94 144 164
94 144 164
94 144 164
94 144 164
94 144 164
94 144 164
94 144 164
94 144 164
94 144 164
94 144 164
94 144 164
94 144 164
94 144 164
94 144 164
94 144 164
94 144 164
94 144 164
94 144 164
94 144 164
94 144 164
94 144 164
94 144 164
94 144 164
94 144 164
94 144 164
94 144 164
94 144 164
94 144 164
94 144 164
94 144 164
94 144 164
94 144 164
94 144 164
94 144 164
94 144 164
94 144 164
94 144 164
94 144 164
94 144 164
94 144 164
94 144 164
94 144 164
94 144 164
94 144 164
94 144 164
94 144 164
94 144 164
94 144 164
94 144 164
94 144 164
94 144 164
94 144 164
94 144 164
94 144 164
94 144 164
94 144 164
94 144 164
94 144 164
94 144 164
94 144 164
94 144 164
94 144 164
94 144 164
94 144 164
94 144 164
94 144 164
94 144 164
94 144 164
94 144 164
94 144 164
94 144 164
94 144 164
94 144 164
94 144 164
94 144 164
94 144 164
94 144 164
94 144 164
94 144 164
94 144 164
94 144 164
94 144 164
94 144 164
94 144 164
94 144 164
94 144 164
94 144 164
94 144 164
94 144 164
94 144 164
94 144 164
94 144 164
94 144 164
94 144 164
94 144 164
94 144 164
94 144 164
94 144 164
94 144 164
94 144 164
94 144 164
94 144 164
94 144 164
94 144 164
94 144 164
94 144 164
126 196 161
126 196 161
126 196 161
126 196 161
125 196 161
119 179 157
125 196 161
125 196 161
125 196 161
125 196 161
119 179 157
105 160 116
62 81 72
62 82 72
63 83 73
63 83 73
63 83 74
61 78 72
61 78 73
94 144 164
94 144 164
94 144 164
94 144 164
94 144 164
94 144 164
94 144 164
94 144 164
94 144 164
94 144 164
94 144 164
94 144 164
94 144 164
94 144 164
94 144 164
94 144 164
94 144 164
94 144 164
94 144 164
94 144 164
94 144 164
94 144 164
122 180 160
122 180 160
128 196 164
128 196 164
108 162 121
128 196 164
71 93 90
71 93 90
71 93 90
122 180 160
71 93 90
60 35 47
52 34 44
51 34 43
51 34 43
51 34 43
59 34 46
59 34 45
59 33 45
59 33 45
51 33 42
50 33 42
50 32 42
50 32 42
50 32 41
58 32 44
58 32 44
58 32 44
57 32 44
57 32 43
57 32 43
50 31 41
58 32 44
58 32 44
58 32 44
50 32 41
50 32 41
50 32 42
50 32 42
50 32 42
58 33 45
58 33 45
58 33 45
59 33 45
59 34 45
59 34 45
51 33 43
51 34 43
51 34 43
51 34 43
52 34 43
125 196 160
125 196 160
125 196 160
118 179 156
125 196 160
125 196 160
125 196 160
125 196 160
118 179 156
61 81 72
62 82 72
120 180 158
126 196 162
62 79 74
62 79 74
122 181 160
122 181 160
128 196 164
128 196 164
122 181 160
94 144 164
94 144 164
94 144 164
94 144 164
94 144 164
94 144 164
94 144 164
94 144 164
94 144 164
94 144 164
94 144 164
94 144 164
94 144 164
94 144 164
94 144 164
94 144 164
94 144 164
94 144 164
94 144 164
94 144 164
94 144 164
94 144 164
94 144 164
94 144 164
94 144 164
94 144 164
94 144 164
94 144 164
94 144 164
94 144 164
94 144 164
94 144 164
94 144 164
94 144 164
94 144 164
94 144 164
94 144 164
94 144 164
94 144 164
94 144 164
94 144 164
94 144 164
94 144 164
94 144 164
94 144 164
94 144 164
94 144 164
94 144 164
94 144 164
94 144 164
94 144 164
94 144 164
94 144 164
94 144 164
94 144 164
94 144 164
94 144 164
94 144 164
94 144 164
94 144 164
94 144 164
94 144 164
94 144 164
94 144 164
94 144 164
94 144 164
94 144 164
94 144 164
94 144 164
94 144 164
94 144 164
94 144 164
94 144 164
94 144 164
94 144 164
94 144 164
94 144 164
94 144 164
94 144 164
94 144 164
94 144 164
94 144 164
94 144 164
94 144 164
94 144 164
94 144 164
94 144 164
94 144 164
94 144 164
94 144 164
94 144 164
94 144 164
94 144 164
94 144 164
94 144 164
94 144 164
94 144 164
94 144 164
94 144 164
94 144 164
94 144 164
94 144 164
94 144 164
94 144 164
94 144 164
94 144 164
94 144 164
94 144 164
94 144 164
94 144 164
94 144 164
94 144 164
94 144 164
94 144 164
94 144 164
94 144 164
94 144 164
94 144 164
94 144 164
94 144 164
94 144 164
94 144 164
94 144 164
94 144 164
94 144 164
94 144 164
94 144 164
94 144 164
94 144 164
94 144 164
94 144 164
94 144 164
94 144 164
94 144 164
94 144 164
94 144 164
94 144 164
94 144 164
94 144 164
94 144 164
94 144 164
94 144 164
94 144 164
94 144 164
94 144 164
94 144 164
94 144 164
94 144 164
94 144 164
94 144 164
94 144 164
94 144 164
94 144 164
94 144 164
94 144 164
94 144 164
94 144 164
94 144 164
94 144 164
94 144 164
94 144 164
94 144 164
94 144 164
94 144 164
94 144 164
94 144 164
94 144 164
94 144 164
94 144 164
94 144 164
94 144 164
94 144 164
94 144 164
94 144 164
94 144 164
94 144 164
94 144 164
94 144 164
94 144 164
94 144 164
94 144 164
94 144 164
94 144 164
94 144 164
94 144 164
94 144 164
94 144 164
94 144 164
94 144 164
94 144 164
94 144 164
94 144 164
94 144 164
94 144 164
94 144 164
94 144 164
94 144 164
94 144 164
94 144 164
94 144 164
94 144 164
94 144 164
125 196 161
125 196 161
125 196 161
125 196 161
119 179 156
119 179 156
59 76 70
61 81 72
104 160 116
119 179 156
119 179 156
104 160 116
61 81 71
59 76 70
59 76 70
59 76 70
59 76 70
61 81 72
60 76 71
62 82 72
63 83 73
63 83 73
61 78 72
61 78 72
61 78 73
126 196 162
126 196 162
100 144 114
94 144 164
94 144 164
94 144 164
94 144 164
94 144 164
94 144 164
94 144 164
94 144 164
94 144 164
94 144 164
94 144 164
94 144 164
94 144 164
94 144 164
94 144 164
94 144 164
94 144 164
94 144 164
94 144 164
67 87 79
67 87 79
67 87 79
67 87 79
67 87 79
67 87 79
67 87 78
65 82 77
67 87 79
67 87 79
67 87 78
60 35 47
59 35 46
59 34 46
59 34 46
59 34 46
59 34 46
59 34 45
59 34 45
59 33 45
51 33 42
58 33 45
50 32 42
58 33 44
58 33 44
58 32 44
58 32 44
58 32 44
57 32 44
57 32 43
57 32 43
57 32 44
50 32 41
58 32 44
58 32 44
50 32 41
50 32 41
50 32 42
50 32 42
50 33 42
50 33 42
58 33 45
59 33 45
59 33 45
59 34 45
59 34 45
51 34 43
51 34 43
59 34 46
59 34 46
59 34 46
59 79 69
59 79 69
59 79 69
118 179 155
118 179 155
59 79 69
57 74 68
58 74 68
58 75 68
61 81 72
62 82 72
120 180 157
126 196 162
126 196 162
61 78 72
128 196 163
122 180 159
128 196 163
65 82 77
66 83 78
94 144 164
94 144 164
94 144 164
94 144 164
94 144 164
94 144 164
94 144 164
94 144 164
94 144 164
94 144 164
94 144 164
94 144 164
94 144 164
94 144 164
94 144 164
94 144 164
94 144 164
94 144 164
94 144 164
94 144 164
94 144 164
94 144 164
94 144 164
94 144 164
94 144 164
94 144 164
94 144 164
94 144 164
94 144 164
94 144 164
94 144 164
94 144 164
94 144 164
94 144 164
94 144 164
94 144 164
94 144 164
94 144 164
94 144 164
94 144 164
94 144 164
94 144 164
94 144 164
94 144 164
94 144 164
94 144 164
94 144 164
94 144 164
94 144 164
94 144 164
94 144 164
94 144 164
94 144 164
94 144 164
94 144 164
94 144 164
94 144 164
94 144 164
94 144 164
94 144 164
94 144 164
94 144 164
94 144 164
94 144 164
94 144 164
94 144 164
94 144 164
94 144 164
94 144 164
94 144 164
94 144 164
94 144 164
94 144 164
94 144 164
94 144 164
94 144 164
94 144 164
94 144 164
94 144 164
94 144 164
94 144 164
94 144 164
94 144 164
94 144 164
94 144 164
94 144 164
94 144 164
94 144 164
94 144 164
94 144 164
94 144 164
94 144 164
94 144 164
94 144 164
94 144 164
94 144 164
94 144 164
94 144 164
94 144 164
94 144 164
94 144 164
94 144 164
94 144 164
94 144 164
94 144 164
94 144 164
94 144 164
94 144 164
94 144 164
94 144 164
94 144 164
94 144 164
94 144 164
94 144 164
94 144 164
94 144 164
94 144 164
94 144 164
94 144 164
94 144 164
94 144 164
94 144 164
94 144 164
94 144 164
94 144 164
94 144 164
94 144 164
94 144 164
94 144 164
94 144 164
94 144 164
94 144 164
94 144 164
94 144 164
94 144 164
94 144 164
94 144 164
94 144 164
94 144 164
94 144 164
94 144 164
94 144 164
94 144 164
94 144 164
94 144 164
94 144 164
94 144 164
94 144 164
94 144 164
94 144 164
94 144 164
94 144 164
94 144 164
94 144 164
94 144 164
94 144 164
94 144 164
94 144 164
94 144 164
94 144 164
94 144 164
94 144 164
94 144 164
94 144 164
94 144 164
94 144 164
94 144 164
94 144 164
94 144 164
94 144 164
94 144 164
94 144 164
94 144 164
94 144 164
94 144 164
94 144 164
94 144 164
94 144 164
94 144 164
94 144 164
94 144 164
94 144 164
94 144 164
94 144 164
94 144 164
94 144 164
94 144 164
94 144 164
94 144 164
94 144 164
94 144 164
94 144 164
94 144 164
94 144 164
94 144 164
94 144 164
94 144 164
94 144 164
94 144 164
94 144 164
94 144 164
59 76 70
59 76 70
59 76 70
59 76 70
59 76 70
61 81 71
61 81 71
59 76 70
61 81 72
61 81 71
61 81 71
61 81 71
59 76 70
61 81 71
59 76 70
59 76 70
61 81 71
59 76 70
61 81 72
60 77 71
62 82 72
61 78 72
63 83 73
69 94 87
69 94 87
120 180 157
126 196 161
126 196 161
62 79 73
94 144 164
94 144 164
94 144 164
94 144 164
94 144 164
94 144 164
94 144 164
94 144 164
94 144 164
94 144 164
94 144 164
94 144 164
94 144 164
94 144 164
94 144 164
94 144 164
94 144 164
94 144 164
94 144 164
68 88 79
67 87 79
67 87 79
65 82 78
67 87 79
67 87 79
67 87 78
65 82 77
67 87 79
67 87 79
67 87 78
60 35 47
59 35 46
59 34 46
59 34 46
59 34 46
51 34 43
51 33 43
51 33 43
59 33 45
51 33 42
50 33 42
50 33 42
50 32 42
50 32 41
58 32 44
58 32 44
58 32 44
58 32 44
57 32 43
57 32 43
50 32 41
58 32 44
58 32 44
58 32 44
50 32 41
50 32 41
50 32 42
50 32 42
50 33 42
50 33 42
58 33 45
59 33 45
51 33 42
51 33 43
51 33 43
59 34 46
59 34 46
51 34 43
59 34 46
59 35 46
59 79 69
59 79 69
59 79 69
59 79 68
59 79 68
59 79 69
57 74 68
58 75 68
58 75 68
62 81 72
68 93 85
126 196 161
126 196 161
126 196 161
119 180 157
119 180 157
121 180 159
121 180 159
121 180 159
66 83 78
94 144 164
94 144 164
94 144 164
94 144 164
94 144 164
94 144 164
94 144 164
94 144 164
94 144 164
94 144 164
94 144 164
94 144 164
94 144 164
94 144 164
94 144 164
94 144 164
94 144 164
94 144 164
94 144 164
94 144 164
94 144 164
94 144 164
94 144 164
94 144 164
94 144 164
94 144 164
94 144 164
94 144 164
94 144 164
94 144 164
94 144 164
94 144 164
94 144 164
94 144 164
94 144 164
94 144 164
94 144 164
94 144 164
94 144 164
94 144 164
94 144 164
94 144 164
94 144 164
94 144 164
94 144 164
94 144 164
94 144 164
94 144 164
94 144 164
94 144 164
94 144 164
94 144 164
94 144 164
94 144 164
94 144 164
94 144 164
94 144 164
94 144 164
94 144 164
94 144 164
94 144 164
94 144 164
94 144 164
94 144 164
94 144 164
94 144 164
94 144 164
94 144 164
94 144 164
94 144 164
94 144 164
94 144 164
94 144 164
94 144 164
94 144 164
94 144 164
94 144 164
94 144 164
94 144 164
94 144 164
94 144 164
94 144 164
94 144 164
94 144 164
94 144 164
94 144 164
94 144 164
94 144 164
94 144 164
94 144 164
94 144 164
94 144 164
94 144 164
94 144 164
94 144 164
94 144 164
94 144 164
94 144 164
94 144 164
94 144 164
94 144 164
94 144 164
94 144 164
94 144 164
94 144 164
94 144 164
94 144 164
94 144 164
94 144 164
94 144 164
94 144 164
94 144 164
94 144 164
94 144 164
94 144 164
94 144 164
94 144 164
94 144 164
94 144 164
94 144 164
94 144 164
94 144 164
94 144 164
94 144 164
94 144 164
94 144 164
94 144 164
94 144 164
94 144 164
94 144 164
94 144 164
94 144 164
94 144 164
94 144 164
94 144 164
94 144 164
94 144 164
94 144 164
94 144 164
94 144 164
94 144 164
94 144 164
94 144 164
94 144 164
94 144 164
94 144 164
94 144 164
94 144 164
94 144 164
94 144 164
94 144 164
94 144 164
94 144 164
94 144 164
94 144 164
94 144 164
94 144 164
94 144 164
94 144 164
94 144 164
94 144 164
94 144 164
94 144 164
94 144 164
94 144 164
94 144 164
94 144 164
94 144 164
94 144 164
94 144 164
94 144 164
94 144 164
94 144 164
94 144 164
94 144 164
94 144 164
94 144 164
94 144 164
94 144 164
94 144 164
94 144 164
94 144 164
94 144 164
94 144 164
94 144 164
94 144 164
94 144 164
94 144 164
94 144 164
94 144 164
94 144 164
94 144 164
94 144 164
94 144 164
94 144 164
94 144 164
94 144 164
94 144 164
94 144 164
94 144 164
94 144 164
59 76 70
59 76 70
59 76 70
59 76 70
61 81 71
59 76 70
61 81 71
59 76 70
61 81 72
61 81 71
61 81 71
61 81 71
61 81 71
59 76 70
59 76 70
59 76 70
59 76 70
60 76 70
62 81 72
62 82 72
60 77 71
119 180 157
126 196 161
119 180 157
126 196 161
126 196 161
61 77 72
61 78 72
62 79 73
94 144 164
117 179 155
94 144 164
121 180 159
121 180 158
121 180 158
94 144 164
94 144 164
94 144 164
94 144 164
94 144 164
94 144 164
94 144 164
124 196 159
124 196 159
123 196 159
123 196 159
117 179 154
94 144 164
66 83 78
67 87 79
65 82 78
67 87 79
67 87 79
67 87 79
67 87 78
67 87 79
65 82 78
67 87 79
67 87 78
67 87 78
60 35 46
59 35 46
59 34 46
59 34 46
51 34 43
51 33 43
51 33 43
51 33 42
58 33 45
58 33 45
58 33 45
50 32 42
50 32 41
58 32 44
58 32 44
58 32 44
58 32 44
57 32 43
57 32 43
58 32 44
50 32 41
58 32 44
58 32 44
50 32 41
50 32 41
50 32 42
50 32 42
58 33 45
58 33 45
58 33 45
51 33 42
51 33 42
51 33 43
51 33 43
59 34 46
59 34 46
59 34 46
59 34 46
59 35 46
59 79 69
59 79 69
59 79 69
57 74 67
59 79 69
59 79 69
58 74 68
58 75 68
58 75 69
125 196 161
125 196 161
119 179 156
61 81 71
60 76 70
60 77 71
60 77 71
63 80 75
65 85 77
64 81 76
66 83 78
94 144 164
94 144 164
94 144 164
94 144 164
94 144 164
94 144 164
124 196 159
117 179 155
94 144 164
94 144 164
94 144 164
94 144 164
117 179 155
124 196 159
124 196 159
124 196 159
118 179 155
124 196 159
124 196 159
124 196 159
124 196 159
124 196 159
124 196 160
124 196 160
124 196 160
124 196 160
124 196 160
124 196 160
124 196 160
94 144 164
94 144 164
94 144 164
94 144 164
94 144 164
94 144 164
94 144 164
94 144 164
94 144 164
94 144 164
94 144 164
94 144 164
94 144 164
94 144 164
94 144 164
94 144 164
94 144 164
94 144 164
94 144 164
94 144 164
94 144 164
94 144 164
94 144 164
94 144 164
94 144 164
94 144 164
94 144 164
94 144 164
94 144 164
94 144 164
94 144 164
94 144 164
94 144 164
94 144 164
94 144 164
94 144 164
94 144 164
94 144 164
94 144 164
94 144 164
94 144 164
94 144 164
94 144 164
94 144 164
94 144 164
94 144 164
94 144 164
94 144 164
94 144 164
94 144 164
94 144 164
94 144 164
94 144 164
94 144 164
94 144 164
94 144 164
94 144 164
94 144 164
94 144 164
94 144 164
94 144 164
94 144 164
94 144 164
94 144 164
94 144 164
94 144 164
94 144 164
94 144 164
94 144 164
94 144 164
94 144 164
94 144 164
94 144 164
94 144 164
94 144 164
94 144 164
94 144 164
94 144 164
94 144 164
94 144 164
94 144 164
94 144 164
94 144 164
94 144 164
94 144 164
94 144 164
94 144 164
94 144 164
94 144 164
94 144 164
94 144 164
94 144 164
94 144 164
94 144 164
94 144 164
94 144 164
94 144 164
94 144 164
94 144 164
94 144 164
94 144 164
94 144 164
94 144 164
94 144 164
94 144 164
94 144 164
94 144 164
94 144 164
94 144 164
94 144 164
94 144 164
94 144 164
94 144 164
94 144 164
94 144 164
94 144 164
94 144 164
94 144 164
94 144 164
94 144 164
94 144 164
94 144 164
94 144 164
94 144 164
94 144 164
94 144 164
94 144 164
94 144 164
94 144 164
94 144 164
94 144 164
94 144 164
94 144 164
94 144 164
94 144 164
94 144 164
94 144 164
94 144 164
94 144 164
94 144 164
94 144 164
94 144 164
94 144 164
94 144 164
94 144 164
94 144 164
94 144 164
94 144 164
94 144 164
94 144 164
94 144 164
94 144 164
94 144 164
94 144 164
94 144 164
94 144 164
94 144 164
94 144 164
94 144 164
94 144 164
94 144 164
94 144 164
94 144 164
94 144 164
94 144 164
94 144 164
94 144 164
94 144 164
94 144 164
94 144 164
94 144 164
94 144 164
60 76 70
59 76 70
59 76 70
59 76 70
59 76 70
61 81 71
61 81 71
61 81 72
61 81 72
61 81 72
61 81 71
61 81 71
59 76 70
61 81 71
59 76 70
59 76 70
59 76 70
68 92 85
68 92 85
66 87 84
125 196 161
119 179 156
119 179 156
59 76 70
59 76 70
117 179 154
117 179 154
123 196 159
117 179 154
117 179 154
117 179 154
123 196 159
123 196 159
117 179 154
117 179 154
117 179 154
117 179 154
123 196 158
123 196 158
117 179 154
117 179 154
117 179 154
117 179 154
123 196 158
117 179 154
117 179 154
117 179 154
117 179 154
117 179 154
123 196 158
117 179 154
116 179 154
116 179 154
123 196 158
116 179 154
71 92 90
71 92 90
71 92 90
71 92 90
67 87 78
60 35 47
59 35 46
59 34 46
59 34 46
51 34 43
51 33 43
51 33 43
51 33 42
58 33 45
58 33 45
58 33 45
58 33 44
58 33 44
50 32 41
58 32 44
58 32 44
58 32 44
57 32 44
57 32 44
58 32 44
58 32 44
58 32 44
58 32 44
58 32 44
58 33 44
58 33 44
58 33 45
58 33 45
58 33 45
51 33 42
51 33 42
51 33 43
51 33 43
51 33 43
59 34 46
59 34 46
59 34 46
59 34 46
59 35 46
59 79 69
59 79 69
57 74 67
59 79 68
59 79 69
59 79 69
58 74 68
58 75 68
66 91 83
125 196 160
118 179 156
118 179 156
118 179 156
104 159 115
60 77 71
60 77 71
62 79 73
64 81 76
64 81 76
73 98 92
128 196 164
128 196 164
123 196 159
123 196 159
123 196 159
123 196 159
123 196 159
117 179 154
123 196 159
123 196 159
124 196 159
124 196 159
124 196 159
117 179 155
117 179 155
124 196 159
124 196 159
117 179 155
124 196 159
117 179 155
117 179 155
124 196 159
124 196 159
117 179 155
124 196 159
117 179 155
124 196 159
124 196 159
118 179 155
124 196 159
118 179 155
124 196 159
124 196 159
124 196 159
94 144 164
94 144 164
94 144 164
94 144 164
94 144 164
94 144 164
94 144 164
94 144 164
94 144 164
94 144 164
94 144 164
94 144 164
94 144 164
94 144 164
94 144 164
94 144 164
94 144 164
94 144 164
94 144 164
94 144 164
94 144 164
94 144 164
94 144 164
94 144 164
94 144 164
94 144 164
94 144 164
94 144 164
94 144 164
94 144 164
94 144 164
94 144 164
94 144 164
94 144 164
94 144 164
94 144 164
94 144 164
94 144 164
94 144 164
94 144 164
94 144 164
94 144 164
94 144 164
94 144 164
94 144 164
94 144 164
94 144 164
94 144 164
94 144 164
94 144 164
94 144 164
94 144 164
94 144 164
94 144 164
94 144 164
94 144 164
94 144 164
94 144 164
94 144 164
94 144 164
94 144 164
94 144 164
94 144 164
94 144 164
94 144 164
94 144 164
94 144 164
94 144 164
94 144 164
94 144 164
94 144 164
94 144 164
94 144 164
94 144 164
94 144 164
94 144 164
94 144 164
94 144 164
94 144 164
94 144 164
94 144 164
94 144 164
94 144 164
94 144 164
94 144 164
94 144 164
94 144 164
94 144 164
94 144 164
94 144 164
94 144 164
94 144 164
94 144 164
94 144 164
94 144 164
94 144 164
94 144 164
94 144 164
94 144 164
94 144 164
94 144 164
94 144 164
94 144 164
94 144 164
94 144 164
94 144 164
94 144 164
94 144 164
94 144 164
94 144 164
94 144 164
94 144 164
94 144 164
94 144 164
94 144 164
94 144 164
94 144 164
94 144 164
94 144 164
94 144 164
94 144 164
94 144 164
94 144 164
94 144 164
94 144 164
94 144 164
94 144 164
94 144 164
94 144 164
94 144 164
94 144 164
94 144 164
94 144 164
94 144 164
94 144 164
94 144 164
94 144 164
94 144 164
94 144 164
94 144 164
94 144 164
94 144 164
94 144 164
94 144 164
94 144 164
94 144 164
94 144 164
94 144 164
94 144 164
94 144 164
94 144 164
94 144 164
94 144 164
94 144 164
94 144 164
94 144 164
94 144 164
94 144 164
94 144 164
94 144 164
94 144 164
94 144 164
94 144 164
94 144 164
94 144 164
94 144 164
94 144 164
60 77 71
59 76 70
59 76 70
59 76 70
59 76 70
61 81 71
66 87 84
65 87 83
67 92 85
65 87 83
65 87 83
59 76 70
65 87 83
67 92 84
65 87 83
125 196 160
125 196 160
119 179 156
119 179 156
119 179 156
123 196 158
117 179 154
117 179 154
123 196 158
117 179 154
123 196 158
117 179 154
123 196 158
117 179 154
116 179 154
116 179 154
123 196 158
116 179 154
116 179 154
123 196 158
116 179 154
123 196 158
123 196 158
116 179 154
116 179 154
116 179 154
116 179 154
123 196 158
123 196 158
116 178 154
116 178 154
116 178 154
123 196 158
123 196 158
123 196 158
116 178 154
116 178 153
123 196 158
123 196 158
123 196 158
116 178 153
116 178 153
116 178 153
67 87 78
67 87 78
60 35 47
59 35 46
59 34 46
59 34 46
51 34 43
51 33 43
51 33 43
51 33 42
59 33 45
58 33 45
58 33 45
58 33 45
58 33 44
50 32 41
50 32 41
50 32 41
50 32 41
57 32 44
50 32 41
50 32 41
50 32 41
50 32 41
50 32 41
58 33 44
58 33 44
58 33 44
58 33 45
58 33 45
51 33 42
51 33 42
51 33 42
51 33 43
51 33 43
51 34 43
59 34 46
59 34 46
59 34 46
59 34 46
59 35 46
65 90 82
63 85 81
63 85 81
63 85 81
63 85 81
63 85 81
65 90 82
118 179 155
118 179 155
118 179 155
118 179 155
118 179 155
118 179 155
118 179 156
60 77 71
60 77 71
126 196 162
126 196 162
116 179 154
123 196 158
116 179 154
116 179 154
116 179 154
116 179 154
116 179 154
117 179 154
117 179 154
117 179 154
117 179 154
117 179 154
117 179 154
123 196 158
117 179 154
117 179 154
117 179 154
123 196 159
123 196 159
117 179 154
123 196 159
117 179 154
117 179 154
117 179 154
123 196 159
123 196 159
117 179 154
123 196 159
117 179 154
124 196 159
124 196 159
124 196 159
117 179 155
124 196 159
117 179 155
124 196 159
117 179 155
117 179 155
117 179 155
117 179 155
94 144 164
94 144 164
94 144 164
94 144 164
94 144 164
94 144 164
94 144 164
94 144 164
94 144 164
94 144 164
94 144 164
94 144 164
94 144 164
94 144 164
94 144 164
94 144 164
94 144 164
94 144 164
94 144 164
94 144 164
94 144 164
94 144 164
94 144 164
94 144 164
94 144 164
94 144 164
94 144 164
94 144 164
94 144 164
94 144 164
94 144 164
94 144 164
94 144 164
94 144 164
94 144 164
94 144 164
94 144 164
94 144 164
94 144 164
94 144 164
94 144 164
94 144 164
94 144 164
94 144 164
94 144 164
94 144 164
94 144 164
94 144 164
94 144 164
94 144 164
94 144 164
94 144 164
94 144 164
94 144 164
94 144 164
94 144 164
94 144 164
94 144 164
94 144 164
94 144 164
94 144 164
94 144 164
94 144 164
94 144 164
94 144 164
94 144 164
94 144 164
94 144 164
94 144 164
94 144 164
94 144 164
94 144 164
94 144 164
94 144 164
94 144 164
94 144 164
94 144 164
94 144 164
94 144 164
94 144 164
94 144 164
94 144 164
94 144 164
94 144 164
94 144 164
94 144 164
94 144 164
94 144 164
94 144 164
94 144 164
94 144 164
94 144 164
94 144 164
94 144 164
94 144 164
94 144 164
94 144 164
94 144 164
94 144 164
94 144 164
94 144 164
94 144 164
94 144 164
94 144 164
94 144 164
94 144 164
94 144 164
94 144 164
94 144 164
94 144 164
94 144 164
94 144 164
94 144 164
94 144 164
94 144 164
94 144 164
94 144 164
94 144 164
94 144 164
94 144 164
94 144 164
94 144 164
94 144 164
94 144 164
94 144 164
94 144 164
94 144 164
94 144 164
94 144 164
94 144 164
94 144 164
94 144 164
94 144 164
94 144 164
94 144 164
94 144 164
94 144 164
94 144 164
94 144 164
94 144 164
94 144 164
94 144 164
94 144 164
94 144 164
94 144 164
94 144 164
94 144 164
94 144 164
94 144 164
94 144 164
94 144 164
94 144 164
94 144 164
94 144 164
94 144 164
94 144 164
94 144 164
94 144 164
94 144 164
94 144 164
125 196 161
119 179 156
67 92 84
67 92 84
61 81 71
59 76 69
125 196 160
125 196 160
125 196 160
98 143 111
59 75 69
125 196 160
118 179 156
125 196 160
125 196 160
97 143 111
125 196 160
118 179 156
125 196 160
125 196 160
125 196 160
118 179 156
124 196 160
116 179 154
116 179 154
123 196 158
123 196 158
123 196 158
123 196 158
123 196 158
116 178 154
123 196 158
123 196 158
123 196 158
123 196 158
116 178 153
123 196 158
123 196 158
116 178 153
123 196 158
122 196 158
116 178 153
122 196 158
116 178 153
122 196 158
122 196 158
116 178 153
122 196 158
122 196 158
122 196 158
122 196 158
122 196 158
122 196 158
116 178 153
116 178 153
122 196 157
122 196 157
122 196 157
122 196 157
116 178 153
116 178 153
55 75 63
55 75 63
60 35 47
59 35 46
59 34 46
59 34 46
51 34 43
51 34 43
51 33 43
51 33 42
59 33 45
58 33 45
58 33 45
58 33 45
58 33 44
50 32 41
50 32 41
58 32 44
50 32 41
50 32 41
50 32 41
50 32 41
50 32 41
50 32 41
50 32 41
58 33 44
58 33 44
58 33 45
58 33 45
58 33 45
58 33 45
59 33 45
51 33 42
51 33 43
51 33 43
51 34 43
59 34 46
59 34 46
59 34 46
59 35 46
163 76 112
56 73 66
56 73 66
117 179 155
124 196 159
124 196 159
124 196 159
56 73 66
96 142 109
124 196 159
124 196 159
124 196 159
96 142 109
56 73 67
124 196 159
124 196 159
118 179 155
94 140 107
53 70 63
116 178 153
123 196 158
116 179 153
116 179 153
116 179 153
116 179 153
123 196 158
123 196 158
116 179 154
116 179 154
116 179 154
116 179 154
123 196 158
123 196 158
123 196 158
116 179 154
123 196 158
123 196 158
123 196 158
123 196 158
123 196 158
123 196 158
123 196 158
123 196 158
123 196 158
123 196 158
117 179 154
117 179 154
123 196 158
123 196 158
123 196 158
123 196 159
123 196 159
123 196 159
123 196 159
123 196 159
123 196 159
123 196 159
123 196 159
117 179 154
102 159 113
58 78 67
94 144 164
94 144 164
94 144 164
94 144 164
94 144 164
94 144 164
94 144 164
94 144 164
94 144 164
94 144 164
94 144 164
94 144 164
94 144 164
94 144 164
94 144 164
94 144 164
94 144 164
94 144 164
94 144 164
94 144 164
94 144 164
94 144 164
94 144 164
94 144 164
94 144 164
94 144 164
94 144 164
94 144 164
94 144 164
94 144 164
94 144 164
94 144 164
94 144 164
94 144 164
94 144 164
94 144 164
94 144 164
94 144 164
94 144 164
94 144 164
94 144 164
94 144 164
94 144 164
94 144 164
94 144 164
94 144 164
94 144 164
94 144 164
94 144 164
94 144 164
94 144 164
94 144 164
94 144 164
94 144 164
94 144 164
94 144 164
94 144 164
94 144 164
94 144 164
94 144 164
94 144 164
94 144 164
94 144 164
94 144 164
94 144 164
94 144 164
94 144 164
94 144 164
94 144 164
94 144 164
94 144 164
94 144 164
94 144 164
94 144 164
94 144 164
94 144 164
94 144 164
94 144 164
94 144 164
94 144 164
94 144 164
94 144 164
94 144 164
94 144 164
94 144 164
94 144 164
94 144 164
94 144 164
94 144 164
94 144 164
94 144 164
94 144 164
94 144 164
94 144 164
94 144 164
94 144 164
94 144 164
94 144 164
94 144 164
94 144 164
94 144 164
94 144 164
94 144 164
94 144 164
94 144 164
94 144 164
94 144 164
94 144 164
94 144 164
94 144 164
94 144 164
94 144 164
94 144 164
94 144 164
94 144 164
94 144 164
94 144 164
94 144 164
94 144 164
94 144 164
94 144 164
94 144 164
94 144 164
94 144 164
94 144 164
94 144 164
94 144 164
94 144 164
94 144 164
94 144 164
94 144 164
94 144 164
94 144 164
94 144 164
94 144 164
94 144 164
94 144 164
94 144 164
94 144 164
94 144 164
94 144 164
94 144 164
94 144 164
94 144 164
94 144 164
94 144 164
94 144 164
94 144 164
94 144 164
94 144 164
94 144 164
94 144 164
94 144 164
94 144 164
94 144 164
94 144 164
94 144 164
94 144 164
59 76 70
59 76 69
59 76 70
59 76 70
59 76 70
59 76 70
58 75 69
58 75 69
58 75 69
59 75 69
59 75 69
58 75 69
58 75 68
58 75 68
58 75 69
58 75 69
58 75 68
57 74 68
123 196 158
123 196 158
116 178 153
123 196 158
116 178 153
116 178 153
116 178 153
122 196 158
122 196 158
122 196 158
116 178 153
116 178 153
116 178 153
122 196 158
122 196 157
116 178 153
116 178 153
116 178 153
122 196 157
122 196 157
122 196 157
116 178 153
116 178 153
116 178 153
115 178 153
115 178 153
115 178 153
115 178 153
115 178 153
115 178 153
115 178 153
115 178 153
115 178 153
115 178 153
115 178 153
115 178 153
115 178 153
115 178 153
115 178 153
115 178 153
122 196 157
115 178 153
115 178 153
115 178 153
55 75 64
52 34 44
60 35 46
59 34 46
59 34 46
51 34 43
51 34 43
51 33 43
51 33 43
59 33 45
58 33 45
58 33 45
58 33 45
58 33 44
50 32 41
50 32 41
50 32 41
50 32 41
50 32 41
50 32 41
50 32 41
50 32 41
50 32 41
50 32 41
58 33 44
58 33 44
58 33 45
50 33 42
50 33 42
58 33 45
51 33 42
51 33 42
51 33 43
51 33 43
51 34 43
51 34 43
59 34 46
59 34 46
59 35 46
137 75 103
56 73 66
56 73 66
56 73 66
56 73 66
56 73 66
56 73 66
56 73 67
56 73 66
56 73 66
58 78 67
56 73 66
56 73 67
56 73 67
124 196 159
124 196 159
124 196 159
54 70 63
116 178 153
122 196 157
122 196 157
122 196 157
122 196 157
122 196 157
116 178 153
122 196 158
122 196 158
122 196 158
122 196 158
116 178 153
116 178 153
122 196 158
122 196 158
123 196 158
123 196 158
116 178 153
116 179 153
123 196 158
123 196 158
123 196 158
123 196 158
116 179 154
116 179 154
116 179 154
123 196 158
123 196 158
116 179 154
116 179 154
116 179 154
123 196 158
123 196 158
123 196 158
116 179 154
116 179 154
116 179 154
117 179 154
123 196 158
117 179 154
117 179 154
123 196 158
123 196 158
117 179 154
123 196 159
94 144 164
94 144 164
94 144 164
94 144 164
94 144 164
94 144 164
94 144 164
94 144 164
94 144 164
94 144 164
94 144 164
94 144 164
94 144 164
94 144 164
94 144 164
94 144 164
94 144 164
94 144 164
94 144 164
94 144 164
94 144 164
94 144 164
94 144 164
94 144 164
94 144 164
94 144 164
94 144 164
94 144 164
94 144 164
94 144 164
94 144 164
94 144 164
94 144 164
94 144 164
94 144 164
94 144 164
94 144 164
94 144 164
94 144 164
94 144 164
94 144 164
94 144 164
94 144 164
94 144 164
94 144 164
94 144 164
94 144 164
94 144 164
94 144 164
94 144 164
94 144 164
94 144 164
94 144 164
94 144 164
94 144 164
94 144 164
94 144 164
94 144 164
94 144 164
94 144 164
94 144 164
94 144 164
94 144 164
94 144 164
94 144 164
94 144 164
94 144 164
94 144 164
94 144 164
94 144 164
94 144 164
94 144 164
94 144 164
94 144 164
94 144 164
94 144 164
94 144 164
94 144 164
94 144 164
94 144 164
94 144 164
94 144 164
94 144 164
94 144 164
94 144 164
94 144 164
94 144 164
94 144 164
94 144 164
94 144 164
94 144 164
94 144 164
94 144 164
94 144 164
94 144 164
94 144 164
94 144 164
94 144 164
94 144 164
94 144 164
94 144 164
94 144 164
94 144 164
94 144 164
94 144 164
94 144 164
94 144 164
94 144 164
94 144 164
94 144 164
94 144 164
94 144 164
94 144 164
94 144 164
94 144 164
94 144 164
94 144 164
94 144 164
94 144 164
94 144 164
94 144 164
94 144 164
94 144 164
94 144 164
94 144 164
94 144 164
94 144 164
94 144 164
94 144 164
94 144 164
94 144 164
94 144 164
94 144 164
94 144 164
94 144 164
94 144 164
94 144 164
94 144 164
94 144 164
94 144 164
94 144 164
94 144 164
94 144 164
94 144 164
94 144 164
94 144 164
94 144 164
94 144 164
94 144 164
94 144 164
94 144 164
94 144 164
94 144 164
94 144 164
94 144 164
94 144 164
59 76 70
59 76 69
59 76 70
59 76 70
59 76 70
59 76 70
59 75 69
58 75 69
58 75 69
60 80 70
59 75 69
58 75 69
58 75 68
58 75 68
60 80 70
58 75 69
58 75 68
53 70 63
53 70 62
116 178 153
116 178 153
122 196 157
116 178 153
116 178 153
122 196 157
122 196 157
115 178 153
115 178 153
115 178 153
115 178 153
122 196 157
122 196 157
115 178 153
115 178 153
115 178 153
122 196 157
122 196 157
115 178 153
122 196 157
115 178 153
115 178 153
115 178 153
122 196 157
115 178 152
122 196 157
115 178 152
115 178 152
115 178 152
115 178 152
122 196 157
122 196 157
122 196 157
115 178 152
122 196 157
122 196 157
122 196 157
122 196 157
122 196 157
115 178 152
53 73 62
54 74 62
54 74 62
55 75 64
52 35 44
52 34 44
52 34 44
51 34 43
51 34 43
51 34 43
51 33 43
51 33 43
59 33 45
58 33 45
58 33 45
58 33 45
58 33 44
50 32 42
50 32 41
50 32 41
50 32 41
50 32 41
50 32 41
50 32 41
50 32 41
50 32 41
50 32 41
58 33 44
58 33 44
58 33 45
58 33 45
58 33 45
59 33 45
51 33 42
51 33 43
51 33 43
51 33 43
51 34 43
59 34 46
59 34 46
52 34 43
52 34 44
56 73 66
56 73 66
56 73 66
56 73 66
56 73 66
56 73 66
56 73 66
57 73 67
56 73 66
56 73 66
56 73 66
56 73 66
57 73 67
96 141 108
55 72 65
57 77 66
123 196 159
54 70 63
52 69 61
52 69 61
52 69 61
122 196 157
115 178 153
115 178 153
115 178 153
122 196 157
115 178 153
122 196 157
115 178 153
115 178 153
115 178 153
115 178 153
116 178 153
122 196 157
116 178 153
116 178 153
116 178 153
116 178 153
116 178 153
122 196 157
122 196 158
116 178 153
116 178 153
116 178 153
116 178 153
122 196 158
116 178 153
122 196 158
116 178 153
123 196 158
116 178 153
116 179 153
123 196 158
116 179 153
116 179 154
123 196 158
116 179 154
123 196 158
116 179 154
123 196 158
116 179 154
116 179 154
57 77 66
125 196 160
118 179 156
94 144 164
94 144 164
94 144 164
94 144 164
94 144 164
94 144 164
94 144 164
94 144 164
94 144 164
94 144 164
94 144 164
94 144 164
94 144 164
94 144 164
94 144 164
94 144 164
94 144 164
94 144 164
94 144 164
94 144 164
94 144 164
94 144 164
94 144 164
94 144 164
94 144 164
94 144 164
94 144 164
94 144 164
94 144 164
94 144 164
94 144 164
94 144 164
94 144 164
94 144 164
94 144 164
94 144 164
94 144 164
94 144 164
94 144 164
94 144 164
94 144 164
94 144 164
94 144 164
94 144 164
94 144 164
94 144 164
94 144 164
94 144 164
94 144 164
94 144 164
94 144 164
94 144 164
94 144 164
94 144 164
94 144 164
94 144 164
94 144 164
94 144 164
94 144 164
94 144 164
94 144 164
94 144 164
94 144 164
94 144 164
94 144 164
94 144 164
94 144 164
94 144 164
94 144 164
94 144 164
94 144 164
94 144 164
94 144 164
94 144 164
94 144 164
94 144 164
94 144 164
94 144 164
94 144 164
94 144 164
94 144 164
94 144 164
94 144 164
94 144 164
94 144 164
94 144 164
94 144 164
94 144 164
94 144 164
94 144 164
94 144 164
94 144 164
94 144 164
94 144 164
94 144 164
94 144 164
94 144 164
94 144 164
94 144 164
94 144 164
94 144 164
94 144 164
94 144 164
94 144 164
94 144 164
94 144 164
94 144 164
94 144 164
94 144 164
94 144 164
94 144 164
94 144 164
94 144 164
94 144 164
94 144 164
94 144 164
94 144 164
94 144 164
94 144 164
94 144 164
94 144 164
94 144 164
94 144 164
94 144 164
94 144 164
94 144 164
94 144 164
94 144 164
94 144 164
94 144 164
94 144 164
94 144 164
94 144 164
94 144 164
94 144 164
94 144 164
94 144 164
94 144 164
94 144 164
94 144 164
94 144 164
94 144 164
94 144 164
94 144 164
94 144 164
94 144 164
94 144 164
94 144 164
94 144 164
94 144 164
94 144 164
94 144 164
94 144 164
94 144 164
60 76 70
59 76 70
59 76 70
59 76 70
59 76 70
59 76 70
59 76 69
58 75 69
59 75 69
59 75 69
59 76 69
58 75 69
58 75 68
58 75 69
58 75 69
122 196 157
115 178 153
122 196 157
122 196 157
122 196 157
122 196 157
122 196 157
122 196 157
122 196 157
122 196 157
122 196 157
122 196 157
122 196 157
115 178 152
122 196 157
122 196 157
122 196 157
122 196 157
115 178 152
122 196 157
122 196 157
122 196 157
122 196 157
122 196 157
122 196 157
115 178 152
121 196 157
115 178 152
115 178 152
121 196 157
115 178 152
115 178 152
121 196 157
121 196 157
121 196 156
115 178 152
115 178 152
115 178 152
121 196 156
121 196 156
121 196 156
115 178 152
121 196 156
121 196 156
115 178 152
53 73 61
54 74 62
55 75 64
52 35 44
52 34 44
52 34 44
51 34 43
59 34 46
59 34 46
51 33 43
51 33 43
59 33 45
59 33 45
58 33 45
50 33 42
58 33 45
50 32 42
50 32 41
50 32 41
50 32 41
50 32 41
50 32 41
50 32 41
50 32 41
50 32 41
50 32 41
58 33 44
58 33 44
58 33 45
58 33 45
51 33 42
59 33 45
51 33 42
51 33 43
51 33 43
59 34 46
59 34 46
51 34 43
51 34 43
52 34 44
52 34 44
56 73 66
56 73 66
56 73 67
56 73 66
58 78 67
56 73 66
56 73 66
57 73 67
56 73 66
56 73 66
56 73 66
56 73 66
57 73 67
55 72 65
54 71 64
123 196 158
123 196 158
54 70 63
52 69 61
51 68 60
115 178 152
122 196 157
115 178 152
115 178 152
115 178 152
115 178 152
122 196 157
122 196 157
122 196 157
122 196 157
122 196 157
115 178 153
122 196 157
122 196 157
115 178 153
122 196 157
122 196 157
115 178 153
122 196 157
122 196 157
122 196 157
122 196 157
122 196 157
115 178 153
122 196 157
122 196 157
116 178 153
122 196 157
122 196 157
116 178 153
122 196 157
116 178 153
122 196 157
122 196 158
122 196 158
116 178 153
116 178 153
122 196 158
122 196 158
122 196 158
116 178 153
116 178 153
116 178 153
94 140 106
54 70 63
94 144 164
94 144 164
94 144 164
94 144 164
94 144 164
94 144 164
94 144 164
94 144 164
94 144 164
94 144 164
94 144 164
94 144 164
94 144 164
94 144 164
94 144 164
94 144 164
94 144 164
94 144 164
94 144 164
94 144 164
94 144 164
94 144 164
94 144 164
94 144 164
94 144 164
94 144 164
94 144 164
94 144 164
94 144 164
94 144 164
94 144 164
94 144 164
94 144 164
94 144 164
94 144 164
94 144 164
94 144 164
94 144 164
94 144 164
94 144 164
94 144 164
94 144 164
94 144 164
94 144 164
94 144 164
94 144 164
94 144 164
94 144 164
94 144 164
94 144 164
94 144 164
94 144 164
94 144 164
94 144 164
94 144 164
94 144 164
94 144 164
94 144 164
94 144 164
94 144 164
94 144 164
94 144 164
94 144 164
94 144 164
94 144 164
94 144 164
94 144 164
94 144 164
94 144 164
94 144 164
94 144 164
94 144 164
94 144 164
94 144 164
94 144 164
94 144 164
94 144 164
94 144 164
94 144 164
94 144 164
94 144 164
94 144 164
94 144 164
94 144 164
94 144 164
94 144 164
94 144 164
94 144 164
94 144 164
94 144 164
94 144 164
94 144 164
94 144 164
94 144 164
94 144 164
94 144 164
94 144 164
94 144 164
94 144 164
94 144 164
94 144 164
94 144 164
94 144 164
94 144 164
118 179 155
118 179 155
124 196 159
124 196 159
124 196 159
124 196 159
96 142 109
94 144 164
94 144 164
94 144 164
94 144 164
94 144 164
94 144 164
94 144 164
94 144 164
94 144 164
94 144 164
94 144 164
94 144 164
94 144 164
94 144 164
94 144 164
94 144 164
94 144 164
94 144 164
94 144 164
94 144 164
94 144 164
94 144 164
94 144 164
94 144 164
94 144 164
94 144 164
94 144 164
94 144 164
94 144 164
94 144 164
94 144 164
94 144 164
94 144 164
94 144 164
94 144 164
94 144 164
94 144 164
94 144 164
94 144 164
94 144 164
94 144 164
125 196 161
67 92 85
67 92 85
59 76 70
59 76 70
67 92 84
67 92 84
65 87 83
65 87 83
58 75 69
59 75 69
67 91 84
67 91 84
67 91 84
58 75 69
60 80 70
58 75 69
52 69 61
122 196 157
115 178 152
115 178 152
115 178 152
115 178 152
115 178 152
122 196 157
115 178 152
115 178 152
115 178 152
115 178 152
115 178 152
115 178 152
115 178 152
115 178 152
115 178 152
115 178 152
115 178 152
115 178 152
121 196 156
115 178 152
115 178 152
114 178 152
114 178 152
114 178 152
121 196 156
114 178 152
114 178 152
114 178 152
114 178 152
114 178 152
121 196 156
121 196 156
114 178 152
114 178 152
114 178 152
114 178 152
114 178 152
114 178 152
121 196 156
121 196 156
114 178 152
114 178 152
52 72 60
53 73 61
54 74 62
60 81 76
52 35 44
52 34 44
52 34 44
52 34 43
59 34 46
59 34 46
59 34 46
59 34 45
51 33 42
51 33 42
58 33 45
58 33 45
58 33 45
50 32 42
50 32 41
50 32 41
50 32 41
50 32 41
50 32 41
50 32 41
50 32 41
50 32 41
50 32 41
58 33 44
58 33 45
58 33 45
58 33 45
58 33 45
51 33 42
59 34 45
59 34 45
59 34 46
59 34 46
59 34 46
51 34 43
51 34 43
52 34 44
52 34 44
65 89 81
65 89 81
65 89 81
65 89 81
56 73 66
56 73 66
65 89 81
65 89 82
65 90 82
56 73 66
56 73 66
65 90 82
65 90 82
55 72 65
54 71 64
54 71 63
123 196 158
60 82 77
52 69 61
51 68 60
51 68 60
121 196 156
121 196 156
121 196 156
115 178 152
115 178 152
115 178 152
115 178 152
121 196 157
122 196 157
115 178 152
115 178 152
115 178 152
115 178 152
122 196 157
122 196 157
115 178 152
115 178 152
115 178 152
115 178 152
115 178 152
115 178 152
115 178 152
115 178 152
115 178 152
115 178 153
115 178 153
122 196 157
115 178 153
115 178 153
115 178 153
115 178 153
115 178 153
115 178 153
115 178 153
115 178 153
115 178 153
115 178 153
116 178 153
116 178 153
122 196 157
116 178 153
116 178 153
116 178 153
116 178 153
116 178 153
94 144 164
94 144 164
94 144 164
94 144 164
94 144 164
94 144 164
94 144 164
94 144 164
94 144 164
94 144 164
94 144 164
94 144 164
94 144 164
94 144 164
94 144 164
94 144 164
94 144 164
94 144 164
94 144 164
94 144 164
94 144 164
94 144 164
94 144 164
94 144 164
94 144 164
94 144 164
94 144 164
94 144 164
94 144 164
94 144 164
94 144 164
94 144 164
94 144 164
94 144 164
94 144 164
94 144 164
94 144 164
94 144 164
94 144 164
94 144 164
94 144 164
94 144 164
94 144 164
94 144 164
94 144 164
94 144 164
94 144 164
94 144 164
94 144 164
94 144 164
94 144 164
94 144 164
94 144 164
94 144 164
94 144 164
94 144 164
94 144 164
94 144 164
94 144 164
94 144 164
94 144 164
94 144 164
94 144 164
94 144 164
94 144 164
94 144 164
94 144 164
94 144 164
94 144 164
94 144 164
94 144 164
94 144 164
94 144 164
94 144 164
94 144 164
94 144 164
94 144 164
94 144 164
94 144 164
94 144 164
94 144 164
94 144 164
94 144 164
94 144 164
94 144 164
94 144 164
94 144 164
94 144 164
94 144 164
94 144 164
94 144 164
94 144 164
94 144 164
94 144 164
94 144 164
94 144 164
94 144 164
124 196 159
124 196 159
117 179 155
117 179 155
117 179 155
117 179 155
102 159 113
58 78 67
58 78 67
58 78 67
56 73 66
56 73 66
58 78 68
58 78 68
94 144 164
94 144 164
94 144 164
94 144 164
94 144 164
94 144 164
94 144 164
94 144 164
94 144 164
94 144 164
94 144 164
94 144 164
94 144 164
94 144 164
94 144 164
94 144 164
94 144 164
94 144 164
94 144 164
94 144 164
94 144 164
94 144 164
94 144 164
94 144 164
94 144 164
94 144 164
94 144 164
94 144 164
94 144 164
94 144 164
94 144 164
94 144 164
94 144 164
94 144 164
94 144 164
119 179 156
119 179 156
119 179 156
119 179 156
119 179 156
119 179 156
119 179 156
65 86 83
65 86 82
66 91 84
66 91 84
125 196 160
64 86 82
64 86 82
118 179 156
118 179 156
125 196 160
66 91 83
66 91 83
64 85 82
93 139 104
115 178 152
121 196 157
121 196 156
121 196 156
121 196 156
115 178 152
115 178 152
121 196 156
121 196 156
121 196 156
114 178 152
114 178 152
121 196 156
121 196 156
121 196 156
121 196 156
121 196 156
121 196 156
121 196 156
121 196 156
121 196 156
121 196 156
121 196 156
121 196 156
121 196 156
121 196 156
121 196 156
114 178 151
121 196 156
121 196 156
121 196 156
121 196 156
114 178 151
121 196 156
121 196 156
121 196 156
114 178 151
121 196 156
121 196 156
121 196 156
121 196 156
121 196 156
114 178 151
114 178 151
51 71 59
49 66 58
53 73 61
52 69 61
115 178 153
52 35 44
52 34 44
52 34 44
52 34 43
59 34 46
51 34 43
59 34 46
59 34 45
51 33 43
51 33 42
51 33 42
50 33 42
50 33 42
50 32 42
50 32 41
50 32 41
50 32 41
50 32 41
50 32 41
50 32 41
50 32 41
50 32 41
50 32 42
58 33 44
50 32 42
50 33 42
51 33 42
51 33 42
51 33 42
59 34 45
59 34 45
59 34 46
59 34 46
59 34 46
51 34 43
52 34 43
52 34 44
52 34 44
56 72 66
56 72 65
117 179 155
117 179 155
62 84 79
117 179 155
117 179 155
124 196 159
117 179 155
62 84 79
62 84 79
117 179 155
117 179 155
56 72 65
94 140 106
53 70 62
53 69 62
116 178 153
52 69 62
52 72 60
50 66 58
92 139 103
114 178 152
121 196 156
114 178 152
114 178 152
114 178 152
114 178 152
121 196 156
121 196 156
121 196 156
121 196 156
115 178 152
115 178 152
121 196 156
121 196 156
121 196 156
121 196 156
115 178 152
121 196 157
121 196 157
121 196 157
115 178 152
121 196 157
115 178 152
115 178 152
122 196 157
122 196 157
115 178 152
122 196 157
122 196 157
115 178 152
115 178 152
122 196 157
122 196 157
122 196 157
122 196 157
122 196 157
122 196 157
122 196 157
122 196 157
122 196 157
122 196 157
122 196 157
115 178 153
52 69 61
100 158 110
124 196 159
125 196 161
125 196 161
125 196 161
94 144 164
94 144 164
94 144 164
94 144 164
94 144 164
94 144 164
94 144 164
94 144 164
94 144 164
94 144 164
94 144 164
94 144 164
94 144 164
94 144 164
94 144 164
94 144 164
94 144 164
94 144 164
94 144 164
94 144 164
94 144 164
94 144 164
94 144 164
94 144 164
94 144 164
94 144 164
94 144 164
94 144 164
94 144 164
94 144 164
94 144 164
94 144 164
94 144 164
94 144 164
94 144 164
94 144 164
94 144 164
94 144 164
94 144 164
94 144 164
94 144 164
94 144 164
94 144 164
94 144 164
94 144 164
94 144 164
94 144 164
94 144 164
94 144 164
94 144 164
94 144 164
94 144 164
94 144 164
94 144 164
94 144 164
94 144 164
94 144 164
94 144 164
94 144 164
94 144 164
94 144 164
94 144 164
94 144 164
94 144 164
94 144 164
94 144 164
94 144 164
94 144 164
94 144 164
94 144 164
94 144 164
94 144 164
94 144 164
94 144 164
94 144 164
94 144 164
94 144 164
94 144 164
94 144 164
94 144 164
94 144 164
94 144 164
94 144 164
94 144 164
94 144 164
118 179 155
124 196 159
117 179 155
117 179 155
117 179 155
124 196 159
124 196 159
124 196 159
117 179 155
117 179 155
117 179 155
58 78 67
58 78 67
58 78 67
58 78 67
58 78 67
56 73 66
58 78 68
56 73 66
56 73 66
56 73 66
94 144 164
94 144 164
94 144 164
94 144 164
94 144 164
94 144 164
94 144 164
94 144 164
94 144 164
94 144 164
94 144 164
94 144 164
94 144 164
94 144 164
94 144 164
94 144 164
94 144 164
94 144 164
94 144 164
94 144 164
94 144 164
94 144 164
94 144 164
94 144 164
94 144 164
94 144 164
94 144 164
94 144 164
94 144 164
94 144 164
94 144 164
94 144 164
94 144 164
94 144 164
94 144 164
61 81 71
60 80 70
60 80 70
60 80 70
61 80 71
61 80 71
58 75 69
58 75 68
60 80 70
60 80 70
60 80 70
60 80 69
59 79 69
59 79 69
60 79 69
60 80 69
59 79 69
59 79 69
118 179 155
124 196 159
51 68 60
51 67 59
52 72 60
114 178 152
114 178 152
114 178 152
121 196 156
121 196 156
121 196 156
121 196 156
114 178 151
114 178 151
114 178 151
121 196 156
121 196 156
114 178 151
114 178 151
114 178 151
114 178 151
114 178 151
121 196 156
114 178 151
114 178 151
114 178 151
121 196 156
114 178 151
114 178 151
114 178 151
114 178 151
121 196 156
114 178 151
114 178 151
114 178 151
114 178 151
114 178 151
114 178 151
114 178 151
120 196 156
114 178 151
114 178 151
120 196 155
49 65 57
51 71 59
49 66 57
51 71 59
51 71 59
52 71 59
53 73 61
122 196 157
115 178 152
52 35 44
52 35 44
60 35 46
52 34 44
59 34 46
59 34 46
59 34 46
51 33 43
51 33 43
51 33 42
51 33 42
50 33 42
50 33 42
58 33 44
58 33 44
58 32 44
50 32 41
50 32 41
50 32 41
50 32 41
58 32 44
58 33 44
58 33 44
50 32 42
50 33 42
50 33 42
51 33 42
51 33 42
59 33 45
59 34 45
59 34 45
59 34 46
59 34 46
59 34 46
51 34 43
52 34 44
52 34 44
52 34 44
56 73 66
56 72 65
57 77 67
57 77 66
57 77 66
57 77 66
117 179 154
123 196 159
123 196 159
117 179 154
117 179 154
123 196 159
117 179 154
64 88 80
53 70 62
122 196 157
115 178 153
122 196 157
61 86 77
50 67 59
50 66 58
121 196 156
121 196 156
114 178 151
121 196 156
121 196 156
114 178 151
114 178 151
121 196 156
121 196 156
121 196 156
121 196 156
114 178 152
114 178 152
114 178 152
121 196 156
121 196 156
121 196 156
114 178 152
114 178 152
121 196 156
121 196 156
121 196 156
121 196 156
114 178 152
115 178 152
115 178 152
121 196 156
121 196 156
121 196 156
115 178 152
115 178 152
115 178 152
115 178 152
115 178 152
121 196 157
115 178 152
115 178 152
115 178 152
115 178 152
115 178 152
115 178 152
51 68 60
52 68 61
54 74 62
54 74 63
55 72 65
57 77 66
118 179 156
104 159 115
59 75 69
94 144 164
94 144 164
94 144 164
94 144 164
94 144 164
94 144 164
94 144 164
94 144 164
94 144 164
94 144 164
94 144 164
94 144 164
94 144 164
94 144 164
94 144 164
94 144 164
94 144 164
94 144 164
94 144 164
94 144 164
94 144 164
94 144 164
94 144 164
94 144 164
94 144 164
94 144 164
94 144 164
94 144 164
94 144 164
94 144 164
94 144 164
94 144 164
94 144 164
94 144 164
94 144 164
94 144 164
94 144 164
94 144 164
94 144 164
94 144 164
94 144 164
94 144 164
94 144 164
94 144 164
94 144 164
94 144 164
94 144 164
94 144 164
94 144 164
94 144 164
94 144 164
94 144 164
94 144 164
94 144 164
94 144 164
94 144 164
94 144 164
94 144 164
94 144 164
94 144 164
94 144 164
94 144 164
94 144 164
94 144 164
94 144 164
94 144 164
94 144 164
94 144 164
94 144 164
94 144 164
94 144 164
94 144 164
94 144 164
94 144 164
94 144 164
94 144 164
94 144 164
94 144 164
94 144 164
118 179 155
124 196 159
117 179 155
124 196 159
124 196 159
117 179 155
117 179 155
124 196 159
124 196 159
117 179 155
123 196 159
123 196 159
117 179 154
117 179 154
102 158 112
55 72 65
57 77 66
57 77 66
58 78 67
58 78 67
58 78 67
58 78 68
56 73 66
56 73 66
58 78 68
56 73 66
56 73 66
124 196 160
124 196 160
124 196 160
118 179 155
124 196 159
94 144 164
94 144 164
94 144 164
94 144 164
94 144 164
94 144 164
94 144 164
94 144 164
94 144 164
94 144 164
94 144 164
94 144 164
94 144 164
94 144 164
94 144 164
94 144 164
94 144 164
94 144 164
94 144 164
94 144 164
94 144 164
94 144 164
94 144 164
94 144 164
94 144 164
94 144 164
94 144 164
94 144 164
94 144 164
94 144 164
61 81 71
60 80 70
59 75 69
60 80 70
61 81 71
61 81 71
60 80 70
60 80 70
60 80 70
58 75 69
60 80 70
60 80 70
59 79 69
59 79 69
58 74 68
60 80 69
60 80 69
59 79 69
57 73 67
56 73 66
51 68 60
51 67 60
114 178 151
114 178 151
121 196 156
121 196 156
121 196 156
121 196 156
121 196 156
121 196 156
114 178 151
121 196 156
121 196 156
121 196 156
121 196 156
121 196 156
121 196 156
120 196 156
120 196 156
120 196 155
120 196 155
120 196 155
114 178 151
114 178 151
120 196 155
120 196 155
120 196 155
120 196 155
120 196 155
120 196 155
120 196 155
113 178 151
113 178 151
113 178 151
113 178 151
120 196 155
120 196 155
120 196 155
113 178 151
120 196 155
120 196 155
120 196 155
49 66 57
49 66 57
51 71 59
51 71 59
52 72 59
98 157 108
115 178 152
121 196 157
52 35 44
52 35 44
52 34 44
52 34 44
59 34 46
59 34 46
59 34 46
59 34 46
51 33 43
51 33 42
51 33 42
51 33 42
50 33 42
58 33 44
58 33 44
58 32 44
58 32 44
58 32 44
58 32 44
58 32 44
58 32 44
58 33 44
58 33 44
50 32 42
50 33 42
58 33 45
51 33 42
51 33 42
51 33 42
59 34 45
59 34 46
59 34 46
59 34 46
59 34 46
51 34 43
52 34 44
60 35 46
52 34 44
56 73 66
56 72 66
57 77 67
57 77 66
57 77 66
55 72 65
57 77 66
54 71 64
56 76 65
117 179 154
117 179 154
117 179 154
117 179 154
123 196 158
53 70 62
52 68 61
52 68 61
52 68 60
58 80 75
50 67 59
49 65 57
49 65 57
49 65 57
121 196 156
121 196 156
121 196 156
114 178 151
114 178 151
121 196 156
121 196 156
121 196 156
121 196 156
114 178 151
121 196 156
114 178 151
114 178 151
121 196 156
121 196 156
114 178 151
114 178 151
121 196 156
114 178 151
121 196 156
121 196 156
121 196 156
114 178 152
114 178 152
114 178 152
121 196 156
121 196 156
121 196 156
121 196 156
114 178 152
114 178 152
121 196 156
121 196 156
121 196 156
121 196 156
121 196 156
50 67 59
53 73 61
53 73 61
51 68 60
52 68 61
54 74 63
55 74 63
55 72 65
55 72 65
60 80 70
58 75 69
59 76 70
94 144 164
94 144 164
94 144 164
94 144 164
94 144 164
94 144 164
94 144 164
94 144 164
94 144 164
94 144 164
94 144 164
94 144 164
94 144 164
94 144 164
94 144 164
94 144 164
94 144 164
94 144 164
94 144 164
94 144 164
94 144 164
94 144 164
94 144 164
94 144 164
94 144 164
94 144 164
94 144 164
94 144 164
94 144 164
94 144 164
94 144 164
94 144 164
94 144 164
94 144 164
94 144 164
94 144 164
94 144 164
94 144 164
94 144 164
94 144 164
94 144 164
94 144 164
94 144 164
94 144 164
94 144 164
94 144 164
94 144 164
94 144 164
94 144 164
94 144 164
94 144 164
94 144 164
94 144 164
94 144 164
94 144 164
94 144 164
94 144 164
94 144 164
94 144 164
94 144 164
94 144 164
94 144 164
94 144 164
94 144 164
94 144 164
94 144 164
94 144 164
94 144 164
94 144 164
94 144 164
94 144 164
94 144 164
94 144 164
117 179 155
124 196 159
117 179 155
117 179 155
117 179 155
117 179 155
124 196 159
124 196 159
124 196 159
117 179 154
117 179 154
123 196 159
117 179 154
117 179 154
95 141 108
55 72 65
55 72 65
55 72 65
55 72 65
55 72 65
57 77 66
57 77 66
57 77 66
57 77 66
56 73 66
58 78 67
58 78 68
58 78 68
58 78 68
56 73 66
58 78 68
56 73 66
56 73 67
56 73 67
96 142 109
57 73 67
57 73 67
59 79 68
57 73 67
94 144 164
94 144 164
94 144 164
94 144 164
94 144 164
94 144 164
94 144 164
94 144 164
94 144 164
94 144 164
94 144 164
94 144 164
94 144 164
94 144 164
94 144 164
94 144 164
94 144 164
94 144 164
94 144 164
94 144 164
94 144 164
94 144 164
94 144 164
94 144 164
94 144 164
94 144 164
94 144 164
94 144 164
94 144 164
61 81 71
61 81 71
60 80 70
61 80 71
61 81 71
61 81 71
60 80 70
60 80 70
60 80 70
60 80 70
60 80 70
60 80 70
59 79 69
60 79 69
60 80 69
60 80 69
60 80 70
59 79 69
115 178 153
122 196 157
51 71 59
114 178 151
114 178 151
114 178 151
51 71 59
51 71 59
49 65 57
114 178 151
114 178 151
114 178 151
114 178 151
120 196 155
120 196 155
113 178 151
113 178 151
113 178 151
113 178 151
113 178 151
120 196 155
120 196 155
113 178 151
113 178 151
113 178 151
113 178 151
113 178 151
50 70 57
113 177 150
113 177 150
113 177 150
113 177 150
113 177 150
113 177 150
113 177 150
120 196 155
120 196 155
113 177 150
113 177 150
113 177 150
113 177 150
48 64 55
48 64 56
48 64 56
48 64 56
49 66 57
51 71 59
51 71 59
52 72 59
52 72 60
114 178 152
121 196 156
60 35 47
60 35 47
52 34 44
52 34 44
59 34 46
59 34 46
59 34 46
59 34 46
51 33 43
51 33 42
51 33 42
51 33 42
50 33 42
58 33 45
58 33 44
58 33 44
58 32 44
58 32 44
58 32 44
58 32 44
58 32 44
58 33 44
58 33 44
50 32 42
50 33 42
51 33 42
51 33 42
51 33 42
51 33 42
59 34 45
59 34 46
59 34 46
59 34 46
51 34 43
52 34 43
52 34 44
52 34 44
52 35 44
56 73 66
56 72 66
57 77 67
57 77 66
57 77 66
55 72 65
55 71 64
54 71 64
56 76 65
116 179 154
116 179 154
116 179 154
116 179 154
123 196 158
53 70 63
115 178 152
122 196 157
122 196 157
60 85 75
50 67 59
49 65 57
49 65 57
49 65 57
48 65 57
50 70 58
50 70 58
50 70 57
114 178 151
97 156 106
50 70 58
51 71 58
50 70 58
50 70 58
121 196 156
114 178 151
98 156 107
51 71 58
51 71 58
51 71 58
114 178 151
114 178 151
114 178 151
114 178 151
51 71 59
51 71 59
51 71 58
114 178 151
114 178 151
114 178 151
114 178 151
51 71 59
51 71 59
114 178 151
114 178 151
114 178 151
114 178 151
114 178 152
50 66 58
50 67 59
50 67 59
53 73 61
53 73 61
52 68 60
52 69 61
54 74 63
55 75 63
116 179 153
55 75 64
60 80 70
59 75 69
59 76 70
94 144 164
94 144 164
94 144 164
94 144 164
94 144 164
94 144 164
94 144 164
94 144 164
94 144 164
94 144 164
94 144 164
94 144 164
94 144 164
94 144 164
94 144 164
94 144 164
94 144 164
94 144 164
94 144 164
94 144 164
94 144 164
94 144 164
94 144 164
94 144 164
94 144 164
94 144 164
94 144 164
94 144 164
94 144 164
94 144 164
94 144 164
94 144 164
94 144 164
94 144 164
94 144 164
94 144 164
94 144 164
94 144 164
94 144 164
94 144 164
94 144 164
94 144 164
94 144 164
94 144 164
94 144 164
94 144 164
94 144 164
94 144 164
94 144 164
94 144 164
94 144 164
94 144 164
94 144 164
94 144 164
94 144 164
94 144 164
94 144 164
94 144 164
94 144 164
94 144 164
94 144 164
94 144 164
94 144 164
94 144 164
94 144 164
94 144 164
94 144 164
94 144 164
94 144 164
94 144 164
117 179 155
124 196 159
124 196 159
124 196 159
124 196 159
58 78 67
58 78 67
58 78 67
58 78 67
56 72 66
117 179 154
117 179 154
57 77 66
57 77 66
57 77 66
55 72 65
55 72 65
55 72 65
55 72 65
55 72 65
55 72 65
55 72 65
57 77 66
55 72 65
57 77 66
57 77 66
57 77 66
58 78 68
56 73 66
58 78 68
58 78 68
58 78 68
65 89 81
64 89 81
124 196 159
124 196 159
117 179 155
124 196 159
57 73 67
57 73 67
57 73 67
57 73 67
94 144 164
94 144 164
94 144 164
94 144 164
94 144 164
94 144 164
94 144 164
118 179 156
118 179 156
94 144 164
94 144 164
94 144 164
94 144 164
94 144 164
94 144 164
94 144 164
94 144 164
94 144 164
94 144 164
94 144 164
94 144 164
94 144 164
94 144 164
94 144 164
94 144 164
94 144 164
94 144 164
94 144 164
119 179 156
65 87 83
61 81 71
61 80 70
61 81 71
61 81 71
65 86 83
60 80 70
60 80 70
60 80 70
58 75 69
60 80 70
65 86 82
60 80 69
60 80 69
60 80 69
60 80 70
64 86 82
59 79 69
57 74 67
52 69 61
51 71 59
51 71 58
51 71 58
51 71 58
51 71 59
49 66 57
51 71 59
51 71 58
50 70 58
120 196 155
120 196 155
120 196 155
120 196 155
90 138 101
48 64 56
48 64 56
120 196 155
113 177 150
120 196 155
113 177 150
120 196 155
50 70 57
48 64 56
50 70 57
50 70 57
50 70 57
50 70 57
50 70 57
49 69 57
49 69 57
50 70 57
50 70 57
50 70 57
49 69 57
49 69 56
49 69 56
49 69 56
49 69 57
50 69 57
48 64 56
48 64 56
48 64 56
48 64 56
49 66 58
51 71 59
52 71 59
52 72 59
114 178 151
121 196 156
121 196 156
60 35 47
60 35 47
60 35 47
59 35 46
59 34 46
59 34 46
59 34 46
59 34 46
59 34 45
51 33 43
59 33 45
51 33 42
50 33 42
50 33 42
58 33 44
58 33 44
58 32 44
58 32 44
58 32 44
58 32 44
58 33 44
50 32 42
58 33 44
50 33 42
50 33 42
51 33 42
51 33 42
51 33 42
51 33 43
59 34 45
59 34 46
59 34 46
59 34 46
51 34 43
52 34 43
59 35 46
60 35 47
60 35 47
64 89 81
62 84 79
62 84 79
57 77 66
57 77 66
55 72 65
55 71 64
55 71 64
55 75 64
55 75 64
55 75 63
123 196 158
123 196 158
52 72 60
115 178 152
115 178 152
121 196 156
115 178 152
121 196 156
59 84 75
49 65 57
49 65 57
49 65 57
48 65 57
50 70 58
50 70 58
50 70 57
50 70 57
50 70 58
50 70 58
51 71 58
51 70 58
50 70 58
50 70 58
50 70 58
50 70 58
51 71 58
49 65 57
51 71 58
51 71 58
50 70 58
51 70 58
51 71 58
51 71 59
51 71 59
51 71 59
51 71 58
51 71 58
51 71 58
51 71 59
49 66 58
49 66 58
51 71 59
49 66 57
51 71 59
51 71 59
52 72 59
50 66 58
50 67 59
51 67 59
53 73 61
53 73 61
52 68 61
52 69 61
54 74 63
59 81 76
116 178 153
116 178 153
56 73 66
59 75 69
59 76 70
94 144 164
94 144 164
94 144 164
94 144 164
94 144 164
94 144 164
94 144 164
94 144 164
94 144 164
94 144 164
94 144 164
94 144 164
94 144 164
94 144 164
94 144 164
94 144 164
94 144 164
94 144 164
94 144 164
94 144 164
94 144 164
94 144 164
94 144 164
94 144 164
94 144 164
94 144 164
94 144 164
94 144 164
94 144 164
94 144 164
94 144 164
94 144 164
94 144 164
94 144 164
94 144 164
94 144 164
94 144 164
94 144 164
94 144 164
94 144 164
94 144 164
94 144 164
94 144 164
94 144 164
94 144 164
94 144 164
94 144 164
94 144 164
94 144 164
94 144 164
94 144 164
94 144 164
94 144 164
94 144 164
94 144 164
94 144 164
94 144 164
94 144 164
94 144 164
94 144 164
94 144 164
94 144 164
94 144 164
94 144 164
94 144 164
94 144 164
94 144 164
94 144 164
94 144 164
94 144 164
56 72 65
56 72 65
56 72 66
58 78 67
58 78 67
58 78 67
58 78 67
56 72 66
56 72 66
58 78 67
57 77 66
57 77 66
57 77 66
57 77 66
57 77 66
57 77 66
55 72 65
55 72 65
55 72 65
55 72 65
55 72 65
55 72 65
57 77 66
57 77 66
55 72 65
57 77 66
57 77 66
57 77 66
62 84 80
117 179 155
117 179 155
117 179 155
117 179 154
56 72 65
58 77 67
56 72 65
56 72 66
56 72 66
59 79 68
59 79 68
57 73 67
57 74 67
94 144 164
94 144 164
124 196 160
124 196 160
118 179 156
118 179 155
118 179 155
118 179 155
57 74 67
59 79 69
94 144 164
94 144 164
94 144 164
94 144 164
94 144 164
94 144 164
94 144 164
94 144 164
94 144 164
94 144 164
94 144 164
94 144 164
94 144 164
125 196 160
125 196 160
125 196 160
125 196 160
119 179 156
65 86 83
60 80 70
60 80 70
60 80 70
118 179 156
64 86 82
64 86 82
60 80 70
58 75 69
64 86 82
64 86 82
64 85 82
64 85 81
60 79 69
64 85 81
64 85 81
64 85 81
93 139 104
121 196 157
121 196 157
60 85 75
49 66 58
51 71 59
51 71 58
51 71 59
51 71 59
51 71 59
51 71 59
49 65 57
50 70 58
48 65 56
48 64 56
50 70 57
50 70 57
48 64 56
48 64 56
48 64 56
48 64 55
47 64 55
47 64 55
47 64 55
48 64 55
48 64 56
50 70 57
50 70 57
50 70 57
50 70 57
50 70 57
50 70 57
49 69 57
50 69 57
50 70 57
50 70 57
50 70 57
50 70 57
49 69 56
49 69 56
49 69 56
49 69 57
47 64 55
48 64 56
48 64 56
48 64 56
48 65 56
58 83 73
58 83 73
56 78 72
114 178 151
114 178 151
114 178 151
98 156 107
60 35 47
60 35 47
60 35 47
60 35 46
52 34 44
51 34 43
51 34 43
59 34 46
59 34 46
51 33 43
51 33 42
51 33 42
50 33 42
58 33 45
58 33 44
58 33 44
58 32 44
58 32 44
58 32 44
58 32 44
58 33 44
58 33 44
58 33 45
50 33 42
50 33 42
51 33 42
51 33 42
51 33 42
59 34 45
59 34 46
59 34 46
59 34 46
51 34 43
59 34 46
59 35 46
60 35 46
60 35 47
60 35 47
55 72 64
117 179 154
62 83 79
62 83 79
64 88 80
64 88 80
55 71 64
55 71 64
55 75 64
116 179 153
116 179 153
116 179 153
116 179 153
52 72 60
52 72 60
114 178 152
114 178 152
121 196 156
121 196 156
59 84 74
49 65 57
49 65 57
49 65 57
49 65 57
50 70 58
48 65 56
50 70 58
50 70 57
50 70 58
51 70 58
51 71 58
51 71 58
50 70 58
50 70 58
50 70 58
51 71 58
51 71 58
49 65 57
51 71 58
51 71 58
48 65 57
51 71 58
51 71 58
51 71 59
51 71 59
51 71 59
51 71 58
51 71 58
51 71 59
51 71 59
51 71 59
51 71 59
51 71 59
51 71 59
51 71 59
51 71 59
52 72 59
50 67 59
50 67 59
53 73 61
53 73 61
51 68 60
61 85 76
61 85 76
61 86 77
61 86 77
115 178 153
115 178 153
115 178 153
54 74 63
124 196 159
125 196 160
125 196 160
125 196 161
94 144 164
94 144 164
94 144 164
94 144 164
94 144 164
94 144 164
94 144 164
94 144 164
94 144 164
94 144 164
94 144 164
94 144 164
94 144 164
94 144 164
94 144 164
94 144 164
94 144 164
94 144 164
94 144 164
94 144 164
94 144 164
94 144 164
94 144 164
94 144 164
94 144 164
94 144 164
94 144 164
94 144 164
94 144 164
94 144 164
94 144 164
94 144 164
94 144 164
94 144 164
94 144 164
94 144 164
94 144 164
94 144 164
94 144 164
94 144 164
94 144 164
94 144 164
94 144 164
94 144 164
94 144 164
94 144 164
94 144 164
94 144 164
94 144 164
94 144 164
94 144 164
94 144 164
94 144 164
94 144 164
94 144 164
94 144 164
94 144 164
94 144 164
94 144 164
94 144 164
94 144 164
94 144 164
94 144 164
94 144 164
94 144 164
94 144 164
94 144 164
58 78 67
56 72 66
56 72 66
58 78 67
56 72 66
58 78 67
58 78 67
56 72 66
58 78 67
58 78 67
58 78 67
57 77 66
57 77 66
57 77 66
57 77 66
57 77 66
57 77 66
55 72 65
55 72 65
55 72 65
55 72 65
55 72 65
55 72 65
55 72 65
55 72 65
57 77 66
57 77 66
64 89 80
123 196 159
123 196 159
123 196 159
123 196 159
117 179 154
123 196 158
56 72 65
56 72 66
56 72 66
56 72 66
59 79 68
57 73 67
57 74 67
59 79 68
124 196 160
124 196 160
124 196 160
57 74 67
57 74 67
59 79 69
59 79 69
57 74 67
59 79 69
121 196 156
94 144 164
94 144 164
94 144 164
94 144 164
94 144 164
94 144 164
94 144 164
94 144 164
119 179 156
119 179 156
119 179 156
118 179 156
118 179 156
125 196 160
58 75 69
58 75 69
58 75 69
60 80 70
60 80 70
60 80 70
59 75 69
61 80 70
60 80 70
60 80 70
58 75 68
60 80 70
58 75 69
60 80 69
59 79 69
59 79 69
59 79 69
58 74 68
59 79 69
59 79 68
124 196 159
51 68 60
51 67 60
121 196 156
114 178 152
52 71 59
51 71 59
51 71 58
51 71 59
51 71 59
51 71 59
51 71 59
49 65 57
51 70 58
48 65 56
48 64 56
50 70 57
48 64 56
48 64 56
50 70 57
48 64 56
48 64 56
47 64 55
47 64 55
47 64 55
48 64 55
50 70 57
50 70 57
48 64 56
50 70 57
50 70 58
50 70 57
50 70 57
49 69 57
50 70 57
50 70 57
50 70 57
50 70 57
50 70 57
49 69 57
49 69 56
49 69 57
49 69 57
50 70 57
50 70 57
48 64 56
48 64 56
48 65 56
120 196 155
114 178 151
114 178 151
114 178 151
114 178 151
51 71 59
51 71 59
60 35 47
60 35 47
60 35 47
60 35 47
52 34 44
51 34 43
51 34 43
51 34 43
51 33 43
59 34 45
51 33 42
51 33 42
51 33 42
58 33 45
58 33 45
58 33 44
58 32 44
58 32 44
58 32 44
58 32 44
58 33 44
58 33 44
50 32 42
50 33 42
50 33 42
51 33 42
51 33 42
51 33 42
51 33 43
51 33 43
51 34 43
51 34 43
51 34 43
59 34 46
59 35 46
60 35 47
60 35 47
60 35 47
57 77 66
57 77 66
54 71 64
54 71 64
123 196 158
63 88 79
61 83 78
61 83 78
55 75 64
54 74 62
54 74 62
54 74 62
122 196 157
51 71 59
51 71 58
121 196 156
114 178 151
121 196 156
121 196 156
121 196 156
58 83 73
49 65 57
49 65 57
49 65 57
50 70 58
50 70 58
50 70 58
50 70 57
50 70 58
51 71 58
51 71 58
51 71 58
50 70 58
50 70 58
50 70 58
51 71 58
51 71 59
51 71 58
49 65 57
51 71 58
51 71 58
51 71 58
51 71 59
51 71 59
51 71 59
51 71 59
51 71 58
51 71 58
51 71 59
51 71 59
52 71 59
51 71 59
51 71 59
51 71 59
51 71 59
49 66 58
52 72 60
50 67 59
50 67 59
53 73 61
58 79 74
58 79 74
58 80 74
115 178 152
122 196 157
115 178 152
122 196 157
115 178 153
115 178 153
115 178 153
55 72 65
118 179 156
58 75 69
59 75 69
94 144 164
94 144 164
94 144 164
94 144 164
94 144 164
94 144 164
94 144 164
94 144 164
94 144 164
94 144 164
94 144 164
94 144 164
94 144 164
94 144 164
94 144 164
94 144 164
94 144 164
94 144 164
94 144 164
121 196 156
121 196 156
115 178 152
121 196 156
94 144 164
94 144 164
94 144 164
121 196 157
122 196 157
122 196 157
122 196 157
94 144 164
94 144 164
94 144 164
122 196 157
122 196 157
122 196 157
122 196 157
94 144 164
94 144 164
94 144 164
94 144 164
122 196 157
122 196 157
94 144 164
94 144 164
94 144 164
94 144 164
94 144 164
94 144 164
94 144 164
94 144 164
94 144 164
94 144 164
94 144 164
94 144 164
94 144 164
94 144 164
94 144 164
94 144 164
94 144 164
94 144 164
94 144 164
94 144 164
94 144 164
94 144 164
94 144 164
94 144 164
56 72 66
56 72 66
56 72 66
58 78 67
56 72 66
58 78 67
56 73 66
58 78 67
58 78 67
56 73 66
58 78 67
57 77 66
57 77 66
57 77 66
57 77 66
57 77 66
57 77 66
55 72 65
55 72 65
57 77 66
55 72 65
55 72 65
62 83 79
62 83 79
61 83 79
117 179 154
123 196 158
123 196 158
117 179 154
55 71 64
55 71 64
115 178 152
115 178 152
55 71 64
95 141 108
56 72 66
56 72 66
56 72 66
56 73 66
114 178 152
65 90 82
124 196 159
124 196 159
57 74 67
57 74 67
57 74 67
114 178 151
121 196 156
121 196 156
121 196 156
121 196 156
121 196 156
121 196 156
94 144 164
121 196 156
121 196 156
121 196 156
121 196 156
120 196 156
120 196 155
125 196 160
60 80 70
60 80 70
60 80 70
60 80 70
58 75 69
58 75 69
58 75 69
58 75 69
58 75 69
60 80 70
60 80 70
61 81 71
61 81 71
60 80 70
58 75 68
58 75 69
60 80 70
60 80 70
60 80 70
59 79 69
59 79 69
58 74 68
60 80 69
60 80 69
121 196 156
114 178 152
121 196 156
121 196 156
121 196 156
121 196 156
52 72 59
51 71 59
51 71 59
51 71 59
51 71 59
51 71 59
51 71 59
51 71 59
51 71 58
48 65 56
48 64 56
48 64 56
48 64 56
48 64 56
50 70 57
48 65 56
48 64 56
47 64 55
47 64 55
48 64 55
48 64 56
48 64 56
50 70 57
48 64 56
50 70 57
50 70 58
50 70 58
50 70 57
50 69 57
50 70 57
50 70 57
50 70 57
48 64 56
50 70 57
49 69 57
49 69 56
49 69 57
50 69 57
50 70 57
48 64 56
48 64 56
50 70 57
57 82 72
120 196 155
113 178 151
113 178 151
113 178 151
113 178 151
90 138 102
51 71 59
60 35 47
60 35 47
60 35 47
60 35 47
52 34 44
52 34 43
51 34 43
51 34 43
59 34 46
59 34 45
59 34 45
51 33 42
58 33 45
58 33 45
58 33 45
50 32 42
58 33 44
58 32 44
58 32 44
58 33 44
58 33 44
50 32 42
58 33 45
50 33 42
58 33 45
51 33 42
59 33 45
59 34 45
51 33 43
51 33 43
51 34 43
51 34 43
51 34 43
59 34 46
59 35 46
52 34 44
60 35 47
60 35 47
112 177 149
57 77 66
55 71 64
54 71 64
54 71 64
54 71 63
56 76 64
116 179 154
55 75 64
115 178 152
115 178 152
115 178 152
122 196 157
51 71 59
51 71 58
51 71 58
121 196 156
114 178 151
121 196 156
121 196 156
58 83 73
58 83 73
58 83 73
56 77 72
51 70 58
50 70 58
50 70 58
50 70 58
50 70 58
51 71 58
56 78 72
51 71 58
51 70 58
48 65 56
50 70 58
51 71 58
58 83 74
51 71 59
51 71 58
51 71 58
51 71 58
51 71 58
51 71 59
51 71 59
51 71 59
51 71 59
51 71 59
51 71 58
51 71 59
51 71 59
50 66 58
51 71 59
51 71 59
51 71 59
49 66 58
52 72 59
52 72 60
59 84 75
59 84 75
59 84 75
59 84 75
121 196 157
115 178 152
115 178 152
122 196 157
122 196 157
122 196 157
122 196 157
115 178 152
115 178 152
115 178 152
53 73 61
123 196 158
59 76 69
94 144 164
94 144 164
94 144 164
94 144 164
94 144 164
94 144 164
94 144 164
94 144 164
94 144 164
94 144 164
94 144 164
94 144 164
94 144 164
94 144 164
94 144 164
94 144 164
114 178 151
121 196 156
114 178 151
114 178 152
114 178 152
121 196 156
114 178 152
121 196 156
114 178 152
114 178 152
114 178 152
114 178 152
121 196 156
121 196 156
121 196 156
115 178 152
115 178 152
115 178 152
115 178 152
122 196 157
122 196 157
122 196 157
122 196 157
115 178 152
122 196 157
115 178 152
122 196 157
115 178 153
115 178 153
115 178 153
115 178 153
115 178 153
94 144 164
94 144 164
94 144 164
94 144 164
94 144 164
94 144 164
94 144 164
94 144 164
94 144 164
94 144 164
94 144 164
94 144 164
94 144 164
94 144 164
94 144 164
94 144 164
94 144 164
94 144 164
94 144 164
56 72 66
56 72 66
56 72 66
56 72 66
56 73 66
56 73 66
58 78 67
58 78 67
58 78 67
58 78 67
62 84 79
57 77 67
57 77 66
57 77 66
57 77 66
57 77 66
55 72 65
61 83 79
63 88 80
63 88 80
117 179 154
123 196 158
123 196 158
123 196 158
123 196 158
123 196 158
115 178 152
115 178 152
115 178 152
115 178 152
115 178 152
114 178 152
121 196 156
114 178 152
114 178 152
114 178 152
114 178 152
114 178 152
114 178 152
114 178 151
114 178 151
114 178 151
114 178 151
114 178 151
121 196 156
114 178 151
114 178 151
114 178 151
121 196 156
114 178 151
114 178 151
120 196 156
114 178 151
114 178 151
114 178 151
120 196 155
113 178 151
113 178 151
113 178 151
113 178 151
113 178 151
60 80 70
60 80 70
60 80 70
60 80 70
60 80 70
58 75 69
58 75 69
58 75 69
59 75 69
60 80 70
59 75 69
61 81 71
61 81 71
60 80 70
58 75 68
58 75 69
58 75 69
58 75 69
60 80 70
59 79 69
59 79 69
60 80 69
60 80 69
53 70 62
50 67 59
50 66 58
114 178 151
114 178 151
56 78 72
56 77 72
56 77 72
56 77 72
51 71 59
58 83 73
56 77 72
56 77 72
56 77 72
55 77 71
57 83 73
48 65 56
48 64 56
48 64 56
48 64 56
48 64 56
48 65 56
48 65 56
48 64 56
47 64 55
47 64 55
48 64 55
48 64 56
48 64 56
50 70 57
50 70 57
55 76 71
55 76 71
57 82 72
57 82 72
50 70 57
50 70 57
50 70 57
55 76 70
55 76 70
55 76 70
50 69 57
49 69 56
49 69 57
48 64 55
54 76 70
54 76 70
56 82 72
120 196 155
120 196 155
120 196 155
120 196 155
120 196 155
113 177 150
50 70 57
50 70 57
97 156 106
60 35 47
60 35 47
60 35 47
60 35 47
52 34 44
52 34 44
51 34 43
51 34 43
51 34 43
59 34 45
59 34 45
59 33 45
58 33 45
58 33 45
50 33 42
50 32 42
58 33 44
58 32 44
58 32 44
58 33 44
58 33 44
50 32 42
50 33 42
58 33 45
58 33 45
59 33 45
51 33 42
59 34 45
51 33 43
51 34 43
51 34 43
51 34 43
51 34 43
59 35 46
60 35 46
60 35 47
60 35 47
60 35 47
112 177 149
112 177 149
112 177 149
112 177 149
112 177 149
56 76 65
116 179 154
116 179 154
60 81 77
53 73 61
53 73 61
53 72 61
57 79 74
51 71 59
50 70 57
113 178 151
114 178 151
114 178 151
114 178 151
114 178 151
120 196 155
120 196 155
114 178 151
57 82 72
55 77 71
55 77 71
57 82 72
57 82 73
55 77 71
55 77 71
55 77 71
55 77 71
58 83 73
55 77 71
56 77 71
56 77 72
56 77 72
58 83 73
56 77 72
56 77 72
51 71 58
58 83 73
56 77 72
56 78 72
56 78 72
56 78 72
58 83 73
49 65 57
56 78 72
58 83 74
56 78 72
56 78 72
58 83 74
49 66 58
51 71 59
56 78 73
57 78 73
57 78 73
114 178 152
121 196 156
121 196 156
121 196 156
114 178 152
114 178 152
115 178 152
115 178 152
121 196 156
121 196 156
121 196 156
115 178 152
115 178 152
121 196 157
54 71 64
59 79 68
94 144 164
94 144 164
94 144 164
94 144 164
94 144 164
94 144 164
94 144 164
94 144 164
94 144 164
94 144 164
94 144 164
94 144 164
94 144 164
94 144 164
121 196 156
114 178 151
121 196 156
121 196 156
121 196 156
121 196 156
114 178 151
114 178 151
121 196 156
114 178 151
121 196 156
121 196 156
114 178 152
114 178 152
114 178 152
121 196 156
121 196 156
121 196 156
121 196 156
121 196 156
121 196 156
115 178 152
115 178 152
121 196 156
121 196 156
121 196 157
115 178 152
115 178 152
115 178 152
115 178 152
115 178 152
122 196 157
122 196 157
115 178 152
115 178 152
115 178 153
115 178 153
115 178 153
122 196 157
94 144 164
94 144 164
94 144 164
94 144 164
94 144 164
94 144 164
94 144 164
94 144 164
94 144 164
94 144 164
94 144 164
94 144 164
94 144 164
94 144 164
56 72 66
56 72 66
56 73 66
56 73 66
62 84 79
64 89 81
62 83 79
117 179 154
62 83 79
62 83 79
62 83 79
63 88 80
63 88 80
61 83 78
61 83 78
117 179 154
117 179 154
116 179 154
123 196 158
116 179 154
116 179 154
115 178 152
121 196 156
121 196 156
121 196 156
121 196 156
121 196 156
121 196 156
114 178 152
114 178 152
121 196 156
114 178 152
121 196 156
121 196 156
121 196 156
114 178 151
121 196 156
121 196 156
121 196 156
121 196 156
121 196 156
121 196 156
114 178 151
114 178 151
120 196 155
120 196 155
120 196 155
120 196 155
120 196 155
113 178 151
120 196 155
120 196 155
120 196 155
120 196 155
120 196 155
120 196 155
120 196 155
113 177 150
113 177 150
120 196 155
120 196 155
120 196 155
120 196 155
58 75 69
60 80 70
60 80 70
58 75 69
58 75 69
58 75 69
59 75 69
61 80 71
65 86 83
65 86 83
65 86 82
65 86 82
58 75 69
58 75 69
64 86 82
64 86 82
64 86 82
60 80 69
58 74 68
114 178 151
121 196 156
121 196 156
120 196 156
120 196 156
120 196 155
120 196 155
120 196 155
114 178 151
57 82 73
57 82 73
120 196 155
120 196 155
113 178 151
120 196 155
57 82 72
57 82 72
57 82 72
57 82 72
57 82 72
48 64 56
57 82 72
57 82 72
57 82 72
57 82 72
55 76 70
48 64 55
47 64 55
56 82 72
54 76 70
56 82 72
56 81 71
113 177 150
113 177 150
54 76 70
54 76 70
54 76 70
54 76 70
56 81 71
113 177 150
113 177 150
56 81 71
56 81 71
56 81 71
56 81 71
54 76 70
113 177 150
113 177 150
120 196 155
113 177 150
120 196 155
120 196 155
120 196 155
113 177 150
113 177 150
113 177 150
113 177 150
120 196 155
50 70 58
51 71 59
60 35 47
60 35 47
52 35 44
52 34 44
52 34 44
51 34 43
51 34 43
51 34 43
59 34 46
59 34 45
59 33 45
58 33 45
50 33 42
50 33 42
50 32 42
50 32 42
50 32 41
50 32 41
50 32 41
50 32 42
50 32 42
50 33 42
58 33 45
58 33 45
59 33 45
59 34 45
59 34 45
59 34 46
51 34 43
51 34 43
59 34 46
51 34 43
59 35 46
60 35 47
60 35 47
60 35 47
60 35 47
119 196 154
112 177 149
119 196 154
119 196 154
119 196 154
119 196 154
112 177 149
119 196 154
116 179 153
121 196 156
120 196 155
113 178 150
57 79 73
51 71 59
50 70 57
50 70 57
50 69 57
49 69 57
90 137 101
120 196 155
120 196 155
113 178 151
113 178 151
120 196 155
47 64 55
120 196 155
120 196 155
120 196 155
120 196 155
120 196 155
120 196 155
114 178 151
120 196 155
55 77 71
114 178 151
120 196 155
120 196 156
121 196 156
121 196 156
57 82 73
57 82 73
121 196 156
121 196 156
121 196 156
114 178 151
121 196 156
58 83 73
58 83 73
58 83 73
121 196 156
114 178 151
114 178 151
58 83 73
58 83 73
58 83 73
58 83 73
121 196 156
114 178 151
114 178 151
51 71 59
52 72 59
52 71 59
51 71 59
121 196 156
114 178 152
121 196 156
52 72 59
52 72 60
52 72 60
99 157 108
114 178 152
114 178 152
114 178 152
121 196 156
121 196 156
121 196 156
94 144 164
94 144 164
94 144 164
94 144 164
121 196 157
121 196 157
94 144 164
94 144 164
94 144 164
94 144 164
113 178 151
113 178 151
113 178 151
113 178 151
114 178 151
120 196 155
120 196 155
120 196 155
114 178 151
114 178 151
114 178 151
121 196 156
121 196 156
121 196 156
121 196 156
121 196 156
114 178 151
114 178 151
121 196 156
121 196 156
121 196 156
121 196 156
121 196 156
121 196 156
114 178 152
114 178 152
121 196 156
121 196 156
121 196 156
121 196 156
115 178 152
115 178 152
121 196 156
121 196 157
121 196 157
121 196 157
122 196 157
122 196 157
122 196 157
122 196 157
122 196 157
122 196 157
122 196 157
122 196 157
122 196 157
122 196 157
94 144 164
94 144 164
94 144 164
94 144 164
94 144 164
94 144 164
94 144 164
94 144 164
94 144 164
64 89 81
64 89 80
123 196 159
123 196 159
123 196 159
123 196 159
55 72 65
123 196 158
63 88 80
123 196 158
123 196 158
123 196 158
123 196 158
123 196 158
123 196 158
123 196 158
115 178 152
121 196 156
114 178 152
121 196 156
114 178 152
114 178 152
114 178 152
114 178 152
114 178 152
114 178 151
114 178 151
114 178 151
121 196 156
121 196 156
121 196 156
114 178 151
114 178 151
114 178 151
114 178 151
114 178 151
121 196 156
120 196 156
120 196 155
114 178 151
114 178 151
113 178 151
113 178 151
113 178 151
120 196 155
120 196 155
113 178 151
113 177 151
113 177 150
113 177 150
113 177 150
120 196 155
120 196 155
120 196 155
113 177 150
113 177 150
113 177 150
113 177 150
120 196 155
120 196 155
120 196 155
120 196 155
113 177 150
113 177 150
121 196 156
58 75 69
66 91 84
66 91 84
66 91 83
66 91 83
114 178 151
64 86 82
125 196 160
66 91 83
66 91 83
66 90 83
66 90 83
64 85 81
114 178 151
114 178 151
114 178 151
114 178 151
113 178 151
120 196 155
113 178 151
50 70 58
48 65 57
49 65 57
51 71 58
51 71 58
48 65 56
113 177 151
48 64 56
48 65 56
48 65 56
48 65 56
48 64 56
120 196 155
120 196 155
48 64 56
48 64 56
48 64 56
48 64 56
50 69 57
113 177 150
56 81 71
47 64 55
47 64 55
47 64 55
47 64 55
113 177 150
120 196 155
120 196 155
120 196 155
47 64 55
47 64 55
47 63 55
113 177 150
120 196 155
120 196 155
120 196 155
47 63 54
47 63 55
120 196 154
113 177 150
120 196 154
120 196 154
119 196 154
47 63 54
46 63 54
119 196 154
113 177 150
119 196 154
113 177 150
119 196 154
46 63 54
119 196 154
119 196 154
112 177 150
119 196 154
46 66 52
118 196 153
111 177 148
111 177 148
60 35 47
60 35 47
52 34 44
51 34 43
51 34 43
51 34 43
59 34 46
59 34 45
59 34 45
59 33 45
51 33 42
50 33 42
50 32 42
50 32 42
50 32 41
50 32 41
50 32 42
50 32 42
50 33 42
50 33 42
58 33 45
51 33 42
59 33 45
59 34 45
59 34 45
51 33 43
51 34 43
51 34 43
51 34 43
52 34 43
59 35 46
60 35 47
60 35 47
119 196 153
119 196 153
119 196 153
111 177 149
111 177 149
111 177 149
119 196 153
119 196 153
119 196 153
112 177 149
112 177 149
119 196 154
119 196 154
113 178 150
113 178 150
113 178 150
120 196 155
50 70 57
50 70 57
47 64 55
47 64 55
47 64 55
47 63 55
47 63 55
47 64 55
47 64 55
50 69 57
47 64 55
47 64 55
47 64 55
47 64 55
47 64 55
48 64 56
48 64 56
48 64 55
47 64 55
47 64 55
47 64 55
48 64 56
48 64 56
48 64 56
48 64 56
48 64 56
120 196 155
90 138 101
48 64 56
48 65 56
48 65 56
48 65 56
48 64 56
114 178 151
114 178 151
48 65 56
49 65 57
48 65 57
48 65 56
121 196 156
121 196 156
114 178 151
49 65 57
51 71 59
51 71 59
52 72 59
52 72 59
49 66 58
51 71 59
51 71 59
51 71 59
52 72 60
52 72 60
52 72 60
52 72 60
52 72 60
52 72 59
50 66 58
92 139 103
121 196 156
121 196 156
121 196 156
121 196 156
114 178 152
114 178 152
121 196 156
114 178 152
121 196 156
121 196 156
120 196 155
120 196 155
120 196 155
120 196 155
113 178 150
113 178 151
113 178 151
113 178 151
120 196 155
120 196 155
120 196 155
113 178 151
113 178 151
114 178 151
114 178 151
114 178 151
120 196 155
120 196 156
114 178 151
114 178 151
121 196 156
114 178 151
114 178 151
121 196 156
121 196 156
114 178 151
114 178 151
121 196 156
114 178 151
114 178 151
114 178 152
121 196 156
114 178 152
114 178 152
114 178 152
114 178 152
114 178 152
121 196 156
115 178 152
121 196 156
115 178 152
115 178 152
115 178 152
115 178 152
115 178 152
115 178 152
122 196 157
115 178 152
115 178 152
115 178 152
115 178 152
122 196 157
94 144 164
94 144 164
94 144 164
94 144 164
94 144 164
56 72 66
55 72 65
55 72 65
57 77 66
55 72 65
55 72 65
55 72 65
95 141 107
54 71 64
56 76 65
54 71 64
54 71 64
56 76 65
54 71 64
123 196 158
53 70 63
99 157 108
114 178 152
121 196 156
121 196 156
121 196 156
114 178 151
121 196 156
121 196 156
114 178 151
114 178 151
121 196 156
121 196 156
121 196 156
121 196 156
120 196 156
114 178 151
114 178 151
114 178 151
120 196 155
120 196 155
120 196 155
120 196 155
120 196 155
113 178 151
113 178 151
120 196 155
120 196 155
120 196 155
120 196 155
120 196 155
113 177 150
113 177 150
113 177 150
120 196 155
120 196 155
120 196 155
113 177 150
113 177 150
113 177 150
113 177 150
113 177 150
120 196 154
113 177 150
113 177 150
112 177 150
112 177 150
112 177 150
112 177 150
112 177 150
96 156 105
121 196 156
121 196 156
120 196 156
120 196 155
120 196 155
120 196 155
120 196 155
120 196 155
120 196 155
120 196 155
120 196 155
120 196 155
120 196 155
113 178 151
98 156 106
48 65 56
50 70 58
50 70 58
50 70 58
48 65 57
49 65 57
49 65 57
49 65 57
49 65 57
48 65 56
48 64 56
48 65 56
48 65 56
48 65 56
48 65 56
48 65 56
48 64 56
48 64 55
48 64 56
50 70 57
48 64 56
48 64 56
48 64 55
47 64 55
47 64 55
47 64 55
47 64 55
47 64 55
47 64 55
47 64 55
47 63 55
47 63 55
47 63 55
47 64 55
47 64 55
47 63 55
47 63 54
46 63 54
47 63 54
47 63 54
47 63 55
47 63 55
47 63 54
46 63 54
46 63 54
46 63 54
49 68 56
47 63 54
47 63 54
46 63 54
46 62 54
46 62 54
46 63 54
46 63 54
46 63 54
46 63 54
46 62 54
89 137 100
112 177 149
95 155 103
46 66 52
45 65 52
111 177 148
118 196 153
118 196 153
111 177 148
52 34 43
51 34 43
51 34 43
59 34 46
59 34 45
59 34 45
59 33 45
51 33 42
50 33 42
50 32 42
50 32 42
50 32 41
50 32 41
50 32 42
50 32 42
50 33 42
50 33 42
58 33 45
59 33 45
51 33 42
59 34 45
59 34 46
51 34 43
51 34 43
51 34 43
51 34 43
52 34 44
111 177 148
111 177 148
118 196 153
111 177 148
118 196 153
111 177 148
111 177 148
111 177 148
111 177 148
118 196 153
111 177 149
111 177 149
111 177 149
111 177 149
111 177 149
111 177 149
119 196 153
46 66 52
120 196 155
120 196 155
120 196 155
120 196 155
120 196 155
47 64 55
49 69 56
47 63 55
47 63 55
47 64 55
47 64 55
48 64 55
47 64 55
47 64 55
47 64 55
47 64 55
47 64 55
48 64 56
48 64 56
48 64 55
47 64 55
47 64 55
47 64 55
48 64 56
48 65 56
48 64 56
48 64 56
48 64 56
48 64 55
48 64 56
48 65 56
48 65 56
48 65 56
48 65 56
48 64 56
50 70 57
48 65 56
48 65 56
49 65 57
48 65 57
48 65 56
48 65 56
48 65 56
50 70 58
49 65 57
51 71 59
51 71 59
52 72 59
52 72 59
52 71 59
51 71 59
51 71 59
52 71 59
52 72 60
50 67 59
52 72 60
52 72 60
52 72 60
52 72 60
50 66 58
50 66 58
49 66 58
49 66 58
121 196 156
114 178 151
114 178 151
114 178 151
121 196 156
114 178 152
114 178 152
47 63 55
90 137 101
120 196 155
120 196 155
120 196 155
120 196 155
120 196 155
113 178 150
113 178 150
120 196 155
120 196 155
120 196 155
113 178 150
120 196 155
120 196 155
113 178 151
120 196 155
120 196 155
120 196 155
120 196 155
120 196 155
120 196 155
120 196 155
120 196 155
120 196 155
120 196 156
121 196 156
121 196 156
121 196 156
121 196 156
114 178 151
114 178 151
121 196 156
121 196 156
121 196 156
114 178 151
114 178 151
114 178 151
121 196 156
121 196 156
121 196 156
121 196 156
121 196 156
121 196 156
114 178 152
115 178 152
121 196 156
121 196 156
121 196 156
121 196 157
121 196 157
115 178 152
115 178 152
115 178 152
54 74 62
94 144 164
94 144 164
94 144 164
56 73 66
55 72 65
55 72 65
55 72 65
55 72 65
55 72 65
57 77 66
55 71 64
54 71 64
54 71 64
54 71 64
54 71 64
56 76 65
114 178 151
114 178 151
114 178 151
121 196 156
114 178 151
114 178 151
121 196 156
121 196 156
114 178 151
114 178 151
114 178 151
114 178 151
120 196 155
120 196 155
120 196 155
120 196 155
113 178 151
120 196 155
113 178 151
120 196 155
120 196 155
120 196 155
120 196 155
120 196 155
113 177 150
113 177 150
120 196 155
120 196 155
120 196 155
120 196 155
120 196 155
120 196 155
113 177 150
120 196 155
120 196 155
120 196 155
113 177 150
120 196 154
113 177 150
113 177 150
119 196 154
112 177 150
119 196 154
119 196 154
119 196 154
119 196 154
119 196 154
96 155 105
48 68 55
48 68 55
48 68 55
48 68 55
48 68 55
113 178 151
113 178 151
120 196 155
113 178 151
113 178 151
113 178 151
120 196 155
113 177 151
113 177 150
113 177 150
48 64 56
48 64 56
48 65 56
48 65 56
50 70 58
48 65 56
50 70 58
50 70 58
50 70 58
48 65 57
49 65 57
49 65 57
49 65 57
49 65 57
48 65 56
48 65 56
48 65 56
48 65 56
48 65 56
48 65 56
48 65 56
48 64 56
50 70 57
48 64 56
48 64 56
48 64 56
48 64 56
48 64 56
47 64 55
47 64 55
47 64 55
47 64 55
48 64 55
48 64 55
47 64 55
47 63 55
47 63 55
47 64 55
47 64 55
47 64 55
47 64 55
47 63 54
47 63 54
47 63 54
47 63 54
47 63 55
47 63 55
47 63 54
46 63 54
46 63 54
46 63 54
47 63 54
47 63 54
47 63 54
46 63 54
46 63 54
46 63 54
46 63 54
46 63 54
112 177 149
112 177 149
119 196 154
119 196 154
119 196 154
111 177 148
111 177 148
111 177 148
111 177 148
111 177 148
111 177 148
118 196 153
118 196 153
111 177 148
51 34 43
59 34 46
59 34 46
59 34 45
59 33 45
51 33 42
50 33 42
50 33 42
50 32 42
50 32 41
50 32 41
50 32 42
50 32 42
58 33 45
51 33 42
58 33 45
59 33 45
59 34 45
59 34 45
59 34 46
51 34 43
51 34 43
118 196 153
118 196 153
118 196 153
111 177 148
118 196 153
118 196 153
118 196 153
118 196 153
118 196 153
111 177 148
111 177 148
111 177 148
111 177 148
118 196 153
118 196 153
118 196 153
118 196 153
111 177 148
45 65 51
45 65 52
46 66 52
113 178 150
113 178 150
46 62 53
46 62 53
46 63 54
47 64 55
47 64 55
49 69 56
47 64 55
47 64 55
48 64 55
48 64 56
47 64 55
47 64 55
49 69 56
47 64 55
48 64 55
48 64 56
48 64 56
48 64 56
47 64 55
47 64 55
48 64 55
48 64 56
48 65 56
48 64 56
48 64 56
48 64 56
48 64 56
48 64 56
48 65 56
48 65 56
48 65 56
48 65 56
48 64 56
48 64 56
48 65 56
51 70 58
49 65 57
48 65 57
50 70 58
48 65 56
48 65 56
49 65 57
49 65 57
49 66 58
52 72 59
52 72 60
50 66 58
52 72 59
51 71 59
51 71 59
52 72 59
52 72 60
52 72 60
50 67 59
52 72 60
52 72 60
52 72 60
50 66 58
50 66 58
49 65 57
114 178 151
121 196 156
121 196 156
121 196 156
121 196 156
121 196 156
114 178 151
121 196 156
47 63 55
49 69 56
47 63 55
47 63 54
47 63 54
120 196 155
120 196 155
113 177 150
120 196 155
113 177 150
113 177 150
113 177 150
113 177 150
113 177 150
113 178 150
113 178 150
113 178 150
113 178 150
113 178 150
113 178 150
120 196 155
113 178 151
113 178 151
113 178 151
113 178 151
113 178 151
113 178 151
113 178 151
120 196 155
114 178 151
114 178 151
114 178 151
114 178 151
114 178 151
121 196 156
121 196 156
121 196 156
114 178 151
114 178 151
121 196 156
114 178 151
121 196 156
121 196 156
121 196 156
121 196 156
114 178 152
114 178 152
121 196 156
114 178 152
121 196 156
114 178 152
121 196 156
121 196 156
115 178 152
115 178 152
115 178 152
94 144 164
94 144 164
56 73 66
55 72 65
55 72 65
55 72 65
55 72 65
55 72 65
55 72 65
55 72 65
114 178 151
121 196 156
121 196 156
114 178 151
114 178 151
114 178 151
114 178 151
114 178 151
121 196 156
121 196 156
114 178 151
114 178 151
114 178 151
114 178 151
113 178 151
120 196 155
120 196 155
120 196 155
113 178 151
113 178 151
120 196 155
113 177 150
113 177 150
113 177 150
113 177 150
113 177 150
120 196 155
120 196 155
120 196 155
120 196 155
120 196 155
113 177 150
113 177 150
113 177 150
113 177 150
113 177 150
113 177 150
113 177 150
112 177 150
119 196 154
119 196 154
112 177 150
112 177 150
119 196 154
112 177 150
112 177 149
112 177 149
119 196 154
112 177 149
112 177 149
112 177 149
119 196 154
112 177 149
119 196 154
48 68 55
48 68 55
46 63 54
48 68 55
120 196 155
120 196 155
120 196 155
120 196 155
113 177 150
120 196 155
120 196 155
120 196 155
120 196 155
120 196 155
48 64 56
48 64 56
48 65 56
48 65 56
50 70 58
50 70 58
50 70 58
50 70 58
51 70 58
51 71 58
49 65 57
49 65 57
49 65 57
51 71 58
49 65 57
48 65 56
48 65 56
50 70 58
48 65 56
48 65 56
50 70 58
48 64 56
48 64 56
48 64 56
50 70 57
48 64 56
48 65 56
48 64 56
49 69 57
47 64 55
47 64 55
47 64 55
48 64 56
48 64 56
47 64 55
47 63 55
47 63 55
47 64 55
47 64 55
47 64 55
47 64 55
47 63 55
47 63 54
47 63 54
47 63 55
47 63 55
47 64 55
47 63 54
46 63 54
46 63 54
46 63 54
47 63 54
47 63 54
47 63 54
46 63 54
46 63 54
46 63 54
46 63 54
46 63 54
45 62 52
118 196 152
118 196 152
110 177 148
118 196 152
118 196 152
118 196 152
110 177 148
110 177 148
118 196 152
118 196 152
118 196 152
118 196 152
118 196 152
111 177 148
118 196 152
118 196 152
59 34 45
59 33 45
51 33 42
51 33 42
50 33 42
50 32 42
50 32 42
50 32 42
50 32 42
50 33 42
50 33 42
51 33 42
59 33 45
59 33 45
59 34 45
59 34 45
111 177 148
111 177 148
111 177 148
111 177 148
111 177 148
111 177 148
111 177 148
111 177 148
111 177 148
118 196 153
111 177 148
111 177 148
111 177 148
118 196 153
111 177 148
111 177 148
118 196 153
111 177 148
111 177 148
118 196 153
111 177 148
111 177 148
111 177 148
111 177 148
119 196 154
119 196 154
112 178 150
119 196 154
119 196 154
47 64 55
47 64 55
47 64 55
47 64 55
47 64 55
48 64 56
48 64 56
47 64 55
47 64 55
47 64 55
47 64 55
48 64 56
48 64 56
48 64 56
48 64 56
48 64 55
47 64 55
48 64 56
48 64 56
48 65 56
48 65 56
48 64 56
48 64 56
48 64 56
48 64 56
48 65 56
48 65 56
48 65 56
48 65 56
48 65 56
48 64 56
48 65 56
49 65 57
49 65 57
49 65 57
48 65 57
48 65 56
48 65 56
49 65 57
49 66 57
49 66 58
50 66 58
57 79 73
52 72 59
50 66 58
52 71 59
51 71 59
52 72 60
52 72 60
52 72 60
52 72 60
52 72 60
52 72 60
50 66 58
50 66 58
50 66 58
49 65 57
48 65 57
48 65 57
48 65 56
48 65 56
114 178 151
114 178 151
114 178 151
90 137 101
47 63 55
47 63 55
49 69 56
119 196 154
112 177 150
119 196 154
119 196 154
119 196 154
120 196 154
113 177 150
113 177 150
120 196 155
120 196 155
120 196 155
120 196 155
120 196 155
120 196 155
113 177 150
113 177 150
113 177 150
113 177 150
120 196 155
113 177 150
113 178 150
113 178 150
120 196 155
113 178 150
120 196 155
120 196 155
113 178 151
120 196 155
113 178 151
113 178 151
113 178 151
120 196 155
120 196 155
120 196 155
120 196 155
120 196 156
114 178 151
114 178 151
114 178 151
114 178 151
121 196 156
121 196 156
121 196 156
114 178 151
114 178 151
121 196 156
121 196 156
114 178 152
121 196 156
121 196 156
114 178 152
114 178 152
114 178 152
114 178 152
115 178 152
56 73 66
56 73 66
55 72 65
55 72 65
92 139 103
121 196 156
121 196 156
121 196 156
121 196 156
121 196 156
121 196 156
114 178 151
114 178 151
120 196 155
120 196 155
120 196 155
120 196 155
120 196 155
120 196 155
120 196 155
120 196 155
120 196 155
120 196 155
120 196 155
120 196 155
120 196 155
120 196 155
120 196 155
113 177 150
113 177 150
120 196 155
120 196 155
120 196 155
120 196 155
113 177 150
120 196 155
113 177 150
120 196 154
119 196 154
119 196 154
119 196 154
112 177 150
119 196 154
112 177 150
119 196 154
119 196 154
119 196 154
119 196 154
119 196 154
119 196 154
112 177 149
119 196 154
119 196 154
119 196 154
119 196 154
119 196 154
112 177 149
119 196 154
112 177 149
89 136 99
47 67 54
47 67 54
48 68 55
48 68 55
48 68 55
46 63 54
120 196 155
113 177 150
113 177 150
113 177 150
113 177 150
120 196 155
113 177 150
120 196 155
113 177 150
47 63 55
47 63 55
48 65 56
48 65 56
48 65 56
50 70 58
50 70 58
48 65 56
50 70 58
51 71 58
49 65 57
49 65 57
49 65 57
58 83 73
57 83 73
55 77 71
48 65 56
48 65 56
48 65 56
50 70 58
57 82 72
57 82 72
48 65 56
48 64 56
48 64 56
48 64 56
50 70 57
57 82 72
48 64 56
48 64 55
47 64 55
47 64 55
48 64 55
48 64 56
55 76 70
47 64 55
47 64 55
47 64 55
47 64 55
47 64 55
47 64 55
47 64 55
47 63 55
47 63 54
47 63 54
47 63 55
47 63 55
49 69 56
47 63 55
47 63 54
46 63 54
46 63 54
47 63 54
47 63 54
47 63 55
47 63 54
46 63 54
46 63 54
48 68 55
46 63 54
42 58 49
86 135 96
110 177 147
117 196 152
110 177 147
110 177 147
117 196 152
117 196 152
110 177 147
117 196 152
117 196 152
117 196 152
110 177 147
118 196 152
110 177 147
110 177 147
118 196 152
118 196 152
118 196 152
51 33 42
51 33 42
50 33 42
50 32 42
50 32 42
50 32 42
50 32 42
50 33 42
50 33 42
51 33 42
59 33 45
118 196 152
118 196 152
118 196 152
118 196 153
118 196 153
118 196 153
118 196 153
118 196 153
118 196 153
111 177 148
118 196 153
118 196 153
111 177 148
111 177 148
111 177 148
118 196 153
111 177 148
111 177 148
118 196 153
118 196 153
118 196 153
118 196 153
118 196 153
111 177 148
111 177 148
44 64 50
44 64 50
112 178 149
112 178 149
119 196 154
119 196 154
45 61 52
45 61 52
55 76 71
47 64 55
47 64 55
57 82 72
57 82 72
57 82 72
57 82 72
47 64 55
47 64 55
47 64 55
57 82 72
55 77 71
55 77 71
50 70 57
48 64 56
47 64 55
48 64 56
55 77 71
57 83 73
58 83 73
48 64 56
48 64 56
48 64 56
48 65 56
56 77 72
56 77 72
48 65 56
48 65 56
48 65 56
48 65 56
48 65 57
58 83 73
49 65 57
49 65 57
48 65 57
48 65 56
48 65 57
49 65 57
58 83 74
56 78 72
56 78 72
56 78 73
56 78 73
57 78 73
59 84 74
57 78 73
57 78 73
57 78 73
57 78 73
59 84 74
57 79 73
57 79 73
50 66 58
50 66 58
50 66 58
49 65 57
49 65 57
48 65 57
120 196 155
120 196 155
120 196 155
113 178 151
120 196 155
47 64 55
47 64 55
47 63 55
47 63 55
46 62 53
46 62 53
46 62 53
89 137 100
119 196 154
112 177 150
112 177 150
112 177 150
119 196 154
112 177 150
112 177 150
119 196 154
113 177 150
120 196 154
113 177 150
120 196 155
113 177 150
113 177 150
113 177 150
120 196 155
120 196 155
120 196 155
120 196 155
113 177 150
113 177 150
113 177 150
113 177 150
120 196 155
120 196 155
120 196 155
120 196 155
113 178 151
113 178 151
120 196 155
120 196 155
120 196 155
120 196 155
120 196 155
120 196 155
120 196 155
120 196 155
120 196 156
114 178 151
121 196 156
121 196 156
121 196 156
121 196 156
114 178 151
121 196 156
121 196 156
121 196 156
114 178 151
114 178 151
121 196 156
121 196 156
62 84 79
64 89 81
55 72 65
55 72 65
55 72 65
121 196 156
114 178 151
114 178 151
114 178 151
114 178 151
113 178 151
113 178 151
113 178 151
120 196 155
113 178 151
120 196 155
113 177 151
120 196 155
120 196 155
113 177 150
113 177 150
120 196 155
113 177 150
113 177 150
113 177 150
113 177 150
120 196 155
113 177 150
113 177 150
120 196 155
113 177 150
113 177 150
113 177 150
113 177 150
112 177 150
119 196 154
119 196 154
112 177 150
119 196 154
119 196 154
112 177 149
112 177 149
119 196 154
119 196 154
119 196 154
112 177 149
119 196 154
119 196 154
112 177 149
112 177 149
119 196 154
112 177 149
119 196 154
119 196 154
119 196 154
119 196 154
119 196 154
45 62 52
47 67 54
47 67 54
47 67 54
47 67 54
47 67 54
48 68 55
48 68 55
46 63 54
49 68 55
113 177 150
113 177 150
120 196 154
119 196 154
119 196 154
112 177 150
47 63 55
47 63 55
47 63 55
47 64 55
50 70 57
48 65 56
48 65 56
48 65 56
50 70 58
48 65 57
51 70 58
55 77 71
55 77 71
57 82 72
113 178 151
57 82 72
57 82 72
57 82 72
55 76 71
57 82 72
57 82 72
57 82 72
57 82 72
57 82 72
57 82 72
55 76 70
57 82 72
54 76 70
56 82 72
56 81 72
54 76 70
56 81 71
54 76 70
56 81 71
56 81 71
56 81 71
56 81 71
56 81 71
56 81 71
54 76 70
56 81 71
54 76 70
54 75 70
56 81 71
56 81 71
47 63 54
47 63 55
56 81 71
54 75 69
56 81 71
56 81 71
56 81 71
46 63 54
47 63 54
56 81 71
56 81 71
56 81 71
53 75 69
46 63 54
46 63 54
46 63 54
44 60 51
42 58 49
42 58 48
117 196 152
117 196 152
110 177 147
110 177 147
110 177 147
110 177 147
110 177 147
110 177 147
110 177 147
110 177 147
110 177 147
110 177 147
110 177 147
110 177 147
110 177 147
117 196 152
117 196 152
110 177 147
110 177 147
110 177 147
50 33 42
50 32 42
50 32 42
50 32 42
117 196 152
110 177 147
110 177 147
110 177 147
118 196 152
118 196 152
118 196 152
110 177 148
118 196 152
110 177 148
110 177 148
110 177 148
110 177 148
110 177 148
111 177 148
118 196 152
118 196 153
118 196 153
111 177 148
111 177 148
111 177 148
111 177 148
118 196 153
111 177 148
118 196 153
111 177 148
111 177 148
111 177 148
118 196 153
111 177 148
44 64 50
112 178 149
119 197 154
119 197 154
112 178 149
119 197 154
45 61 52
56 82 71
54 76 70
54 76 70
55 76 70
120 197 155
57 82 72
55 76 70
57 82 72
55 76 70
57 82 72
57 82 72
121 197 155
57 82 72
57 82 72
57 82 72
50 70 57
47 64 55
57 82 72
55 77 71
57 82 72
57 82 72
55 77 71
50 70 57
57 82 72
57 82 72
57 82 73
57 82 73
57 82 73
57 83 73
48 65 56
58 83 73
58 83 73
58 83 73
58 83 73
58 83 73
58 83 73
58 83 73
58 83 73
56 77 72
121 196 156
121 196 156
121 196 156
114 178 151
121 196 156
56 78 72
58 83 74
58 83 74
121 196 156
121 196 156
114 178 152
121 196 156
59 84 74
57 78 73
57 78 73
59 84 74
49 65 57
49 65 57
48 65 57
47 64 55
47 64 55
47 64 55
120 196 155
120 196 155
47 64 55
47 64 55
47 63 55
89 137 100
46 62 53
46 62 53
46 62 53
46 62 53
119 196 154
119 196 154
119 196 154
119 196 154
112 177 149
112 177 149
112 177 149
112 177 150
112 177 150
119 196 154
119 196 154
112 177 150
119 196 154
119 196 154
119 196 154
113 177 150
113 177 150
120 196 155
120 196 155
113 177 150
113 177 150
113 177 150
113 177 150
113 177 150
113 177 150
120 196 155
113 177 150
113 177 150
113 177 150
113 177 150
120 196 155
113 178 150
113 178 150
120 196 155
113 178 151
120 196 155
113 178 151
113 178 151
113 178 151
113 178 151
114 178 151
114 178 151
114 178 151
114 178 151
114 178 151
121 196 156
114 178 151
114 178 151
121 196 156
121 196 156
114 178 151
121 196 156
120 196 156
120 196 155
120 196 155
120 196 155
120 196 155
113 178 151
120 196 155
113 178 151
120 196 155
113 177 151
113 177 150
120 196 155
113 177 150
113 177 150
113 177 150
120 196 155
120 196 155
120 196 155
120 196 155
120 196 155
120 196 155
113 177 150
113 177 150
113 177 150
120 196 154
113 177 150
113 177 150
112 177 150
112 177 150
112 177 150
112 177 150
119 196 154
119 196 154
119 196 154
119 196 154
112 177 149
112 177 149
112 177 149
112 177 149
112 177 149
112 177 149
119 196 154
119 196 154
112 177 149
112 177 149
112 177 149
112 177 149
112 177 149
112 177 149
112 177 149
112 177 149
112 177 149
112 177 149
111 177 149
111 177 149
111 177 149
111 177 149
111 177 149
47 67 54
47 67 54
47 67 54
47 67 54
48 68 55
48 68 55
49 68 55
119 196 154
119 196 154
119 196 154
119 196 154
119 196 154
119 196 154
119 196 154
119 196 154
47 63 55
49 69 56
47 64 55
48 65 56
50 70 58
48 65 56
55 77 71
55 77 71
55 76 71
113 178 151
113 177 151
113 177 150
113 177 150
113 177 150
113 177 150
54 76 70
113 177 150
120 196 155
113 177 150
113 177 150
113 177 150
113 177 150
54 76 70
54 76 70
54 76 70
54 76 70
54 76 70
90 137 101
49 69 56
47 64 55
47 64 55
47 64 55
49 69 56
56 81 71
56 81 71
47 63 55
47 63 55
47 64 55
47 63 55
47 63 54
119 196 154
55 81 70
47 63 54
47 63 54
49 69 56
46 63 54
112 177 150
119 196 154
55 80 70
53 75 69
53 75 69
53 75 69
53 75 69
119 196 154
55 80 70
55 80 70
53 75 69
53 75 69
53 75 69
55 80 70
110 177 147
110 177 147
117 196 152
117 196 152
117 196 152
117 196 152
117 196 152
110 177 147
117 196 152
117 196 152
117 196 152
117 196 152
117 196 152
117 196 152
117 196 152
110 177 147
117 196 152
110 177 147
110 177 147
117 196 152
117 196 152
117 196 152
117 196 152
110 177 147
110 177 147
117 196 152
117 196 152
117 196 152
117 196 152
110 177 147
110 177 147
110 177 147
110 177 147
117 196 152
110 177 147
110 177 147
118 196 152
110 177 147
118 196 152
110 177 147
110 177 147
110 177 148
118 196 152
118 196 152
118 196 152
110 177 148
110 177 148
110 177 148
110 177 148
111 177 148
111 177 148
111 177 148
111 177 148
111 177 148
111 177 148
111 177 148
118 197 153
111 177 148
86 135 95
119 197 154
119 197 154
119 197 154
119 197 154
119 197 154
44 60 51
113 178 151
113 178 151
120 197 155
120 197 155
120 197 155
120 197 155
113 178 151
113 178 151
113 178 151
113 178 151
113 178 151
49 69 56
47 64 55
47 64 55
48 64 55
47 64 55
47 64 55
47 64 55
49 69 56
47 64 55
48 64 56
48 64 56
48 64 56
48 64 55
47 64 55
90 138 101
48 64 56
48 64 56
48 65 56
48 64 56
48 64 56
48 64 56
121 196 156
48 65 56
48 65 56
48 65 56
48 65 56
48 65 56
121 196 156
121 196 156
121 196 156
114 178 151
114 178 151
121 196 156
114 178 151
121 196 156
121 196 156
114 178 151
121 196 156
114 178 151
114 178 151
114 178 151
121 196 156
91 138 102
49 65 57
49 65 57
48 64 55
47 64 55
47 64 55
47 64 55
47 64 55
113 178 150
56 81 71
56 81 71
49 69 56
46 62 54
46 62 53
48 68 55
48 68 55
45 61 52
112 177 149
119 196 154
119 196 154
119 196 154
119 196 154
119 196 154
119 196 154
119 196 154
119 196 154
119 196 154
112 177 149
119 196 154
119 196 154
119 196 154
119 196 154
119 196 154
119 196 154
112 177 150
119 196 154
119 196 154
119 196 154
119 196 154
113 177 150
113 177 150
113 177 150
120 196 155
120 196 155
120 196 155
120 196 155
113 177 150
113 177 150
113 177 150
120 196 155
120 196 155
120 196 155
120 196 155
120 196 155
120 196 155
113 178 150
120 196 155
120 196 155
120 196 155
120 196 155
113 178 151
120 196 155
113 178 151
114 178 151
114 178 151
114 178 151
120 196 156
121 196 156
120 196 155
120 196 155
120 196 155
120 196 155
113 178 151
120 196 155
113 177 150
113 177 150
120 196 155
120 196 155
120 196 155
120 196 155
113 177 150
113 177 150
120 196 155
120 196 155
120 196 155
120 196 155
120 196 155
120 196 154
113 177 150
113 177 150
119 196 154
119 196 154
119 196 154
119 196 154
119 196 154
119 196 154
119 196 154
112 177 149
119 196 154
119 196 154
119 196 154
112 177 149
119 196 154
119 196 154
119 196 154
119 196 154
119 196 154
112 177 149
119 196 154
119 196 154
119 196 154
119 196 154
112 177 149
112 177 149
119 196 153
119 196 153
119 196 153
118 196 153
111 177 149
118 196 153
111 177 149
111 177 149
95 155 103
46 66 53
46 66 53
46 66 53
46 66 53
47 67 54
47 67 54
47 67 54
47 67 54
53 75 69
53 75 69
112 177 150
112 177 149
112 177 149
112 177 149
119 196 154
46 62 53
46 62 53
48 68 55
46 62 54
47 63 55
47 64 55
49 69 56
47 64 55
57 82 72
113 177 150
113 177 150
120 196 155
120 196 155
113 177 150
120 196 155
120 196 155
120 196 155
120 196 155
113 177 150
113 177 150
97 156 106
47 64 55
49 69 57
49 69 57
49 69 57
49 69 56
113 177 150
97 156 105
49 69 56
49 69 56
47 64 55
47 64 55
47 64 55
47 64 55
47 64 55
47 64 55
47 64 55
47 63 54
47 63 54
47 63 55
47 63 55
47 64 55
47 63 55
49 69 56
46 63 54
46 63 54
47 63 54
47 63 54
47 63 55
47 63 54
46 63 54
48 68 55
112 177 149
119 196 154
119 196 154
112 177 149
112 177 149
119 196 154
119 196 154
119 196 154
112 177 149
112 177 149
118 196 153
118 196 153
41 57 47
41 57 47
117 196 152
110 176 147
117 196 152
110 177 147
117 196 152
110 177 147
110 177 147
110 177 147
117 196 152
110 177 147
117 196 152
117 196 152
110 177 147
110 177 147
110 177 147
117 196 152
117 196 152
117 196 152
117 196 152
117 196 152
110 177 147
110 177 147
110 177 147
117 196 152
117 196 152
117 196 152
117 196 152
117 196 152
110 177 147
110 177 147
117 196 152
117 196 152
117 196 152
117 196 152
117 196 152
117 196 152
110 177 147
110 177 147
117 196 152
110 177 147
117 196 152
110 177 147
118 196 152
118 196 152
118 196 152
110 177 147
110 177 147
118 197 152
118 197 152
118 197 152
118 197 152
118 197 152
118 197 152
118 197 152
43 63 49
43 63 49
43 63 49
119 197 154
112 178 149
119 197 154
43 60 50
44 60 51
44 60 51
120 197 155
113 178 150
120 197 155
120 197 155
120 197 155
120 197 155
120 197 155
120 197 155
89 137 100
48 68 55
49 69 56
47 63 55
47 64 55
47 64 55
48 64 56
47 64 55
47 64 55
47 64 55
47 64 55
47 64 55
48 64 56
48 64 56
48 64 56
48 64 56
47 64 55
47 64 55
48 64 56
48 65 56
48 65 56
50 70 57
48 64 56
48 64 56
48 64 56
48 65 56
48 65 57
48 65 57
48 65 56
48 65 56
48 65 56
50 70 57
50 70 57
50 70 57
114 178 151
121 196 156
114 178 151
121 196 156
121 196 156
121 196 156
121 196 156
114 178 151
121 196 156
114 178 151
121 196 156
121 196 156
58 83 73
49 65 57
48 64 56
48 64 55
47 64 55
113 178 150
120 196 155
120 196 155
120 196 155
56 81 71
56 81 71
46 63 54
46 62 54
46 62 53
46 62 53
45 61 52
47 67 53
45 61 52
45 61 52
45 61 52
119 196 154
112 177 149
119 196 154
112 177 149
112 177 149
112 177 149
112 177 149
119 196 154
119 196 154
119 196 154
112 177 149
112 177 149
112 177 149
112 177 149
112 177 149
119 196 154
119 196 154
112 177 150
112 177 150
112 177 150
112 177 150
112 177 150
112 177 150
119 196 154
119 196 154
120 196 154
113 177 150
113 177 150
113 177 150
113 177 150
113 177 150
120 196 155
120 196 155
120 196 155
120 196 155
113 177 150
113 177 150
113 177 150
120 196 155
120 196 155
120 196 155
120 196 155
113 178 151
113 178 151
113 178 151
113 178 151
120 196 155
113 177 150
113 177 150
113 177 150
113 177 150
113 177 150
113 177 150
113 177 150
113 177 150
113 177 150
113 177 150
113 177 150
113 177 150
113 177 150
113 177 150
113 177 150
119 196 154
112 177 150
112 177 150
112 177 150
112 177 150
112 177 150
112 177 150
112 177 149
119 196 154
112 177 149
112 177 149
112 177 149
112 177 149
112 177 149
112 177 149
119 196 154
119 196 154
119 196 154
112 177 149
112 177 149
112 177 149
112 177 149
119 196 154
119 196 154
119 196 153
119 196 153
111 177 149
119 196 153
111 177 149
111 177 149
111 177 149
118 196 153
118 196 153
118 196 153
118 196 153
118 196 153
111 177 148
111 177 148
111 177 148
46 66 53
46 66 53
46 66 53
44 61 51
46 66 53
47 67 54
47 67 54
47 67 54
48 67 54
112 177 149
119 196 154
119 196 154
119 196 154
119 196 154
119 196 154
119 196 154
46 62 53
48 68 55
46 62 54
46 62 54
49 69 56
47 64 55
47 64 55
47 64 55
120 196 155
113 177 150
120 196 155
113 177 150
120 196 155
120 196 155
120 196 155
113 177 150
97 156 105
47 63 55
47 64 55
47 64 55
47 64 55
47 64 55
49 69 57
50 69 57
50 70 57
49 69 56
49 69 56
49 69 56
49 69 56
49 69 56
49 69 56
47 64 55
49 69 56
47 64 55
47 64 55
48 64 55
47 64 55
47 63 55
47 63 55
47 63 55
47 64 55
49 69 56
47 64 55
47 63 54
46 63 54
49 69 56
47 63 54
47 63 54
47 63 55
47 63 54
46 63 54
48 68 55
48 68 55
48 68 54
119 196 154
112 177 149
119 196 154
119 196 154
119 196 154
119 196 154
119 196 154
119 196 154
43 59 50
43 59 50
41 57 47
117 196 151
117 196 151
117 196 151
110 176 147
117 196 152
110 176 147
110 176 147
110 176 147
110 177 147
117 196 152
117 196 152
110 177 147
110 177 147
110 177 147
117 196 152
110 177 147
110 177 147
110 177 147
117 196 152
110 177 147
110 177 147
110 177 147
117 196 152
117 196 152
110 177 147
110 177 147
117 196 152
117 196 152
110 177 147
110 177 147
110 177 147
110 177 147
110 177 147
110 177 147
117 196 152
117 196 152
110 177 147
110 177 147
110 177 147
110 177 147
110 177 147
110 177 147
117 196 152
110 177 147
110 177 147
110 177 147
110 177 147
110 177 147
110 177 147
110 177 147
118 197 152
110 177 147
110 177 147
118 197 152
110 177 148
118 197 152
110 177 148
43 63 49
112 178 149
112 178 149
119 197 154
119 197 154
119 197 154
119 197 154
113 178 150
113 178 150
113 178 150
113 178 150
113 178 150
120 197 155
46 62 53
46 62 53
46 63 54
49 69 56
49 69 56
47 63 55
47 64 55
48 64 55
48 64 56
50 70 57
47 64 55
47 64 55
47 64 55
48 64 55
50 70 57
48 64 56
48 64 56
48 64 56
50 70 57
50 70 57
48 64 56
48 65 56
48 65 56
48 65 56
50 70 57
48 64 56
50 70 57
48 65 56
49 65 57
50 70 58
48 65 56
48 65 56
48 65 56
50 70 57
50 70 57
48 64 56
50 70 57
50 70 57
48 64 56
90 138 101
120 196 155
120 196 155
120 196 155
121 196 156
114 178 151
121 196 156
121 196 156
121 196 156
57 82 73
57 83 73
48 64 56
112 178 150
113 178 150
113 178 150
113 178 150
120 196 154
113 178 150
120 196 155
120 196 155
46 63 54
46 62 54
48 68 55
89 136 99
45 61 52
47 67 53
45 61 52
45 61 52
112 177 149
119 196 153
119 196 153
119 196 154
119 196 154
119 196 154
112 177 149
112 177 149
112 177 149
119 196 154
112 177 149
119 196 154
119 196 154
112 177 149
112 177 149
112 177 149
112 177 149
119 196 154
119 196 154
119 196 154
112 177 149
112 177 149
112 177 149
112 177 150
112 177 150
112 177 150
119 196 154
119 196 154
112 177 150
112 177 150
113 177 150
113 177 150
113 177 150
113 177 150
113 177 150
120 196 155
113 177 150
120 196 155
113 177 150
113 177 150
113 177 150
113 177 150
113 177 150
113 177 150
113 177 150
113 177 150
113 178 150
113 178 151
113 177 150
113 177 150
120 196 155
120 196 155
120 196 155
120 196 155
120 196 155
120 196 155
113 177 150
113 177 150
113 177 150
119 196 154
119 196 154
119 196 154
119 196 154
119 196 154
112 177 150
112 177 149
112 177 149
119 196 154
119 196 154
119 196 154
119 196 154
119 196 154
112 177 149
112 177 149
112 177 149
112 177 149
119 196 154
119 196 154
119 196 154
119 196 154
112 177 149
112 177 149
112 177 149
112 177 149
111 177 149
118 196 153
118 196 153
111 177 149
111 177 149
111 177 148
111 177 148
111 177 148
111 177 148
118 196 153
118 196 153
111 177 148
118 196 153
118 196 153
118 196 153
111 177 148
118 196 153
118 196 153
87 136 97
44 61 51
46 66 53
46 66 53
46 66 53
47 67 54
47 67 54
54 80 69
112 177 149
112 177 149
119 196 154
119 196 154
119 196 154
119 196 154
112 177 149
88 136 99
47 67 54
46 62 53
48 68 55
48 68 55
48 68 55
56 81 71
56 81 71
120 196 155
113 177 150
120 196 155
113 177 150
113 177 150
97 156 105
47 63 54
49 69 56
47 63 55
47 63 55
47 64 55
47 64 55
47 64 55
49 69 56
49 69 57
49 69 57
48 64 55
50 70 57
49 69 56
49 69 56
49 69 56
47 63 55
49 69 56
49 69 56
47 64 55
47 64 55
47 64 55
47 64 55
48 64 56
47 64 55
47 63 55
47 63 55
47 63 55
49 69 56
47 64 55
47 64 55
47 63 55
47 63 54
47 63 54
47 63 54
47 63 55
47 63 55
47 63 55
46 63 54
48 68 55
48 68 55
48 68 54
45 62 53
45 61 52
119 196 154
112 177 149
112 177 149
112 177 149
112 177 149
112 177 149
85 134 94
117 196 151
117 196 151
117 196 151
117 196 151
117 196 151
117 196 151
109 176 146
117 196 151
117 196 151
117 196 151
117 196 151
117 196 151
117 196 151
117 196 151
117 196 151
117 196 151
117 196 151
117 196 151
109 177 147
117 196 151
117 196 152
117 196 152
117 196 152
110 177 147
110 177 147
110 177 147
117 196 152
117 196 152
110 177 147
117 196 152
117 196 152
110 177 147
110 177 147
110 177 147
117 196 152
110 177 147
117 196 152
117 196 152
117 196 152
110 177 147
110 177 147
110 177 147
117 197 152
117 197 152
117 197 152
117 197 152
117 197 152
117 197 152
110 177 147
110 177 147
117 197 152
110 177 147
117 197 152
117 197 152
110 177 147
110 177 147
118 197 152
110 177 147
110 177 147
110 177 147
42 62 48
112 178 149
119 197 154
112 178 149
112 178 149
43 59 49
45 65 51
120 197 155
113 178 150
47 67 54
47 67 54
48 68 54
46 62 53
46 63 54
48 68 55
49 69 56
49 69 56
47 64 55
47 64 55
48 64 56
48 64 56
48 64 55
47 64 55
47 64 55
47 64 55
48 64 56
48 64 56
48 64 56
48 64 56
48 64 56
48 64 56
50 70 57
48 65 56
48 65 56
48 65 56
48 65 56
48 64 56
48 64 56
48 65 56
48 65 56
49 65 57
48 65 57
50 70 58
48 65 56
48 65 56
50 70 58
48 65 56
50 70 57
50 70 57
50 70 57
48 64 56
48 64 56
47 64 55
47 64 55
47 64 55
113 178 151
113 178 151
113 178 151
113 178 151
114 178 151
120 196 155
120 196 155
48 64 56
48 68 55
48 68 54
48 68 54
96 155 104
112 177 150
112 177 150
119 196 154
119 196 154
53 75 69
55 80 70
53 75 69
45 61 52
45 61 52
45 61 52
45 61 52
46 66 52
44 60 51
118 196 153
118 196 153
118 196 153
111 177 149
119 196 153
119 196 153
112 177 149
112 177 149
119 196 153
119 196 154
119 196 154
119 196 154
119 196 154
119 196 154
119 196 154
119 196 154
119 196 154
119 196 154
112 177 149
119 196 154
119 196 154
119 196 154
119 196 154
112 177 149
119 196 154
119 196 154
119 196 154
119 196 154
119 196 154
119 196 154
119 196 154
112 177 150
119 196 154
119 196 154
119 196 154
119 196 154
113 177 150
120 196 155
120 196 155
113 177 150
113 177 150
120 196 155
120 196 155
113 177 150
120 196 155
120 196 155
120 196 155
113 177 150
120 196 155
120 196 155
120 196 154
119 196 154
119 196 154
112 177 150
112 177 150
112 177 150
119 196 154
112 177 150
119 196 154
119 196 154
119 196 154
112 177 149
112 177 149
112 177 149
119 196 154
119 196 154
119 196 154
119 196 154
119 196 154
119 196 154
119 196 154
112 177 149
119 196 154
119 196 154
119 196 154
119 196 153
119 196 153
119 196 153
118 196 153
118 196 153
111 177 149
111 177 149
111 177 149
118 196 153
111 177 148
111 177 148
118 196 153
111 177 148
118 196 153
118 196 153
118 196 153
118 196 153
118 196 153
118 196 153
118 196 153
111 177 148
111 177 148
45 65 51
45 65 51
45 65 51
45 65 52
45 65 52
46 66 53
46 66 53
46 66 53
47 66 53
95 155 103
52 74 67
112 177 149
112 177 149
112 177 149
112 177 149
119 196 153
45 61 52
45 61 52
45 61 52
47 67 54
45 61 52
46 62 54
46 63 54
46 63 54
46 63 54
119 196 154
119 196 154
119 196 154
119 196 154
112 177 150
119 196 154
49 69 56
47 63 54
49 69 56
49 69 56
47 63 55
49 69 56
47 64 55
47 64 55
47 64 55
49 69 57
49 69 57
50 69 57
50 70 57
50 70 57
49 69 57
49 69 56
49 69 56
49 69 56
49 69 56
49 69 56
47 64 55
47 64 55
47 64 55
56 81 72
56 81 71
56 81 71
47 64 55
47 63 55
49 69 56
47 64 55
56 81 71
56 81 71
47 63 55
47 63 54
47 63 54
47 63 54
47 63 55
56 81 71
56 81 71
47 63 54
46 63 54
48 68 55
48 68 55
45 62 53
45 62 52
45 61 52
47 67 53
95 155 103
112 177 149
119 196 153
110 177 148
118 196 152
42 62 47
39 56 45
116 196 151
116 196 151
109 176 146
109 176 146
109 176 146
109 176 146
109 176 146
109 176 146
117 196 151
117 196 151
117 196 151
109 176 146
109 177 146
109 177 146
109 177 146
109 177 146
117 196 151
117 196 151
109 177 146
117 196 151
117 196 151
109 177 147
109 177 147
109 177 147
109 177 147
110 177 147
117 196 152
117 196 152
117 196 152
117 196 152
110 177 147
110 177 147
117 196 152
117 196 152
117 196 152
117 197 152
117 197 152
110 177 147
110 177 147
117 197 152
117 197 152
117 197 152
117 197 152
117 197 152
117 197 152
117 197 152
110 177 147
117 197 152
117 197 152
117 197 152
117 197 152
117 197 152
117 197 152
117 197 152
117 197 152
42 62 47
42 62 47
42 62 47
42 62 48
119 197 153
44 64 50
42 59 49
45 65 51
45 65 51
120 197 155
45 61 52
47 67 54
47 67 54
47 67 54
46 62 53
46 62 53
46 63 54
48 68 55
49 69 56
49 69 56
47 64 55
57 82 72
57 82 72
57 82 73
57 83 73
57 83 73
47 64 55
47 64 55
58 83 73
58 83 73
58 83 73
58 83 73
48 64 56
48 64 56
50 70 57
58 83 73
58 83 73
58 83 73
48 65 56
48 65 56
48 64 56
48 65 56
58 83 73
58 83 73
58 83 73
48 65 57
48 65 56
48 65 56
50 70 58
48 65 56
50 70 57
50 70 57
48 64 56
48 64 56
48 64 56
50 70 57
47 64 55
49 69 57
49 69 57
49 69 56
47 64 55
97 156 105
120 196 155
120 196 155
120 196 155
55 76 70
46 62 53
48 68 54
48 68 54
48 68 54
112 177 149
112 177 149
119 196 154
119 196 154
119 196 154
55 80 70
55 80 70
45 61 52
45 61 52
45 61 52
45 61 52
44 60 51
44 60 51
44 60 51
44 60 51
44 60 51
46 66 52
118 196 153
111 177 148
111 177 149
111 177 149
118 196 153
118 196 153
111 177 149
119 196 153
119 196 153
119 196 153
112 177 149
112 177 149
112 177 149
112 177 149
112 177 149
112 177 149
119 196 154
119 196 154
112 177 149
112 177 149
112 177 149
112 177 149
112 177 149
112 177 149
119 196 154
119 196 154
119 196 154
112 177 149
119 196 154
112 177 149
112 177 150
119 196 154
119 196 154
119 196 154
119 196 154
112 177 150
113 177 150
113 177 150
113 177 150
120 196 155
120 196 155
120 196 155
120 196 155
112 177 150
112 177 150
112 177 150
112 177 150
112 177 150
112 177 150
112 177 149
112 177 149
112 177 149
119 196 154
112 177 149
112 177 149
112 177 149
112 177 149
112 177 149
112 177 149
112 177 149
119 196 154
119 196 154
112 177 149
112 177 149
112 177 149
119 196 153
112 177 149
111 177 149
119 196 153
118 196 153
118 196 153
111 177 149
118 196 153
111 177 148
111 177 148
118 196 153
118 196 153
118 196 153
118 196 153
118 196 153
111 177 148
118 196 153
111 177 148
111 177 148
118 196 153
118 196 153
118 196 153
118 196 153
118 196 153
43 59 50
43 59 50
43 59 50
45 65 51
45 65 51
43 60 50
45 65 52
45 65 52
45 65 52
46 66 53
46 66 53
47 66 53
47 66 53
47 67 53
112 177 149
119 196 153
111 177 149
118 196 153
118 196 153
118 196 153
118 196 153
45 61 52
45 61 52
45 61 52
45 61 52
48 68 55
46 63 54
46 63 54
55 80 70
112 177 150
112 177 150
112 177 149
119 196 154
112 177 149
112 177 149
112 177 149
49 69 56
49 69 56
49 69 56
47 63 55
47 64 55
47 64 55
49 69 56
47 64 55
49 69 57
50 69 57
50 70 57
54 76 70
54 76 70
54 76 70
49 69 56
49 69 56
49 69 56
47 64 55
54 76 70
54 76 70
56 81 71
56 81 71
56 81 71
56 81 71
56 81 71
54 75 69
54 75 69
56 81 71
56 81 71
56 81 71
56 81 71
56 81 71
56 81 71
56 81 71
56 81 71
56 81 70
56 81 70
55 81 70
55 81 70
55 81 70
48 68 55
48 68 55
45 62 53
45 62 52
45 61 52
47 67 53
118 196 153
111 177 149
111 177 149
42 58 48
44 64 50
40 56 46
40 56 45
39 56 45
41 61 46
109 176 146
116 196 151
109 176 146
116 196 151
109 176 146
109 176 146
116 196 151
116 196 151
109 176 146
109 176 146
109 176 146
116 196 151
117 196 151
109 177 146
109 177 146
109 177 146
109 177 146
109 177 146
109 177 146
109 177 146
109 177 146
109 177 146
109 177 146
109 177 146
109 177 147
109 177 147
109 177 147
109 177 147
110 177 147
110 177 147
117 197 152
110 177 147
117 197 152
110 177 147
117 197 152
110 177 147
110 177 147
110 177 147
110 177 147
110 177 147
117 197 152
110 177 147
117 197 152
110 177 147
117 197 152
110 177 147
110 177 147
110 177 147
117 197 152
110 177 147
85 134 94
39 56 45
39 56 45
42 62 47
42 62 47
42 62 48
42 62 48
44 64 50
42 58 49
42 59 49
43 59 49
43 59 49
120 197 155
45 61 52
47 67 54
47 67 54
48 68 54
46 62 53
46 62 54
46 63 54
49 69 56
55 76 71
55 77 71
55 77 71
55 77 71
57 82 72
57 82 72
57 82 72
55 77 71
55 77 71
55 77 71
55 77 71
57 82 72
57 82 72
57 82 72
57 82 72
55 77 71
55 77 71
57 83 73
57 83 73
58 83 73
58 83 73
58 83 73
56 77 71
56 77 71
58 83 73
58 83 73
58 83 73
58 83 73
58 83 73
56 77 72
50 70 58
50 70 58
50 70 57
50 70 57
48 64 56
48 64 56
48 64 56
50 70 57
47 64 55
47 64 55
47 64 55
49 69 56
49 69 56
113 178 150
120 196 155
113 178 150
113 178 150
46 62 53
48 68 55
48 68 55
48 68 54
95 155 103
112 177 149
112 177 149
112 177 149
112 177 149
112 177 149
112 177 149
112 177 149
47 67 54
47 67 54
45 61 52
45 61 52
46 66 52
44 60 51
44 60 51
44 60 51
44 60 51
118 196 153
118 196 153
118 196 153
118 196 153
118 196 153
111 177 148
111 177 148
111 177 148
111 177 148
118 196 153
118 196 153
111 177 149
118 196 153
111 177 149
111 177 149
111 177 149
112 177 149
112 177 149
119 196 153
119 196 154
119 196 154
119 196 154
112 177 149
112 177 149
112 177 149
112 177 149
119 196 154
119 196 154
119 196 154
112 177 149
112 177 149
112 177 149
112 177 149
112 177 149
112 177 149
119 196 154
119 196 154
112 177 150
112 177 150
112 177 150
112 177 150
112 177 150
112 177 150
113 177 150
119 196 154
112 177 149
112 177 149
112 177 149
119 196 154
119 196 154
119 196 154
119 196 154
119 196 154
112 177 149
112 177 149
112 177 149
112 177 149
112 177 149
119 196 154
112 177 149
119 196 154
119 196 153
112 177 149
111 177 149
111 177 149
111 177 149
111 177 149
111 177 149
111 177 148
118 196 153
111 177 148
111 177 148
111 177 148
111 177 148
111 177 148
118 196 153
111 177 148
118 196 153
111 177 148
111 177 148
111 177 148
111 177 148
111 177 148
111 177 148
111 177 148
118 196 153
43 59 50
43 59 50
43 59 50
43 59 50
43 59 50
43 59 50
43 60 50
45 65 51
45 65 51
45 65 52
43 60 50
45 65 52
43 60 50
46 66 53
47 66 53
51 73 67
111 177 149
111 177 149
111 177 149
111 177 148
111 177 148
118 196 153
118 196 153
88 136 98
46 66 52
44 60 51
45 61 52
45 61 52
45 62 52
47 67 54
55 80 70
119 196 154
119 196 154
112 177 149
119 196 154
119 196 154
46 62 53
48 68 54
48 68 55
48 68 55
49 69 56
49 69 56
49 69 56
47 64 55
47 64 55
47 64 55
47 64 55
56 81 71
56 81 71
54 76 70
54 76 70
54 76 70
54 76 70
54 76 70
54 75 70
54 75 69
54 75 69
54 75 69
113 177 150
54 75 69
54 75 69
54 75 69
53 75 69
53 75 69
53 75 69
53 75 69
53 75 69
53 75 69
55 80 70
112 177 150
53 75 69
53 75 69
53 75 69
53 75 69
53 75 69
55 80 70
112 177 150
53 75 69
53 75 68
53 75 68
53 75 68
53 75 68
46 62 53
46 66 52
111 177 148
111 177 148
111 177 148
111 177 148
118 196 153
42 58 48
117 196 152
40 56 46
40 56 46
39 56 45
41 61 46
41 61 46
41 61 46
116 196 151
116 196 151
116 196 151
109 176 146
116 196 151
116 196 151
116 196 151
109 176 146
116 196 151
109 176 146
116 196 151
116 196 151
109 177 146
116 196 151
116 196 151
117 196 151
109 177 146
109 177 146
109 177 146
117 196 151
109 177 146
109 177 146
117 196 151
117 196 151
109 177 146
109 177 146
109 177 147
109 177 147
117 197 151
109 177 147
117 197 152
117 197 152
117 197 152
117 197 152
117 197 152
110 177 147
110 177 147
117 197 152
117 197 152
117 197 152
117 197 152
117 197 152
117 197 152
110 177 147
110 177 147
110 177 147
41 61 46
39 55 45
39 55 45
39 56 45
39 56 45
42 62 47
42 62 47
42 62 48
42 62 48
111 178 148
111 178 148
42 59 49
43 59 49
43 59 50
120 197 154
120 197 154
120 197 154
47 67 54
48 68 54
46 62 53
46 63 54
57 82 71
57 82 71
57 82 71
114 179 151
114 179 151
114 179 151
55 76 70
49 69 56
49 69 56
114 179 151
114 179 151
114 179 151
114 179 151
55 76 71
97 156 105
49 69 56
114 179 151
114 178 151
114 178 151
55 77 71
55 77 71
55 77 71
114 178 151
114 178 151
55 77 71
114 178 151
55 77 71
55 77 71
55 77 71
114 178 151
114 178 151
55 77 71
55 77 71
55 77 71
56 77 71
56 77 71
48 64 56
48 64 56
48 64 56
48 64 56
48 64 55
50 69 57
49 69 57
47 64 55
48 68 55
96 156 105
113 178 150
113 178 150
120 196 155
48 68 55
48 68 55
48 68 55
95 155 103
47 67 53
45 61 52
44 61 52
47 66 53
112 177 149
112 177 149
119 196 154
119 196 154
54 79 69
54 79 69
52 74 67
44 60 51
44 60 51
44 60 51
46 66 52
44 60 51
43 59 50
111 177 148
118 196 153
118 196 153
118 196 153
118 196 153
118 196 153
111 177 148
111 177 148
111 177 148
118 196 153
118 196 153
111 177 148
118 196 153
111 177 148
118 196 153
111 177 148
111 177 149
118 196 153
118 196 153
111 177 149
111 177 149
119 196 153
119 196 153
119 196 153
119 196 153
119 196 154
119 196 154
119 196 154
112 177 149
119 196 154
119 196 154
119 196 154
119 196 154
119 196 154
119 196 154
119 196 154
119 196 154
119 196 154
119 196 154
112 177 149
119 196 154
112 177 149
119 196 154
119 196 154
119 196 154
112 177 149
119 196 154
119 196 154
119 196 154
119 196 154
112 177 149
119 196 154
119 196 154
119 196 154
112 177 149
112 177 149
119 196 153
119 196 153
119 196 153
118 196 153
118 196 153
111 177 149
118 196 153
118 196 153
118 196 153
118 196 153
111 177 148
118 196 153
118 196 153
118 196 153
118 196 153
111 177 148
118 196 153
118 196 153
118 196 153
118 196 153
118 196 153
118 196 153
118 196 153
118 196 153
111 177 148
118 196 153
118 196 153
118 196 152
118 196 152
118 196 152
118 196 152
43 59 50
45 65 51
43 59 50
45 65 51
43 60 50
43 60 50
45 65 52
45 65 52
45 65 52
45 65 52
46 65 52
46 65 52
46 66 52
51 73 66
111 177 148
118 196 153
111 177 148
111 177 148
118 196 153
44 60 51
44 60 51
44 60 51
46 66 52
44 60 51
44 60 51
45 61 52
45 62 52
45 62 52
45 62 53
119 196 154
119 196 154
89 137 99
45 62 53
45 62 53
48 68 54
48 68 54
48 68 55
48 68 55
46 62 53
96 155 104
49 69 56
49 69 56
49 69 56
56 81 71
56 81 71
56 81 71
120 196 155
120 196 155
120 196 155
113 177 150
120 196 154
56 81 71
56 81 70
55 81 70
119 196 154
119 196 154
112 177 150
96 156 105
48 68 55
49 69 56
49 69 56
49 68 56
48 68 55
112 177 150
112 177 150
48 68 55
48 68 55
48 68 55
48 68 55
112 177 149
112 177 149
112 177 149
48 68 55
48 68 55
48 68 55
48 68 55
112 177 149
112 177 149
53 74 68
55 80 69
55 80 69
55 80 69
44 60 51
45 65 52
45 65 51
110 177 147
110 177 147
117 196 152
110 177 147
50 76 64
40 56 46
40 56 46
39 56 45
41 61 47
109 176 146
109 176 146
109 176 146
109 176 146
116 196 151
116 196 151
116 196 151
116 196 151
116 196 151
109 176 146
109 176 146
109 176 146
109 177 146
116 196 151
116 196 151
116 196 151
116 196 151
116 196 151
109 177 146
109 177 146
116 196 151
117 196 151
109 177 146
109 177 146
117 196 151
109 177 146
117 197 151
109 177 146
109 177 146
117 197 151
117 197 151
117 197 151
117 197 151
117 197 151
117 197 152
117 197 152
110 177 147
117 197 152
117 197 152
117 197 152
117 197 152
117 197 152
117 197 152
110 177 147
117 197 152
41 60 45
41 61 46
41 61 46
41 61 46
41 61 46
41 61 47
39 56 45
40 56 46
40 56 46
42 62 47
42 62 48
118 197 153
118 197 153
118 197 153
43 63 49
45 65 51
43 59 50
119 197 154
43 60 50
46 66 52
48 67 54
54 76 70
54 76 70
56 81 71
56 81 71
121 197 156
121 197 156
121 197 156
121 197 156
48 68 55
48 68 55
49 69 56
49 69 56
49 69 56
49 68 55
48 68 55
48 68 55
49 69 56
49 69 56
49 69 56
49 69 56
47 63 54
49 69 56
90 137 100
49 69 56
49 69 56
49 69 56
49 69 56
49 69 56
90 137 101
114 178 151
49 69 56
50 70 57
50 70 57
50 69 57
47 64 55
114 178 151
114 178 151
57 82 72
57 82 72
57 82 72
57 82 72
57 82 73
48 64 56
50 70 57
50 70 57
49 69 57
47 64 55
48 68 55
48 68 55
48 68 55
48 68 55
48 68 55
48 68 55
48 68 55
48 68 55
47 67 53
47 67 53
47 67 53
47 67 53
47 67 53
112 177 149
112 177 149
112 177 149
112 177 149
119 196 154
119 196 154
54 79 68
44 60 51
44 60 51
44 60 51
44 60 51
44 60 51
43 59 50
43 59 50
43 59 49
43 59 49
43 59 49
118 196 153
118 196 153
111 177 148
111 177 148
111 177 148
111 177 148
111 177 148
111 177 148
118 196 153
118 196 153
118 196 153
111 177 148
111 177 148
111 177 148
111 177 148
111 177 148
111 177 148
118 196 153
118 196 153
118 196 153
111 177 149
111 177 149
111 177 149
119 196 153
112 177 149
119 196 153
119 196 154
119 196 154
119 196 154
112 177 149
112 177 149
112 177 149
112 177 149
112 177 149
119 196 154
119 196 154
119 196 154
119 196 154
112 177 149
119 196 154
112 177 149
112 177 149
112 177 149
112 177 149
112 177 149
112 177 149
112 177 149
112 177 149
112 177 149
111 177 149
111 177 149
118 196 153
111 177 149
118 196 153
111 177 148
118 196 153
111 177 148
111 177 148
111 177 148
111 177 148
118 196 153
118 196 153
118 196 153
111 177 148
111 177 148
111 177 148
111 177 148
118 196 153
118 196 153
118 196 153
118 196 153
118 196 153
118 196 153
118 196 152
111 177 148
118 196 152
118 196 152
110 177 148
118 196 152
117 196 152
117 196 152
117 196 152
44 64 50
42 58 49
43 59 50
43 59 50
45 65 51
43 60 50
43 60 50
43 60 50
45 65 52
45 65 52
46 65 52
46 65 52
46 66 52
46 66 52
111 177 148
118 196 153
118 196 153
118 196 153
111 177 148
118 196 153
118 196 153
44 60 51
44 60 51
44 60 51
44 60 51
44 60 51
45 62 52
45 62 52
54 79 69
119 196 154
119 196 154
47 67 54
45 62 53
45 62 53
48 68 54
48 68 54
48 68 55
48 68 55
48 68 55
48 68 55
46 62 53
54 75 69
54 75 69
113 177 150
113 177 150
119 196 154
119 196 154
90 137 100
47 63 54
47 63 54
47 63 54
46 63 54
119 196 154
119 196 154
119 196 154
46 63 54
46 63 54
46 63 54
48 68 55
49 69 56
49 69 56
49 69 56
49 69 56
48 68 55
48 68 55
48 68 55
48 68 55
48 68 55
46 63 54
48 68 55
48 68 55
48 68 54
48 68 55
48 68 55
48 68 55
48 68 55
48 68 55
48 68 54
47 67 54
119 196 154
119 196 154
54 79 69
54 79 69
110 176 147
110 176 147
110 176 147
110 176 147
110 177 147
110 177 147
110 177 147
117 196 152
42 62 47
40 56 46
109 176 146
109 176 146
109 176 146
109 176 146
109 176 146
109 176 146
109 176 146
109 176 146
91 153 97
116 196 151
116 196 151
109 176 146
109 176 146
109 176 146
109 177 146
109 177 146
109 177 146
109 177 146
109 177 146
109 177 146
109 177 146
109 177 146
109 177 146
109 177 146
109 177 146
116 197 151
109 177 146
109 177 146
109 177 146
109 177 146
109 177 146
109 177 146
109 177 146
117 197 151
117 197 151
109 177 146
109 177 147
109 177 147
109 177 147
117 197 152
117 197 152
110 177 147
117 197 152
117 197 152
84 133 93
38 54 44
38 54 44
38 55 44
41 61 46
41 61 46
41 61 46
39 55 45
41 61 47
39 56 45
40 56 46
42 62 47
40 56 46
42 62 48
111 178 148
41 57 47
43 63 49
43 63 49
51 73 66
52 73 66
112 178 149
119 197 154
44 60 51
54 75 69
54 75 69
54 75 69
114 179 151
114 179 151
114 179 151
89 137 99
46 62 53
46 62 53
48 68 55
49 69 56
47 63 55
49 69 56
47 63 54
49 69 56
48 68 55
49 68 55
49 69 56
49 69 56
49 69 56
49 69 56
49 69 56
49 69 56
49 69 56
49 69 56
49 69 57
49 69 57
49 69 56
49 69 56
49 69 56
49 69 56
49 69 57
48 64 56
50 70 57
50 70 57
49 69 57
49 69 57
47 64 55
47 64 55
121 197 156
121 197 156
57 82 72
57 82 72
57 82 72
55 77 71
55 77 71
50 69 57
48 68 55
48 68 55
48 68 55
48 68 55
120 196 155
113 178 150
53 75 69
53 75 69
53 75 69
47 67 53
47 67 53
47 67 53
47 67 53
88 136 98
112 177 149
119 196 153
112 177 149
119 196 153
112 177 149
112 177 149
112 177 149
44 60 51
44 60 51
46 66 52
44 60 51
45 65 51
43 59 50
43 59 50
45 65 51
43 59 49
43 59 49
43 59 49
45 65 51
45 65 51
45 65 51
118 196 153
111 177 148
111 177 148
111 177 148
111 177 148
45 65 51
45 65 51
45 65 51
111 177 148
111 177 148
111 177 148
111 177 148
111 177 148
111 177 148
46 66 52
44 60 51
111 177 148
111 177 148
111 177 148
111 177 148
118 196 153
111 177 149
111 177 149
118 196 153
95 155 103
112 177 149
119 196 153
112 177 149
112 177 149
112 177 149
119 196 154
112 177 149
119 196 154
112 177 149
112 177 149
112 177 149
119 196 154
119 196 154
119 196 153
119 196 153
111 177 149
111 177 149
111 177 149
111 177 149
111 177 149
111 177 148
118 196 153
118 196 153
111 177 148
111 177 148
111 177 148
111 177 148
111 177 148
118 196 153
111 177 148
95 155 102
45 65 52
111 177 148
111 177 148
111 177 148
111 177 148
111 177 148
111 177 148
111 177 148
94 154 102
110 177 148
110 177 148
110 177 148
118 196 152
110 177 148
110 177 147
110 177 147
110 177 147
117 196 152
42 58 49
42 58 49
42 58 49
42 58 49
42 58 49
44 64 50
43 60 50
43 60 50
45 65 51
43 60 50
43 60 50
43 60 50
43 60 50
46 65 52
43 60 50
50 72 65
50 72 65
111 177 148
118 196 153
118 196 153
118 196 153
118 196 153
118 196 153
118 196 153
43 59 50
43 59 50
44 60 51
44 60 51
44 60 51
44 61 51
54 79 69
54 79 68
119 196 154
119 196 153
119 196 153
119 196 153
48 68 54
46 62 53
46 62 53
46 62 53
48 68 55
48 68 55
48 68 55
48 68 55
48 68 55
112 177 150
112 177 150
112 177 150
119 196 154
119 196 154
119 196 154
47 63 54
47 63 54
47 63 54
47 63 54
47 63 54
46 63 54
46 62 54
46 63 54
46 63 54
46 63 54
46 63 54
49 68 55
49 69 56
49 69 56
49 69 56
49 69 56
48 68 55
48 68 55
48 68 55
48 68 55
48 68 55
48 68 55
48 68 55
48 68 55
48 68 54
48 68 55
48 68 55
48 68 55
48 68 55
48 68 55
48 68 54
47 67 54
45 61 52
45 61 52
112 177 149
87 135 97
42 62 48
40 56 46
109 176 147
109 176 147
109 176 147
109 176 147
110 176 147
47 69 62
47 69 62
40 56 46
40 60 45
40 60 45
108 176 146
116 196 150
91 153 97
40 60 45
40 60 45
40 60 45
40 60 45
40 60 45
38 54 43
109 176 146
109 176 146
109 176 146
40 60 44
40 60 45
40 60 45
38 54 43
40 60 44
116 196 151
109 177 146
109 177 146
109 177 146
40 60 44
40 60 45
40 60 45
40 60 45
109 177 146
109 177 146
109 177 146
117 197 151
109 177 146
91 153 97
40 60 45
40 60 45
40 60 44
109 177 146
109 177 146
109 177 147
109 177 147
117 197 152
117 197 152
40 60 45
38 54 43
38 54 44
40 60 45
38 55 44
41 61 46
41 61 46
41 61 46
39 55 45
39 55 45
39 56 45
40 56 45
40 56 46
42 62 47
49 71 63
49 71 63
111 178 148
111 178 148
111 178 148
43 63 49
51 73 66
53 79 68
119 197 154
119 197 154
119 197 154
119 197 154
120 197 155
113 179 151
113 179 151
47 67 54
47 67 54
46 62 53
46 62 53
46 63 54
48 68 55
49 69 56
49 69 56
49 69 56
49 69 56
49 69 56
49 68 55
49 69 56
49 69 56
49 69 56
49 69 56
49 69 56
49 69 56
49 69 56
47 63 55
47 64 55
50 69 57
49 69 57
49 69 56
49 69 56
49 69 56
49 69 56
50 69 57
50 70 57
50 70 57
48 64 55
47 64 55
49 69 57
47 64 55
47 64 55
47 64 55
47 64 55
47 63 55
120 197 155
114 178 151
55 76 70
55 76 70
55 76 70
49 68 55
46 63 54
48 68 55
47 67 54
45 62 52
96 155 104
112 178 150
119 196 154
53 74 68
47 67 53
47 67 53
47 67 53
46 66 52
46 66 52
46 66 52
46 66 52
46 65 52
111 177 149
111 177 149
119 196 153
111 177 149
119 196 153
53 79 68
53 79 68
53 79 68
43 59 50
45 65 51
43 59 50
43 59 50
43 59 49
43 59 49
43 59 49
45 65 51
45 65 51
45 65 51
45 65 51
45 65 51
45 64 50
94 154 101
45 65 51
45 65 51
45 65 51
45 65 51
45 65 51
45 65 51
45 65 51
43 59 50
111 177 148
45 65 52
44 60 51
46 66 52
44 60 51
44 60 51
46 66 52
46 66 52
111 177 148
111 177 148
46 66 52
47 66 53
46 66 53
46 66 53
46 66 53
46 66 53
95 155 103
111 177 149
111 177 149
112 177 149
47 67 54
45 61 52
47 67 54
47 67 54
118 196 153
111 177 149
118 196 153
118 196 153
111 177 148
118 196 153
118 196 153
111 177 148
118 196 153
111 177 148
118 196 153
118 196 153
111 177 148
111 177 148
111 177 148
45 65 52
45 65 52
43 60 50
45 65 52
46 65 52
43 60 50
118 196 153
111 177 148
111 177 148
94 154 102
43 59 49
45 65 51
45 65 51
45 65 51
45 65 51
110 177 147
110 177 147
110 176 147
86 135 96
44 64 50
42 58 49
44 64 50
44 64 50
42 58 49
42 58 49
42 58 49
42 58 49
42 59 49
42 59 49
42 59 49
43 60 50
43 60 50
43 60 50
43 60 50
52 78 67
52 78 67
50 72 65
50 72 65
111 177 148
111 177 148
111 177 148
111 177 148
111 177 148
43 59 50
43 59 50
43 59 50
43 59 50
43 59 50
43 59 50
44 60 51
44 60 51
44 61 51
44 61 51
88 136 98
111 177 149
118 196 153
44 61 52
44 61 52
47 67 53
46 62 53
46 62 53
46 62 53
46 62 53
48 68 55
48 68 55
48 68 55
48 68 55
53 75 68
119 196 154
119 196 154
119 196 154
119 196 154
119 196 154
119 196 154
89 137 100
47 63 54
47 63 54
49 69 56
47 63 54
46 63 54
46 63 54
46 63 54
46 63 54
46 63 54
46 63 54
49 69 56
49 69 56
47 63 54
49 69 56
47 63 55
46 63 54
46 63 54
48 68 55
48 68 55
48 68 55
49 68 55
48 68 55
48 68 55
48 68 55
48 68 55
46 62 53
48 68 55
48 68 55
48 68 55
48 68 55
45 62 53
45 61 52
45 61 52
47 67 53
42 59 49
43 62 48
42 62 48
117 196 151
109 176 146
117 196 151
117 196 151
49 75 63
49 75 63
49 75 63
49 75 63
40 60 45
40 60 45
40 60 45
40 60 44
40 60 45
40 60 45
40 60 45
40 60 45
40 60 45
40 60 45
40 60 45
40 60 44
40 60 44
40 60 44
40 60 45
40 60 45
40 60 45
40 60 45
40 60 45
37 54 43
39 59 44
39 59 44
40 60 44
40 60 44
40 60 45
40 60 45
40 60 45
40 60 44
40 59 44
39 59 44
39 59 44
40 60 44
40 60 44
40 60 45
40 60 45
40 60 44
40 60 44
39 59 44
109 177 146
39 59 44
40 60 44
40 60 45
40 60 45
40 60 45
38 54 44
38 54 44
38 55 44
41 61 46
41 61 46
41 61 46
41 61 46
39 56 45
39 56 45
51 76 65
51 76 65
51 76 65
49 71 63
118 198 153
118 198 153
111 178 148
111 178 148
118 198 153
42 62 47
119 198 154
112 178 149
94 154 101
42 59 49
45 65 51
120 198 155
113 179 151
113 179 151
113 179 151
47 67 54
46 62 53
46 62 53
46 63 54
49 68 55
49 69 56
49 69 56
47 63 55
49 69 56
49 69 56
49 69 56
49 69 56
49 69 56
49 69 56
49 69 56
49 69 56
49 69 56
49 69 56
49 69 56
49 69 57
50 70 57
49 69 57
49 69 57
49 69 56
49 69 56
49 69 56
50 70 57
50 70 57
48 64 56
50 70 57
50 70 57
49 69 57
49 69 57
49 69 56
47 64 55
120 197 155
120 197 155
120 197 155
120 197 155
120 197 155
120 197 155
113 178 151
49 69 56
48 68 55
48 68 55
47 67 54
47 67 54
47 67 54
47 67 54
47 67 54
112 178 150
47 67 54
47 67 53
47 67 53
46 66 52
46 66 52
46 66 52
46 66 52
46 66 52
111 177 148
111 177 148
111 177 148
118 196 153
118 196 153
118 196 153
53 78 67
51 73 66
43 59 50
43 59 50
43 59 50
43 59 50
45 65 51
43 59 49
45 65 51
45 65 51
45 65 51
45 65 51
45 65 51
45 65 51
45 65 51
45 65 51
45 65 51
45 65 52
45 65 51
45 65 51
45 65 51
45 65 51
45 65 51
43 59 50
45 65 51
46 66 52
44 60 51
46 66 52
46 66 52
46 66 52
46 66 52
46 66 52
46 66 52
46 66 52
46 66 53
47 67 53
47 66 53
46 66 53
46 66 53
46 66 53
44 61 51
46 66 53
46 66 53
47 67 53
47 67 54
47 67 54
47 67 54
47 67 54
118 196 153
44 60 51
44 60 51
44 60 51
44 60 51
118 196 153
118 196 153
111 177 148
118 196 153
111 177 148
87 136 97
43 60 50
45 65 52
45 65 52
45 65 52
43 60 50
43 60 50
46 65 52
46 65 52
46 66 52
46 66 52
45 65 51
45 65 51
43 59 49
45 65 51
45 65 51
45 65 51
45 65 51
43 59 49
45 65 51
44 64 50
44 64 50
44 64 50
44 64 50
44 64 50
44 64 50
44 64 50
44 64 50
42 58 49
42 58 49
44 64 50
42 59 49
42 59 49
42 59 49
42 59 49
52 78 67
52 78 67
52 77 66
50 72 65
118 196 153
118 196 153
111 177 148
111 177 148
111 177 148
118 196 152
118 196 152
118 196 152
118 196 152
118 196 152
43 59 50
43 59 50
43 59 50
43 59 50
43 59 50
87 136 97
44 61 51
44 61 51
53 78 68
118 196 153
44 61 51
44 61 52
47 66 53
44 61 52
45 61 52
46 62 53
46 62 53
46 62 53
46 62 53
53 74 68
53 74 68
53 74 68
112 177 149
112 177 149
112 177 149
112 177 149
119 196 154
45 62 53
48 68 54
46 62 53
48 68 54
47 63 54
49 69 56
49 69 56
47 63 55
46 63 54
48 68 55
48 68 55
46 63 54
46 63 54
46 63 54
47 63 54
49 69 56
49 69 56
54 75 69
54 75 69
49 69 56
48 68 55
48 68 55
46 63 54
48 68 55
53 75 69
53 75 69
48 68 55
48 68 55
46 62 53
48 68 55
48 68 55
53 75 69
48 68 55
48 68 55
48 67 54
47 67 54
45 61 52
47 67 53
109 176 146
109 176 146
109 176 146
109 176 146
117 196 151
117 196 151
109 176 146
117 196 151
117 196 151
49 74 63
49 74 63
40 60 45
38 54 43
40 60 45
40 60 44
40 60 45
40 60 45
40 60 45
40 60 45
40 60 45
40 60 45
40 60 45
40 60 44
40 60 44
40 60 44
40 60 45
40 60 45
40 60 45
40 60 45
38 54 43
40 60 44
37 54 43
40 59 44
40 60 44
40 60 45
40 60 45
40 60 45
40 60 45
40 60 44
40 60 44
39 59 44
39 59 44
40 60 44
38 54 43
40 60 45
40 60 45
40 60 45
40 60 44
40 59 44
39 59 44
40 59 44
40 60 44
40 60 45
40 60 45
38 54 44
40 60 45
38 55 44
38 55 44
41 61 46
41 61 46
39 55 45
41 61 46
48 70 63
51 76 64
51 76 64
51 76 64
111 178 148
118 198 153
118 198 153
118 198 153
92 153 99
42 62 47
42 62 47
40 56 46
119 198 154
112 179 149
119 198 154
112 179 149
43 59 49
113 179 150
113 179 151
113 179 151
113 179 151
113 179 151
113 179 151
46 62 54
46 63 54
55 77 71
55 77 71
57 83 72
55 77 71
55 77 71
49 69 56
49 69 56
49 69 56
55 77 71
56 77 71
56 77 71
56 77 71
49 69 56
49 69 56
49 69 56
56 77 71
56 77 71
56 77 71
49 69 57
49 69 56
49 69 56
49 69 57
56 77 72
56 77 72
56 77 72
50 70 57
50 70 57
50 70 57
47 64 55
47 64 55
48 68 55
46 63 54
46 62 54
120 197 155
120 197 155
120 197 155
113 178 151
113 178 151
54 76 70
54 76 70
46 63 54
47 67 54
47 67 54
47 67 54
47 67 54
112 178 149
112 178 149
52 74 67
52 74 68
52 74 68
46 66 52
46 66 52
46 66 52
46 66 52
111 177 148
111 177 148
111 177 148
111 177 148
111 177 148
111 177 148
118 196 153
111 177 148
43 59 50
43 59 50
43 59 50
43 59 50
43 59 50
43 59 50
45 65 51
45 65 51
45 65 51
45 65 51
45 65 51
45 65 51
45 65 51
45 65 51
45 65 51
45 65 51
45 65 52
45 65 52
45 65 51
45 65 51
45 65 51
45 65 51
45 65 51
45 65 52
46 66 52
46 66 52
46 66 52
46 66 52
46 66 52
46 66 52
46 66 52
44 60 51
46 66 52
47 66 53
47 67 53
47 67 53
47 66 53
47 66 53
46 66 53
46 66 53
46 66 53
47 66 53
47 67 54
47 67 54
45 62 52
47 67 54
47 67 54
44 60 51
44 60 51
44 60 51
44 61 51
44 61 51
44 60 51
43 60 50
43 60 50
43 60 50
45 65 52
43 60 50
43 60 50
43 60 50
45 65 52
45 65 52
46 65 52
46 65 52
46 66 52
46 66 52
43 60 50
46 66 52
46 66 52
45 65 51
45 65 51
45 65 51
45 65 51
45 65 51
45 65 51
45 65 51
45 65 51
44 64 50
44 64 50
44 64 50
44 64 50
44 64 50
44 64 50
44 64 50
44 64 50
42 58 49
42 59 49
42 59 49
42 59 49
42 59 49
42 59 49
42 59 49
118 196 153
118 196 153
111 177 148
118 196 152
118 196 152
110 177 148
118 196 152
110 177 148
118 196 152
117 196 152
117 196 152
117 196 152
117 196 152
110 176 147
44 64 50
43 59 50
43 59 50
43 59 50
43 59 50
45 65 51
51 73 66
118 196 153
111 177 148
118 196 153
118 196 153
118 196 153
44 61 52
45 61 52
45 61 52
45 61 52
55 80 69
55 80 69
54 80 69
119 196 154
112 177 149
112 177 149
112 177 149
96 155 104
45 62 53
47 67 54
45 62 53
45 62 53
46 62 53
46 62 53
46 62 53
47 63 54
47 63 55
56 81 71
56 81 71
47 63 54
46 63 54
46 63 54
46 63 54
46 63 54
56 81 70
53 75 69
53 75 69
53 75 69
53 75 69
53 75 69
53 75 69
53 75 69
53 75 69
53 75 69
53 75 69
53 75 69
53 75 69
53 75 68
53 75 68
53 75 68
53 75 68
53 75 68
53 75 68
53 74 68
53 74 68
46 62 53
111 177 148
43 63 49
41 61 47
92 153 99
109 176 146
109 176 146
109 176 146
109 176 146
109 176 146
116 196 151
109 176 146
116 196 151
109 176 146
109 176 146
40 60 45
40 60 45
38 54 43
40 60 45
40 60 45
40 60 45
40 60 45
40 60 45
40 60 45
40 60 45
40 60 45
40 60 44
40 60 44
40 60 45
40 60 45
40 60 45
40 60 45
40 60 45
40 60 45
40 60 44
40 60 44
40 60 44
40 60 44
40 60 45
40 60 45
40 60 45
40 60 45
40 60 45
40 60 44
39 59 44
40 60 44
40 60 44
40 60 45
40 60 45
40 60 45
40 60 45
40 60 44
40 60 44
37 53 43
40 60 44
40 60 44
40 60 45
40 60 45
40 60 45
40 60 45
38 55 44
38 55 44
39 55 44
48 70 62
50 76 64
48 70 62
48 70 63
111 178 148
118 198 153
118 198 153
118 198 153
118 198 153
111 178 148
111 178 148
111 178 148
118 198 153
111 178 148
42 62 48
112 179 149
119 198 154
119 198 154
119 198 154
112 179 149
112 179 149
120 198 155
113 179 150
113 179 150
46 66 52
46 66 53
57 82 72
57 82 72
57 82 72
55 77 71
114 179 152
55 77 71
55 77 71
57 82 72
57 82 72
57 82 72
55 77 71
114 179 152
55 77 71
55 77 71
55 77 71
49 69 56
49 69 56
55 77 71
55 77 71
55 77 71
55 77 71
55 77 71
58 83 73
55 77 71
58 83 73
56 77 71
56 77 71
56 77 71
56 77 71
58 83 73
47 64 55
47 64 55
46 63 54
46 63 54
46 63 54
46 62 54
46 62 53
48 68 55
113 178 150
113 178 150
54 75 69
54 75 69
54 76 69
47 67 54
47 67 54
47 67 54
46 66 53
46 66 53
112 178 149
112 178 149
52 74 67
52 74 67
46 66 52
46 66 52
46 66 52
46 66 52
45 65 51
45 65 51
45 65 51
94 154 101
111 177 148
111 177 148
111 177 148
111 177 148
118 196 153
52 78 67
52 78 67
53 78 67
43 59 50
43 59 50
43 59 50
45 65 51
45 65 51
45 65 51
43 59 49
45 65 51
43 59 49
45 65 51
45 65 51
45 65 52
45 65 52
45 65 52
45 65 52
43 60 50
45 65 51
45 65 51
43 59 50
46 66 52
46 66 52
46 66 52
46 66 52
46 66 52
46 66 52
46 66 52
46 66 52
46 66 52
46 66 53
47 67 53
47 67 53
47 67 53
47 67 53
47 66 53
47 66 53
46 66 53
44 61 51
47 67 53
47 67 54
45 62 53
47 67 54
47 67 54
47 67 54
44 61 51
44 61 51
44 61 51
44 61 51
44 61 51
44 61 51
43 60 50
43 60 50
43 60 50
43 60 50
43 60 50
43 60 50
43 60 50
43 60 50
46 65 52
46 66 52
46 66 52
46 66 52
46 66 52
46 66 52
46 66 52
46 66 52
45 65 51
45 65 51
45 65 51
43 59 49
45 65 51
43 59 50
45 65 51
43 59 50
45 65 51
44 64 50
42 58 49
42 58 49
44 64 50
44 64 50
44 64 50
44 64 50
42 59 49
42 59 49
42 59 49
42 59 49
42 59 49
42 59 49
42 59 49
87 135 97
110 177 148
110 177 148
117 196 152
110 177 147
110 177 147
110 177 147
110 176 147
110 176 147
117 196 152
42 58 48
42 58 48
42 58 48
42 58 49
44 64 50
43 59 50
43 59 50
43 59 50
43 60 50
43 60 50
118 196 153
111 177 148
118 196 153
43 60 50
43 60 50
44 60 50
45 61 52
45 61 52
45 61 52
45 61 52
119 196 154
119 196 154
119 196 154
119 196 154
112 177 149
112 177 149
47 67 54
47 67 54
45 62 53
47 67 54
48 67 54
48 68 54
46 62 53
48 68 55
46 62 53
46 62 53
55 81 70
55 81 70
55 81 70
55 80 70
46 63 54
55 80 70
55 80 70
55 80 70
55 80 70
112 177 150
119 196 154
53 75 68
119 196 154
55 80 70
55 80 70
55 80 70
119 196 154
119 196 154
112 177 149
53 74 68
55 80 69
55 80 69
55 80 69
119 196 154
112 177 149
112 177 149
52 74 68
55 80 69
55 80 69
55 80 69
46 66 52
44 64 49
42 61 47
41 61 46
41 61 46
109 176 146
116 196 151
116 196 151
116 196 151
116 196 151
116 196 151
109 176 146
116 196 151
116 196 151
40 60 45
40 60 45
40 60 45
40 60 45
40 60 45
40 60 45
40 60 45
40 60 45
40 60 45
40 60 45
40 60 45
40 60 45
40 60 44
40 60 45
40 60 45
40 60 45
40 60 45
40 60 45
40 60 45
40 60 45
37 54 43
40 60 44
40 60 45
40 60 45
40 60 45
40 60 45
40 60 45
40 60 45
40 60 44
40 59 44
40 60 44
40 60 45
40 60 45
40 60 45
40 60 45
40 60 45
40 60 45
40 60 44
39 59 44
40 60 44
40 60 45
38 54 43
40 60 45
40 60 45
38 54 44
38 55 44
50 76 64
50 76 64
48 70 62
50 76 64
118 198 153
111 178 148
118 198 153
111 178 148
118 198 153
118 198 153
111 178 148
111 178 148
111 178 148
111 178 148
118 198 153
118 198 153
111 178 148
92 153 98
119 198 154
119 198 154
119 198 154
41 58 48
41 58 48
87 136 97
46 66 52
46 66 52
46 66 52
44 61 51
57 82 72
57 82 72
121 198 156
121 198 156
121 198 156
48 68 55
121 198 156
121 198 156
57 82 72
121 198 156
114 179 152
121 198 156
121 198 156
48 68 55
49 69 56
49 69 56
49 69 56
49 69 56
49 69 56
97 156 105
121 197 156
57 82 72
57 82 72
57 82 72
121 197 156
121 197 156
121 197 156
121 197 156
57 82 72
57 82 72
57 83 72
57 83 73
46 63 54
46 63 54
46 63 54
46 63 54
48 68 55
46 62 53
48 68 55
48 68 55
48 68 54
96 155 104
48 68 54
48 67 54
47 67 54
47 67 54
46 66 53
46 66 53
46 66 53
46 66 52
46 66 52
52 73 67
46 66 52
46 66 52
46 66 52
45 65 51
43 59 49
45 65 51
45 65 51
45 65 51
45 64 50
111 177 148
118 196 153
118 196 153
118 196 153
52 77 66
52 77 66
52 77 66
52 78 66
50 72 65
50 72 65
45 65 51
45 65 51
45 65 51
45 65 51
45 65 51
45 65 51
45 65 51
45 65 51
46 65 52
45 65 52
45 65 52
45 65 52
45 65 52
45 65 51
45 65 51
45 65 51
46 66 52
46 66 52
46 66 52
46 66 52
46 66 52
46 66 52
46 66 52
46 66 52
46 66 52
46 66 53
47 67 53
47 67 53
47 67 53
47 67 53
47 67 53
47 67 53
47 66 53
46 66 53
47 67 54
47 67 54
47 67 54
47 67 54
47 67 54
47 67 54
44 61 51
44 61 51
44 61 51
44 61 51
44 61 51
46 66 53
43 60 50
43 60 50
43 60 50
43 60 50
43 60 50
43 60 50
43 60 50
43 60 50
43 60 50
46 66 52
46 66 52
44 60 50
46 66 52
44 60 51
46 66 52
46 66 52
45 65 52
45 65 51
45 65 51
45 65 51
43 59 50
45 65 51
43 59 50
43 59 50
45 65 51
44 64 50
44 64 50
44 64 50
44 64 50
44 64 50
44 64 50
44 64 50
42 59 49
42 59 49
42 59 49
42 59 49
52 77 66
51 77 66
117 196 152
110 177 147
110 176 147
110 176 147
110 176 147
117 196 152
110 176 147
44 64 50
44 64 50
44 64 50
42 58 48
42 58 48
42 58 48
42 58 49
42 58 49
42 58 49
42 58 49
43 59 50
43 60 50
45 65 51
52 78 67
118 196 153
43 60 50
43 60 50
43 60 50
44 60 50
44 60 51
47 67 53
45 61 52
47 67 53
45 61 52
116 196 150
116 196 150
112 177 149
112 177 149
112 177 149
111 177 149
111 177 149
47 67 54
45 62 53
48 67 54
115 196 150
46 62 53
46 62 53
46 62 53
46 62 53
46 62 53
119 196 154
55 80 70
53 75 68
53 75 68
53 74 68
112 177 149
119 196 154
119 196 154
119 196 154
46 62 53
46 62 53
46 62 53
46 62 53
119 196 154
119 196 154
112 177 149
89 137 99
45 62 53
46 62 53
119 196 154
119 196 154
112 177 149
119 196 154
119 196 154
112 177 149
112 177 149
119 196 154
119 196 154
52 74 67
52 74 67
54 79 69
44 64 49
42 62 47
109 176 146
109 176 146
116 196 151
109 176 146
116 196 151
116 196 151
116 196 151
116 196 151
116 196 151
116 196 151
46 68 60
48 74 62
40 60 45
40 60 45
40 60 45
40 60 45
40 60 45
40 60 45
46 68 60
48 74 62
46 68 60
40 60 45
40 60 45
40 60 45
40 60 45
40 60 45
40 60 45
46 68 61
49 74 62
40 60 45
40 60 45
40 60 44
40 60 44
40 60 45
40 60 45
40 60 45
49 75 62
40 60 45
40 60 45
40 60 44
40 60 44
37 54 43
40 60 45
40 60 45
38 54 43
40 60 45
40 60 45
40 60 45
40 60 44
40 60 44
40 60 44
40 60 45
40 60 45
40 60 45
50 75 63
50 75 63
50 75 63
50 75 63
118 198 153
118 198 153
111 178 148
111 178 148
118 198 153
118 198 153
118 198 153
118 198 153
118 198 153
118 198 153
118 198 153
111 179 148
111 179 148
111 179 148
38 55 44
41 61 46
41 61 46
119 198 154
119 198 154
119 198 154
119 198 154
41 58 48
43 60 50
46 66 52
46 66 52
46 66 53
46 66 53
114 179 152
114 179 152
121 198 156
45 62 53
48 68 55
46 62 54
46 62 53
46 62 53
46 62 53
121 198 156
121 198 156
46 62 53
46 63 54
117 198 152
117 198 152
110 178 147
110 178 147
117 198 152
47 63 54
49 69 56
46 63 54
48 68 55
121 198 156
117 197 152
117 197 152
110 178 147
117 197 152
114 179 151
114 179 151
121 197 156
121 197 156
57 82 72
117 197 152
117 197 152
117 197 152
117 197 152
46 62 54
48 68 55
48 68 55
46 62 53
48 68 55
113 178 150
117 197 152
117 197 152
53 75 69
46 66 53
46 66 53
46 66 53
46 66 53
46 66 53
112 178 149
112 178 149
53 79 68
51 73 66
51 73 67
45 65 51
45 65 51
45 65 51
43 59 49
45 65 51
111 177 148
111 177 148
111 177 148
111 177 148
118 196 153
111 177 148
118 196 153
111 177 148
52 77 66
52 77 66
52 77 66
52 77 66
50 72 65
50 72 65
52 78 66
45 65 51
45 65 51
45 65 51
52 78 67
50 72 65
50 72 65
51 72 66
53 78 67
45 65 52
45 65 52
45 65 51
45 65 52
51 73 66
51 73 66
53 78 68
51 73 66
46 66 52
46 66 52
46 66 52
46 66 52
46 66 52
51 73 67
54 79 68
52 73 67
47 67 53
47 67 53
47 67 53
47 67 53
47 67 53
47 67 53
52 74 68
52 74 68
47 67 54
47 67 54
47 67 54
47 67 54
44 61 51
44 61 51
44 61 51
46 66 53
44 61 51
44 61 51
44 61 51
43 60 50
43 60 50
43 60 50
43 60 50
43 60 50
43 60 50
43 60 50
46 66 52
46 66 52
46 66 52
46 66 52
44 60 51
46 66 52
51 72 66
53 78 67
53 78 67
45 65 51
45 65 51
45 65 51
43 59 50
43 59 50
45 65 51
50 72 65
50 72 65
44 64 50
44 64 50
44 64 50
44 64 50
44 64 50
44 64 50
44 64 50
49 71 64
49 71 64
51 77 65
51 77 65
117 196 152
110 176 147
117 196 152
110 176 147
117 196 152
110 176 147
42 58 48
44 64 50
44 64 50
44 64 50
44 64 50
44 64 50
42 58 48
42 58 48
42 58 49
42 58 49
42 58 49
42 58 49
42 59 49
52 77 66
50 72 65
111 177 148
118 196 153
118 196 153
118 196 153
43 60 50
44 60 50
44 60 51
44 60 51
45 61 52
116 196 150
115 196 150
108 176 145
115 196 150
115 196 150
115 196 150
115 196 150
111 177 149
44 61 51
115 196 150
115 196 150
115 196 150
115 196 150
115 196 150
115 196 150
108 176 145
46 62 53
55 80 70
119 196 154
115 196 150
115 196 150
115 196 150
115 196 150
115 196 150
108 176 145
48 68 54
46 62 53
46 62 53
46 62 53
46 62 53
46 62 53
46 62 53
45 62 53
45 62 53
45 62 53
45 62 53
45 62 53
46 62 53
45 62 53
45 61 52
112 177 149
112 177 149
112 177 149
112 177 149
119 196 154
112 177 149
112 177 149
112 177 149
117 196 152
40 60 45
109 176 146
109 176 146
109 176 146
109 176 146
116 196 151
116 196 151
109 176 146
109 176 146
116 196 151
116 196 151
109 176 146
46 68 60
48 73 61
46 68 60
46 68 60
46 68 60
40 60 45
46 68 60
48 74 61
46 68 60
46 68 60
46 68 60
46 68 60
46 68 60
46 68 60
40 60 45
46 68 60
48 74 62
48 74 62
46 68 60
49 74 62
46 68 60
49 74 62
40 60 44
40 60 45
47 68 61
47 68 61
47 68 61
49 74 62
47 68 61
47 69 61
40 60 45
40 60 44
40 60 44
47 69 61
47 69 61
47 69 61
47 69 61
49 75 63
40 60 45
40 60 44
37 54 43
40 60 45
50 75 63
47 69 61
48 69 62
48 69 62
50 75 63
118 198 153
118 198 153
118 198 153
118 198 153
118 198 153
118 198 153
118 198 153
111 179 148
111 179 148
111 179 148
118 198 153
118 198 153
118 198 153
118 198 153
111 179 148
111 179 148
41 61 46
41 61 46
41 61 46
112 179 149
112 179 149
119 198 154
112 179 149
119 198 154
119 198 154
120 198 155
46 66 52
44 61 51
47 67 53
114 180 151
121 198 156
121 198 156
121 198 156
121 198 156
46 63 54
46 62 53
46 62 53
46 62 53
46 62 53
46 62 53
117 198 152
117 198 152
117 198 152
110 178 147
117 198 152
117 198 152
117 198 152
117 198 152
117 198 152
117 198 152
117 198 152
117 198 152
110 178 147
117 197 152
117 197 152
117 197 152
117 197 152
110 177 147
117 197 152
117 197 152
117 197 152
117 197 152
117 197 152
117 197 152
110 177 147
110 177 147
109 177 147
117 197 151
120 197 155
117 197 151
117 197 151
117 197 151
109 177 147
117 197 151
117 197 151
117 197 151
117 197 151
112 178 149
119 197 154
112 178 149
119 197 154
53 78 68
51 73 66
51 73 66
45 65 51
43 59 49
45 65 51
45 65 51
44 64 49
44 64 49
111 177 148
111 177 148
111 177 148
111 177 148
111 177 148
111 177 148
118 196 153
118 196 153
118 196 153
111 177 148
111 177 148
52 77 66
50 71 65
50 71 65
50 72 65
50 72 65
52 77 66
50 72 65
50 72 65
50 72 65
50 72 65
50 72 65
50 72 65
50 72 65
53 78 67
50 72 65
51 72 66
51 72 66
53 78 67
51 72 66
51 72 66
53 78 67
51 73 66
46 66 52
51 73 66
51 73 66
51 73 66
51 73 66
51 73 67
51 73 67
51 73 67
52 73 67
47 67 53
52 73 67
52 73 67
52 74 67
52 74 67
52 74 67
54 79 69
52 74 68
46 66 53
44 61 51
44 61 51
44 61 51
44 61 51
44 61 51
51 73 66
46 65 52
43 60 50
43 60 50
43 60 50
43 60 50
44 60 50
44 60 50
44 60 50
51 72 66
53 78 67
50 72 65
50 72 65
50 72 65
50 72 65
52 78 67
50 72 65
50 72 65
45 65 51
50 72 65
50 71 65
50 71 65
50 71 65
50 71 64
52 77 66
49 71 64
42 58 49
44 64 50
49 71 64
49 71 64
49 71 64
49 71 64
49 71 64
110 176 147
117 196 152
117 196 152
117 196 152
110 176 147
110 176 147
110 176 147
110 176 147
110 176 147
110 176 147
44 64 50
44 64 50
44 64 50
44 64 50
44 64 50
44 64 50
42 58 49
42 58 49
42 58 49
108 176 145
108 176 145
116 196 150
108 176 145
118 196 152
118 196 152
118 196 152
110 177 148
110 177 148
110 177 148
108 176 145
108 176 145
108 176 145
115 196 150
115 196 150
108 176 145
115 196 150
108 176 145
115 196 150
115 196 150
108 176 145
108 176 145
115 196 150
108 176 145
108 176 145
115 196 150
115 196 150
108 176 145
115 196 150
115 196 150
108 176 145
115 196 150
115 196 150
115 196 150
115 196 150
108 176 145
115 196 150
115 196 150
115 196 150
115 196 150
46 62 53
46 62 53
46 62 53
46 62 53
46 62 54
46 62 53
45 62 53
45 62 53
45 62 53
45 62 53
46 62 53
46 62 53
45 62 53
45 62 52
47 67 53
47 66 53
112 177 149
112 177 149
119 196 154
117 196 151
117 196 151
109 176 147
117 196 151
40 60 45
40 60 45
40 60 45
108 176 146
108 176 146
116 196 151
109 176 146
116 196 151
116 196 151
116 196 151
116 196 151
116 196 151
109 176 146
46 67 60
46 67 60
46 67 60
48 73 61
48 73 61
48 73 61
109 177 146
109 177 146
46 68 60
46 68 60
46 68 60
48 74 61
48 74 61
48 74 61
46 68 60
46 68 60
109 177 146
48 74 62
46 68 60
46 68 60
48 74 62
48 74 62
49 74 62
49 74 62
46 68 60
49 74 62
49 74 62
47 68 60
49 74 62
47 68 61
49 74 62
47 69 61
47 69 61
47 69 61
49 75 62
47 69 61
47 69 61
49 75 63
47 69 61
40 60 44
47 69 61
47 69 61
47 69 61
47 69 61
111 178 148
111 178 148
111 178 148
111 179 148
111 179 148
118 198 153
111 179 148
111 179 148
111 179 148
118 198 153
111 179 148
111 179 148
118 199 153
111 179 148
111 179 148
118 199 153
111 179 148
111 179 148
119 199 153
111 179 148
111 179 148
112 179 149
119 199 154
119 199 154
119 199 154
85 134 95
42 62 48
120 199 155
42 59 49
46 66 53
54 76 69
121 199 156
121 198 156
121 198 156
121 198 156
121 198 156
121 198 156
88 136 99
46 62 53
46 62 53
110 178 147
110 178 147
110 178 147
110 178 147
110 178 147
117 198 152
117 198 152
117 198 152
117 198 152
110 178 147
110 178 147
110 178 147
110 178 147
110 178 147
110 178 147
117 198 152
110 178 147
117 197 152
117 197 152
110 178 147
117 197 152
110 177 147
110 177 147
110 177 147
117 197 152
117 197 152
109 177 147
117 197 151
109 177 147
109 177 146
109 177 146
109 177 146
109 177 146
117 197 151
117 197 151
117 197 151
117 197 151
109 177 146
117 197 151
117 197 151
109 177 146
117 197 151
119 197 153
119 197 153
112 178 149
112 177 149
45 65 51
45 65 51
45 65 51
45 65 51
44 64 50
42 58 48
44 64 49
44 64 49
44 64 49
44 63 49
110 177 148
118 196 152
110 177 148
118 196 152
118 196 152
111 177 148
118 196 153
118 196 153
111 177 148
111 177 148
52 77 66
52 77 66
52 77 66
52 77 66
50 71 65
118 196 153
111 177 148
111 177 148
111 177 148
52 77 66
52 77 66
52 78 67
52 78 67
52 78 67
111 177 148
111 177 148
111 177 148
53 78 67
51 72 66
46 66 52
46 66 52
46 66 52
44 60 51
118 196 153
111 177 148
51 73 66
51 73 66
51 73 66
47 67 53
47 67 53
47 67 53
52 73 67
112 177 149
112 177 149
54 79 68
52 73 67
44 61 51
44 61 51
53 79 68
53 78 68
53 78 68
53 78 68
53 78 67
44 60 51
43 60 50
43 60 50
46 66 52
53 78 67
53 78 67
53 78 67
52 78 67
52 78 67
111 177 148
111 177 148
50 72 65
50 72 65
52 77 66
52 77 66
52 77 66
50 71 65
52 77 66
118 196 152
49 71 64
49 71 64
51 77 66
49 71 64
51 77 65
51 77 65
49 71 64
51 76 65
49 71 64
117 196 152
110 176 147
110 176 147
117 196 152
93 154 101
44 64 49
110 176 147
117 196 152
110 176 147
117 196 152
110 176 147
117 196 152
110 176 147
117 196 152
117 196 152
44 64 50
44 64 50
44 64 50
44 64 50
108 176 145
116 196 150
108 176 145
108 176 145
108 176 145
108 176 145
108 176 145
108 176 145
108 176 145
110 177 147
108 176 145
108 176 145
108 176 145
108 176 145
108 176 145
108 176 145
108 176 145
115 196 150
115 196 150
115 196 150
108 176 145
108 176 145
108 176 145
108 176 145
115 196 150
115 196 150
115 196 150
115 196 150
115 196 150
115 196 150
115 196 150
108 176 145
108 176 145
108 176 145
107 176 145
107 176 145
107 176 145
115 196 149
115 196 149
115 196 149
115 196 149
107 176 144
107 176 144
107 176 144
107 176 144
115 196 149
46 62 53
46 62 54
46 63 54
46 62 53
48 68 54
108 176 145
108 176 145
116 196 150
108 176 145
48 68 55
46 62 53
47 67 54
47 67 54
47 67 53
108 176 145
108 176 145
108 176 145
109 176 146
109 176 146
117 196 151
117 196 151
109 176 146
40 60 45
38 54 43
38 54 43
116 196 150
116 196 150
116 196 150
116 196 150
108 176 146
116 196 150
116 196 151
116 196 151
37 54 43
109 176 146
116 196 151
48 73 61
48 73 61
116 196 151
109 177 146
116 196 151
116 197 151
116 197 151
116 197 151
48 73 61
48 73 61
48 73 61
116 197 151
116 197 151
109 177 146
117 197 151
117 197 151
109 177 146
48 74 61
46 68 60
48 74 61
117 197 151
117 197 152
117 197 152
110 178 147
110 178 147
49 74 62
49 74 62
49 74 62
49 74 62
47 68 61
117 198 152
110 178 147
118 198 152
110 178 147
39 59 44
39 59 44
40 60 44
40 60 44
40 59 44
39 59 44
111 178 148
111 179 148
118 198 153
111 179 148
39 59 44
40 60 44
40 60 44
40 60 44
111 179 148
118 199 153
111 179 148
111 179 148
111 179 148
37 54 43
40 60 45
40 60 45
40 60 44
111 179 148
111 179 148
111 179 148
111 179 148
119 199 153
111 179 148
119 199 153
119 199 153
120 199 154
112 179 149
40 56 46
40 57 47
42 59 49
45 65 51
54 76 69
119 199 153
119 199 153
114 180 151
114 180 151
114 180 151
44 61 51
45 61 52
45 61 52
118 198 152
118 198 152
110 178 147
110 178 147
110 178 147
110 178 147
110 178 147
110 178 147
110 178 147
110 178 147
117 198 152
110 178 147
110 178 147
117 198 152
110 178 147
110 178 147
110 178 147
110 178 147
110 178 147
110 178 147
110 178 147
110 178 147
110 178 147
110 178 147
117 197 152
117 197 152
109 177 147
109 177 147
109 177 146
117 197 151
109 177 146
109 177 146
117 197 151
109 177 146
109 177 146
109 177 146
109 177 146
109 177 146
117 197 151
117 197 151
109 177 146
109 177 146
109 177 146
117 197 151
109 177 146
117 197 151
109 177 146
111 177 149
110 177 147
110 177 147
110 177 147
110 177 147
110 177 147
44 64 50
44 64 49
44 64 49
41 58 48
41 58 48
41 58 48
41 58 48
41 58 48
110 177 148
118 196 152
118 196 152
118 196 152
110 177 148
118 196 152
42 58 48
42 58 48
94 154 101
118 196 152
118 196 152
118 196 153
118 196 153
118 196 153
111 177 148
42 59 49
42 59 49
111 177 148
111 177 148
50 72 65
118 196 153
118 196 153
111 177 148
118 196 153
87 135 97
46 66 52
46 66 52
46 66 52
44 60 51
44 60 51
46 66 52
46 66 52
46 66 52
88 136 98
46 66 53
45 61 52
47 67 53
47 67 53
44 61 52
47 67 53
47 66 53
47 66 53
112 177 149
51 73 66
51 73 66
53 78 67
53 78 67
53 78 67
53 78 67
53 78 67
44 60 50
53 78 67
52 78 67
50 72 65
52 78 67
111 177 148
118 196 153
118 196 153
118 196 153
118 196 153
118 196 153
118 196 152
52 77 66
50 71 64
118 196 152
118 196 152
110 177 148
110 177 147
110 177 147
110 176 147
49 71 64
51 76 65
51 76 65
51 76 65
117 196 152
110 176 147
117 196 152
110 176 147
110 176 147
41 58 48
44 64 49
41 58 48
44 64 49
44 64 49
44 63 49
110 176 147
110 176 147
110 176 147
117 196 152
117 196 152
117 196 151
109 176 147
117 196 151
109 176 147
116 196 150
116 196 150
116 196 150
116 196 150
116 196 150
108 176 145
108 176 145
108 176 145
108 176 145
108 176 145
108 176 145
115 196 150
115 196 150
108 176 145
108 176 145
108 176 145
115 196 150
108 176 145
115 196 150
108 176 145
115 196 150
115 196 150
108 176 145
108 176 145
115 196 150
115 196 150
108 176 145
108 176 145
108 176 145
108 176 145
115 196 150
115 196 149
107 176 145
115 196 149
107 176 144
107 176 144
107 176 144
115 196 149
115 196 149
107 176 144
115 196 149
107 176 144
115 196 149
115 196 149
115 196 149
107 176 144
107 176 144
107 176 144
107 176 144
115 196 149
46 63 54
108 176 145
116 196 150
108 176 145
116 196 150
108 176 145
108 176 145
108 176 145
116 196 150
46 62 53
108 176 145
108 176 145
108 176 145
108 176 145
116 196 150
108 176 145
116 196 150
108 176 145
109 176 146
109 176 146
109 176 146
40 60 45
40 60 45
40 60 45
37 54 43
39 59 44
116 196 150
116 196 150
116 196 150
37 53 42
37 53 43
37 54 43
37 54 43
39 59 44
37 53 42
116 196 151
116 196 151
116 196 151
116 196 151
37 53 42
37 53 42
37 53 43
37 53 42
116 197 151
109 177 146
116 197 151
116 197 151
116 197 151
37 53 42
37 53 42
39 59 44
37 53 42
117 197 151
117 197 151
109 177 146
117 197 151
117 197 152
83 133 92
37 53 42
39 59 44
110 178 147
117 198 152
117 198 152
117 198 152
117 198 152
117 198 152
118 198 152
37 53 42
39 59 44
37 53 43
40 59 44
37 54 43
40 60 45
40 60 44
39 59 44
39 59 44
39 59 44
39 59 44
39 59 44
40 60 44
40 60 44
40 60 45
40 60 44
39 59 44
39 59 44
39 59 44
39 59 44
39 59 44
40 60 44
40 60 45
40 60 45
40 60 44
40 60 44
39 59 44
119 199 153
119 199 153
111 179 148
119 199 153
119 199 153
119 199 153
119 199 153
119 199 153
119 199 153
120 199 154
121 199 155
119 199 153
111 179 148
119 199 153
119 199 153
119 199 153
119 199 153
46 66 53
118 199 152
110 179 147
118 199 152
118 199 152
118 199 152
110 179 147
110 179 147
110 178 147
110 178 147
110 178 147
110 178 147
110 178 147
110 178 147
110 178 147
117 198 152
117 198 152
110 178 147
117 198 152
117 198 152
110 178 147
117 198 152
117 198 152
110 178 147
117 198 152
117 198 152
117 198 152
110 178 147
110 178 147
109 178 147
109 178 147
117 197 151
117 197 151
117 197 151
109 177 146
117 197 151
109 177 146
109 177 146
117 197 151
109 177 146
117 197 151
109 177 146
117 197 151
117 197 151
117 197 151
109 177 146
117 197 151
109 177 146
109 177 146
116 197 151
109 177 146
109 177 146
109 177 146
116 196 151
110 177 147
110 177 147
110 177 147
110 177 147
110 177 147
110 177 147
41 58 48
44 64 49
41 58 48
41 58 48
41 58 48
41 58 48
41 58 48
41 57 48
117 196 152
41 58 48
42 58 48
42 58 48
42 58 48
42 58 48
42 58 48
42 58 48
44 64 50
118 196 152
118 196 152
42 59 49
42 59 49
42 59 49
42 59 49
42 59 49
42 59 49
118 196 153
118 196 153
111 177 148
43 59 49
45 65 52
46 66 52
46 66 52
46 66 52
44 60 51
46 66 52
46 66 52
46 66 52
46 66 52
46 66 52
47 67 53
45 61 52
47 67 53
47 67 53
47 67 53
47 67 53
47 67 53
44 61 52
47 66 53
111 177 148
118 196 153
53 78 67
43 60 50
44 60 50
44 60 50
44 60 50
44 60 50
43 60 50
118 196 153
118 196 153
118 196 153
118 196 153
43 59 49
43 59 50
43 59 50
43 59 50
110 177 148
110 177 148
117 196 152
117 196 152
117 196 152
87 135 96
42 58 49
42 58 49
42 58 49
110 176 147
117 196 152
117 196 152
117 196 152
117 196 152
117 196 152
41 58 48
41 58 48
44 64 49
44 64 49
44 64 49
44 64 49
44 64 49
44 64 49
44 64 49
44 64 50
43 63 49
117 196 151
117 196 151
117 196 151
117 196 151
116 196 150
116 196 150
116 196 150
108 176 145
108 176 145
115 196 150
115 196 150
115 196 150
115 196 150
115 196 150
108 176 145
115 196 150
115 196 150
115 196 150
115 196 150
115 196 150
115 196 150
108 176 145
115 196 150
108 176 145
115 195 150
115 195 150
115 195 150
108 176 145
115 195 150
115 195 150
115 195 150
107 176 145
107 176 145
107 176 145
107 176 144
115 195 149
107 176 144
115 195 149
115 195 149
115 195 149
115 196 149
107 176 144
115 196 149
107 176 144
107 176 144
115 196 149
115 196 149
115 196 149
115 196 149
115 196 149
115 196 149
107 176 144
107 176 144
107 176 144
115 196 149
115 196 149
115 196 149
115 196 149
107 176 144
115 196 149
108 176 145
108 176 145
108 176 145
108 176 145
108 176 145
115 196 150
115 196 150
115 196 150
108 176 145
108 176 145
115 196 150
108 176 145
108 176 145
108 176 145
108 176 145
115 196 150
116 196 150
109 176 146
109 176 146
41 60 45
40 60 45
40 60 45
38 54 43
37 54 43
37 53 42
37 53 42
37 53 42
37 53 43
37 53 43
37 54 43
37 54 43
37 54 43
37 53 42
37 53 42
37 53 42
37 53 42
37 53 42
37 53 42
37 53 43
37 53 43
39 59 44
37 53 42
37 53 42
83 132 91
37 53 42
37 53 42
37 53 42
37 53 42
37 53 42
37 53 42
37 53 42
37 53 42
117 197 151
39 59 43
37 53 42
39 59 44
37 53 42
37 53 42
37 53 42
37 53 42
117 198 152
117 198 152
83 132 91
37 53 42
37 53 42
37 53 42
39 59 44
39 59 44
40 60 44
40 60 44
40 60 45
40 60 44
40 59 44
39 59 44
39 59 44
39 59 44
39 59 44
40 60 44
40 60 45
40 60 45
40 60 44
40 59 44
39 59 44
39 59 44
39 59 44
40 60 44
40 60 44
38 54 43
40 60 45
40 60 44
40 60 44
40 59 44
39 59 44
37 53 42
37 53 42
119 199 153
119 199 153
119 199 153
119 199 153
119 199 153
119 199 153
111 179 149
111 179 149
119 199 153
119 199 153
119 199 153
119 199 153
119 199 153
110 179 147
110 179 147
118 199 152
118 199 152
118 199 152
110 179 147
118 199 152
110 179 147
118 199 152
118 199 152
118 199 152
118 199 152
118 199 152
118 198 152
118 198 152
110 178 147
117 198 152
117 198 152
117 198 152
117 198 152
117 198 152
117 198 152
117 198 152
110 178 147
117 198 152
117 198 152
117 198 152
117 198 152
117 198 152
109 178 147
109 178 147
117 198 151
117 197 151
109 177 146
109 177 146
117 197 151
117 197 151
117 197 151
117 197 151
117 197 151
109 177 146
109 177 146
117 197 151
117 197 151
109 177 146
117 197 151
116 197 151
116 197 151
116 197 151
109 177 146
109 177 146
116 197 151
116 197 151
116 197 151
116 196 151
109 177 146
116 196 151
109 177 146
110 177 147
117 196 152
117 196 152
117 196 152
117 196 152
117 196 152
41 58 48
41 58 48
41 58 48
41 58 48
41 58 48
41 57 48
41 58 48
42 58 48
42 58 49
42 58 48
42 58 48
44 64 50
42 58 48
42 58 48
42 58 48
42 58 48
42 59 49
43 59 49
42 59 49
42 59 49
42 59 49
42 59 49
42 59 49
42 59 49
42 59 49
43 59 50
46 66 52
46 66 53
46 66 52
46 66 52
46 66 52
46 66 52
46 66 52
46 66 52
46 66 52
46 66 53
47 67 53
47 67 53
47 67 53
45 61 52
47 67 53
47 67 53
47 67 53
47 67 53
47 67 53
44 60 51
44 60 50
44 60 50
46 66 52
44 60 50
44 60 51
44 60 51
44 60 51
44 60 51
43 59 49
43 59 49
43 59 50
43 59 50
43 59 50
43 59 50
45 65 51
43 59 50
43 59 49
87 135 96
42 58 49
42 58 49
42 58 49
42 58 49
42 58 49
42 58 49
42 58 49
41 58 48
110 176 147
41 58 48
41 58 48
41 58 48
41 58 48
41 58 48
41 58 48
44 64 49
41 58 48
44 64 49
44 64 49
44 64 49
42 58 48
44 64 50
44 64 50
43 63 49
108 176 145
116 196 150
108 176 145
108 176 145
108 176 145
108 176 145
115 196 150
115 196 150
115 196 150
115 196 150
115 196 150
115 196 150
115 196 150
115 196 150
108 176 145
115 195 150
115 195 150
115 195 150
115 195 150
115 195 150
115 195 150
108 176 145
108 176 145
108 176 145
115 195 150
115 195 150
115 195 150
115 195 149
107 176 144
115 195 149
115 195 149
107 176 144
107 176 144
107 176 144
115 195 149
115 195 149
115 195 149
107 176 144
115 195 149
115 195 149
115 195 149
115 195 149
107 175 144
115 196 149
115 196 149
115 196 149
115 196 149
115 196 149
115 196 149
115 196 149
115 196 149
115 196 149
115 196 149
114 196 149
114 196 149
107 175 144
114 196 149
114 196 149
107 175 144
114 196 149
114 196 149
115 196 150
108 176 145
115 196 150
115 196 150
115 196 150
115 196 150
115 196 150
115 196 150
115 196 150
115 196 150
108 176 145
115 196 150
115 196 150
108 176 145
115 196 150
115 196 150
115 196 150
115 196 150
38 55 44
40 60 45
40 60 45
38 54 43
37 54 43
37 53 43
37 53 42
37 53 42
37 53 43
37 54 43
37 54 43
37 54 43
37 54 43
37 53 43
37 53 42
37 53 42
37 53 42
37 53 42
37 53 42
37 53 43
37 54 43
37 53 42
37 53 42
37 53 42
37 53 42
37 53 42
37 53 42
37 53 42
37 53 42
37 53 43
39 59 44
37 53 42
37 53 42
36 53 42
37 53 42
37 53 42
37 53 42
37 53 42
37 53 42
37 53 42
37 53 42
37 53 42
36 53 42
37 53 42
37 53 42
37 53 42
37 53 42
39 59 44
40 59 44
40 60 44
40 60 45
40 60 45
40 60 44
40 60 44
39 59 44
39 59 44
39 59 44
40 59 44
40 60 44
40 60 45
40 60 45
40 60 44
40 60 44
39 59 44
39 59 44
39 59 44
40 60 44
40 60 45
38 54 43
40 60 45
40 60 45
40 60 44
40 60 44
39 59 44
37 53 42
37 53 42
37 53 42
37 53 42
119 199 154
112 180 149
112 180 149
112 180 149
112 180 149
112 180 149
119 199 154
112 180 149
112 180 149
111 179 148
111 179 148
110 179 148
110 179 148
118 199 153
110 179 147
110 179 147
110 179 147
118 199 152
118 199 152
118 199 152
110 179 147
118 199 152
110 179 147
110 179 147
110 179 147
110 179 147
118 199 152
118 198 152
117 198 152
117 198 152
110 178 147
110 178 147
110 178 147
110 178 147
110 178 147
117 198 152
117 198 152
117 198 152
110 178 147
117 198 152
109 178 147
117 198 151
109 178 146
117 198 151
117 198 151
109 178 146
117 197 151
117 197 151
117 197 151
117 197 151
117 197 151
109 177 146
109 177 146
117 197 151
117 197 151
116 197 151
116 197 151
116 197 151
116 197 151
116 197 151
116 197 151
109 177 146
116 197 151
109 177 146
109 177 146
116 197 151
116 196 151
116 196 151
116 196 151
116 196 151
116 196 151
109 177 146
117 196 152
117 196 152
117 196 152
117 196 152
117 196 152
117 196 152
41 58 48
41 58 48
41 58 48
42 58 48
42 58 49
42 58 49
42 58 49
42 58 48
42 58 48
42 58 48
42 58 48
44 64 50
42 58 49
43 59 49
43 59 49
45 65 51
43 59 49
42 59 49
42 59 49
42 59 49
42 59 49
43 59 49
43 60 50
46 66 52
46 66 53
46 66 53
46 66 52
46 66 52
46 66 52
46 66 52
46 66 52
46 66 52
47 66 53
47 67 53
45 61 52
45 61 52
47 67 53
47 67 53
45 61 52
47 67 53
47 67 53
47 67 54
47 67 53
44 60 50
44 60 51
44 60 51
44 60 51
46 66 52
44 60 51
44 60 51
46 66 52
43 59 50
43 59 50
43 59 50
43 59 50
43 59 50
43 59 50
43 59 50
43 59 50
43 59 50
42 58 49
42 58 49
42 58 49
42 58 49
42 58 49
42 58 49
42 59 49
42 59 49
42 58 48
41 58 48
41 58 48
41 58 48
44 63 49
41 58 48
41 58 48
41 58 48
41 58 48
44 64 49
44 64 49
44 64 49
44 64 50
42 58 48
108 176 145
108 176 145
108 176 145
108 176 145
108 176 145
108 176 145
108 176 145
108 176 145
108 176 145
115 196 150
108 176 145
108 176 145
108 176 145
108 176 145
108 176 145
108 176 145
108 176 145
115 195 150
108 176 145
115 195 150
108 176 145
115 195 150
108 176 145
107 176 145
107 176 145
115 195 149
107 176 144
115 195 149
115 195 149
107 176 144
115 195 149
107 176 144
115 195 149
115 195 149
107 176 144
107 176 144
107 175 144
107 175 144
115 195 149
115 195 149
115 195 149
107 175 144
107 175 144
115 195 149
107 175 144
115 195 149
107 175 144
114 195 149
114 196 149
114 196 149
114 196 149
114 196 149
107 175 144
107 175 144
107 175 144
107 175 144
114 196 149
107 175 144
114 196 149
114 196 149
107 175 144
114 196 149
107 175 144
107 175 144
107 175 144
107 175 144
108 176 145
108 176 145
115 196 150
115 196 150
108 176 145
115 196 150
115 196 150
108 176 145
108 176 145
115 196 150
108 176 145
115 196 150
115 196 150
108 176 145
115 196 150
83 132 91
36 53 42
40 60 45
40 60 45
38 54 43
38 54 43
37 54 43
37 53 42
37 53 43
37 53 43
37 54 43
37 54 43
38 54 43
37 54 43
37 53 43
37 53 42
37 53 42
37 53 42
37 53 42
37 53 43
37 54 43
37 54 43
37 53 43
37 53 42
37 53 42
37 53 42
37 53 42
37 53 42
37 53 42
37 53 43
37 53 43
37 53 42
37 53 42
37 53 42
37 53 42
37 53 42
37 53 42
37 53 42
37 53 42
37 53 42
37 53 42
39 59 44
39 59 43
39 59 43
39 59 43
37 53 42
37 53 42
37 53 42
39 59 44
40 60 44
40 60 44
40 60 45
40 60 45
40 60 45
40 60 44
39 59 44
39 59 44
39 59 44
40 60 44
40 60 45
40 60 45
40 60 45
40 60 45
40 60 44
40 59 44
39 59 44
40 59 44
40 60 44
40 60 45
40 60 45
40 60 45
40 60 45
40 60 44
40 60 44
40 59 44
37 53 43
37 53 42
37 53 42
119 200 154
119 200 154
119 200 154
119 200 154
119 200 154
112 180 149
112 180 149
112 180 149
111 179 148
118 200 153
111 179 148
111 179 148
111 179 148
118 199 153
111 179 148
111 179 148
111 179 148
110 179 148
110 179 147
118 199 152
118 199 152
110 179 147
118 199 152
110 179 147
110 179 147
118 199 152
110 179 147
110 179 147
110 179 147
110 179 147
110 178 147
110 178 147
110 178 147
110 178 147
110 178 147
117 198 152
110 178 147
117 198 152
110 178 147
117 198 152
110 178 147
110 178 147
109 178 147
117 198 151
109 178 146
109 178 146
109 178 146
117 198 151
117 197 151
117 197 151
117 197 151
117 197 151
109 177 146
117 197 151
109 177 146
116 197 151
109 177 146
109 177 146
109 177 146
109 177 146
116 197 151
109 177 146
109 177 146
116 197 151
109 177 146
116 197 151
109 177 146
116 197 151
116 197 151
116 196 151
116 196 151
109 177 146
109 177 146
116 196 151
109 177 146
109 177 146
109 177 146
110 177 147
40 56 46
43 63 49
41 58 48
41 58 48
42 58 48
44 64 50
42 58 49
42 58 49
42 58 49
42 58 48
42 58 48
42 58 48
42 58 48
42 59 49
43 59 49
43 59 49
43 59 49
43 59 49
45 65 51
45 65 51
45 65 51
42 59 49
43 59 50
46 66 52
51 73 66
51 73 66
46 66 53
46 66 53
46 66 53
46 66 52
46 66 52
46 66 52
46 66 53
52 73 67
47 67 53
47 67 53
47 67 53
45 61 52
47 67 53
47 67 53
47 67 53
47 67 53
52 74 68
44 61 52
44 60 51
44 60 51
44 60 51
44 60 51
44 60 51
44 60 51
44 60 51
44 60 51
44 60 51
43 59 50
43 59 50
43 59 50
43 59 50
43 59 50
43 59 50
45 65 51
43 59 50
42 59 49
42 58 49
44 64 50
42 58 49
42 59 49
44 64 50
42 59 49
42 59 49
42 59 49
41 58 48
41 58 48
41 58 48
41 58 48
41 58 48
41 58 48
42 58 48
42 58 48
44 64 49
44 64 50
44 64 50
44 64 50
44 64 50
108 176 145
108 176 145
115 196 150
108 176 145
108 176 145
108 176 145
115 196 150
115 195 150
115 195 150
115 195 150
108 176 145
115 195 150
108 176 145
115 195 150
108 176 145
108 176 145
108 176 145
115 195 150
115 195 150
115 195 149
107 176 144
107 176 144
107 176 144
107 176 144
115 195 149
115 195 149
107 176 144
107 176 144
115 195 149
107 176 144
107 175 144
115 195 149
107 175 144
107 175 144
107 175 144
107 175 144
107 175 144
107 175 144
115 195 149
107 175 144
107 175 144
107 175 144
107 175 144
107 175 144
107 175 144
107 175 144
107 175 144
114 195 149
114 195 149
107 175 144
107 175 144
107 175 144
114 196 149
107 175 144
107 175 144
107 175 144
114 196 149
107 175 144
114 196 149
107 175 144
107 175 144
107 175 144
107 175 144
107 175 144
107 175 144
114 196 149
107 175 144
115 196 150
108 176 145
108 176 145
108 176 145
115 196 150
108 176 145
115 196 150
108 176 145
115 196 150
108 176 145
115 196 150
83 132 91
36 52 41
36 53 42
36 53 42
37 53 42
46 68 60
46 68 60
38 54 43
38 54 43
37 54 43
37 53 43
37 53 43
37 54 43
37 54 43
38 54 43
38 54 43
38 54 43
37 54 43
37 53 42
37 53 42
37 53 42
37 53 42
37 53 43
37 54 43
37 54 43
37 53 43
37 53 42
37 53 42
37 53 42
37 53 42
37 53 42
37 53 42
37 53 43
37 53 43
37 53 42
37 53 42
39 59 43
37 53 42
37 53 42
37 53 42
39 59 44
37 53 43
37 53 43
37 53 42
39 59 44
37 53 42
37 53 42
37 53 42
37 53 42
37 53 42
37 53 43
39 59 44
40 60 44
40 60 45
49 70 63
49 70 63
40 60 45
40 60 44
40 60 44
39 59 44
40 59 44
37 54 43
40 60 45
49 71 63
49 71 63
40 60 45
40 60 44
40 60 44
39 59 44
37 54 43
40 60 45
40 60 45
50 71 64
40 60 45
40 60 45
40 60 45
40 60 44
37 54 43
37 53 43
119 200 154
119 200 154
112 180 149
119 200 154
112 180 149
112 180 149
119 200 154
119 200 154
118 200 153
111 180 148
118 200 153
118 200 153
118 200 153
118 200 153
118 200 153
111 180 148
111 179 148
118 200 153
111 179 148
118 200 153
118 199 153
118 199 153
118 199 153
118 199 153
118 199 152
110 179 147
118 199 152
110 179 147
110 179 147
118 199 152
110 179 147
118 199 152
118 199 152
118 199 152
110 179 147
117 199 152
110 178 147
110 178 147
110 178 147
110 178 147
117 198 152
117 198 152
117 198 152
117 198 152
109 178 147
109 178 146
109 178 146
109 178 146
109 178 146
109 178 146
109 178 146
109 178 146
117 197 151
109 177 146
109 177 146
109 177 146
109 177 146
109 177 146
116 197 151
109 177 146
109 177 146
116 197 151
116 197 151
109 177 146
109 177 146
109 177 146
109 177 146
109 177 146
109 177 146
109 177 146
109 177 146
109 177 146
109 177 146
109 177 146
109 177 146
109 177 146
116 196 151
116 196 151
109 177 146
109 176 146
116 196 151
109 176 146
41 58 48
42 58 48
42 58 49
42 59 49
42 58 49
42 58 49
42 58 49
42 58 49
42 58 48
42 58 48
42 58 49
43 59 49
43 59 49
43 59 49
43 59 49
43 59 49
43 59 49
43 59 49
42 59 49
43 59 49
43 60 50
51 73 66
53 78 67
51 73 66
51 73 66
51 73 66
51 73 66
51 73 66
46 66 52
46 66 52
51 73 67
51 73 67
54 79 68
54 79 68
54 79 68
52 73 67
47 67 53
47 67 53
45 61 52
47 67 54
52 74 68
45 61 52
45 61 52
44 60 51
44 60 51
44 60 51
44 60 51
46 66 52
44 60 51
46 66 52
46 66 52
43 59 50
45 65 51
43 59 50
43 59 50
43 59 50
43 59 50
43 59 50
43 59 50
43 59 50
42 58 49
42 59 49
42 59 49
42 59 49
44 64 50
42 59 49
44 64 50
42 59 49
42 58 48
41 58 48
41 58 48
41 58 48
41 58 48
42 58 48
42 58 48
42 58 48
42 58 48
44 64 50
44 64 50
109 176 146
116 196 151
40 60 45
108 176 145
108 176 145
115 195 150
115 195 150
115 195 150
115 195 150
108 176 145
115 195 150
115 195 150
115 195 150
108 176 145
107 176 145
107 176 145
115 195 149
115 195 149
115 195 149
115 195 149
115 195 149
115 195 149
115 195 149
107 176 144
115 195 149
107 176 144
115 195 149
107 175 144
115 195 149
115 195 149
115 195 149
115 195 149
107 175 144
107 175 144
107 175 144
107 175 144
107 175 144
107 175 144
114 195 149
114 195 149
114 195 149
114 195 149
107 175 144
107 175 144
114 195 149
107 175 144
107 175 144
107 175 144
107 175 144
114 195 149
107 175 144
107 175 144
107 175 144
107 175 144
107 175 144
107 175 144
107 175 144
114 196 149
114 196 149
114 196 149
107 175 144
107 175 144
107 175 144
107 175 144
107 175 144
107 175 144
107 175 144
107 175 144
107 175 144
37 57 41
115 196 150
108 176 145
108 176 145
108 176 145
108 176 145
108 176 145
108 176 145
108 176 145
115 196 150
115 196 150
36 52 41
36 53 42
36 53 42
36 53 42
37 53 42
46 67 60
46 67 60
48 73 61
48 73 61
37 54 43
37 53 43
37 53 43
37 54 43
37 54 43
46 68 60
48 74 61
48 74 61
37 54 43
37 53 43
37 53 42
37 53 42
37 53 43
37 54 43
37 54 43
49 74 62
37 54 43
37 53 43
37 53 42
37 53 42
37 53 42
37 53 42
37 53 43
37 54 43
47 69 61
37 53 43
37 53 42
37 53 42
39 59 43
37 53 42
37 53 42
37 53 42
37 53 43
39 59 44
37 53 42
37 53 42
39 59 43
39 59 43
39 59 44
39 59 44
37 53 42
37 53 43
48 70 62
48 70 62
51 76 64
51 76 64
49 70 63
49 70 63
49 71 63
49 71 63
39 59 44
40 60 44
51 77 64
49 71 63
49 71 63
49 71 63
49 71 63
49 71 63
40 60 44
40 59 44
40 60 44
50 71 64
50 71 64
52 77 65
50 71 64
50 71 64
40 60 45
40 60 44
37 54 43
37 54 43
36 52 41
36 52 41
112 180 149
119 200 154
119 200 154
119 200 154
119 200 154
34 50 39
111 180 148
119 200 153
119 200 153
111 180 148
119 200 153
119 200 153
118 200 153
118 200 153
118 200 153
111 180 148
118 200 153
118 200 153
118 200 153
118 200 153
118 200 153
118 200 153
111 179 148
118 199 153
118 199 152
110 179 147
118 199 152
118 199 152
118 199 152
118 199 152
118 199 152
118 199 152
110 179 147
118 199 152
117 199 152
110 178 147
117 199 152
117 198 152
110 178 147
117 198 152
117 198 152
117 198 152
117 198 152
117 198 152
109 178 146
117 198 151
109 178 146
117 198 151
117 198 151
117 198 151
117 198 151
117 198 151
117 197 151
117 197 151
109 177 146
116 197 151
109 177 146
109 177 146
109 177 146
116 197 151
116 197 151
109 177 146
116 197 151
116 197 151
116 197 151
116 197 151
109 177 146
109 177 146
116 197 151
116 197 151
116 197 151
116 197 151
116 196 151
109 177 146
109 177 146
109 177 146
116 196 151
109 176 146
109 176 146
40 60 44
41 58 48
50 71 64
50 71 64
52 77 66
52 77 66
52 77 66
42 58 49
42 58 49
44 64 50
42 58 48
42 59 49
52 77 66
52 77 66
50 72 65
43 59 49
43 59 49
43 59 49
45 65 51
43 59 49
43 59 50
50 72 65
53 78 67
51 72 66
51 72 66
51 72 66
51 72 66
53 78 67
51 73 66
51 73 66
53 78 68
53 78 68
51 73 66
51 73 66
51 73 67
54 79 68
51 73 67
52 73 67
52 73 67
52 73 67
52 73 67
52 73 67
54 79 68
53 79 68
46 66 52
44 60 51
44 60 51
44 60 51
44 60 51
46 66 52
53 78 67
53 78 67
43 60 50
43 59 50
45 65 51
43 59 50
43 59 50
43 59 50
43 59 50
52 77 67
52 77 66
42 59 49
44 64 50
44 64 50
42 59 49
42 59 49
42 59 49
42 59 49
42 59 49
42 58 49
41 58 48
41 58 48
42 58 48
42 58 48
42 58 48
42 58 48
42 58 48
42 58 48
49 70 64
51 76 65
39 56 45
108 176 145
108 176 145
108 176 145
108 176 145
115 195 150
115 195 150
115 195 150
115 195 150
107 176 145
115 195 150
107 176 145
107 176 144
107 176 144
107 176 144
115 195 149
115 195 149
115 195 149
107 176 144
107 176 144
115 195 149
115 195 149
107 175 144
107 175 144
115 195 149
115 195 149
115 195 149
115 195 149
107 175 144
114 195 149
107 175 144
114 195 149
114 195 149
114 195 149
114 195 149
114 195 149
114 195 149
114 195 149
114 195 149
114 195 149
114 195 149
114 195 149
114 195 149
107 175 144
114 195 149
114 195 149
114 195 149
114 195 149
114 195 149
114 195 149
114 195 149
114 195 149
114 196 149
107 175 144
107 175 144
114 196 149
107 175 144
114 196 149
114 196 149
114 196 149
114 196 149
114 196 149
114 196 149
114 196 149
106 175 143
106 175 143
36 56 40
36 56 40
37 57 40
37 57 41
115 196 149
107 176 144
107 176 144
107 176 144
107 176 144
115 196 150
115 196 150
107 176 145
115 196 150
115 196 150
115 196 150
115 196 150
36 53 42
37 53 42
37 53 42
48 73 61
45 67 59
48 73 61
46 67 59
48 73 61
37 54 43
37 54 43
48 73 61
48 73 61
48 73 61
46 67 60
48 73 61
48 74 61
48 74 61
37 53 42
37 53 43
48 74 61
48 74 61
46 68 60
48 74 62
48 74 62
46 68 60
37 53 42
37 53 42
37 53 42
49 74 62
49 74 62
49 74 62
47 69 61
49 75 62
49 75 62
37 53 42
37 53 42
37 53 42
37 53 42
50 75 63
47 69 61
50 75 63
50 75 63
37 53 42
37 53 42
37 53 42
39 59 44
37 53 42
50 76 63
48 70 62
50 76 64
48 70 62
48 70 62
49 70 62
49 70 62
51 76 64
51 76 64
51 77 64
51 77 64
49 71 63
49 71 63
49 71 63
49 71 63
51 77 65
49 71 63
49 71 63
49 71 63
50 71 63
50 71 63
50 71 64
50 71 64
50 71 64
52 77 65
50 72 64
52 78 65
50 72 64
50 72 64
37 54 43
36 52 41
36 52 41
36 52 41
36 52 41
120 201 154
120 201 154
112 181 149
34 50 39
34 50 39
34 50 39
119 200 153
119 200 153
119 200 153
119 200 153
119 200 153
111 180 148
111 180 148
111 180 148
111 180 148
111 180 148
118 200 153
111 180 148
118 200 153
118 200 153
118 200 153
118 200 153
111 179 148
111 179 148
110 179 147
110 179 147
118 199 152
118 199 152
118 199 152
118 199 152
118 199 152
118 199 152
118 199 152
110 179 147
110 179 147
110 179 147
117 199 152
117 198 152
110 178 147
110 178 147
110 178 147
117 198 152
117 198 151
117 198 151
109 178 146
117 198 151
117 198 151
109 178 146
117 198 151
117 198 151
117 198 151
117 198 151
109 177 146
116 197 151
109 177 146
116 197 151
116 197 151
116 197 151
109 177 146
116 197 151
116 197 151
109 177 146
109 177 146
116 197 151
116 197 151
116 197 151
116 197 151
116 197 151
116 197 151
109 177 146
116 197 151
116 196 151
108 177 146
116 196 151
108 177 146
116 196 150
39 59 44
40 60 45
117 196 152
117 196 152
110 177 147
49 71 64
52 77 66
52 77 66
52 77 66
52 77 66
50 71 64
52 77 66
50 71 64
52 77 66
52 77 66
50 71 65
52 77 66
52 77 66
52 77 66
52 77 66
43 59 49
52 78 66
52 78 67
52 78 67
52 78 67
50 72 65
53 78 67
50 72 65
51 72 66
51 72 66
53 78 67
51 72 66
53 78 67
53 78 67
53 78 67
53 78 68
51 73 66
51 73 66
53 79 68
51 73 66
53 79 68
54 79 68
54 79 68
53 78 68
53 78 68
53 78 67
44 60 51
51 72 66
53 78 67
51 72 66
53 78 67
53 78 67
53 78 67
50 72 65
43 59 50
43 59 50
43 59 50
50 72 65
52 77 66
52 77 66
52 77 66
52 77 66
50 71 65
42 59 49
42 59 49
42 59 49
52 77 66
51 77 66
51 77 65
51 77 65
51 77 65
42 58 48
42 58 48
42 58 48
42 58 48
49 70 63
49 70 63
51 76 65
51 76 65
115 195 150
108 176 145
108 176 145
108 176 145
108 176 145
108 176 145
115 195 150
115 195 150
115 195 149
115 195 149
115 195 149
107 176 144
107 176 144
107 176 144
107 176 144
115 195 149
107 176 144
115 195 149
115 195 149
115 195 149
115 195 149
107 175 144
107 175 144
115 195 149
107 175 144
107 175 144
107 175 144
114 195 149
107 175 144
114 195 149
114 195 149
114 195 149
107 175 144
107 175 144
107 175 144
107 175 144
107 175 144
114 195 149
114 195 149
114 195 149
114 195 149
107 175 144
114 195 149
107 175 144
107 175 144
107 175 144
114 195 149
114 195 149
107 175 144
114 195 149
114 195 149
114 195 149
114 195 149
114 195 149
106 175 143
106 175 143
114 196 148
106 175 143
114 196 148
106 175 143
114 196 148
114 196 148
106 175 143
114 196 148
114 196 148
106 175 143
36 56 40
36 56 40
36 56 40
37 56 40
37 57 41
37 57 41
107 176 144
115 196 149
107 176 144
107 176 144
115 196 149
115 196 149
115 196 149
115 196 149
115 196 149
115 196 149
107 176 144
115 196 150
35 52 40
37 53 42
37 53 42
116 196 151
47 73 61
48 73 61
48 73 61
45 67 59
45 67 59
48 73 61
48 73 61
116 197 151
48 73 61
48 73 61
48 73 61
48 73 61
48 73 61
46 67 60
48 73 61
48 74 61
48 74 61
46 68 60
46 68 60
48 74 61
48 74 61
48 74 62
37 53 42
49 74 62
46 68 60
46 68 60
47 68 60
49 74 62
49 74 62
47 69 61
49 75 62
47 69 61
49 75 62
49 75 62
49 75 63
47 69 61
47 69 61
50 75 63
50 75 63
50 75 63
37 53 42
50 76 63
48 70 62
48 70 62
50 76 63
50 76 64
48 70 62
48 70 62
49 70 62
49 70 62
120 200 154
51 77 64
51 77 64
49 71 63
49 71 63
120 200 155
120 200 155
113 181 150
120 201 155
49 71 63
52 77 65
52 77 65
52 77 65
52 77 65
120 201 155
113 181 150
121 201 155
113 181 150
50 72 64
52 78 65
52 78 65
52 78 65
36 52 41
36 52 41
36 52 41
36 52 41
36 52 41
112 181 149
120 201 154
112 181 149
34 50 39
34 50 39
34 50 39
34 50 38
34 50 38
34 50 38
111 180 148
119 201 153
111 180 148
111 180 148
111 180 148
111 180 148
111 180 148
111 180 148
111 180 148
111 180 148
118 200 153
118 200 153
111 180 148
111 180 148
118 200 153
111 179 148
118 200 153
110 179 147
110 179 147
118 199 152
118 199 152
118 199 152
110 179 147
110 179 147
110 179 147
110 179 147
110 179 147
110 179 147
110 179 147
117 199 152
117 199 152
117 198 152
110 178 147
109 178 147
109 178 146
109 178 146
109 178 146
117 198 151
109 178 146
117 198 151
117 198 151
117 198 151
117 198 151
109 177 146
109 177 146
116 197 151
109 177 146
109 177 146
109 177 146
116 197 151
116 197 151
116 197 151
116 197 151
116 197 151
109 177 146
109 177 146
109 177 146
109 177 146
108 177 146
116 197 151
116 197 150
116 197 150
116 197 150
116 196 150
116 196 150
108 177 145
108 176 145
116 196 150
117 196 151
117 196 151
117 196 151
117 196 151
111 177 148
118 196 153
118 196 153
51 77 65
49 71 64
51 77 65
49 71 64
49 71 64
49 71 64
52 77 66
118 196 153
118 196 153
52 77 66
52 77 66
52 77 66
43 59 49
43 59 49
43 59 49
50 72 65
118 196 153
118 196 153
118 196 153
52 78 67
50 72 65
43 60 50
43 60 50
118 196 153
111 177 148
118 196 153
118 196 153
118 196 153
51 72 66
53 78 67
118 196 153
44 60 51
118 196 153
118 196 153
53 79 68
44 60 51
44 60 51
44 60 51
51 72 66
50 72 66
50 72 65
52 78 67
52 78 67
52 78 67
52 77 66
43 59 50
43 59 50
52 77 66
52 77 66
52 77 66
52 77 66
50 71 64
52 77 66
52 77 66
42 59 49
51 77 66
49 71 64
49 71 64
51 77 65
51 76 65
51 76 65
51 76 65
51 76 65
49 70 63
51 76 65
51 76 65
49 70 63
115 195 150
115 195 150
108 176 145
108 176 145
108 176 145
115 195 150
107 176 145
107 176 145
107 176 144
115 195 149
107 176 144
115 195 149
115 195 149
115 195 149
115 195 149
107 176 144
107 175 144
115 195 149
107 175 144
107 175 144
115 195 149
107 175 144
115 195 149
107 175 144
107 175 144
107 175 144
107 175 144
107 175 144
107 175 144
107 175 144
114 195 149
107 175 144
114 195 149
107 175 144
114 195 149
107 175 144
107 175 144
107 175 144
107 175 144
107 175 144
107 175 144
114 195 149
114 195 149
114 195 149
107 175 144
107 175 144
107 175 144
106 175 144
106 175 143
106 175 143
106 175 143
106 175 143
114 195 148
114 195 148
114 195 148
114 195 148
106 175 143
106 175 143
114 195 148
106 175 143
106 175 143
106 175 143
114 196 148
114 196 148
114 196 148
114 196 148
106 175 143
106 175 143
106 175 143
114 196 148
106 175 143
36 56 40
37 56 40
37 57 41
37 57 41
37 57 41
89 152 95
107 176 144
107 176 144
107 176 144
107 176 144
107 176 144
115 196 149
115 196 149
115 196 149
35 51 40
35 51 40
35 52 40
35 52 40
37 53 42
37 53 42
108 176 145
108 176 146
45 67 59
45 67 59
45 67 59
45 67 59
109 177 146
109 177 146
116 197 151
116 197 151
116 197 151
45 67 59
45 67 59
46 67 59
46 67 59
109 177 146
109 177 146
117 197 151
109 177 146
48 74 61
37 53 42
37 53 42
37 53 42
37 53 42
37 53 42
37 53 42
117 198 152
117 198 152
49 74 62
49 74 62
37 53 42
37 53 42
37 53 42
37 53 42
111 179 148
118 199 153
118 199 153
50 75 63
50 75 63
39 59 43
37 53 42
37 53 42
37 53 42
50 76 63
119 200 154
119 200 154
119 200 154
51 76 64
51 76 64
37 53 42
37 53 42
83 132 91
120 200 154
120 200 154
120 201 155
113 181 150
120 201 155
120 201 155
113 181 150
113 181 150
120 201 155
120 201 155
52 77 65
121 201 155
121 201 155
113 181 150
121 201 155
121 201 155
113 181 150
121 201 155
121 201 155
52 78 65
52 78 65
36 52 41
36 52 41
36 52 41
120 201 155
120 201 155
113 181 150
120 201 155
120 201 155
34 50 39
34 50 39
34 50 39
34 50 39
119 201 154
119 201 154
112 181 149
119 201 154
119 201 154
111 181 148
119 201 153
119 201 153
111 180 148
111 180 148
119 201 153
119 200 153
119 200 153
119 200 153
111 180 148
111 180 148
111 180 148
111 180 148
111 180 148
111 180 148
111 179 148
118 200 153
118 200 152
118 199 152
118 199 152
118 199 152
110 179 147
110 179 147
110 179 147
110 179 147
110 179 147
110 179 147
110 179 147
117 199 152
110 178 147
110 178 147
109 178 146
109 178 146
109 178 146
109 178 146
109 178 146
109 178 146
109 178 146
109 178 146
109 178 146
117 198 151
109 178 146
109 177 146
109 177 146
116 197 151
109 177 146
109 177 146
109 177 146
109 177 146
116 197 151
109 177 146
109 177 146
109 177 146
108 177 146
116 197 151
108 177 145
108 177 145
116 197 150
116 197 150
116 197 150
108 177 145
116 197 150
116 196 150
108 177 145
108 176 145
108 176 145
108 176 145
108 176 145
116 196 150
110 177 148
110 177 148
118 196 152
110 177 148
110 177 148
110 177 148
51 77 65
49 71 64
49 71 64
118 196 152
111 177 148
111 177 148
111 177 148
118 196 153
42 59 49
43 59 49
43 59 49
43 59 49
43 59 49
45 65 51
42 59 49
111 177 148
118 196 153
43 59 50
43 60 50
43 60 50
43 60 50
43 60 50
43 60 50
87 136 97
118 196 153
118 196 153
111 177 148
46 66 52
44 60 51
44 60 51
44 60 51
44 60 51
44 60 51
44 60 51
44 60 51
43 60 50
52 78 67
50 72 65
43 59 50
43 59 50
43 59 50
45 65 51
43 59 50
43 59 50
118 196 152
110 177 148
52 77 66
51 77 66
42 59 49
42 59 49
42 59 49
42 59 49
42 59 49
117 196 152
117 196 152
49 70 64
51 76 65
51 76 65
49 70 63
49 70 63
115 195 150
108 176 145
115 195 150
115 195 150
108 176 145
115 195 150
115 195 150
115 195 149
115 195 149
107 176 144
107 176 144
107 176 144
115 195 149
115 195 149
115 195 149
115 195 149
107 175 144
115 195 149
115 195 149
107 175 144
115 195 149
107 175 144
107 175 144
115 195 149
114 195 149
114 195 149
114 195 149
107 175 144
107 175 144
107 175 144
114 195 149
107 175 144
107 175 144
107 175 144
114 195 149
114 195 149
114 195 149
107 175 144
107 175 144
107 175 144
107 175 144
107 175 144
107 175 144
107 175 144
107 175 144
106 175 144
114 195 149
106 175 143
106 175 143
106 175 143
114 195 148
106 175 143
106 175 143
106 175 143
106 175 143
106 175 143
114 195 148
106 175 143
106 175 143
106 175 143
106 175 143
106 175 143
114 195 148
106 175 143
106 175 143
106 175 143
106 175 143
114 196 148
106 175 143
114 196 148
114 196 148
106 175 143
106 175 143
106 175 143
106 175 143
106 175 143
114 196 148
37 57 41
37 57 41
37 57 41
37 57 41
107 176 144
107 176 144
107 176 144
115 196 149
107 176 144
115 196 149
35 51 40
35 51 40
35 51 40
35 52 40
35 52 40
36 52 41
45 67 59
47 73 60
116 196 150
116 196 150
108 176 145
116 196 150
116 196 151
109 177 146
109 177 146
116 197 151
109 177 146
116 197 151
109 177 146
109 177 146
109 177 146
116 197 151
109 177 146
109 177 146
109 177 146
109 177 146
36 53 42
37 53 42
37 53 42
37 53 42
37 53 42
37 53 42
37 53 42
37 53 42
36 53 42
36 53 41
36 53 42
37 53 42
37 53 42
37 53 42
37 53 42
37 53 42
39 59 43
36 53 42
118 199 153
36 53 42
36 53 42
37 53 42
37 53 42
39 59 44
37 53 42
36 53 42
36 53 42
112 180 149
83 132 91
36 53 42
37 53 42
37 53 42
37 53 42
37 53 42
36 53 42
83 132 91
120 201 155
120 201 155
113 181 150
113 181 150
113 181 150
113 181 150
113 181 150
113 181 150
121 201 155
121 201 155
121 201 155
113 182 150
121 201 155
114 182 151
114 182 151
121 202 156
121 202 156
114 182 151
121 202 156
36 53 41
36 52 41
35 51 40
120 202 155
120 202 155
120 202 155
113 181 150
81 131 89
34 50 39
34 50 39
120 202 154
119 201 154
119 201 154
119 201 154
119 201 154
119 201 154
119 201 154
119 201 154
119 201 154
112 181 149
111 181 148
119 201 153
119 201 153
119 201 153
119 201 153
111 180 148
111 180 148
119 200 153
119 200 153
111 180 148
111 180 148
118 200 153
118 200 153
111 180 148
118 200 153
118 200 153
118 200 152
118 200 152
118 199 152
110 179 147
110 179 147
110 179 147
110 179 147
117 199 152
117 199 152
110 179 147
117 199 152
117 199 152
117 199 152
117 198 152
109 178 146
109 178 146
109 178 146
109 178 146
117 198 151
117 198 151
117 198 151
117 198 151
116 198 151
109 178 146
116 198 151
109 177 146
109 177 146
109 177 146
109 177 146
109 177 146
116 197 151
116 197 151
116 197 151
108 177 146
108 177 145
108 177 145
108 177 145
108 177 145
108 177 145
108 177 145
116 197 150
108 177 145
108 177 145
116 197 150
108 177 145
108 176 145
116 196 150
108 176 145
108 176 145
108 176 145
108 176 145
116 196 150
110 177 147
43 63 49
43 63 49
43 63 49
43 63 49
118 196 152
110 177 148
110 177 148
110 177 148
110 177 148
44 64 49
42 58 49
43 59 49
43 59 49
43 59 49
45 65 51
43 59 49
43 59 49
43 59 49
42 59 49
43 59 49
43 60 50
43 60 50
45 65 52
43 60 50
43 60 50
43 60 50
43 60 50
43 60 50
43 60 50
44 60 51
44 60 51
46 66 52
44 60 51
44 60 51
44 60 51
44 60 51
44 60 51
44 60 51
44 60 51
43 59 50
43 59 50
45 65 51
43 59 50
45 65 51
43 59 50
43 60 50
43 60 50
43 59 49
44 64 50
42 59 49
42 59 49
42 59 49
42 59 49
42 59 49
42 59 49
42 59 49
86 135 96
110 176 147
110 176 147
51 76 65
51 76 64
108 176 145
115 195 150
108 176 145
115 195 150
115 195 150
115 195 149
115 195 149
115 195 149
115 195 149
115 195 149
115 195 149
115 195 149
115 195 149
115 195 149
107 175 144
115 195 149
115 195 149
115 195 149
115 195 149
115 195 149
115 195 149
114 195 149
114 195 149
114 195 149
114 195 149
114 195 149
114 195 149
114 195 149
114 195 149
114 195 149
114 195 149
114 195 149
114 195 149
114 195 149
107 175 144
114 195 149
107 175 144
107 175 144
114 195 149
114 195 149
107 175 144
114 195 149
106 175 143
106 175 143
114 195 148
114 195 148
114 195 148
106 175 143
114 195 148
114 195 148
114 195 148
106 175 143
114 195 148
106 175 143
106 175 143
114 195 148
106 175 143
114 195 148
114 195 148
106 175 143
106 175 143
106 175 143
106 175 143
106 175 143
106 175 143
106 175 143
114 196 148
114 196 148
106 175 143
114 196 148
114 196 148
106 175 143
106 175 143
106 175 143
106 175 143
106 175 143
106 175 143
88 151 94
36 56 39
37 57 41
37 57 41
37 57 41
37 57 41
107 176 144
107 176 144
115 196 149
115 196 149
115 196 149
115 196 149
115 196 149
115 196 149
35 52 40
35 52 40
35 52 40
36 52 41
45 66 58
116 196 150
116 196 150
108 176 145
108 177 145
116 196 150
108 177 145
116 197 151
116 197 151
116 197 151
116 197 151
116 197 151
109 177 146
116 197 151
116 197 151
109 177 146
109 177 146
38 58 43
39 58 43
39 59 43
37 53 42
37 53 42
37 53 42
37 53 42
37 53 42
37 53 42
37 53 42
37 53 42
37 53 42
36 53 42
36 53 42
37 53 42
37 53 42
37 53 42
37 53 42
37 53 42
37 53 42
36 53 42
36 52 41
36 53 42
37 53 42
37 53 42
37 53 42
37 53 42
37 53 42
37 53 42
36 53 42
36 52 41
36 53 42
39 59 43
37 53 42
37 53 42
37 53 42
37 53 42
37 53 42
36 53 42
36 52 41
38 58 43
113 181 150
113 181 150
113 181 150
113 182 150
113 182 150
121 202 155
113 182 151
114 182 151
114 182 151
114 182 151
114 182 151
114 182 151
114 182 151
114 182 151
121 202 156
121 202 156
121 202 156
36 53 42
36 52 41
35 51 40
35 51 40
35 51 40
121 202 155
121 202 155
34 51 39
34 50 39
33 49 37
33 49 37
120 202 154
120 202 154
120 202 154
120 202 154
120 202 154
120 202 154
119 201 154
119 201 154
119 201 154
112 181 149
119 201 154
119 201 154
119 201 154
119 201 153
111 181 148
119 201 153
111 180 148
119 201 153
111 180 148
111 180 148
119 200 153
118 200 153
118 200 153
118 200 153
118 200 153
118 200 153
118 200 152
118 200 152
118 200 152
118 199 152
118 199 152
118 199 152
118 199 152
117 199 152
110 179 147
117 199 152
117 199 152
117 199 152
117 199 152
109 178 146
109 178 146
109 178 146
117 198 151
117 198 151
117 198 151
109 178 146
109 178 146
117 198 151
116 198 151
109 178 146
116 198 151
109 177 146
109 177 146
116 197 151
116 197 151
116 197 151
116 197 151
116 197 151
116 197 150
116 197 150
116 197 150
108 177 145
108 177 145
108 177 145
116 197 150
116 197 150
116 197 150
116 197 150
116 197 150
116 197 150
116 196 150
116 196 150
116 196 150
108 176 145
116 196 150
38 58 43
110 177 147
43 63 49
41 58 48
43 63 49
43 63 49
43 63 49
43 63 49
43 63 49
43 63 49
110 177 147
43 63 49
44 64 50
42 59 49
43 59 50
43 59 50
43 59 49
43 59 49
43 59 49
43 59 49
43 59 49
43 59 49
43 59 50
43 60 50
43 60 50
43 60 50
45 65 52
43 60 50
43 60 50
43 60 50
43 60 50
43 60 50
44 60 51
44 60 51
44 60 51
44 60 51
44 60 51
44 60 51
44 60 51
44 60 51
44 60 51
44 60 51
43 59 50
45 65 51
43 59 50
43 60 50
43 60 50
43 60 50
43 60 50
43 60 50
43 60 50
42 59 49
42 59 49
42 59 49
42 59 49
42 59 49
42 59 49
42 59 49
45 65 51
42 58 49
110 176 147
110 176 147
110 176 147
110 176 147
115 195 150
107 176 144
115 195 149
107 176 144
115 195 149
115 195 149
115 195 149
115 195 149
115 195 149
107 175 144
107 175 144
115 195 149
115 195 149
115 195 149
115 195 149
115 195 149
115 195 149
114 195 149
107 175 144
107 175 144
107 175 144
114 195 149
114 195 149
114 195 149
107 175 144
114 195 149
114 195 149
114 195 149
114 195 149
107 175 144
107 175 144
107 175 144
114 195 149
114 195 149
114 195 149
114 195 149
114 195 149
114 195 149
114 195 149
114 195 148
106 175 143
114 195 148
114 195 148
114 195 148
114 195 148
114 195 148
106 175 143
114 195 148
114 195 148
106 175 143
114 195 148
106 175 143
114 195 148
114 195 148
114 195 148
114 195 148
114 195 148
106 175 143
106 175 143
106 175 143
114 195 148
106 175 143
106 175 143
114 195 148
114 195 148
114 196 148
114 196 148
114 196 148
114 196 148
114 196 148
114 196 148
114 196 148
106 175 143
114 196 148
88 151 93
35 55 39
35 55 39
36 56 39
36 56 39
37 57 41
37 57 41
37 57 41
37 57 41
114 196 149
114 196 149
115 196 149
115 196 149
115 196 149
107 176 144
115 196 149
107 176 144
115 196 149
115 196 149
36 52 41
36 52 41
116 196 150
116 196 150
108 176 145
108 176 145
116 196 150
116 197 150
116 197 150
116 197 150
116 197 151
116 197 151
116 197 151
116 197 151
116 197 151
116 197 151
82 132 91
38 58 43
38 58 43
38 58 43
39 59 43
39 59 43
39 59 43
37 53 42
37 53 42
37 53 42
37 53 42
37 53 43
37 53 42
37 53 42
37 53 42
36 53 42
39 59 43
37 53 42
39 59 44
37 53 42
37 53 42
39 59 44
39 59 43
39 59 43
36 53 42
39 59 43
37 53 42
37 53 42
39 59 44
37 53 42
37 53 42
37 53 42
36 53 42
36 53 41
36 53 42
37 53 42
37 53 42
37 53 42
37 53 42
37 53 42
37 53 42
36 53 42
36 53 42
38 58 43
38 58 43
38 58 43
113 182 151
114 182 151
121 202 156
121 202 156
121 202 156
121 202 156
121 202 156
121 202 156
121 202 156
114 182 151
114 182 151
122 202 156
122 202 156
122 202 156
114 182 151
53 78 66
82 132 90
35 51 40
35 51 40
35 51 40
35 51 39
35 51 39
51 77 64
34 51 39
33 49 38
33 49 37
33 49 37
33 49 37
120 202 154
120 202 154
112 182 149
120 202 154
120 202 154
120 202 154
112 181 149
112 181 149
119 202 154
112 181 149
112 181 149
112 181 149
119 201 154
119 201 154
119 201 153
119 201 153
111 180 148
111 180 148
111 180 148
111 180 148
111 180 148
118 200 153
118 200 153
118 200 153
118 200 153
110 180 147
110 179 147
118 200 152
110 179 147
110 179 147
110 179 147
118 199 152
117 199 152
117 199 152
117 199 152
117 199 152
117 199 152
117 199 152
117 199 151
109 178 146
109 178 146
117 198 151
117 198 151
117 198 151
117 198 151
117 198 151
116 198 151
116 198 151
116 198 151
109 177 146
109 177 146
116 198 151
116 197 151
116 197 151
116 197 151
116 197 151
116 197 150
116 197 150
116 197 150
116 197 150
108 177 145
116 197 150
116 197 150
116 197 150
116 197 150
116 197 150
116 197 150
116 197 150
116 197 150
116 196 150
116 196 150
116 196 150
38 58 43
39 59 43
110 177 147
110 177 147
110 177 147
110 177 147
43 63 49
43 63 49
43 63 49
43 63 49
43 63 49
43 63 49
44 64 49
42 58 49
43 59 49
43 59 50
43 59 50
43 59 50
43 59 49
43 59 49
43 59 49
43 59 49
43 59 49
43 60 50
43 60 50
43 60 50
46 65 52
45 65 52
43 60 50
43 60 50
43 60 50
43 60 50
44 60 51
44 61 51
44 61 51
44 60 51
44 60 51
44 60 51
44 60 51
44 60 51
44 60 51
44 60 51
44 60 51
44 60 51
43 60 50
45 65 51
45 65 51
43 60 50
43 60 50
43 60 50
43 60 50
43 60 50
42 59 49
42 59 49
42 59 49
42 59 49
42 59 49
42 59 49
45 65 51
45 65 51
43 59 49
43 63 49
110 176 147
110 176 147
117 196 152
37 53 42
115 195 149
107 176 144
107 176 144
107 176 144
115 195 149
115 195 149
107 175 144
115 195 149
107 175 144
107 175 144
115 195 149
115 195 149
107 175 144
114 195 149
107 175 144
107 175 144
107 175 144
107 175 144
107 175 144
114 195 149
107 175 144
114 195 149
114 195 149
114 195 149
114 195 149
107 175 144
114 195 149
107 175 144
107 175 144
114 195 149
106 175 144
114 195 149
114 195 149
114 195 148
114 195 148
106 175 143
106 175 143
106 175 143
106 175 143
106 175 143
106 175 143
114 195 148
106 175 143
114 195 148
114 195 148
106 175 143
114 195 148
114 195 148
106 175 143
106 175 143
114 195 148
114 195 148
114 195 148
106 175 143
114 195 148
114 195 148
114 195 148
114 195 148
114 195 148
106 175 143
114 195 148
106 175 143
114 195 148
114 196 148
114 196 148
114 196 148
114 196 148
114 196 148
113 196 148
113 196 148
106 175 143
106 175 143
35 55 39
35 55 39
35 55 39
36 55 39
36 56 39
36 56 39
36 56 39
45 70 57
42 64 56
107 176 144
107 176 144
107 176 144
114 196 149
114 196 149
114 196 149
107 176 144
115 196 149
81 131 89
34 50 39
34 51 39
36 52 41
36 52 41
108 176 145
108 176 145
108 176 145
108 177 145
116 197 150
116 197 150
108 177 145
108 177 145
108 177 145
108 177 146
116 197 151
116 197 151
36 52 41
36 52 41
36 52 41
38 58 43
38 58 43
39 59 43
39 59 43
39 59 43
39 59 43
37 53 42
37 53 42
37 53 42
37 53 43
37 53 43
37 53 42
37 53 42
37 53 42
37 53 42
37 53 42
37 53 42
37 53 42
39 59 44
37 53 43
37 53 42
37 53 42
37 53 42
36 53 42
37 53 42
37 53 42
37 53 42
37 53 42
37 53 42
37 53 42
37 53 42
37 53 42
36 53 42
39 59 43
37 53 42
37 53 42
37 53 42
37 53 42
37 53 42
37 53 42
37 53 42
36 53 42
38 58 43
38 58 43
38 58 43
38 58 42
38 58 42
114 182 151
121 202 156
122 202 156
122 202 156
122 203 156
122 203 156
114 183 151
122 203 156
122 203 156
122 203 156
114 183 151
114 183 151
122 203 156
53 78 66
35 51 40
35 51 40
35 51 40
35 51 40
121 203 156
114 183 151
51 77 64
51 77 64
33 49 38
33 49 37
33 49 37
33 49 37
33 49 37
33 49 37
120 202 155
112 182 149
120 202 154
112 182 149
112 182 149
112 182 149
112 181 149
120 202 154
112 181 149
112 181 149
112 181 149
119 201 154
112 181 149
112 181 149
111 181 148
111 181 148
111 181 148
111 180 148
111 180 148
111 180 148
111 180 148
111 180 148
118 200 153
111 180 148
111 180 148
110 180 147
110 179 147
110 179 147
118 200 152
110 179 147
110 179 147
118 199 152
117 199 152
110 179 147
117 199 152
110 179 147
117 199 152
109 178 146
109 178 146
117 198 151
109 178 146
109 178 146
117 198 151
117 198 151
109 178 146
116 198 151
116 198 151
109 178 146
109 178 146
109 177 146
109 177 146
109 177 146
108 177 146
116 197 151
116 197 150
116 197 150
116 197 150
108 177 145
108 177 145
108 177 145
108 177 145
108 177 145
108 177 145
116 197 150
116 197 150
116 197 150
116 197 150
116 197 150
108 176 145
108 176 145
108 176 145
108 176 145
108 176 145
110 177 147
117 196 152
117 196 152
110 177 147
117 196 152
110 177 147
43 63 49
41 58 48
43 63 49
44 64 50
42 59 49
53 78 67
43 59 50
43 59 50
43 59 50
43 59 50
45 65 51
43 59 49
43 59 49
43 59 50
43 60 50
44 60 50
43 60 50
43 60 50
43 60 50
43 60 50
43 60 50
43 60 50
43 60 50
44 60 51
46 66 53
46 66 53
44 61 51
44 60 51
44 60 51
44 60 51
44 60 51
44 60 51
46 66 53
44 60 51
44 61 51
43 60 50
43 60 50
45 65 52
43 60 50
43 60 50
43 60 50
43 60 50
43 60 50
43 60 50
42 59 49
42 59 49
42 59 49
42 59 49
43 59 49
45 65 51
43 59 49
43 59 49
42 58 48
86 134 95
109 176 147
117 196 151
115 195 149
115 195 149
107 175 144
107 175 144
107 175 144
107 175 144
107 175 144
107 175 144
107 175 144
107 175 144
107 175 144
114 195 149
107 175 144
107 175 144
107 175 144
114 195 149
107 175 144
107 175 144
107 175 144
107 175 144
107 175 144
107 175 144
114 195 149
107 175 144
114 195 149
114 195 149
106 175 144
106 175 143
114 195 149
106 175 143
106 175 143
114 195 148
106 175 143
114 195 148
106 175 143
106 175 143
106 175 143
106 175 143
106 175 143
106 175 143
106 175 143
106 175 143
106 175 143
114 195 148
114 195 148
114 195 148
106 175 143
106 175 143
106 175 143
106 175 143
106 175 143
106 175 143
106 175 143
106 175 143
114 195 148
114 195 148
114 195 148
106 175 143
106 175 143
106 175 143
106 175 143
106 175 143
106 175 143
113 195 148
106 175 143
113 196 148
106 175 143
106 175 143
113 196 148
113 196 148
106 175 143
106 175 143
106 175 143
113 196 148
35 55 39
36 55 39
36 56 39
36 56 39
36 56 39
36 56 40
42 64 56
114 196 149
107 176 144
107 176 144
107 176 144
107 176 144
114 196 149
114 196 149
34 50 39
34 50 39
34 50 39
34 51 39
34 51 39
36 52 41
46 72 59
115 196 150
108 176 145
116 196 150
108 177 145
108 177 145
108 177 145
108 177 145
116 197 150
108 177 145
90 152 96
36 52 41
36 52 41
36 52 41
36 52 41
36 52 41
38 58 43
39 58 43
39 59 43
39 59 43
39 59 43
39 59 44
37 53 42
37 53 42
37 53 42
50 75 63
50 75 63
50 75 63
37 53 42
39 59 44
37 53 42
37 53 42
39 59 44
37 53 42
51 76 64
51 76 64
39 59 44
37 53 42
37 53 42
36 53 42
37 53 42
37 53 42
37 53 42
52 77 65
52 77 65
37 53 42
37 53 42
37 53 42
36 53 42
37 53 42
39 59 44
37 53 42
37 53 42
37 53 42
37 53 42
37 53 42
37 53 42
36 53 42
39 59 43
38 58 43
38 58 43
38 58 42
36 52 41
36 52 41
36 52 41
122 203 156
114 183 151
122 203 156
122 203 157
115 183 152
115 183 152
122 203 157
115 183 152
115 183 152
122 203 157
122 203 157
51 73 64
35 51 40
35 51 40
122 203 156
122 203 156
122 203 156
114 183 151
49 71 63
52 77 64
33 49 38
33 49 38
33 49 37
33 49 37
33 49 37
121 203 155
120 203 155
113 182 150
120 203 155
120 203 155
113 182 149
120 202 155
112 182 149
112 182 149
120 202 154
120 202 154
120 202 154
120 202 154
119 202 154
119 202 154
112 181 149
119 201 154
111 181 148
111 181 148
119 201 153
111 180 148
111 180 148
111 180 148
119 201 153
118 200 153
111 180 148
111 180 148
110 180 147
110 180 147
110 179 147
110 179 147
110 179 147
110 179 147
110 179 147
117 199 152
110 179 147
110 179 147
110 179 147
109 179 146
109 178 146
109 178 146
109 178 146
109 178 146
109 178 146
109 178 146
109 178 146
109 178 146
109 178 146
109 178 146
109 178 146
109 178 146
109 177 146
116 198 151
108 177 145
108 177 145
116 197 150
116 197 150
108 177 145
116 197 150
116 197 150
108 177 145
108 177 145
108 177 145
108 177 145
108 177 145
108 177 145
116 197 150
116 197 150
115 197 150
108 176 145
108 176 145
108 176 145
108 176 145
108 176 145
115 196 150
108 176 145
108 176 145
110 177 147
117 196 152
110 177 147
43 63 49
41 58 48
44 64 49
44 64 50
52 78 66
52 78 66
52 78 67
52 78 67
52 78 67
43 59 50
45 65 51
43 59 50
43 59 49
43 59 50
53 78 67
53 78 67
53 78 67
53 78 67
46 66 52
43 60 50
43 60 50
43 60 50
44 60 51
53 79 68
53 79 68
53 79 68
44 61 51
44 61 51
44 61 51
46 66 53
44 60 51
53 78 68
53 78 68
53 78 67
53 78 67
44 60 51
45 65 52
43 60 50
43 60 50
43 60 50
52 78 67
52 78 67
52 78 67
52 78 67
42 59 49
42 59 49
43 59 49
43 59 49
43 59 49
45 65 51
52 77 66
52 77 66
115 195 149
115 195 149
115 195 149
115 195 149
115 195 149
115 195 149
115 195 149
107 175 144
107 175 144
107 175 144
114 195 149
107 175 144
114 195 149
107 175 144
114 195 149
114 195 149
114 195 149
107 175 144
107 175 144
114 195 149
107 175 144
107 175 144
114 195 149
114 195 149
114 195 149
114 195 149
114 195 149
106 175 143
114 195 148
106 175 143
106 175 143
106 175 143
114 195 148
106 175 143
114 195 148
114 195 148
114 195 148
114 195 148
106 175 143
106 175 143
106 175 143
106 175 143
106 175 143
106 175 143
106 175 143
106 175 143
114 195 148
106 175 143
106 175 143
106 175 143
106 175 143
106 175 143
106 175 143
106 175 143
106 175 143
106 175 143
106 175 143
113 195 148
113 195 148
106 175 143
113 195 148
106 175 143
113 195 148
113 195 148
106 175 143
113 195 148
106 175 143
106 175 143
106 175 143
113 196 148
106 175 143
106 175 143
106 175 143
106 175 143
106 175 143
106 175 143
106 175 143
113 196 148
113 196 148
106 175 143
36 56 39
36 56 39
36 56 40
36 56 40
107 176 144
114 196 149
107 176 144
114 196 149
107 176 144
107 176 144
107 176 144
34 50 39
34 50 39
34 50 39
34 51 39
34 51 39
35 51 39
44 66 57
115 196 150
108 176 145
108 176 145
116 197 150
108 177 145
108 177 145
116 197 150
108 177 145
38 58 42
38 58 42
38 58 42
36 52 41
36 52 41
36 52 41
36 52 41
36 52 41
38 58 43
39 59 43
39 59 43
39 59 43
39 59 43
39 59 44
49 75 62
49 75 62
49 75 63
50 75 63
50 75 63
50 75 63
50 75 63
50 75 63
37 53 42
39 59 44
50 76 63
50 76 64
51 76 64
51 76 64
51 76 64
51 76 64
39 59 44
37 53 42
37 53 42
52 77 65
52 77 65
52 77 65
52 77 65
52 78 65
52 78 65
37 53 42
39 59 43
37 53 42
39 59 44
53 78 66
53 78 66
53 79 66
53 79 66
37 53 42
37 53 42
37 53 42
39 59 43
38 58 43
38 58 43
38 58 43
36 52 41
36 52 41
36 52 41
35 52 40
35 52 40
122 203 157
115 183 152
115 183 152
115 183 152
122 204 157
115 184 152
123 204 157
115 184 152
115 184 152
123 204 157
122 204 156
122 204 156
114 183 151
114 183 151
122 204 156
122 204 156
52 77 64
49 71 63
33 49 38
33 49 38
33 49 37
121 203 155
121 203 155
121 203 155
113 183 150
113 183 150
121 203 155
121 203 155
120 203 155
113 182 150
113 182 150
113 182 150
112 182 149
112 182 149
120 202 154
120 202 154
120 202 154
120 202 154
120 202 154
119 202 154
112 181 149
112 181 149
111 181 148
111 181 148
119 201 153
119 201 153
119 201 153
111 180 148
111 180 148
118 200 153
111 180 148
111 180 148
110 180 147
118 200 152
110 179 147
118 200 152
118 200 152
118 199 152
117 199 152
117 199 152
110 179 147
117 199 152
109 179 146
117 199 151
109 178 146
109 178 146
109 178 146
117 198 151
117 198 151
109 178 146
116 198 151
109 178 146
109 178 146
109 178 146
109 178 146
109 177 146
108 177 145
108 177 145
108 177 145
116 197 150
116 197 150
116 197 150
116 197 150
108 177 145
108 177 145
108 177 145
108 177 145
108 177 145
108 177 145
108 177 145
115 197 150
108 177 145
108 177 145
115 197 150
108 176 145
108 176 145
108 176 145
108 176 145
108 176 145
108 176 145
108 176 145
108 176 145
42 62 48
43 63 49
43 63 49
44 64 50
50 72 65
52 77 66
52 77 66
52 77 66
52 77 66
52 77 66
52 77 66
52 78 66
52 78 67
43 59 50
52 78 67
52 78 67
53 78 67
53 78 67
53 78 67
53 78 67
53 78 67
53 78 67
43 60 50
53 78 67
53 78 67
53 78 67
53 78 68
53 78 68
53 78 68
53 79 68
44 61 51
53 78 67
53 78 67
53 78 67
53 78 67
53 78 67
53 78 67
43 60 50
52 78 67
52 78 67
52 78 67
52 77 66
52 77 66
52 77 66
52 77 66
52 77 66
43 59 49
52 77 66
52 77 66
52 77 66
107 175 144
115 195 149
115 195 149
115 195 149
115 195 149
115 195 149
115 195 149
114 195 149
107 175 144
114 195 149
107 175 144
114 195 149
114 195 149
114 195 149
114 195 149
114 195 149
107 175 144
114 195 149
114 195 149
114 195 149
114 195 149
107 175 144
107 175 144
114 195 149
114 195 149
114 195 149
114 195 149
114 195 148
114 195 148
114 195 148
114 195 148
106 175 143
106 175 143
114 195 148
106 175 143
106 175 143
114 195 148
114 195 148
114 195 148
106 175 143
114 195 148
114 195 148
106 175 143
106 175 143
106 175 143
106 175 143
114 195 148
114 195 148
106 175 143
114 195 148
114 195 148
114 195 148
106 175 143
106 175 143
106 175 143
106 175 143
106 175 143
106 175 143
113 195 148
113 195 148
113 195 148
113 195 148
106 175 143
106 175 143
106 175 143
106 175 143
106 175 143
113 195 148
106 175 143
106 175 143
113 195 148
113 196 148
106 175 143
113 196 148
106 175 143
106 175 143
106 175 143
106 175 143
106 175 143
106 175 143
113 196 148
88 151 93
32 48 36
36 56 39
36 56 40
36 56 40
36 56 40
114 196 149
114 196 149
114 196 149
114 196 149
114 196 149
114 196 149
114 196 149
107 176 144
114 196 149
34 51 39
34 51 39
35 51 39
35 51 39
108 176 145
115 196 150
115 196 150
108 176 145
115 197 150
108 177 145
37 57 42
38 57 42
38 58 42
38 58 42
38 58 42
38 58 42
36 52 41
36 52 41
36 52 41
36 52 41
36 52 41
39 58 43
39 59 43
39 59 43
39 59 43
47 68 61
47 69 61
47 69 61
49 75 62
49 75 62
49 75 63
50 75 63
50 75 63
50 75 63
48 69 62
48 70 62
50 76 63
50 76 63
50 76 64
51 76 64
51 76 64
51 76 64
51 77 64
51 77 64
37 53 42
51 77 64
52 77 65
52 77 65
52 77 65
52 78 65
52 78 65
52 78 65
52 78 65
50 72 64
53 78 66
53 78 66
53 78 66
53 79 66
53 79 66
53 79 66
53 79 67
54 79 67
37 53 42
39 59 43
39 58 43
38 58 43
38 58 43
36 52 41
36 52 41
36 52 41
36 52 41
35 52 40
38 57 42
37 57 42
123 204 157
123 204 157
115 184 152
115 184 152
123 204 157
123 204 157
122 204 157
115 184 152
122 204 157
115 184 152
122 204 157
122 204 157
115 184 152
115 184 152
115 184 152
122 204 157
33 49 38
33 49 38
34 54 38
121 204 156
121 204 156
121 204 156
121 204 156
113 183 150
121 203 155
121 203 155
113 183 150
121 203 155
113 183 150
121 203 155
120 203 155
120 203 155
120 203 155
120 202 155
120 202 154
120 202 154
120 202 154
120 202 154
120 202 154
112 181 149
119 202 154
119 201 154
119 201 154
119 201 153
111 181 148
119 201 153
119 201 153
119 201 153
118 201 153
118 200 153
118 200 153
110 180 147
118 200 152
118 200 152
118 200 152
118 200 152
118 200 152
117 199 152
117 199 152
117 199 152
117 199 152
109 179 146
109 179 146
117 199 151
117 199 151
117 199 151
109 178 146
117 198 151
117 198 151
116 198 151
116 198 151
116 198 151
116 198 151
109 178 146
108 177 145
116 198 151
108 177 145
116 197 150
108 177 145
116 197 150
116 197 150
116 197 150
108 177 145
108 177 145
108 177 145
108 177 145
108 177 145
115 197 150
115 197 150
115 197 150
115 197 150
115 197 150
115 197 150
108 176 145
108 176 145
115 196 150
108 176 145
108 176 145
108 176 145
38 58 42
43 63 48
44 63 49
44 64 49
50 71 64
50 71 64
50 71 64
50 71 64
50 71 64
52 77 66
52 77 66
52 77 66
52 77 66
42 59 49
43 59 50
43 59 50
43 59 49
43 59 49
118 196 153
118 196 153
52 78 67
53 78 67
53 78 67
43 60 50
43 60 50
43 60 50
53 78 67
53 78 67
53 78 67
53 78 67
53 78 67
53 78 68
53 78 67
53 78 67
53 78 67
50 72 65
50 72 65
50 72 65
52 77 66
52 77 66
52 77 66
52 77 66
52 77 66
52 77 66
52 77 66
50 71 64
49 71 64
52 77 66
52 77 66
51 77 66
51 77 65
115 195 149
107 175 144
107 175 144
114 195 149
114 195 149
114 195 149
114 195 149
107 175 144
107 175 144
107 175 144
107 175 144
114 195 149
114 195 149
114 195 149
114 195 149
114 195 149
114 195 149
114 195 149
107 175 144
114 195 149
114 195 149
106 175 143
114 195 149
114 195 148
114 195 148
106 175 143
106 175 143
114 195 148
114 195 148
114 195 148
114 195 148
106 175 143
106 175 143
114 195 148
114 195 148
114 195 148
114 195 148
114 195 148
114 195 148
114 195 148
114 195 148
114 195 148
114 195 148
106 175 143
114 195 148
114 195 148
113 195 148
113 195 148
113 195 148
113 195 148
106 175 143
113 195 148
113 195 148
113 195 148
106 175 143
113 195 148
113 195 148
113 195 148
113 195 148
106 175 143
113 195 148
113 195 148
106 175 143
106 175 143
113 195 148
113 195 148
106 175 143
113 195 148
113 195 148
113 195 148
106 175 142
113 196 148
113 196 148
113 196 148
113 196 148
105 175 142
105 175 142
113 196 148
113 196 148
34 54 38
35 54 38
35 55 38
35 55 38
36 56 39
36 56 40
36 56 40
36 56 40
114 196 149
106 176 143
114 196 149
114 196 149
114 196 149
114 196 149
114 196 149
114 196 149
114 196 149
114 196 149
34 51 39
35 51 39
35 51 39
115 196 150
115 196 150
115 197 150
108 176 145
35 51 40
35 51 40
38 57 42
38 58 42
38 58 42
38 58 42
38 58 42
38 58 42
36 52 41
36 52 41
36 52 41
36 52 41
36 52 41
36 53 42
46 68 60
46 68 60
47 68 60
47 68 60
47 68 60
47 69 61
47 69 61
47 69 61
49 75 62
50 75 63
47 69 61
48 69 61
48 69 61
48 70 62
48 70 62
48 70 62
50 76 63
51 76 64
51 76 64
51 76 64
36 53 42
37 53 42
37 53 42
37 53 42
36 53 42
52 77 65
52 77 65
52 78 65
52 78 65
50 72 64
50 72 64
50 72 64
51 72 64
51 73 65
122 203 157
122 203 157
53 79 66
54 79 67
54 79 67
52 73 65
52 73 65
52 74 66
39 59 43
38 58 43
38 58 43
36 52 41
36 52 41
36 52 41
36 52 41
35 52 40
38 58 42
37 57 42
37 57 41
37 57 41
116 184 153
116 184 153
116 184 153
36 56 39
115 184 152
115 184 152
123 205 157
115 184 152
115 184 152
115 184 152
115 184 152
115 184 152
115 184 152
123 204 157
33 50 38
33 49 38
32 48 36
32 48 36
32 48 36
80 130 87
114 183 151
121 204 156
114 183 151
121 204 156
121 204 156
113 183 150
113 183 150
113 183 150
113 183 150
121 203 155
121 203 155
113 182 150
120 203 155
120 203 155
120 202 154
120 202 154
120 202 154
112 182 149
112 181 149
119 202 154
112 181 149
119 202 154
119 201 154
119 201 153
119 201 153
111 181 148
111 180 148
111 180 148
111 180 148
111 180 148
118 200 153
118 200 152
118 200 152
118 200 152
118 200 152
118 200 152
110 179 147
117 199 152
117 199 152
110 179 147
109 179 146
109 179 146
117 199 151
117 199 151
117 199 151
117 199 151
109 178 146
116 198 151
116 198 151
116 198 151
116 198 151
116 198 151
109 178 146
116 198 151
116 198 150
116 198 150
116 198 150
116 197 150
116 197 150
116 197 150
116 197 150
116 197 150
116 197 150
108 177 145
108 177 145
108 177 145
115 197 150
115 197 150
115 197 150
108 177 145
108 176 145
115 197 150
115 197 150
115 196 150
108 176 145
108 176 145
38 58 42
42 62 48
49 71 64
49 71 64
49 71 64
49 71 64
49 71 64
49 71 64
49 71 64
49 71 64
49 71 64
50 71 64
50 71 64
87 135 96
43 59 49
43 59 50
43 59 50
43 59 50
43 59 50
43 59 49
43 59 49
87 135 97
118 196 153
43 60 50
44 60 50
43 60 50
43 60 50
43 60 50
43 60 50
43 60 50
118 196 153
118 196 153
118 196 153
50 72 65
50 72 65
50 72 65
50 72 65
50 72 65
50 72 65
50 72 65
52 77 66
52 77 66
50 71 64
50 71 64
49 71 64
49 71 64
49 71 64
49 71 64
49 71 64
51 77 65
51 76 65
51 76 65
36 52 41
107 175 144
114 195 149
114 195 149
107 175 144
107 175 144
107 175 144
107 175 144
107 175 144
107 175 144
114 195 149
114 195 149
114 195 149
114 195 149
114 195 149
114 195 149
106 175 144
106 175 143
106 175 143
106 175 143
106 175 143
106 175 143
114 195 148
114 195 148
114 195 148
114 195 148
114 195 148
114 195 148
106 175 143
106 175 143
106 175 143
106 175 143
106 175 143
114 195 148
114 195 148
114 195 148
114 195 148
106 175 143
106 175 143
106 175 143
106 175 143
106 175 143
106 175 143
106 175 143
113 195 148
106 175 143
113 195 148
106 175 143
113 195 148
113 195 148
113 195 148
106 175 143
106 175 143
106 175 143
106 175 143
113 195 148
106 175 143
113 195 148
113 195 148
113 195 148
113 195 148
113 195 148
113 195 148
113 195 148
105 175 142
113 195 148
113 195 148
113 195 148
113 195 148
113 195 148
113 196 148
113 196 148
113 196 147
105 175 142
113 196 147
113 196 147
34 54 38
34 54 38
34 54 38
32 48 36
35 55 38
35 55 38
32 48 37
88 151 93
41 63 55
41 63 55
106 176 143
106 176 143
106 176 143
106 176 143
106 176 143
114 196 149
106 176 143
114 196 149
114 196 149
33 49 38
33 49 38
81 131 89
35 51 39
35 51 40
115 196 150
35 51 40
35 51 40
35 51 40
35 51 40
35 51 40
38 58 42
38 58 42
38 58 42
38 58 42
38 58 42
38 58 42
36 52 41
36 52 41
36 52 41
36 52 41
48 74 61
48 74 61
48 74 61
46 68 60
46 68 60
110 178 147
110 179 147
47 69 61
47 69 61
47 69 61
38 58 43
111 179 148
111 179 148
111 180 148
111 180 148
112 180 149
48 70 62
48 70 62
48 70 62
90 152 96
36 52 41
36 53 42
39 59 43
39 59 43
37 53 42
37 53 42
36 53 42
36 52 41
36 52 41
114 182 151
114 182 151
50 72 64
50 72 64
51 72 64
115 183 152
115 183 152
115 183 152
122 203 157
123 203 157
115 183 152
52 73 65
52 74 66
52 74 66
52 74 66
52 74 66
52 74 66
38 58 43
36 52 41
36 52 41
36 52 41
36 52 41
36 52 41
38 58 42
38 57 42
37 57 42
37 57 41
37 57 41
124 205 158
116 185 153
36 56 39
36 55 39
35 55 39
115 185 152
123 205 158
115 185 152
115 185 152
115 185 152
123 205 157
123 205 157
50 72 63
53 78 65
53 78 65
32 48 36
32 48 36
32 48 36
32 48 36
32 48 36
32 48 36
122 204 156
122 204 156
114 184 151
114 183 151
114 183 151
121 204 156
113 183 150
113 183 150
113 183 150
113 183 150
121 203 155
121 203 155
120 203 155
113 182 150
120 203 155
112 182 149
112 182 149
112 182 149
112 182 149
112 181 149
112 181 149
119 202 154
119 201 154
119 201 153
119 201 153
111 181 148
111 180 148
111 180 148
111 180 148
111 180 148
110 180 147
118 200 152
110 180 147
110 179 147
118 200 152
118 200 152
117 200 152
110 179 147
110 179 147
109 179 146
117 199 151
109 179 146
117 199 151
117 199 151
117 199 151
117 198 151
116 198 151
116 198 151
109 178 146
116 198 151
116 198 151
108 178 145
108 177 145
116 198 150
116 198 150
116 198 150
116 197 150
116 197 150
116 197 150
116 197 150
108 177 145
108 177 145
108 177 145
108 177 145
115 197 150
108 177 145
115 197 150
108 177 145
115 197 150
115 197 150
115 197 150
115 197 150
35 51 40
37 57 42
38 58 42
43 62 48
49 71 64
51 77 65
51 77 65
51 77 65
51 77 65
49 71 64
111 177 148
111 177 148
111 177 148
111 177 148
44 64 50
42 59 49
43 59 50
45 65 51
43 59 50
45 65 51
43 59 50
43 59 50
43 59 49
43 59 49
43 59 49
43 60 50
44 60 51
44 60 50
43 60 50
43 60 50
43 60 50
43 60 50
43 60 50
43 60 50
44 60 51
50 72 65
111 177 148
111 177 148
50 71 65
50 71 65
50 71 65
45 65 51
110 177 148
110 177 148
110 177 148
49 71 64
110 177 147
49 71 64
49 71 64
49 71 64
94 154 101
110 176 147
110 176 147
110 176 147
49 70 63
114 195 149
107 175 144
107 175 144
107 175 144
107 175 144
107 175 144
107 175 144
107 175 144
107 175 144
107 175 144
107 175 144
114 195 149
114 195 149
106 175 143
106 175 143
106 175 143
106 175 143
106 175 143
106 175 143
106 175 143
106 175 143
106 175 143
114 195 148
114 195 148
106 175 143
106 175 143
106 175 143
106 175 143
106 175 143
114 195 148
106 175 143
114 195 148
106 175 143
106 175 143
114 195 148
114 195 148
106 175 143
106 175 143
106 175 143
106 175 143
106 175 143
106 175 143
106 175 143
106 175 143
113 195 148
113 195 148
113 195 148
106 175 143
106 175 143
106 175 143
106 175 143
106 175 143
106 175 143
106 175 142
105 175 142
113 195 148
105 175 142
113 195 148
113 195 148
105 175 142
105 175 142
105 175 142
105 175 142
113 195 147
105 175 142
113 195 147
113 195 147
113 195 147
113 195 147
113 196 147
105 175 142
113 196 147
105 175 142
113 196 147
105 175 142
113 196 147
34 54 38
35 54 38
35 55 38
35 55 38
35 55 38
35 55 38
35 55 38
41 63 54
114 196 148
106 176 143
114 196 148
106 176 143
106 176 143
106 176 143
114 196 148
81 131 88
33 49 38
33 49 38
33 49 38
36 56 39
33 50 38
45 71 58
45 71 58
115 197 150
115 197 150
35 51 40
35 51 40
35 51 40
35 51 40
38 58 42
38 58 42
38 58 42
38 58 42
38 58 42
38 58 42
36 52 41
36 52 41
48 74 61
48 74 61
48 74 61
48 74 61
117 198 152
118 198 152
110 178 147
110 179 147
110 179 147
90 152 96
38 58 43
38 58 43
39 59 43
38 58 43
38 58 43
111 180 148
112 180 149
112 180 149
112 180 149
38 58 43
38 58 43
38 58 43
36 53 42
36 53 42
37 53 42
39 59 44
39 59 44
37 53 42
37 53 42
36 53 42
38 58 43
38 58 43
90 152 96
114 183 151
114 183 152
115 183 152
115 183 152
115 183 152
115 183 152
38 58 43
38 58 43
116 184 153
116 184 153
116 184 153
52 74 66
52 74 66
52 74 66
53 74 66
55 80 68
55 81 68
36 52 41
36 52 41
36 52 41
36 52 41
38 58 42
38 58 42
37 57 42
116 185 153
116 185 153
117 185 154
117 185 154
36 56 39
36 56 39
35 55 39
35 55 39
35 55 39
88 151 93
116 185 153
123 206 158
123 206 158
123 205 158
53 79 65
51 72 64
80 130 88
32 48 36
32 48 36
34 54 38
32 48 36
32 48 36
122 205 157
122 205 156
122 205 156
122 205 156
114 184 151
122 204 156
114 184 151
114 183 151
114 183 151
113 183 150
121 204 155
121 204 155
113 183 150
121 203 155
121 203 155
113 182 150
113 182 150
120 203 155
112 182 149
112 182 149
112 182 149
112 182 149
112 181 149
112 181 149
112 181 148
111 181 148
111 181 148
111 181 148
119 201 153
111 180 148
111 180 148
111 180 148
110 180 147
110 180 147
110 180 147
118 200 152
110 179 147
110 179 147
110 179 147
110 179 147
117 199 152
109 179 146
109 179 146
109 179 146
109 178 146
117 199 151
117 199 151
117 199 151
109 178 146
109 178 146
109 178 146
116 198 151
108 178 145
108 178 145
116 198 150
116 198 150
116 198 150
116 198 150
108 177 145
116 197 150
108 177 145
108 177 145
108 177 145
108 177 145
108 177 145
108 177 145
108 177 145
108 177 145
115 197 150
115 197 150
115 197 150
115 197 150
35 51 39
35 51 40
38 58 42
38 58 42
108 177 146
108 177 146
118 196 152
51 76 65
51 76 65
118 196 152
118 196 152
118 196 152
118 196 152
110 177 148
44 64 49
44 64 50
43 59 49
45 65 51
43 59 50
43 59 50
43 59 50
43 59 50
43 59 50
43 59 50
43 59 50
43 59 50
44 60 51
44 60 51
44 60 51
44 60 50
44 60 50
46 66 52
43 60 50
43 60 50
43 60 50
44 61 51
111 177 148
111 177 148
94 154 102
45 65 51
45 65 51
45 65 51
43 59 49
43 59 49
110 177 147
110 176 147
110 176 147
110 176 147
44 64 50
44 64 50
44 64 50
44 64 50
44 64 50
114 195 149
114 195 149
114 195 149
114 195 149
107 175 144
107 175 144
107 175 144
107 175 144
107 175 144
107 175 144
107 175 144
114 195 149
114 195 149
114 195 148
114 195 148
106 175 143
106 175 143
106 175 143
114 195 148
106 175 143
106 175 143
106 175 143
106 175 143
106 175 143
114 195 148
114 195 148
106 175 143
114 195 148
106 175 143
106 175 143
106 175 143
106 175 143
106 175 143
106 175 143
114 195 148
113 195 148
113 195 148
113 195 148
106 175 143
113 195 148
106 175 143
106 175 143
106 175 143
106 175 143
106 175 143
113 195 148
106 175 143
106 175 143
106 175 143
113 195 148
113 195 148
113 195 148
105 175 142
105 175 142
113 195 148
105 175 142
105 175 142
105 175 142
105 175 142
105 175 142
105 175 142
105 175 142
105 175 142
105 175 142
105 175 142
105 175 142
113 195 147
105 175 142
105 175 142
105 175 142
105 175 142
113 195 147
105 175 142
105 175 142
105 175 142
105 175 142
105 175 142
105 175 142
105 175 142
113 196 147
35 54 38
32 48 37
35 55 38
35 55 38
35 55 38
35 55 38
106 175 143
106 175 143
114 196 148
106 176 143
114 196 148
106 176 143
35 55 39
33 49 38
33 49 38
33 49 38
33 49 38
33 50 38
33 50 38
34 50 38
45 71 58
115 197 150
115 197 150
108 176 145
115 197 150
35 51 40
35 51 40
35 52 40
35 52 40
38 58 42
38 58 42
38 58 42
38 58 42
45 67 59
45 67 59
48 73 61
48 73 61
48 74 61
117 198 152
117 198 152
117 198 152
118 198 152
118 199 152
38 58 42
38 58 43
38 58 43
38 58 43
39 58 43
39 59 43
39 58 43
38 58 43
38 58 42
38 58 42
38 58 42
38 58 42
38 58 43
38 58 43
39 58 43
39 59 43
39 59 43
37 53 42
37 53 42
37 53 42
37 53 42
39 59 43
36 53 42
36 52 41
38 58 43
36 52 41
38 58 42
115 183 152
115 183 152
90 152 96
36 52 41
38 58 43
38 58 43
38 58 43
38 58 43
38 58 42
116 185 153
116 185 153
116 185 153
55 80 68
55 81 68
55 81 68
55 81 68
55 81 68
56 81 68
36 52 41
36 52 41
38 58 42
117 186 154
117 186 154
117 186 154
124 206 159
125 206 159
125 206 159
36 56 39
36 56 39
36 55 39
35 55 39
35 55 39
116 186 153
124 206 158
116 186 153
124 206 158
124 206 158
53 79 66
53 79 66
32 48 36
32 48 36
32 48 36
32 48 36
115 185 152
123 205 157
115 185 152
122 205 157
115 185 152
122 205 157
122 205 157
114 184 151
114 184 151
122 205 156
114 184 151
122 204 156
114 183 151
114 183 151
121 204 156
121 204 155
121 203 155
121 203 155
113 183 150
120 203 155
113 182 150
112 182 149
120 203 154
112 182 149
112 182 149
120 202 154
112 181 149
119 202 154
119 202 154
111 181 148
111 181 148
111 181 148
111 180 148
118 201 153
111 180 148
110 180 147
110 180 147
118 200 152
110 180 147
118 200 152
110 179 147
117 200 152
117 200 152
110 179 147
109 179 146
109 179 146
109 179 146
117 199 151
109 178 146
117 199 151
116 199 151
116 198 151
109 178 146
116 198 151
109 178 146
116 198 151
108 178 145
116 198 150
116 198 150
108 177 145
108 177 145
116 197 150
108 177 145
108 177 145
108 177 145
108 177 145
108 177 145
108 177 145
108 177 145
108 177 145
115 197 150
108 177 145
108 177 145
34 50 39
35 51 39
37 57 42
38 58 42
108 177 145
90 152 96
117 196 151
117 196 151
117 196 151
118 196 152
118 196 152
118 196 152
118 196 152
118 196 152
41 57 47
44 64 50
42 59 49
43 59 50
43 59 50
43 59 50
43 59 50
43 59 50
43 59 50
43 59 50
43 59 50
43 59 50
43 60 50
44 60 51
44 60 51
44 60 51
46 66 52
44 60 51
44 60 50
44 60 50
43 60 50
44 60 51
44 61 52
45 65 51
45 65 51
45 65 51
45 65 51
45 65 51
45 65 51
45 65 51
45 65 51
110 176 147
44 64 50
44 64 50
44 64 50
44 64 50
114 195 149
107 175 144
114 195 149
114 195 149
114 195 149
114 195 149
114 195 149
107 175 144
114 195 149
107 175 144
107 175 144
106 175 144
106 175 143
114 195 148
106 175 143
114 195 148
114 195 148
114 195 148
114 195 148
114 195 148
106 175 143
106 175 143
114 195 148
106 175 143
106 175 143
114 195 148
114 195 148
114 195 148
114 195 148
114 195 148
106 175 143
114 195 148
106 175 143
106 175 143
113 195 148
106 175 143
106 175 143
106 175 143
113 195 148
113 195 148
113 195 148
106 175 143
106 175 143
106 175 143
106 175 143
113 195 148
113 195 148
113 195 148
113 195 148
106 175 143
106 175 142
105 175 142
113 195 148
105 175 142
105 175 142
105 175 142
105 175 142
105 175 142
105 175 142
105 175 142
105 175 142
113 195 147
113 195 147
113 195 147
105 175 142
105 175 142
105 175 142
113 195 147
105 175 142
105 175 142
105 175 142
113 195 147
105 175 142
105 175 142
105 175 142
113 196 147
105 175 142
105 175 142
105 175 142
105 175 142
113 196 147
105 175 142
105 175 142
105 175 142
105 175 142
105 175 142
35 55 38
35 55 38
35 55 38
35 55 38
114 196 148
106 175 143
106 175 143
35 55 39
35 55 39
35 55 39
33 49 37
33 49 38
36 55 39
33 49 38
33 50 38
33 50 38
34 50 38
34 50 38
115 197 149
115 197 150
115 197 150
115 197 150
108 177 145
115 197 150
35 52 40
35 52 40
36 52 41
38 58 42
38 58 42
45 67 59
45 67 59
45 67 59
45 67 59
45 67 59
110 178 147
117 198 152
117 198 152
117 198 152
118 199 152
36 52 41
36 52 41
36 52 41
38 58 43
38 58 43
38 58 43
36 53 42
39 59 43
39 59 43
38 58 43
38 58 43
38 58 42
38 58 42
38 58 43
38 58 43
38 58 43
36 53 42
36 53 42
37 53 42
37 53 42
37 53 42
37 53 42
39 59 44
39 59 43
37 53 42
39 59 43
36 52 41
38 58 43
38 58 42
38 58 42
38 58 42
38 58 42
38 58 42
38 58 43
38 58 43
36 52 41
38 58 43
38 58 42
38 58 42
38 58 42
124 205 159
124 205 159
55 81 68
55 81 68
56 81 68
56 81 69
56 81 69
56 81 69
56 82 69
38 58 42
36 56 40
36 56 40
117 186 154
117 186 154
117 186 154
117 186 154
36 56 40
36 56 39
33 49 38
117 186 154
117 186 154
117 186 154
117 186 154
117 186 154
117 186 154
117 186 154
124 207 159
124 206 159
32 48 37
32 48 36
32 48 36
123 206 158
123 206 158
123 206 157
123 206 157
115 185 152
115 185 152
123 206 157
115 185 152
115 185 152
122 205 157
122 205 157
114 184 151
122 205 156
122 205 156
122 204 156
121 204 156
121 204 156
113 183 150
121 204 155
121 204 155
121 203 155
121 203 155
113 182 150
120 203 155
120 203 155
120 203 154
112 182 149
120 202 154
120 202 154
119 202 154
112 181 148
119 202 153
119 201 153
111 181 148
111 181 148
111 180 148
118 201 153
118 201 153
118 200 152
118 200 152
118 200 152
118 200 152
118 200 152
117 200 152
110 179 147
110 179 147
117 199 152
117 199 151
109 179 146
109 179 146
109 178 146
109 178 146
109 178 146
116 198 151
116 198 151
109 178 146
116 198 151
108 178 145
108 178 145
108 177 145
116 198 150
116 198 150
116 198 150
108 177 145
116 197 150
115 197 150
108 177 145
115 197 150
108 177 145
108 177 145
108 177 145
108 177 145
108 177 145
115 197 150
115 197 150
107 176 144
115 197 150
38 58 42
38 58 43
39 59 43
117 197 151
117 196 151
117 196 151
39 55 44
110 177 147
118 196 152
118 196 152
41 57 47
44 63 49
44 64 50
43 59 49
53 78 67
53 78 67
43 59 50
43 59 50
43 59 50
43 59 50
43 59 50
43 59 50
43 59 50
53 78 68
53 78 68
44 60 51
44 60 51
44 60 51
44 60 51
44 60 51
46 66 52
44 60 50
44 61 51
44 61 52
43 59 49
43 59 49
45 65 51
43 59 49
45 65 51
45 65 51
45 65 51
45 65 51
45 65 51
44 64 50
44 64 50
114 195 149
114 195 149
114 195 149
107 175 144
114 195 149
114 195 149
114 195 149
114 195 149
114 195 149
114 195 149
114 195 149
114 195 148
114 195 148
114 195 148
114 195 148
114 195 148
114 195 148
114 195 148
114 195 148
114 195 148
114 195 148
114 195 148
106 175 143
114 195 148
106 175 143
114 195 148
114 195 148
114 195 148
114 195 148
114 195 148
114 195 148
114 195 148
113 195 148
113 195 148
113 195 148
106 175 143
113 195 148
113 195 148
113 195 148
106 175 143
113 195 148
106 175 143
113 195 148
113 195 148
113 195 148
106 175 143
106 175 143
106 175 142
113 195 148
105 175 142
113 195 148
113 195 148
105 175 142
113 195 147
113 195 147
113 195 147
105 175 142
105 175 142
105 175 142
105 175 142
113 195 147
113 195 147
113 195 147
105 175 142
113 195 147
113 195 147
113 195 147
113 195 147
105 175 142
105 175 142
105 175 142
105 175 142
105 175 142
113 195 147
113 195 147
113 195 147
113 195 147
113 196 147
113 196 147
105 175 142
105 175 142
113 196 147
105 175 142
105 175 142
105 175 142
34 53 37
34 54 37
34 54 37
35 55 38
35 55 38
35 55 38
35 55 38
88 151 93
35 55 39
35 55 39
35 55 39
33 49 37
35 55 39
35 55 39
33 49 38
33 49 38
33 49 38
33 50 38
34 50 38
34 50 38
34 50 38
115 197 149
115 197 150
107 176 144
81 131 89
34 50 39
34 50 39
35 52 40
35 52 40
47 73 60
45 67 58
45 67 59
45 67 59
45 67 59
109 178 146
109 178 146
109 178 146
110 178 147
110 178 147
35 52 40
36 52 41
36 52 41
36 52 41
36 52 41
36 52 41
38 58 43
38 58 43
39 58 43
39 59 43
39 59 43
39 59 43
38 58 43
38 58 43
38 58 42
38 58 42
38 58 43
38 58 43
39 58 43
39 59 43
39 59 43
37 53 42
37 53 42
53 79 66
53 79 67
54 79 67
37 53 42
37 53 42
36 53 42
38 58 43
38 58 43
38 58 43
38 58 42
38 58 42
38 58 42
38 58 43
38 58 43
39 58 43
38 58 43
36 52 41
38 58 43
38 58 42
38 58 42
36 52 41
35 52 40
125 206 160
125 206 160
56 81 69
56 82 69
56 82 69
54 76 68
54 76 68
54 76 68
37 56 40
36 56 40
36 56 40
36 56 40
118 187 155
118 187 155
36 56 40
88 151 93
117 187 154
117 187 154
117 187 154
117 187 154
117 187 154
117 187 154
117 187 154
117 187 154
117 187 154
117 187 154
32 48 37
32 48 36
79 130 86
31 47 35
31 47 35
124 207 158
123 206 158
123 206 158
123 206 158
123 206 157
123 206 157
123 206 157
123 206 157
123 205 157
115 185 152
115 185 152
122 205 157
122 205 156
122 205 156
122 204 156
122 204 156
114 184 151
121 204 156
121 204 155
121 204 155
113 183 150
113 183 150
120 203 155
120 203 155
112 182 149
120 203 154
120 202 154
120 202 154
112 181 149
119 202 154
119 202 154
119 202 153
119 201 153
111 181 148
119 201 153
118 201 153
118 201 153
118 201 153
118 200 152
118 200 152
118 200 152
118 200 152
117 200 152
117 200 152
110 179 146
117 199 151
117 199 151
117 199 151
109 179 146
117 199 151
117 199 151
116 199 151
116 199 151
116 198 151
116 198 151
116 198 151
116 198 150
116 198 150
108 177 145
116 198 150
116 198 150
108 177 145
116 198 150
108 177 145
108 177 145
115 197 150
108 177 145
108 177 145
108 177 145
108 177 145
115 197 150
115 197 150
115 197 150
115 197 149
115 197 149
115 197 149
115 197 149
39 59 44
117 197 151
117 197 151
38 55 44
110 177 147
110 177 147
110 177 147
43 63 48
41 57 47
44 64 50
44 64 50
52 78 67
50 72 65
53 78 67
50 72 65
53 78 67
53 78 67
43 59 50
43 59 50
43 59 50
53 78 67
53 78 67
53 78 67
53 78 67
53 78 67
53 78 68
44 60 51
46 66 52
44 60 51
44 60 51
53 79 68
54 79 68
45 65 51
45 65 51
45 65 51
45 65 51
45 65 51
45 65 51
45 65 51
45 65 51
45 65 51
44 64 50
44 64 50
44 64 50
107 175 144
114 195 149
114 195 149
114 195 149
114 195 149
114 195 149
114 195 149
106 175 143
106 175 143
106 175 143
106 175 143
106 175 143
114 195 148
114 195 148
114 195 148
106 175 143
114 195 148
114 195 148
114 195 148
106 175 143
114 195 148
106 175 143
106 175 143
114 195 148
114 195 148
114 195 148
114 195 148
113 195 148
106 175 143
113 195 148
106 175 143
113 195 148
106 175 143
113 195 148
106 175 143
113 195 148
113 195 148
113 195 148
106 175 143
113 195 148
113 195 148
106 175 143
113 195 148
113 195 148
113 195 148
113 195 148
113 195 148
113 195 147
113 195 147
113 195 147
113 195 147
113 195 147
113 195 147
113 195 147
113 195 147
113 195 147
113 195 147
105 175 142
113 195 147
113 195 147
113 195 147
113 195 147
105 175 142
113 195 147
113 195 147
113 195 147
113 195 147
105 175 142
105 175 142
113 195 147
113 195 147
113 195 147
113 195 147
113 195 147
105 175 142
105 175 142
113 196 147
113 196 147
105 175 142
113 196 147
105 175 142
87 151 92
31 47 35
34 53 37
31 47 35
34 54 37
31 47 35
35 55 38
33 49 37
41 62 54
106 175 143
106 175 143
33 49 37
35 55 39
33 49 37
35 55 39
35 55 39
35 55 39
36 56 39
33 49 38
33 50 38
33 50 38
34 50 38
34 50 38
34 50 38
115 197 149
34 50 38
36 56 40
34 50 39
34 50 39
34 50 39
47 72 60
47 72 60
47 72 60
47 73 60
47 73 60
109 178 146
109 178 146
109 178 146
109 178 146
109 178 147
38 57 42
38 58 42
35 52 40
36 52 41
36 52 41
38 58 42
36 52 41
36 52 41
38 58 43
39 58 43
39 59 43
39 59 43
39 59 43
39 59 43
39 59 43
38 58 43
38 58 43
38 58 43
38 58 43
38 58 43
39 59 43
36 53 42
37 53 42
53 79 66
53 79 66
53 79 66
54 79 67
54 79 67
54 80 67
54 80 67
37 53 42
39 59 43
38 58 43
36 52 41
38 58 42
38 58 42
38 58 42
38 58 43
38 58 43
39 59 43
39 59 43
38 58 43
38 58 43
38 58 42
38 58 42
38 58 42
35 52 40
35 52 40
35 51 40
126 207 160
118 187 155
54 76 68
54 76 68
55 76 68
55 76 68
37 57 41
36 56 40
36 56 40
36 56 40
36 56 40
118 187 155
36 56 40
35 55 38
34 54 38
88 151 93
118 187 155
118 187 155
125 208 160
118 187 155
125 208 160
118 187 155
125 208 160
125 208 160
54 80 67
52 74 65
31 47 35
31 47 35
31 47 35
31 47 35
31 47 35
124 207 158
124 207 158
124 207 158
123 206 158
116 186 152
115 185 152
115 185 152
115 185 152
115 185 152
123 205 157
115 185 152
122 205 157
122 205 156
122 205 156
122 205 156
114 184 151
121 204 156
113 183 150
113 183 150
121 204 155
113 183 150
113 183 150
120 203 155
120 203 155
112 182 149
120 203 154
120 202 154
120 202 154
119 202 154
111 181 148
111 181 148
111 181 148
119 201 153
119 201 153
118 201 153
118 201 153
118 201 153
110 180 147
110 180 147
118 200 152
118 200 152
117 200 152
110 179 147
109 179 146
109 179 146
117 199 151
109 179 146
117 199 151
117 199 151
117 199 151
116 199 151
116 199 151
116 198 151
108 178 145
108 178 145
108 178 145
108 178 145
116 198 150
116 198 150
116 198 150
108 177 145
116 198 150
115 197 150
115 197 150
115 197 150
115 197 150
108 177 145
115 197 150
115 197 150
115 197 150
115 197 149
115 197 149
107 176 144
115 197 149
115 197 149
115 197 149
115 197 149
115 196 149
39 55 44
110 177 147
110 177 147
42 62 48
41 57 47
41 58 48
44 64 50
50 72 65
52 78 66
52 78 66
52 78 66
52 78 67
52 78 67
50 72 65
53 78 67
53 78 67
50 72 65
53 78 67
53 78 67
53 78 67
53 78 67
53 78 67
53 78 67
53 78 67
53 78 67
53 78 67
53 78 68
53 78 68
53 79 68
51 72 66
45 65 51
45 65 51
45 65 51
45 65 51
43 59 50
45 65 51
45 65 51
45 65 51
45 65 51
44 64 50
44 64 50
114 195 149
114 195 149
114 195 149
114 195 148
106 175 143
106 175 143
106 175 143
106 175 143
114 195 148
106 175 143
106 175 143
106 175 143
114 195 148
114 195 148
114 195 148
114 195 148
106 175 143
106 175 143
106 175 143
114 195 148
106 175 143
106 175 143
106 175 143
114 195 148
113 195 148
113 195 148
113 195 148
113 195 148
113 195 148
106 175 143
106 175 143
106 175 143
106 175 143
106 175 143
113 195 148
113 195 148
113 195 148
113 195 148
106 175 142
113 195 148
113 195 148
105 175 142
105 175 142
105 175 142
105 175 142
105 175 142
113 195 147
113 195 147
105 175 142
113 195 147
113 195 147
113 195 147
113 195 147
105 175 142
105 175 142
105 175 142
105 175 142
113 195 147
113 195 147
113 195 147
105 175 142
113 195 147
113 195 147
105 175 142
113 195 147
113 195 147
113 195 147
113 195 147
113 195 147
113 195 147
113 195 147
113 195 147
113 195 147
113 195 147
113 195 147
113 196 147
113 196 147
113 196 147
113 196 147
33 53 37
33 53 37
31 47 35
34 53 37
34 54 37
34 54 37
34 54 37
34 54 37
40 62 54
40 62 54
106 175 143
106 175 143
106 175 143
106 175 143
106 175 143
35 55 39
35 55 39
35 55 39
36 55 39
33 49 38
33 50 38
33 50 38
34 50 38
34 50 38
45 70 57
45 70 57
115 197 149
34 50 39
34 50 39
34 50 39
34 50 39
34 50 39
89 152 95
47 72 60
116 197 151
116 198 151
116 198 151
117 198 151
109 178 146
89 152 95
37 57 42
37 57 42
38 58 42
38 58 42
36 52 41
36 52 41
36 52 41
36 52 41
38 58 43
36 52 41
38 58 43
39 59 43
39 59 43
49 70 62
49 71 63
49 71 63
39 59 43
38 58 43
38 58 43
38 58 43
38 58 43
39 58 43
50 72 64
50 72 64
51 72 64
53 79 66
53 79 66
54 79 67
54 79 67
54 80 67
54 80 67
54 80 67
52 74 66
39 59 43
38 58 43
38 58 43
38 58 43
38 58 42
38 58 43
38 58 43
39 58 43
39 59 43
39 59 43
36 52 41
38 58 43
38 58 43
38 58 42
36 52 41
36 52 41
38 58 42
126 207 161
126 207 161
126 208 161
119 188 156
119 188 156
55 77 68
55 77 69
37 57 41
37 56 40
36 56 40
126 208 161
126 208 161
54 76 67
54 76 67
35 55 38
35 54 38
34 54 38
34 54 38
34 54 38
118 188 155
118 188 155
118 188 155
118 188 155
126 208 160
118 188 155
55 80 67
55 80 67
31 47 35
31 47 35
31 47 35
31 47 35
31 47 35
31 47 35
31 47 34
124 207 158
116 186 153
116 186 153
116 186 153
116 186 153
116 186 152
115 185 152
115 185 152
115 185 152
115 185 152
115 185 152
115 185 151
122 205 156
114 184 151
114 184 151
114 184 151
114 184 151
113 183 150
113 183 150
113 183 150
113 183 150
113 183 150
113 182 150
120 203 155
120 203 154
120 203 154
120 202 154
112 182 149
112 181 148
119 202 153
111 181 148
111 181 148
111 181 148
111 180 148
118 201 153
118 201 153
118 201 152
118 200 152
110 180 147
118 200 152
110 179 147
110 179 147
109 179 146
109 179 146
117 199 151
117 199 151
117 199 151
109 178 146
116 199 151
116 199 151
116 199 151
109 178 145
108 178 145
108 178 145
116 198 150
108 178 145
116 198 150
116 198 150
108 177 145
116 198 150
115 198 150
115 197 150
115 197 150
108 177 145
108 177 145
108 177 145
107 177 144
107 177 144
115 197 149
115 197 149
115 197 149
115 197 149
115 197 149
115 197 149
115 197 149
115 197 149
108 177 145
108 176 145
108 176 145
43 63 48
41 57 47
44 64 50
52 77 66
50 72 65
52 77 66
50 72 65
50 72 65
52 77 66
52 77 66
52 78 66
52 78 66
50 72 65
50 72 65
50 72 65
50 72 65
50 72 65
53 78 67
53 78 67
53 78 67
53 78 67
53 78 67
51 72 66
51 72 66
51 73 66
53 78 67
50 72 65
45 65 51
45 65 51
45 65 51
45 65 51
45 65 51
45 65 51
50 72 65
50 71 65
50 71 65
44 64 50
44 64 50
35 51 40
106 175 143
106 175 143
106 175 143
106 175 143
106 175 143
106 175 143
114 195 148
114 195 148
106 175 143
106 175 143
106 175 143
114 195 148
106 175 143
114 195 148
106 175 143
106 175 143
106 175 143
106 175 143
114 195 148
106 175 143
113 195 148
106 175 143
106 175 143
113 195 148
106 175 143
113 195 148
106 175 143
106 175 143
113 195 148
106 175 143
113 195 148
106 175 143
106 175 143
106 175 142
105 175 142
113 195 148
113 195 148
105 175 142
105 175 142
105 175 142
113 195 147
105 175 142
105 175 142
105 175 142
105 175 142
113 195 147
113 195 147
113 195 147
113 195 147
113 195 147
105 175 142
105 175 142
113 195 147
105 175 142
105 175 142
105 175 142
113 195 147
113 195 147
113 195 147
113 195 147
113 195 147
113 195 147
105 175 142
105 175 142
105 175 142
105 175 142
105 175 142
105 175 142
105 175 142
105 175 142
113 195 147
113 195 147
113 195 147
105 175 142
113 196 147
33 53 36
31 47 35
31 47 35
33 53 37
31 47 35
34 53 37
34 54 37
34 54 37
34 54 37
34 54 37
34 54 37
43 68 55
106 175 143
106 175 143
106 175 143
106 175 143
106 175 143
106 175 143
106 176 143
35 55 39
36 55 39
36 56 39
33 50 38
33 50 38
34 50 38
44 70 57
44 70 57
45 70 57
115 197 149
115 197 149
115 197 149
34 50 39
34 50 39
34 50 39
34 51 39
34 51 39
116 197 151
116 198 151
116 198 151
117 198 151
109 178 146
109 178 146
37 57 42
37 57 42
38 58 42
38 58 42
38 58 42
38 58 42
36 52 41
36 52 41
36 52 41
36 52 41
36 52 41
39 58 43
48 70 62
48 70 62
49 70 62
49 71 63
49 71 63
49 71 63
49 71 63
38 58 43
38 58 43
50 72 64
52 78 65
50 72 64
51 72 64
51 73 65
51 73 65
51 73 65
54 79 67
54 79 67
54 80 67
52 74 66
52 74 66
53 74 66
53 75 67
53 75 67
38 58 43
38 58 43
38 58 43
38 58 43
38 58 43
54 76 68
55 76 68
55 76 68
55 77 69
38 58 43
36 52 41
38 58 42
36 52 41
126 208 161
126 208 161
127 208 161
127 208 161
127 208 161
127 208 161
127 208 162
120 188 157
120 188 157
37 57 41
119 188 156
119 189 156
119 189 156
119 189 156
54 76 68
54 76 68
35 55 38
35 55 38
34 54 38
34 54 38
34 54 38
34 54 38
126 209 161
126 209 161
126 209 161
126 209 161
126 209 161
55 81 67
55 81 67
31 47 35
31 47 35
31 47 35
31 47 35
31 47 35
31 47 35
125 208 159
125 208 159
124 208 159
116 187 153
116 186 153
116 186 153
124 207 158
116 186 153
116 186 153
115 186 152
115 185 152
115 185 152
115 185 152
122 205 157
122 205 157
114 184 151
114 184 151
122 205 156
114 184 151
121 204 156
113 183 150
113 183 150
113 183 150
113 183 150
120 203 155
120 203 155
112 182 149
112 182 149
112 182 149
112 182 149
112 181 149
111 181 148
111 181 148
111 181 148
111 181 148
111 181 148
118 201 153
118 201 153
118 201 152
110 180 147
118 200 152
110 180 147
110 179 147
110 179 147
109 179 146
109 179 146
117 199 151
109 179 146
109 179 146
109 178 146
116 199 151
109 178 146
116 199 151
116 198 151
108 178 145
108 178 145
108 178 145
108 178 145
108 177 145
108 177 145
116 198 150
115 198 150
108 177 145
108 177 145
108 177 145
108 177 145
108 177 144
115 197 150
107 177 144
107 177 144
107 177 144
115 197 149
107 176 144
115 197 149
115 197 149
115 197 149
34 50 38
116 197 150
108 176 145
116 196 150
108 176 145
116 196 151
116 196 151
50 71 64
50 71 64
52 77 66
50 71 64
50 71 65
50 71 65
50 72 65
50 72 65
52 77 66
111 177 148
50 72 65
50 72 65
52 78 66
50 72 65
50 72 65
50 72 65
50 72 65
53 78 67
111 177 148
50 72 65
51 72 66
51 72 66
51 72 66
50 72 65
50 72 65
45 65 51
50 72 65
50 72 65
50 71 65
52 77 66
50 71 64
50 71 64
49 71 64
42 58 49
44 64 50
115 195 149
106 175 143
106 175 143
106 175 143
106 175 143
106 175 143
106 175 143
106 175 143
114 195 148
106 175 143
114 195 148
114 195 148
106 175 143
106 175 143
106 175 143
106 175 143
106 175 143
106 175 143
106 175 143
106 175 143
106 175 143
106 175 143
113 195 148
113 195 148
113 195 148
106 175 143
106 175 143
106 175 143
106 175 143
106 175 143
106 175 142
105 175 142
105 175 142
105 175 142
113 195 148
113 195 147
105 175 142
113 195 147
105 175 142
105 175 142
105 175 142
105 175 142
105 175 142
105 175 142
113 195 147
105 175 142
105 175 142
113 195 147
113 195 147
105 175 142
105 175 142
105 175 142
105 175 142
105 175 142
105 175 142
105 175 142
105 175 142
105 175 142
105 175 142
113 195 147
113 195 147
113 195 147
105 175 142
105 175 142
105 175 142
113 195 147
105 175 142
105 175 142
105 175 142
113 195 147
113 195 147
113 195 147
113 195 147
79 130 86
31 47 35
31 47 35
31 47 35
31 47 35
31 47 35
33 53 37
34 53 37
31 47 35
34 54 37
34 54 37
34 54 37
34 54 37
34 54 37
106 175 143
106 175 143
106 175 143
106 175 143
106 175 143
106 175 143
34 54 38
34 54 38
36 55 39
36 56 39
33 50 38
42 64 55
44 70 57
44 70 57
44 70 57
42 64 55
115 197 149
115 197 149
107 176 144
115 197 149
115 197 149
115 197 150
34 50 39
34 51 39
35 51 39
116 198 151
116 198 151
109 178 146
109 178 146
109 178 146
109 178 146
109 178 146
109 178 147
38 58 42
38 58 42
38 58 42
36 52 41
36 52 41
36 52 41
36 52 41
50 76 63
50 76 63
50 76 63
48 70 62
48 70 62
49 70 62
51 77 64
49 71 63
49 71 63
49 71 63
52 77 65
50 72 64
50 72 64
50 72 64
51 72 64
115 183 152
51 73 65
51 73 65
51 73 65
52 73 65
52 74 66
52 74 66
52 74 66
53 74 66
53 75 67
53 75 67
53 75 67
54 75 67
54 76 67
54 76 68
54 76 68
54 76 68
55 76 68
55 77 69
55 77 69
58 83 70
55 77 69
56 77 69
38 58 43
127 208 161
127 208 161
127 208 161
127 209 162
127 209 162
127 209 162
127 209 162
128 209 162
128 209 162
128 209 162
37 57 41
35 55 39
120 189 157
128 210 162
120 189 157
55 77 68
55 77 68
35 55 38
35 55 38
35 55 38
34 54 38
119 189 156
119 189 156
119 189 156
119 189 156
119 189 156
127 209 161
119 189 156
127 209 161
53 75 66
31 47 35
31 47 35
31 47 35
31 47 35
125 209 160
125 209 160
125 208 160
125 208 159
117 187 154
125 208 159
125 208 159
117 187 154
116 187 153
116 186 153
116 186 153
116 186 153
116 186 153
123 206 158
123 206 157
123 206 157
123 206 157
122 206 157
122 205 157
122 205 156
114 184 151
114 184 151
114 184 151
114 184 150
113 183 150
113 183 150
121 204 155
121 203 155
120 203 155
120 203 154
120 203 154
112 182 149
112 182 149
112 182 149
111 181 148
111 181 148
111 181 148
111 181 148
111 181 148
118 201 153
110 180 147
118 201 152
110 180 147
110 180 147
110 180 147
110 179 147
110 179 147
117 200 152
109 179 146
109 179 146
109 179 146
109 179 146
117 199 151
109 178 146
109 178 146
109 178 145
108 178 145
108 178 145
108 178 145
108 178 145
108 178 145
116 198 150
108 177 145
108 177 145
115 198 150
108 177 145
108 177 145
108 177 145
107 177 144
107 177 144
107 177 144
115 197 149
107 177 144
107 177 144
107 176 144
107 176 144
115 197 149
34 50 38
34 50 39
108 177 145
108 176 145
108 176 145
38 58 42
116 196 151
116 196 151
116 196 151
52 77 66
49 71 64
111 177 148
111 177 148
111 177 148
111 177 148
50 71 64
44 64 50
44 64 50
44 64 50
111 177 148
111 177 148
111 177 148
111 177 148
111 177 148
50 72 65
45 65 51
45 65 51
45 65 51
111 177 148
111 177 148
111 177 148
45 65 51
45 65 51
50 71 65
50 71 65
50 71 64
50 71 64
49 71 64
49 71 64
49 71 64
49 71 64
51 77 65
49 71 64
108 176 145
35 51 40
114 195 148
106 175 143
106 175 143
106 175 143
106 175 143
114 195 148
114 195 148
114 195 148
114 195 148
114 195 148
106 175 143
106 175 143
106 175 143
106 175 143
106 175 143
106 175 143
106 175 143
113 195 148
113 195 148
113 195 148
113 195 148
106 175 143
106 175 143
106 175 143
113 195 148
113 195 148
105 175 142
105 175 142
105 175 142
113 195 147
113 195 147
113 195 147
113 195 147
113 195 147
105 175 142
105 175 142
105 175 142
105 175 142
105 175 142
113 195 147
105 175 142
105 175 142
105 175 142
113 195 147
113 195 147
113 195 147
105 175 142
105 175 142
105 175 142
105 175 142
113 195 147
105 175 142
105 175 142
113 195 147
105 175 142
105 175 142
113 195 147
113 195 147
113 195 147
105 175 142
105 175 142
105 175 142
105 175 142
105 175 142
105 175 142
105 175 142
105 175 142
105 175 142
105 175 142
31 47 35
31 47 35
31 47 35
31 47 35
31 47 35
31 47 35
33 53 37
31 47 35
34 53 37
34 54 37
34 54 37
31 47 35
34 54 37
34 54 37
34 54 37
34 54 37
34 54 37
106 175 143
106 175 143
87 151 92
34 54 38
34 54 38
34 54 38
34 54 38
36 56 39
42 64 55
42 64 55
42 64 55
44 70 57
44 70 57
107 176 144
115 197 149
115 197 149
115 197 149
115 197 149
115 197 149
33 49 37
33 49 38
34 51 39
34 51 39
46 72 59
109 177 146
109 178 146
109 178 146
109 178 146
109 178 146
109 178 146
109 178 146
110 178 147
110 179 147
38 58 42
36 52 41
38 58 42
36 52 41
50 75 63
50 75 63
50 76 63
50 76 63
50 76 63
120 201 154
112 181 149
113 181 150
113 181 150
49 71 63
52 77 65
52 77 65
52 78 65
52 78 65
52 78 65
114 183 151
115 183 152
115 183 152
115 183 152
115 184 152
38 58 42
38 58 43
36 52 41
38 58 42
53 74 66
117 185 154
53 75 67
53 75 67
54 75 67
56 82 69
56 82 69
57 82 69
57 82 70
55 77 68
119 187 156
55 77 69
55 77 69
56 77 69
56 78 69
58 84 71
58 84 71
35 51 39
34 51 39
127 209 162
128 209 162
128 209 162
128 209 162
128 210 163
128 210 163
121 190 158
56 78 70
56 78 70
35 55 39
35 55 39
35 55 39
121 190 158
121 190 158
121 190 158
35 55 38
35 55 38
120 190 157
120 190 157
120 190 157
128 210 162
120 190 157
120 190 157
120 190 157
120 190 157
120 189 157
127 210 162
127 210 162
31 47 35
31 47 35
31 47 35
126 209 160
126 209 160
126 209 160
126 209 160
126 209 160
125 209 160
117 188 154
125 208 159
125 208 159
125 208 159
124 208 159
117 187 153
116 187 153
124 207 158
124 207 158
124 207 158
116 186 152
123 206 157
123 206 157
123 206 157
122 206 157
122 205 157
114 184 151
114 184 151
114 184 151
121 204 156
121 204 156
121 204 155
121 204 155
121 204 155
120 203 155
120 203 155
120 203 154
120 203 154
112 182 149
112 182 149
119 202 154
111 181 148
119 202 153
119 201 153
119 201 153
111 180 148
118 201 153
118 201 152
110 180 147
110 180 147
110 180 147
110 179 147
110 179 147
109 179 146
109 179 146
117 199 151
117 199 151
117 199 151
109 178 146
109 178 146
116 199 151
108 178 145
108 178 145
108 178 145
108 178 145
116 198 150
108 178 145
108 177 145
116 198 150
108 177 145
115 198 150
115 198 150
108 177 145
115 197 150
115 197 150
107 177 144
115 197 149
107 177 144
107 177 144
107 177 144
107 176 144
33 49 38
34 50 38
116 197 150
115 197 150
108 177 145
38 58 42
116 197 151
109 177 146
116 196 151
38 54 43
51 77 65
118 196 153
118 196 153
118 196 153
111 177 148
111 177 148
44 64 50
44 64 50
44 64 50
44 64 50
44 64 50
44 64 50
44 64 50
111 177 148
111 177 148
94 154 101
45 65 51
45 65 51
45 65 51
45 65 51
45 65 51
45 65 51
45 65 51
45 65 51
45 65 51
110 177 148
110 177 148
51 77 66
51 77 65
51 77 65
51 76 65
51 76 65
51 76 65
110 176 147
40 60 45
107 175 144
106 175 143
106 175 143
114 195 148
114 195 148
114 195 148
106 175 143
114 195 148
106 175 143
113 195 148
113 195 148
113 195 148
113 195 148
106 175 143
106 175 143
106 175 143
113 195 148
113 195 148
113 195 148
113 195 148
113 195 148
113 195 148
113 195 148
113 195 148
113 195 148
105 175 142
105 175 142
105 175 142
113 195 147
105 175 142
113 195 147
113 195 147
113 195 147
113 195 147
113 195 147
113 195 147
113 195 147
113 195 147
105 175 142
105 175 142
105 175 142
113 195 147
113 195 147
113 195 147
113 195 147
113 195 147
113 195 147
113 195 147
105 175 142
105 175 142
105 175 142
105 175 142
105 175 142
105 175 142
105 175 142
113 195 147
113 195 147
113 195 147
112 195 147
112 195 147
105 175 142
112 195 147
112 195 147
112 195 147
105 175 142
105 175 142
105 175 142
33 53 36
33 53 36
33 53 36
31 47 35
31 47 35
31 47 35
31 47 35
31 47 35
31 47 35
31 47 35
31 47 35
31 47 35
34 54 37
34 54 37
34 54 37
34 54 37
34 54 37
34 54 37
34 54 37
34 54 37
34 54 37
34 54 37
34 54 38
34 54 38
34 54 38
34 54 38
34 54 38
42 63 55
42 63 55
42 63 55
42 63 55
107 176 144
107 176 144
115 197 149
107 176 144
115 197 149
115 197 149
33 49 37
33 49 37
33 49 38
33 49 38
46 72 59
46 72 59
116 198 151
116 198 151
109 178 146
109 178 146
109 178 146
109 178 146
109 178 146
109 178 146
110 178 147
37 57 41
37 57 41
38 58 42
47 69 61
50 75 62
50 75 63
50 75 63
50 76 63
119 200 154
120 201 154
120 201 154
120 201 155
120 201 155
120 201 155
121 202 155
52 77 65
52 77 65
52 78 65
52 78 65
53 78 66
122 203 157
122 203 157
115 184 152
38 58 42
38 58 42
36 52 41
38 58 43
38 58 43
38 58 43
38 58 42
90 152 96
117 186 154
118 186 155
56 82 69
56 82 69
57 82 70
57 82 70
126 207 161
127 208 161
127 208 161
120 188 157
120 188 157
58 84 71
58 84 71
59 84 72
59 84 72
35 51 39
34 51 39
34 50 39
34 50 39
128 210 163
128 210 163
121 190 158
121 190 158
121 190 158
57 79 70
57 79 70
36 55 39
35 55 39
35 55 39
35 55 39
35 55 39
121 191 158
35 55 38
34 53 37
121 191 158
121 191 158
121 190 158
121 190 157
120 190 157
120 190 157
120 190 157
120 190 157
120 190 157
120 190 157
120 190 157
31 47 35
31 47 35
32 52 35
30 46 34
127 210 161
126 210 161
126 210 161
126 209 160
126 209 160
126 209 160
118 188 155
125 209 160
125 208 160
125 208 159
30 46 34
79 129 86
124 208 159
124 207 158
116 186 153
124 207 158
124 207 158
123 206 158
123 206 157
123 206 157
123 206 157
122 206 157
122 205 157
122 205 156
122 205 156
122 205 156
114 184 150
121 204 155
121 204 155
121 204 155
120 203 155
112 183 149
120 203 154
112 182 149
120 203 154
112 182 149
119 202 154
119 202 153
119 202 153
119 202 153
119 201 153
118 201 153
118 201 153
118 201 152
118 201 152
118 200 152
118 200 152
110 179 147
110 179 146
109 179 146
117 200 151
117 199 151
117 199 151
117 199 151
116 199 151
116 199 151
116 199 151
108 178 145
116 199 150
108 178 145
108 178 145
108 178 145
116 198 150
108 177 145
115 198 150
108 177 145
115 198 150
115 198 150
115 197 150
115 197 150
107 177 144
107 177 144
107 177 144
107 177 144
107 177 144
35 55 39
33 50 38
34 50 39
115 197 150
115 197 150
108 177 145
108 176 145
116 197 151
109 177 146
37 54 43
51 77 65
111 177 148
118 196 153
118 196 153
118 196 153
111 177 148
44 64 50
45 65 51
45 64 50
44 64 50
44 64 50
44 64 50
42 59 49
44 64 50
44 64 50
44 64 50
45 65 51
45 65 51
45 65 51
43 59 50
45 65 51
45 65 51
45 65 51
45 65 51
45 65 51
45 65 51
117 196 152
117 196 152
51 76 65
51 76 65
51 76 65
117 196 152
117 196 152
117 196 152
117 196 152
106 175 143
106 175 143
114 195 148
114 195 148
114 195 148
114 195 148
113 195 148
113 195 148
113 195 148
113 195 148
113 195 148
113 195 148
113 195 148
113 195 148
106 175 143
113 195 148
113 195 148
113 195 148
113 195 148
113 195 148
113 195 148
113 195 148
113 195 148
113 195 147
113 195 147
113 195 147
113 195 147
113 195 147
113 195 147
113 195 147
113 195 147
105 175 142
113 195 147
113 195 147
113 195 147
113 195 147
113 195 147
113 195 147
105 175 142
113 195 147
113 195 147
113 195 147
113 195 147
105 175 142
113 195 147
105 175 142
113 195 147
113 195 147
113 195 147
113 195 147
105 175 142
105 175 142
105 175 142
105 175 142
112 195 147
112 195 147
112 195 147
112 195 147
112 195 147
105 175 142
112 195 147
105 175 142
105 175 142
105 175 142
105 175 142
79 130 86
33 53 36
33 53 36
33 53 36
33 53 36
31 47 35
31 47 35
31 47 35
31 47 35
31 47 35
31 47 35
31 47 35
31 47 35
31 47 35
31 47 35
34 54 37
34 54 37
34 54 37
32 48 36
34 54 37
40 62 53
40 62 53
105 175 142
106 175 142
34 54 38
34 54 38
34 54 38
34 54 38
34 54 38
35 54 38
88 151 93
41 63 55
107 176 144
107 176 144
107 176 144
107 176 144
107 176 144
115 197 149
33 49 37
35 55 39
33 49 37
33 49 38
35 55 39
33 49 38
46 72 59
116 198 151
116 198 151
116 198 151
116 198 151
117 198 151
109 178 146
109 178 146
89 152 94
36 56 40
37 57 41
37 57 41
34 51 39
47 69 61
47 69 61
47 69 61
119 200 153
119 200 154
119 200 154
120 201 154
120 201 154
120 201 155
36 52 41
36 52 41
36 52 41
121 202 155
52 77 65
52 78 65
52 78 65
53 78 65
53 78 66
35 52 40
36 52 41
38 58 42
38 58 42
38 58 43
38 58 43
38 58 43
38 58 43
38 58 43
38 58 42
38 58 42
36 52 41
126 207 160
126 207 160
126 207 161
126 207 161
127 208 161
127 208 161
127 208 162
127 208 162
120 188 157
128 209 162
128 209 162
128 209 163
59 85 72
59 85 72
35 51 39
35 51 39
34 51 39
34 50 39
34 50 39
36 56 40
122 191 159
122 191 159
122 191 159
57 79 71
57 79 71
36 56 39
35 55 39
35 55 39
35 55 39
122 191 159
59 84 71
57 78 70
34 54 37
34 53 37
33 53 37
121 191 158
121 191 158
129 212 163
121 191 158
121 191 158
121 191 158
121 191 158
128 211 163
128 211 163
57 83 69
57 83 69
30 46 34
30 46 34
30 46 34
30 46 33
127 210 161
127 210 161
126 210 161
126 210 161
126 209 160
126 209 160
126 209 160
30 46 34
30 46 34
30 46 34
30 46 34
30 46 34
117 187 154
124 207 159
124 207 158
124 207 158
123 207 158
123 206 158
123 206 157
123 206 157
115 185 152
115 185 151
114 184 151
114 184 151
122 205 156
121 205 156
121 204 156
121 204 155
121 204 155
121 204 155
120 203 155
120 203 154
120 203 154
112 182 149
119 202 154
119 202 154
119 202 153
119 202 153
119 202 153
119 201 153
111 181 148
110 180 147
118 201 152
118 201 152
118 200 152
118 200 152
110 180 147
117 200 152
109 179 146
117 200 151
109 179 146
117 199 151
117 199 151
116 199 151
109 178 146
116 199 151
116 199 150
116 199 150
116 198 150
116 198 150
116 198 150
116 198 150
115 198 150
115 198 150
115 198 150
108 177 145
115 198 150
115 197 150
115 197 149
115 197 149
107 177 144
115 197 149
35 55 39
36 56 39
34 50 38
34 50 39
115 197 150
108 177 145
115 197 150
108 177 145
108 176 145
115 197 150
108 176 145
116 196 151
111 177 148
118 196 152
118 196 152
118 196 152
41 58 48
44 64 50
45 65 51
45 65 51
45 65 51
45 64 50
44 64 50
44 64 50
44 64 50
42 59 49
44 64 50
45 65 51
45 65 51
45 65 51
45 65 51
45 65 51
43 59 50
45 65 51
45 65 51
45 65 51
45 65 51
117 196 152
117 196 152
117 196 152
117 196 152
117 196 152
110 176 147
106 175 143
114 195 148
106 175 143
106 175 143
114 195 148
106 175 143
106 175 143
113 195 148
113 195 148
113 195 148
113 195 148
113 195 148
113 195 148
106 175 143
106 175 143
113 195 148
106 175 143
106 175 143
113 195 148
113 195 148
105 175 142
105 175 142
105 175 142
113 195 147
113 195 147
113 195 147
105 175 142
105 175 142
105 175 142
105 175 142
105 175 142
113 195 147
113 195 147
105 175 142
113 195 147
113 195 147
113 195 147
113 195 147
105 175 142
105 175 142
113 195 147
105 175 142
113 195 147
113 195 147
105 175 142
113 195 147
113 195 147
113 195 147
105 175 142
105 175 142
113 195 147
105 175 142
105 175 142
105 175 142
112 195 147
112 195 147
112 195 147
112 195 147
105 175 142
105 175 142
112 195 147
112 195 147
112 195 147
105 175 142
112 195 147
105 175 141
33 53 36
31 47 34
33 53 36
31 47 35
33 53 36
31 47 35
33 53 36
33 53 36
33 53 36
33 53 36
33 53 37
31 47 35
31 47 35
34 53 37
31 47 35
31 47 35
31 47 35
34 54 37
34 54 37
32 48 36
40 61 52
40 61 52
40 61 52
105 175 142
105 175 142
105 175 142
105 175 142
34 54 38
34 54 38
34 54 38
35 54 38
35 55 38
35 55 38
114 196 149
107 176 144
107 176 144
107 176 144
114 197 149
107 176 144
115 197 149
115 197 149
33 49 37
33 49 38
33 49 38
33 49 38
36 56 39
116 198 150
116 198 151
116 198 151
116 198 151
116 198 151
117 198 151
34 50 39
36 56 40
36 56 40
37 56 40
37 57 41
37 57 41
37 57 41
47 69 61
111 180 148
111 180 148
112 180 149
112 180 149
119 201 154
82 132 90
38 58 42
36 52 41
36 52 41
36 52 41
36 52 41
35 52 40
35 51 40
52 78 65
52 78 65
35 51 40
35 52 40
35 52 40
36 52 41
38 58 42
38 58 42
38 58 43
38 58 43
39 58 43
39 58 43
38 58 43
38 58 43
38 58 42
36 52 41
35 52 40
35 51 40
126 208 161
127 208 161
127 208 162
127 208 162
120 189 157
120 189 157
120 189 158
121 189 158
121 190 158
129 210 163
129 210 163
60 85 73
35 51 40
35 51 39
34 51 39
34 51 39
34 50 39
36 56 40
36 56 40
36 56 40
122 191 159
123 192 160
58 80 71
36 56 39
36 55 39
122 192 159
122 192 159
122 192 159
57 79 70
57 79 70
34 54 37
34 54 37
33 53 37
33 53 37
33 53 36
122 192 159
122 192 159
129 212 164
129 212 164
129 212 164
121 191 158
129 212 163
57 83 70
57 83 69
30 46 34
30 46 34
30 46 34
30 46 33
30 46 33
30 46 33
127 211 161
119 189 156
127 210 161
30 46 33
30 46 34
30 46 34
33 53 36
30 46 34
30 46 34
30 46 34
30 46 34
30 46 34
124 208 159
124 207 158
124 207 158
124 207 158
123 207 158
115 186 152
123 206 157
115 185 152
115 185 152
114 185 151
114 184 151
122 205 156
122 205 156
113 184 150
121 204 155
121 204 155
121 204 155
113 183 150
112 182 149
112 182 149
112 182 149
112 182 149
112 182 148
119 202 153
111 181 148
111 181 148
119 201 153
118 201 153
118 201 153
118 201 152
110 180 147
110 180 147
110 180 147
117 200 152
117 200 152
117 200 151
117 200 151
117 200 151
109 179 146
117 199 151
116 199 151
116 199 151
108 178 145
108 178 145
108 178 145
108 178 145
108 178 145
116 198 150
116 198 150
115 198 150
115 198 150
115 198 150
115 198 150
115 198 150
115 197 149
115 197 149
115 197 149
35 55 38
35 55 39
33 50 38
34 50 39
115 197 150
115 197 150
108 177 145
108 177 145
108 177 145
108 176 145
108 176 145
108 176 145
115 196 150
115 196 150
108 176 145
110 177 148
41 57 47
44 64 50
45 65 51
45 65 51
45 65 51
45 65 51
45 65 51
45 64 50
45 64 50
44 64 50
44 64 50
45 65 51
45 65 51
45 65 51
45 65 51
45 65 51
45 65 51
45 65 51
45 65 51
45 65 51
45 65 51
45 65 51
45 65 51
110 176 147
117 196 152
114 195 148
106 175 143
106 175 143
106 175 143
114 195 148
106 175 143
106 175 143
106 175 143
113 195 148
106 175 143
113 195 148
113 195 148
113 195 148
113 195 148
106 175 143
106 175 143
106 175 143
106 175 143
106 175 142
105 175 142
113 195 148
105 175 142
113 195 147
113 195 147
105 175 142
105 175 142
113 195 147
105 175 142
105 175 142
105 175 142
113 195 147
105 175 142
113 195 147
113 195 147
113 195 147
113 195 147
105 175 142
113 195 147
113 195 147
105 175 142
105 175 142
105 175 142
105 175 142
105 175 142
113 195 147
113 195 147
105 175 142
113 195 147
105 175 142
105 175 142
112 195 147
112 195 147
112 195 147
105 175 142
112 195 147
105 175 142
105 175 142
112 195 147
112 195 147
112 195 147
105 175 142
112 195 147
112 195 147
112 195 147
112 195 147
112 195 147
31 47 34
31 47 34
31 47 34
33 53 36
33 53 36
33 53 36
33 53 36
33 53 36
31 47 35
33 53 36
33 53 36
33 53 36
31 47 35
31 47 35
31 47 35
31 47 35
31 47 35
31 47 35
31 47 35
31 48 35
39 61 52
39 61 52
39 61 52
39 61 52
42 67 54
105 175 142
105 175 142
105 175 142
105 175 142
105 175 142
113 196 148
34 54 38
35 54 38
35 55 38
35 55 38
32 49 37
107 176 144
114 196 149
114 197 149
114 197 149
114 197 149
115 197 149
115 197 149
107 177 144
107 177 144
33 49 38
33 49 38
33 49 38
33 50 38
88 151 94
116 198 151
116 198 151
116 198 151
34 50 38
34 50 39
34 50 39
36 56 40
34 50 39
37 57 41
37 57 41
35 51 39
37 57 41
111 180 148
111 180 148
111 180 149
112 180 149
119 201 154
120 201 154
35 52 40
36 52 40
36 52 41
36 52 41
36 52 41
36 52 41
36 52 41
35 52 40
35 51 40
35 51 40
35 51 40
35 52 40
36 52 41
36 52 41
38 58 42
38 58 43
38 58 43
38 58 43
36 53 42
39 59 43
38 58 43
38 58 43
38 58 42
36 52 41
36 52 41
35 52 40
35 51 40
35 51 40
127 209 162
120 189 157
120 189 158
121 189 158
121 190 158
121 190 158
121 190 159
122 190 159
122 191 159
130 211 164
35 51 40
35 51 39
35 51 39
34 51 39
34 50 39
36 56 40
36 56 40
36 56 40
36 56 40
89 151 94
36 56 40
36 56 39
123 192 160
123 193 160
123 193 160
123 193 160
58 79 71
60 86 72
34 54 37
34 54 37
34 53 37
33 53 37
33 53 36
33 53 36
33 53 36
130 213 164
122 192 159
130 213 164
130 213 164
58 84 70
58 84 70
56 77 68
30 46 34
30 46 34
30 46 34
30 46 34
30 46 33
30 46 33
30 46 33
30 46 33
30 46 33
30 46 34
30 46 34
30 46 34
30 46 34
30 46 34
30 46 34
30 46 34
30 46 34
30 46 34
30 46 34
30 46 34
124 208 159
116 187 153
116 186 153
116 186 153
116 186 152
115 186 152
115 185 152
115 185 152
115 185 151
114 185 151
114 184 151
114 184 151
121 205 156
121 204 155
113 183 150
113 183 150
113 183 150
112 183 149
112 182 149
112 182 149
112 182 149
112 182 149
111 181 148
111 181 148
119 202 153
111 181 148
118 201 153
110 180 147
110 180 147
118 201 152
110 180 147
110 180 147
110 180 147
109 179 146
117 200 151
117 200 151
117 200 151
109 179 146
109 179 146
109 178 146
108 178 145
108 178 145
108 178 145
108 178 145
108 178 145
108 178 145
108 178 145
115 198 150
108 177 145
115 198 150
115 198 150
107 177 144
115 198 149
80 130 87
32 49 37
35 55 39
36 55 39
34 50 38
46 71 58
43 65 57
108 177 145
108 177 145
108 177 145
115 197 150
108 176 145
108 176 145
108 176 145
108 176 145
108 176 145
115 196 150
115 196 150
108 177 146
108 176 146
50 72 65
50 72 65
45 65 51
45 65 51
45 65 51
45 65 51
42 59 49
45 64 50
44 64 50
51 72 66
45 65 52
45 65 52
45 65 51
45 65 51
45 65 51
45 65 51
45 65 51
45 65 51
45 65 51
45 65 52
107 175 144
106 175 143
106 175 143
106 175 143
106 175 143
106 175 143
106 175 143
106 175 143
106 175 143
106 175 143
106 175 143
106 175 143
113 195 148
106 175 143
106 175 143
106 175 143
106 175 143
106 175 143
113 195 148
105 175 142
113 195 148
105 175 142
113 195 147
105 175 142
113 195 147
113 195 147
105 175 142
105 175 142
105 175 142
113 195 147
105 175 142
105 175 142
113 195 147
105 175 142
105 175 142
105 175 142
105 175 142
113 195 147
113 195 147
113 195 147
105 175 142
105 175 142
105 175 142
105 175 142
105 175 142
113 195 147
105 175 142
105 175 142
105 175 142
105 175 142
105 175 142
105 175 142
112 195 147
105 175 142
112 195 147
112 195 147
105 175 142
112 195 147
105 175 142
105 175 142
112 195 147
112 195 147
112 195 147
112 195 147
104 175 141
112 195 147
79 130 86
30 47 34
31 47 34
31 47 34
31 47 34
31 47 34
33 53 36
33 53 36
33 53 36
31 47 35
33 53 36
33 53 36
33 53 36
33 53 36
33 53 37
31 47 35
31 47 35
31 47 35
31 47 35
31 47 35
31 47 35
42 67 54
42 67 54
42 67 54
39 61 52
39 61 52
39 61 52
105 175 142
105 175 142
105 175 142
105 175 142
105 175 142
105 175 142
33 53 36
33 53 37
35 55 38
35 55 38
35 55 38
41 63 54
114 196 149
114 197 149
114 197 149
114 197 149
114 197 149
115 197 149
115 197 149
115 197 149
115 197 149
115 197 149
115 197 149
33 50 38
36 56 40
34 50 38
81 131 89
34 50 38
34 50 38
34 50 39
34 50 39
34 50 39
36 56 40
37 57 41
37 57 41
37 57 41
37 57 41
37 57 41
111 180 148
111 180 148
119 200 154
119 201 154
120 201 154
120 201 154
120 201 155
51 76 63
36 52 41
36 52 41
36 52 41
36 52 41
36 52 41
35 52 40
35 51 40
35 51 40
35 52 40
36 52 41
36 52 41
36 52 41
38 58 42
38 58 43
38 58 43
39 59 43
55 76 68
55 77 69
39 58 43
38 58 43
38 58 43
36 52 41
36 52 41
35 52 40
35 51 40
35 51 40
37 57 41
121 189 158
121 190 158
121 190 158
122 190 159
122 190 159
122 191 159
122 191 159
123 191 160
130 212 165
61 87 74
35 51 40
35 51 39
37 57 41
34 51 39
37 56 40
36 56 40
36 56 40
36 56 40
124 193 161
59 81 72
36 56 40
34 54 38
124 193 161
124 193 161
124 193 161
61 86 73
58 80 71
34 54 37
34 54 37
34 54 37
33 53 37
33 53 37
123 193 160
123 193 160
123 193 160
123 193 160
123 193 160
130 213 165
130 213 165
59 84 71
58 84 70
30 46 34
30 46 34
30 46 34
30 46 34
30 46 34
30 46 33
32 52 35
30 46 33
30 46 33
30 46 34
30 46 34
30 46 34
30 47 34
30 46 34
30 46 34
30 46 34
30 46 34
30 46 34
30 46 34
30 46 34
30 46 34
30 46 33
116 187 153
116 187 153
116 186 153
116 186 153
115 186 152
115 185 152
115 185 152
115 185 152
114 185 151
114 184 151
86 150 91
33 53 36
113 184 150
113 183 150
113 183 150
113 183 150
112 183 149
112 182 149
112 182 149
112 182 149
119 202 154
111 181 148
111 181 148
111 181 148
119 202 153
111 181 148
110 180 147
110 180 147
110 180 147
118 201 152
117 200 152
110 180 146
109 179 146
109 179 146
109 179 146
117 200 151
117 199 151
116 199 151
109 178 146
116 199 151
116 199 150
108 178 145
108 178 145
108 178 145
108 178 145
108 178 145
108 177 145
108 177 145
115 198 150
115 198 150
80 130 87
32 48 36
35 55 38
35 55 39
36 56 39
43 65 57
43 65 57
43 65 56
115 197 150
108 177 145
108 177 145
108 177 145
115 197 150
108 176 145
115 197 150
108 176 145
108 176 145
108 176 145
37 57 41
116 196 150
116 196 150
37 53 42
52 78 66
50 72 65
50 72 65
45 65 51
45 65 51
45 65 51
45 65 51
45 65 51
51 72 65
53 78 67
53 78 67
51 72 66
45 65 52
45 65 51
45 65 51
45 65 51
107 175 144
107 175 144
107 175 144
107 175 144
107 175 144
106 175 143
106 175 143
106 175 143
106 175 143
106 175 143
106 175 143
113 195 148
106 175 143
35 55 39
35 55 39
35 55 39
35 55 39
106 175 143
105 175 142
105 175 142
105 175 142
105 175 142
105 175 142
105 175 142
113 195 147
105 175 142
88 151 93
35 54 38
35 55 38
105 175 142
105 175 142
105 175 142
105 175 142
105 175 142
105 175 142
105 175 142
105 175 142
105 175 142
105 175 142
105 175 142
34 54 37
105 175 142
105 175 142
105 175 142
113 195 147
105 175 142
105 175 142
105 175 142
105 175 142
105 175 142
105 175 142
105 175 142
105 175 142
105 175 142
112 195 147
105 175 142
112 195 147
105 175 142
105 175 141
105 175 141
105 175 141
105 175 141
104 175 141
104 175 141
112 195 147
112 195 147
112 195 147
30 46 34
33 53 36
31 47 34
31 47 34
31 47 34
31 47 34
31 47 34
31 47 35
33 53 36
33 53 36
33 53 36
33 53 36
33 53 36
33 53 36
33 53 36
33 53 37
33 53 37
31 47 35
31 47 35
31 47 35
42 67 54
42 67 54
42 67 54
42 67 54
41 67 54
41 67 54
113 196 147
113 196 147
105 175 142
105 175 142
105 175 142
105 175 142
87 150 92
33 53 36
31 47 35
33 53 37
33 53 37
35 55 38
41 63 54
41 63 54
106 176 143
106 176 143
107 176 143
114 197 149
114 197 149
114 197 149
115 197 149
115 197 149
115 197 149
80 130 87
32 48 36
32 48 36
33 50 38
46 71 58
116 198 150
116 198 151
34 50 38
34 50 39
34 50 39
34 50 39
34 50 39
37 56 40
37 57 41
37 57 41
37 57 41
37 57 41
37 57 41
119 200 153
119 200 154
119 201 154
119 201 154
120 201 154
50 76 63
51 76 63
51 76 64
51 77 64
36 52 41
36 52 41
36 52 41
36 52 41
36 52 41
35 52 40
35 52 40
35 52 40
38 58 42
36 52 41
36 52 41
38 58 43
38 58 43
54 76 68
54 76 68
55 77 69
55 77 69
55 77 69
56 77 69
38 58 43
36 52 41
36 52 41
36 52 41
35 52 40
35 51 40
37 57 41
37 57 41
37 57 41
122 191 159
122 191 159
122 191 159
123 191 160
130 212 165
131 212 165
61 87 74
61 87 74
62 87 74
35 51 40
35 51 39
34 51 39
37 57 41
36 56 40
36 56 40
124 194 161
125 194 162
60 81 73
88 151 93
34 54 38
34 54 38
34 54 38
124 194 161
124 194 161
124 194 161
34 54 37
34 54 37
34 54 37
124 194 161
124 194 161
124 194 161
124 194 161
124 194 161
124 194 160
123 194 160
131 214 165
131 214 165
131 214 165
131 214 165
30 46 34
30 46 34
30 46 34
30 46 34
30 46 34
30 46 33
30 46 33
30 46 33
30 46 34
30 46 34
30 46 34
30 47 34
31 47 34
30 46 34
30 46 34
30 46 34
30 46 34
30 46 34
30 46 34
32 52 35
32 52 35
32 52 35
32 52 35
32 52 35
86 150 91
116 186 153
116 186 153
123 207 158
115 186 152
115 185 152
115 185 152
32 52 35
33 53 36
33 53 36
33 53 36
33 52 35
86 150 91
113 183 150
113 183 150
112 183 149
120 203 154
112 182 149
112 182 149
112 182 148
111 182 148
33 53 36
33 53 36
33 53 36
87 150 91
110 180 147
110 180 147
110 180 147
110 180 147
110 180 147
109 180 146
117 200 151
117 200 151
109 179 146
33 53 37
33 53 37
33 53 37
108 178 145
108 178 145
108 178 145
108 178 145
108 178 145
108 178 145
108 178 145
108 178 145
108 177 145
108 177 145
34 54 37
32 48 36
32 49 37
35 55 39
36 55 39
43 65 56
45 71 58
45 71 58
43 65 56
45 71 58
115 197 150
115 197 150
115 197 150
108 177 145
108 176 145
115 197 150
108 176 145
107 176 144
37 57 41
116 196 150
116 196 150
83 132 91
52 77 66
50 72 65
50 72 65
50 72 65
50 72 65
52 78 66
50 72 65
45 65 51
50 72 65
50 72 65
50 72 65
50 72 65
50 72 65
51 72 65
51 72 66
51 72 66
45 65 51
107 175 144
114 195 149
107 175 144
114 195 149
107 175 144
106 175 143
113 195 148
106 175 143
106 175 143
106 175 143
35 55 39
35 55 39
35 55 39
35 55 39
35 55 39
35 55 39
35 55 39
105 175 142
113 195 147
105 175 142
113 195 147
105 175 142
105 175 142
88 151 93
35 54 38
35 54 38
35 55 38
35 55 38
35 55 38
34 54 38
105 175 142
105 175 142
105 175 142
105 175 142
105 175 142
105 175 142
105 175 142
34 54 37
34 54 37
34 54 37
34 54 37
34 54 37
105 175 142
105 175 142
113 195 147
112 195 147
105 175 142
105 175 142
105 175 142
105 175 142
87 150 92
33 53 36
31 47 35
33 53 36
105 175 141
105 175 141
105 175 141
104 175 141
104 175 141
104 175 141
104 175 141
104 175 141
104 175 141
104 175 141
33 53 36
33 53 36
30 46 34
30 47 34
31 47 34
31 47 34
31 47 34
31 47 34
31 47 34
31 47 35
31 47 35
33 53 36
33 53 36
33 53 36
33 53 36
33 53 36
31 47 35
33 53 37
31 47 35
33 53 37
41 67 53
41 67 53
41 67 53
41 67 53
41 67 53
41 67 53
39 61 52
113 196 147
113 196 147
105 175 142
113 196 147
113 196 147
105 175 142
31 47 35
31 47 35
33 53 36
33 53 36
33 53 37
33 53 37
34 53 37
41 63 54
41 63 54
106 176 143
106 176 143
106 176 143
114 197 149
107 176 144
114 197 149
114 197 149
114 197 149
32 48 36
32 48 36
32 48 36
32 48 36
32 48 36
46 71 58
116 198 150
116 198 151
116 198 151
116 198 151
34 50 39
34 50 39
34 50 39
34 50 39
37 57 41
37 57 41
37 57 41
37 57 41
47 68 60
111 180 148
111 180 148
119 201 154
119 201 154
50 76 63
50 76 63
50 76 63
51 76 63
51 77 64
35 51 39
35 51 39
53 79 66
51 73 65
36 52 41
36 52 41
35 52 40
35 52 40
36 52 41
36 52 41
36 52 41
36 52 41
56 82 69
54 76 68
54 76 68
55 77 68
55 77 69
58 83 71
56 78 69
56 78 70
56 78 70
36 52 41
36 52 41
36 52 41
35 52 40
35 51 40
37 57 42
37 57 41
37 57 41
37 57 41
37 57 41
130 212 165
131 212 165
131 212 165
131 213 166
62 87 74
62 88 75
62 88 75
62 88 75
63 88 75
35 51 39
37 57 41
125 194 162
125 194 162
125 194 162
125 194 162
60 82 73
35 55 38
35 54 38
32 48 36
34 54 38
34 54 38
34 54 37
125 195 162
34 54 37
86 150 91
125 195 162
125 195 162
132 216 167
124 195 161
124 195 161
124 195 161
124 194 161
124 194 161
124 194 161
124 194 161
124 194 161
131 214 166
30 46 34
30 46 34
30 46 34
30 46 34
30 46 34
30 46 34
30 46 33
30 46 33
30 46 34
30 46 34
30 46 34
31 47 34
31 47 34
30 47 34
30 46 34
30 46 34
30 46 34
30 46 34
30 46 34
30 46 34
32 52 35
32 52 35
32 52 35
32 52 35
32 52 35
32 52 35
86 150 90
116 186 153
123 207 158
115 186 152
32 52 35
32 52 35
33 53 36
33 53 36
33 53 36
33 53 36
33 52 35
32 52 35
32 52 35
121 204 155
112 183 149
112 183 149
112 182 149
33 53 36
33 53 36
33 53 36
33 53 36
33 53 36
33 53 36
33 53 36
33 53 36
110 180 147
110 180 147
110 180 147
110 180 147
109 180 146
109 179 146
33 53 36
34 54 37
34 53 37
33 53 37
33 53 37
33 53 37
108 178 145
116 199 150
108 178 145
108 178 145
108 178 145
108 178 145
108 178 145
34 54 37
32 48 36
32 48 36
33 49 37
35 55 39
43 65 56
43 65 56
43 65 56
45 71 58
45 71 58
45 71 58
115 197 150
115 197 150
115 197 150
115 197 150
115 197 150
115 197 150
115 197 150
115 197 150
37 57 41
116 197 150
108 177 145
37 53 42
52 77 66
50 72 65
111 177 148
50 72 65
50 72 65
50 72 65
50 72 65
52 77 66
52 77 66
52 78 66
50 72 65
50 72 65
52 78 67
50 72 65
50 72 65
50 72 65
50 72 65
107 175 144
107 175 144
107 175 144
114 195 149
107 175 144
107 175 144
106 175 143
35 55 39
35 55 39
35 55 39
35 55 39
35 55 39
35 55 39
35 55 39
35 55 39
35 55 39
35 55 39
35 55 39
105 175 142
105 175 142
88 151 93
35 54 38
35 54 38
35 55 38
35 55 38
35 55 38
35 55 38
35 55 38
35 55 38
35 55 38
113 195 147
105 175 142
105 175 142
105 175 142
34 54 37
34 54 37
34 54 37
34 54 37
34 54 37
34 54 37
34 54 37
34 54 37
33 53 37
105 175 142
105 175 142
105 175 142
105 175 142
105 175 142
33 53 36
33 53 36
31 47 35
33 53 36
33 53 36
33 53 37
33 53 36
112 195 147
104 175 141
104 175 141
104 175 141
104 175 141
104 175 141
79 130 86
33 53 36
33 53 36
33 53 36
33 53 36
30 47 34
33 53 36
31 47 34
31 47 34
31 47 34
31 47 35
31 47 35
31 47 35
31 47 35
31 47 35
33 53 36
33 53 36
31 47 35
33 53 36
33 53 37
31 47 35
39 61 52
39 61 52
39 61 52
41 67 53
41 67 53
41 67 53
113 196 147
113 196 147
113 196 147
105 175 142
113 196 147
113 196 147
113 196 147
105 175 142
113 196 147
33 53 36
31 47 35
33 53 36
33 53 37
31 47 35
34 53 37
31 47 35
41 62 54
106 176 143
106 176 143
106 176 143
106 176 143
106 176 143
107 176 144
107 176 144
32 48 36
32 48 36
34 54 38
32 48 36
32 48 36
32 48 36
35 55 38
45 71 58
116 198 150
116 198 151
116 198 151
116 198 151
117 199 151
34 50 39
34 50 39
34 50 39
37 57 41
46 68 59
46 68 60
46 68 60
47 68 60
111 180 148
112 180 149
47 69 61
48 69 61
50 76 63
50 76 63
51 76 63
34 51 39
37 57 41
35 51 39
35 51 40
53 79 66
53 79 66
54 79 67
36 52 41
36 52 41
36 52 40
36 52 41
36 52 41
56 81 69
56 82 69
56 82 69
57 82 70
55 76 68
55 77 69
55 77 69
56 78 69
56 78 70
59 84 72
59 85 72
59 85 72
60 85 73
36 52 41
36 52 41
35 52 40
37 57 42
37 57 41
37 57 41
37 57 41
37 57 41
34 51 39
131 213 166
132 213 166
132 213 166
62 88 75
63 88 75
63 88 75
63 89 76
63 89 76
133 215 167
133 215 167
133 215 168
126 195 163
126 195 163
126 195 163
61 83 74
35 55 38
35 55 38
34 54 38
34 54 38
34 54 38
126 196 163
126 196 163
60 82 73
33 53 36
33 52 35
125 196 162
125 196 162
125 195 162
125 195 162
133 216 167
125 195 162
125 195 162
125 195 162
125 195 162
132 215 167
60 86 72
60 86 72
30 46 34
30 46 34
30 46 34
30 46 34
30 46 34
30 46 34
30 46 34
30 46 34
30 46 34
30 47 34
58 83 70
31 47 34
31 47 34
30 47 34
30 46 34
30 46 34
30 46 34
30 46 34
30 46 34
32 52 35
30 46 34
32 52 35
32 52 35
32 52 35
32 52 35
32 52 35
32 52 35
32 52 35
32 52 35
32 52 35
33 53 36
33 53 36
33 53 36
33 53 36
33 53 36
33 53 36
33 52 35
32 52 35
32 52 35
30 46 34
112 183 149
32 52 35
33 53 36
33 53 36
33 53 36
33 53 36
33 53 36
33 53 36
33 53 36
33 53 36
33 53 36
33 53 36
110 180 147
118 201 152
117 200 152
33 53 36
33 53 37
34 54 37
34 54 37
34 53 37
34 53 37
33 53 37
33 53 37
33 53 37
87 151 92
108 178 145
108 178 145
108 178 145
34 54 37
34 54 37
32 48 36
32 49 37
35 55 39
45 71 58
43 65 56
43 65 56
43 65 56
43 65 56
43 65 56
43 65 56
115 197 150
115 197 150
115 197 150
115 197 150
115 197 150
115 197 150
107 176 144
107 176 144
107 176 144
115 197 149
107 176 144
116 196 150
116 196 151
110 177 147
110 177 147
118 196 153
111 177 148
111 177 148
52 77 66
52 77 66
52 77 66
52 77 66
52 77 66
118 196 153
118 196 153
118 196 153
111 177 148
50 72 65
52 78 67
107 175 144
107 175 144
107 175 144
107 175 144
114 195 149
114 195 149
35 55 39
35 55 39
35 55 39
35 55 39
35 55 39
35 55 39
35 55 39
35 55 39
35 55 39
35 55 39
35 55 39
35 55 39
35 54 38
35 54 38
35 54 38
35 55 38
35 55 38
35 55 38
35 55 38
35 55 38
35 55 38
35 55 38
35 55 38
35 55 38
34 54 38
87 151 92
34 54 37
34 54 37
34 54 37
34 54 37
34 54 37
34 54 37
34 54 37
34 54 37
34 54 37
34 54 37
34 54 37
105 175 142
105 175 142
33 53 36
33 53 36
33 53 36
33 53 36
33 53 36
33 53 36
33 53 36
33 53 37
33 53 37
33 53 36
33 53 36
104 175 141
104 175 141
104 175 141
30 46 34
33 53 36
33 53 36
33 53 36
33 53 36
33 53 36
33 53 36
31 47 34
31 47 34
31 47 34
31 47 34
31 47 35
31 47 35
31 47 35
31 47 35
31 47 35
31 47 35
33 53 36
33 53 36
33 53 37
39 61 52
39 61 52
39 61 52
41 67 53
39 61 52
39 61 52
39 61 52
113 196 147
113 196 147
105 175 142
113 196 147
105 175 142
113 196 147
105 175 142
105 175 142
105 175 142
105 175 142
105 175 142
105 175 142
33 53 36
31 47 35
33 53 37
34 53 37
31 47 35
34 54 37
114 196 148
114 196 148
106 176 143
106 176 143
106 176 143
114 197 149
114 197 149
114 197 149
107 176 144
32 48 36
32 48 36
32 48 36
32 48 36
32 48 37
32 49 37
116 198 150
116 198 150
116 198 151
116 198 151
116 199 151
80 131 88
33 49 37
34 50 39
48 74 61
48 74 61
46 68 59
46 68 60
46 68 60
111 180 148
47 69 60
47 69 60
47 69 61
48 69 61
48 70 61
34 50 39
34 51 39
35 51 39
35 51 39
35 51 40
35 51 40
53 79 66
54 79 67
54 79 67
54 80 67
55 80 67
36 52 41
55 81 68
56 81 68
56 81 69
56 82 69
57 82 69
126 207 161
126 207 161
127 208 161
56 77 69
56 78 70
59 84 72
59 85 72
59 85 72
60 85 73
60 86 73
60 86 73
61 86 74
35 52 40
38 57 42
37 57 42
37 57 41
37 57 41
37 57 41
35 51 39
34 51 39
34 50 39
132 214 167
133 214 167
133 215 167
63 89 76
133 215 167
133 215 168
133 216 168
134 216 168
134 216 168
134 216 168
134 216 169
127 196 164
127 196 164
35 55 38
35 55 38
35 54 38
32 48 36
127 196 164
127 197 164
61 83 74
61 83 74
33 53 36
33 53 36
32 52 35
32 52 35
126 196 163
126 196 163
126 196 163
126 196 163
126 196 162
125 196 162
133 216 167
133 216 167
61 87 73
61 87 73
61 86 72
58 80 71
30 46 34
32 52 35
32 52 35
32 52 35
30 46 34
30 46 34
30 46 34
59 84 70
58 84 70
58 84 70
58 83 70
31 47 34
30 47 34
30 46 34
30 46 34
30 46 34
30 46 34
32 52 35
32 52 35
32 52 35
30 46 34
32 52 35
32 52 35
30 46 33
30 46 33
32 52 35
32 52 35
32 52 35
33 53 36
33 53 36
33 53 36
33 53 36
33 53 36
33 53 36
33 53 36
33 52 35
32 52 35
32 52 35
32 52 35
33 53 36
33 53 36
33 53 36
33 53 36
33 53 36
33 53 36
33 53 36
33 53 36
33 53 36
33 53 36
33 53 36
33 53 36
33 53 36
33 53 36
33 53 36
34 54 37
34 54 37
34 54 37
34 54 37
34 53 37
34 53 37
33 53 37
33 53 37
33 53 37
33 53 36
33 53 36
33 53 37
34 54 37
34 54 37
32 48 36
33 49 37
43 65 56
43 65 56
43 65 56
45 71 58
43 65 56
43 65 56
43 65 56
108 177 145
108 177 145
108 177 145
115 197 150
115 197 150
115 197 150
115 197 149
107 176 144
107 176 144
107 176 144
107 176 144
107 176 144
107 176 144
107 176 144
107 176 144
116 196 150
111 177 148
118 196 153
111 177 148
118 196 153
118 196 153
118 196 153
52 77 66
118 196 153
111 177 148
118 196 153
111 177 148
118 196 153
118 196 153
118 196 153
114 195 149
114 195 149
114 195 149
106 175 144
114 195 149
106 175 143
114 195 148
35 55 39
35 55 39
35 55 39
35 55 39
35 55 39
35 55 39
35 55 39
35 55 39
35 55 39
35 55 39
35 55 39
35 55 39
35 55 38
35 55 38
35 55 38
35 55 38
35 55 38
35 55 38
35 55 38
35 55 38
35 55 38
35 55 38
35 55 38
35 55 38
34 54 37
34 54 37
34 54 37
34 54 37
34 54 37
34 54 37
34 54 37
34 54 37
34 54 37
34 54 37
34 54 37
34 54 37
33 53 36
33 53 36
33 53 36
31 47 35
33 53 36
33 53 36
33 53 36
31 47 35
33 53 37
33 53 37
33 53 37
33 53 37
33 53 36
33 53 36
33 53 36
33 53 36
33 53 36
33 53 36
33 53 36
33 53 36
33 53 36
33 53 36
33 53 36
33 53 36
31 47 34
31 47 34
31 47 35
33 53 36
31 47 35
31 47 35
31 47 35
31 47 35
31 47 35
33 53 36
39 61 52
39 61 52
39 61 52
41 67 53
39 61 51
39 61 51
105 175 142
105 175 142
113 196 147
113 196 147
113 196 147
113 196 147
113 196 147
105 175 142
105 175 142
105 175 142
105 175 142
105 175 142
105 175 142
105 175 142
105 175 142
113 196 147
33 53 37
34 53 37
34 54 37
34 54 37
34 54 37
87 151 92
106 176 143
106 176 143
114 197 148
106 176 143
114 197 149
114 197 149
114 197 149
114 197 149
115 197 149
32 48 36
32 48 36
32 48 37
35 55 38
32 49 37
116 198 150
116 198 150
116 198 151
80 131 88
33 49 37
33 49 37
33 49 37
48 73 60
48 74 61
48 74 61
48 74 61
46 68 60
46 68 60
47 68 60
47 69 60
47 69 60
47 69 61
36 56 40
37 56 40
34 51 39
34 51 39
35 51 39
35 51 40
35 51 40
35 51 40
53 79 66
54 79 67
54 80 67
54 80 67
55 80 68
53 75 66
55 81 68
56 81 69
56 82 69
126 207 160
126 207 161
127 208 161
127 208 161
127 208 162
120 189 157
128 209 162
128 209 163
129 210 163
60 85 73
60 86 73
60 86 73
61 86 74
61 87 74
62 87 74
38 58 42
37 57 42
37 57 41
37 57 41
37 57 41
35 51 39
34 51 39
34 50 39
34 50 39
34 50 39
133 215 168
133 216 168
134 216 168
134 216 168
134 216 169
134 217 169
135 217 169
135 217 169
135 217 169
135 217 169
135 217 170
35 55 38
35 55 38
127 197 164
127 197 164
135 218 169
127 197 164
64 90 76
62 83 74
33 53 36
33 53 36
33 52 35
32 52 35
32 52 35
32 52 35
127 197 163
126 197 163
134 217 168
134 217 168
134 217 168
134 217 168
62 87 73
59 81 72
61 87 73
61 87 73
61 87 73
61 86 72
32 52 35
30 46 34
30 46 34
60 85 71
59 85 71
59 85 71
56 78 69
59 84 70
58 84 70
58 84 70
58 83 70
30 46 34
30 46 34
30 46 34
33 53 36
33 52 35
32 52 35
32 52 35
32 52 35
32 52 35
32 52 35
32 52 35
32 52 35
32 52 35
32 52 35
33 53 36
33 53 36
33 53 36
33 53 36
33 53 36
33 53 36
33 53 36
30 46 34
30 46 34
33 52 35
30 46 34
32 52 35
33 53 36
33 53 36
33 53 36
33 53 36
33 53 36
33 53 36
33 53 36
33 53 36
33 53 36
33 53 36
33 53 36
33 53 36
33 53 36
33 53 36
33 53 37
34 54 37
34 54 37
34 54 37
34 54 37
34 54 37
34 53 37
34 53 37
33 53 37
33 53 37
33 53 37
33 53 36
34 54 37
34 54 37
32 48 36
32 48 37
45 71 58
43 65 56
43 65 56
43 65 56
43 65 56
43 65 56
43 65 56
108 177 145
115 197 150
115 197 150
108 177 145
108 177 145
115 197 150
115 197 150
107 177 144
115 197 149
115 197 149
107 176 144
107 176 144
115 197 149
115 197 149
115 196 149
107 176 144
107 176 144
107 176 144
115 196 150
115 196 150
111 177 148
118 196 153
111 177 148
118 196 153
111 177 148
118 196 153
118 196 153
118 196 153
111 177 148
118 196 153
111 177 148
114 195 149
114 195 149
114 195 148
106 175 143
106 175 143
106 175 143
114 195 148
35 55 39
35 55 39
35 55 39
35 55 39
35 55 39
35 55 39
35 55 39
35 55 39
36 55 39
36 55 39
36 55 39
36 56 39
35 55 38
35 55 38
35 55 38
35 55 38
35 55 38
35 55 38
35 55 38
35 55 38
35 55 38
35 55 38
35 55 38
35 55 38
34 54 37
34 54 37
34 54 37
34 54 37
34 54 37
34 54 37
34 54 37
34 54 37
34 54 37
34 54 37
34 54 37
34 54 38
34 54 37
33 53 36
33 53 36
33 53 36
33 53 36
33 53 37
33 53 37
33 53 37
33 53 37
33 53 37
34 53 37
34 54 37
33 53 36
33 53 36
33 53 36
33 53 36
30 46 34
33 53 36
33 53 36
33 53 36
33 53 36
33 53 36
31 47 34
33 53 36
31 47 35
31 47 35
33 53 36
31 47 35
31 47 35
31 47 35
31 47 35
41 67 53
41 67 53
41 67 53
39 61 51
41 67 53
39 60 51
39 60 51
105 175 142
105 175 142
105 175 142
105 175 142
105 175 142
105 175 142
113 196 147
113 196 147
105 175 142
105 175 142
105 175 142
105 175 142
105 175 142
105 175 142
105 175 142
105 175 142
105 175 142
105 175 142
105 175 142
34 54 37
34 54 37
34 54 37
34 54 37
34 54 37
114 197 148
114 197 148
106 176 143
114 197 148
106 176 143
114 197 149
114 197 149
114 197 149
115 197 149
115 197 149
115 198 149
32 48 37
32 49 37
33 49 37
116 198 150
35 55 39
33 49 37
33 49 37
33 49 37
33 49 37
33 49 38
48 73 60
48 74 61
118 200 153
48 74 61
49 74 61
47 68 60
47 69 60
47 69 60
36 56 40
36 56 40
37 56 40
37 57 41
37 57 41
35 51 39
35 51 39
35 51 40
35 51 40
35 51 40
123 204 158
54 80 67
52 74 66
52 74 66
53 75 66
53 75 67
53 75 67
54 76 67
126 207 160
126 207 161
127 208 161
127 208 161
120 188 157
120 189 157
121 189 158
121 189 158
121 190 158
129 210 164
130 211 164
61 86 73
61 86 74
61 87 74
59 81 73
60 82 73
60 82 74
60 82 74
37 57 42
37 57 41
37 57 41
35 51 39
35 51 39
34 51 39
134 216 168
134 216 169
33 49 37
32 49 37
134 217 169
135 217 169
135 217 169
135 217 169
135 218 170
135 218 170
136 218 170
136 218 170
128 198 165
136 218 170
136 219 170
136 219 170
128 198 165
128 198 165
128 198 165
62 84 75
65 90 77
33 53 36
33 53 36
33 53 36
33 52 35
30 46 34
32 52 35
32 52 35
127 198 164
135 218 169
127 197 164
135 218 169
134 218 169
62 88 74
62 88 74
60 81 72
62 87 73
59 81 72
61 87 73
61 87 73
61 86 73
60 86 72
60 86 72
60 86 72
60 85 72
59 85 71
59 85 71
59 85 71
58 84 70
58 84 70
58 84 70
58 83 69
30 46 34
30 46 34
33 53 35
32 52 35
32 52 35
32 52 35
32 52 35
32 52 35
32 52 35
32 52 35
32 52 35
32 52 35
33 53 36
33 53 36
33 53 36
33 53 36
33 53 36
33 53 36
33 53 36
33 53 36
33 53 36
33 53 35
33 52 35
33 53 36
33 53 36
33 53 36
33 53 37
33 53 36
33 53 36
33 53 36
33 53 36
33 53 36
33 53 36
33 53 36
33 53 36
33 53 36
33 53 36
33 53 36
34 54 37
34 54 37
34 54 37
34 54 37
34 54 37
34 54 37
34 54 37
34 54 37
34 53 37
33 53 37
33 53 37
33 53 37
34 54 37
34 54 37
32 48 36
45 71 58
45 71 58
43 65 56
45 71 58
43 65 56
45 71 57
45 71 57
108 177 145
108 177 145
108 177 145
115 197 150
108 177 145
108 177 144
115 197 150
115 197 149
115 197 149
115 197 149
107 176 144
107 176 144
107 176 144
107 176 144
115 197 149
107 176 144
107 176 144
107 176 144
107 176 144
36 56 40
108 176 145
115 196 150
111 177 148
111 177 148
111 177 148
118 196 153
111 177 148
118 196 153
118 196 153
111 177 148
111 177 148
111 177 148
114 195 148
114 195 148
114 195 148
114 195 148
114 195 148
114 195 148
114 195 148
35 55 39
35 55 39
35 55 39
35 55 39
35 55 39
35 55 39
36 55 39
36 55 39
36 55 39
36 56 39
36 56 39
36 56 39
35 55 38
35 55 38
35 55 38
35 55 38
35 55 38
35 55 38
35 55 38
35 55 38
35 55 38
35 55 38
35 55 38
35 55 38
34 54 38
34 54 37
34 54 37
34 54 37
34 54 37
34 54 37
34 54 37
34 54 37
34 54 37
34 54 38
34 54 38
34 54 38
34 54 37
33 53 36
33 53 36
33 53 36
33 53 37
33 53 37
33 53 37
33 53 37
34 53 37
34 53 37
34 54 37
34 54 37
33 53 36
33 53 36
33 53 36
33 53 36
33 53 36
33 53 36
33 53 36
33 53 36
33 53 36
33 53 36
33 53 36
31 47 35
31 47 35
31 47 35
31 47 35
31 47 35
33 53 36
41 67 53
39 60 51
39 60 51
41 67 53
39 60 51
41 67 53
105 175 142
105 175 142
105 175 142
105 175 142
105 175 142
105 175 142
105 175 142
112 196 147
112 196 147
112 196 147
112 196 147
113 196 147
105 175 142
113 196 147
105 175 142
105 175 142
105 175 142
105 175 142
105 175 142
105 175 142
32 52 35
32 52 35
34 54 37
34 54 37
40 62 53
40 62 53
106 176 143
106 176 143
114 197 148
114 197 148
114 197 148
114 197 149
114 197 149
114 197 149
114 197 149
115 197 149
115 197 149
107 177 144
107 177 144
33 49 37
45 71 57
116 198 150
33 49 37
33 49 37
33 49 37
35 55 39
35 55 39
33 49 38
118 199 152
118 200 152
48 74 61
48 74 61
49 74 61
49 74 61
47 69 60
36 56 40
36 56 40
36 56 40
37 57 41
37 57 41
35 51 39
35 51 39
35 51 40
35 51 40
35 51 40
35 51 40
52 73 65
52 74 65
52 74 66
53 74 66
53 75 66
53 75 67
54 75 67
54 76 68
54 76 68
127 208 161
119 188 156
120 188 157
120 189 157
121 189 158
121 190 158
121 190 158
122 190 159
122 191 159
130 211 165
130 212 165
123 192 160
59 81 73
60 82 73
60 82 74
61 82 74
61 83 74
61 83 75
37 57 41
37 57 41
35 51 40
134 216 168
134 216 169
134 216 169
135 217 169
33 49 37
33 49 37
32 48 37
32 48 36
136 218 170
136 218 170
136 218 170
136 219 171
129 198 166
129 198 166
128 199 165
129 199 166
136 219 171
137 219 171
137 220 171
137 220 171
129 199 166
129 199 166
63 85 76
33 53 36
33 53 36
30 46 34
33 53 36
32 52 35
128 199 165
128 199 165
128 198 165
128 198 165
128 198 165
135 219 170
135 219 169
135 218 169
60 82 73
63 88 74
62 88 74
60 82 72
62 88 74
59 81 72
59 81 72
59 81 71
58 80 71
61 86 72
60 86 72
60 86 72
60 85 71
59 85 71
59 85 71
59 84 71
58 84 70
58 84 70
58 83 70
55 77 68
33 53 36
33 52 35
32 52 35
32 52 35
32 52 35
32 52 35
32 52 35
32 52 35
32 52 35
33 53 36
33 53 36
51 73 64
33 53 36
33 53 36
33 53 36
33 53 36
30 46 34
33 53 36
33 53 36
33 53 36
33 53 35
33 53 36
33 53 36
33 53 36
33 53 37
33 53 37
33 53 36
33 53 36
33 53 36
33 53 36
33 53 36
33 53 36
33 53 36
33 53 36
33 53 36
33 53 37
34 54 37
34 54 37
34 54 37
34 54 37
34 54 37
34 54 37
34 54 37
34 54 37
34 54 37
34 53 37
33 53 37
34 54 37
34 54 37
34 54 38
45 71 58
45 71 58
45 71 58
45 71 57
45 71 57
45 71 57
45 71 57
116 198 150
115 198 150
108 177 145
108 177 145
108 177 145
108 177 145
107 177 144
115 197 150
115 197 149
115 197 149
115 197 149
115 197 149
115 197 149
115 197 149
107 176 144
107 176 144
107 176 144
107 176 144
107 176 144
36 56 40
115 196 150
115 196 150
36 52 41
118 196 153
111 177 148
111 177 148
111 177 148
111 177 148
111 177 148
118 196 153
111 177 148
111 177 148
111 177 148
114 195 148
106 175 143
106 175 143
114 195 148
106 175 143
41 63 55
41 63 55
41 63 55
35 55 39
35 55 39
36 55 39
36 55 39
36 55 39
36 56 39
36 56 39
36 56 39
36 56 39
43 69 56
41 63 54
43 69 55
35 55 38
35 55 38
35 55 38
35 55 38
35 55 38
35 55 38
35 55 38
35 55 38
35 55 38
35 55 38
40 62 53
35 55 38
34 54 37
34 54 37
34 54 37
34 54 37
34 54 37
34 54 37
34 54 38
34 54 38
34 54 38
34 54 38
34 54 38
34 54 37
33 53 37
31 47 35
33 53 37
33 53 37
33 53 37
33 53 37
31 47 35
31 47 35
31 47 35
31 47 35
31 47 35
34 53 37
33 53 36
33 53 36
33 53 36
33 53 36
33 53 36
33 53 36
33 53 36
31 47 34
33 53 36
33 53 36
33 53 36
33 53 36
33 53 36
41 67 53
39 60 51
39 60 51
41 67 53
41 67 53
41 67 53
38 60 51
112 195 147
112 195 147
112 195 147
112 196 147
112 196 147
105 175 142
112 196 147
112 196 147
112 196 147
112 196 147
112 196 147
112 196 147
112 196 147
112 196 147
112 196 147
105 175 142
105 175 142
105 175 142
113 196 147
105 175 142
32 52 35
32 52 35
32 52 35
33 52 35
42 68 54
40 62 53
40 62 53
114 196 148
106 176 143
114 197 148
106 176 143
106 176 143
114 197 148
114 197 148
114 197 149
114 197 149
107 177 144
107 177 144
107 177 144
107 177 144
107 177 144
107 177 144
116 198 150
116 198 150
116 198 151
33 49 37
33 49 37
33 49 38
33 49 38
33 49 38
118 200 152
48 74 60
48 74 61
46 68 59
46 68 60
47 68 60
47 69 60
47 69 60
36 56 40
37 57 40
37 57 41
37 57 41
37 57 41
35 51 40
35 51 40
35 51 40
53 79 66
51 73 65
54 80 67
54 80 67
52 74 66
53 75 66
53 75 67
54 75 67
54 76 67
54 76 68
57 83 70
57 83 70
58 83 70
120 189 157
121 189 158
121 190 158
121 190 158
122 190 159
122 191 159
123 191 160
131 212 165
131 212 165
124 192 161
124 193 161
60 82 74
61 82 74
61 83 75
61 83 75
62 84 75
62 84 76
65 90 78
134 216 169
135 216 169
135 217 169
135 217 170
135 217 170
33 49 37
33 49 37
32 49 37
32 48 37
32 48 36
80 130 87
137 219 171
129 199 166
137 220 171
137 220 171
137 220 171
137 220 171
137 220 172
137 220 172
137 220 172
137 220 172
138 221 172
130 200 167
130 200 167
33 53 36
33 53 36
33 53 36
33 53 36
129 200 166
129 199 166
129 199 166
137 220 171
136 220 171
128 199 165
128 199 165
128 199 165
136 219 170
136 219 170
135 219 170
63 89 75
63 89 75
60 82 73
60 82 72
60 81 72
59 81 72
59 81 72
59 81 71
125 195 162
132 216 167
132 216 166
132 215 166
60 85 71
59 85 71
59 85 71
56 78 69
58 84 70
56 77 68
55 77 68
55 77 67
33 52 35
32 52 35
32 52 35
32 52 35
32 52 35
32 52 35
32 52 35
33 53 36
54 80 66
51 73 64
51 73 64
51 73 64
33 53 36
33 53 36
33 53 36
33 53 36
33 53 36
33 53 36
33 53 36
33 53 36
33 53 36
48 70 61
48 69 60
47 69 60
33 53 37
33 53 36
33 53 36
33 53 36
33 53 36
33 53 36
33 53 36
33 53 36
33 53 36
34 54 37
45 67 58
45 67 58
34 54 37
34 54 37
34 54 37
34 54 37
34 54 37
34 54 37
34 54 37
34 54 37
34 53 37
34 54 37
34 54 37
43 65 56
45 71 58
45 71 58
45 71 57
43 65 56
43 65 56
45 71 57
116 198 150
108 177 145
115 198 150
115 198 150
108 177 145
115 197 150
108 177 145
115 197 150
115 197 150
115 197 149
107 177 144
107 177 144
115 197 149
115 197 149
107 176 144
115 197 149
107 176 144
107 176 144
107 176 144
107 176 144
36 56 40
115 196 150
35 52 40
118 196 152
118 196 152
110 177 148
110 177 148
118 196 152
118 196 152
118 196 152
118 196 152
118 196 152
118 196 152
111 177 148
114 195 148
114 195 148
106 175 143
106 175 143
41 63 55
41 63 55
41 63 55
41 63 54
36 55 39
36 55 39
36 56 39
36 56 39
36 56 39
36 56 39
41 63 54
41 63 54
41 63 54
41 63 54
43 69 55
41 62 54
35 55 38
35 55 38
35 55 38
35 55 38
35 55 38
35 55 38
35 55 38
40 62 53
40 62 53
40 62 53
40 62 53
40 62 53
34 54 38
34 54 37
34 54 37
34 54 37
34 54 38
34 54 38
34 54 38
34 54 38
40 61 53
40 61 52
39 61 52
39 61 52
34 54 37
31 47 35
33 53 37
33 53 37
34 53 37
34 53 37
34 54 37
34 54 37
34 54 37
34 54 37
39 61 52
39 61 52
33 53 36
33 53 36
33 53 36
33 53 36
33 53 36
33 53 36
33 53 36
33 53 36
33 53 36
33 53 36
33 53 36
39 60 51
41 67 53
41 67 53
41 67 53
41 66 53
38 60 51
112 195 147
105 175 142
112 195 147
105 175 141
112 195 147
105 175 141
112 196 147
112 196 147
112 196 147
112 196 147
112 196 147
105 175 141
105 175 141
112 196 147
112 196 147
112 196 147
112 196 147
105 175 142
112 196 147
112 196 147
86 150 91
32 52 35
32 52 35
32 52 35
32 52 35
33 52 35
33 53 36
33 53 36
40 62 53
106 176 143
106 176 143
106 176 143
106 176 143
106 176 143
114 197 148
114 197 148
114 197 148
106 176 143
107 177 144
107 177 144
115 198 149
115 198 149
107 177 144
107 177 144
107 177 144
107 178 144
116 198 150
116 199 151
116 199 151
46 71 58
33 49 38
33 49 38
33 50 38
118 200 152
46 68 59
48 74 61
46 68 59
46 68 60
47 68 60
47 69 60
47 69 60
47 69 61
48 70 61
37 57 41
37 57 41
35 51 39
35 51 40
53 78 66
53 79 66
54 79 66
54 79 67
54 80 67
55 80 67
53 74 66
53 75 67
53 75 67
54 76 67
56 82 69
57 82 70
57 83 70
58 83 70
58 84 71
58 84 71
121 190 158
121 190 158
122 191 159
122 191 159
130 212 165
131 212 165
131 212 166
131 213 166
132 213 166
125 193 162
125 194 162
126 194 163
62 83 75
62 84 75
65 90 77
127 196 164
127 196 164
127 196 164
128 197 165
136 217 170
136 218 170
136 218 171
33 49 37
33 49 37
33 49 37
32 49 37
32 48 36
137 220 172
129 200 166
130 200 166
138 221 172
138 221 172
138 221 172
138 221 172
138 221 172
138 221 173
138 221 173
138 221 173
138 221 173
138 221 173
138 221 173
33 53 36
33 53 36
130 201 167
130 201 167
130 200 167
130 200 167
138 221 172
130 200 166
129 200 166
129 200 166
129 200 166
129 199 166
129 199 166
128 199 165
128 199 165
128 198 165
128 198 165
61 83 73
61 82 73
60 82 73
62 88 74
60 82 72
126 196 163
133 217 168
125 196 162
125 195 162
125 195 162
132 215 166
132 215 166
57 79 70
59 85 71
56 78 69
58 84 70
56 78 68
55 77 68
55 77 68
55 76 67
32 52 35
30 46 34
32 52 35
32 52 35
33 53 36
52 74 65
52 74 65
52 74 64
51 73 64
51 73 64
51 73 63
50 72 63
33 53 36
33 53 36
33 53 36
33 53 36
33 53 36
33 53 36
48 70 61
48 70 61
48 70 61
48 69 60
47 69 60
47 69 60
33 53 36
33 53 36
33 53 36
33 53 36
33 53 36
33 53 36
33 53 37
45 67 58
45 67 58
45 67 58
45 67 58
45 66 57
34 54 37
34 54 37
34 54 37
34 54 37
34 54 37
34 54 37
34 54 37
34 54 37
43 65 56
43 65 56
43 65 56
43 65 56
45 71 57
45 71 57
45 71 57
116 198 150
116 198 150
116 198 150
116 198 150
115 198 150
115 198 150
108 177 145
108 177 145
107 177 144
115 197 149
115 197 149
115 197 149
115 197 149
115 197 149
115 197 149
115 197 149
107 176 144
115 197 149
115 197 149
115 197 149
107 176 144
115 196 150
108 176 145
36 52 41
116 196 151
110 177 147
109 177 147
118 196 152
118 196 152
118 196 152
118 196 152
118 196 152
118 196 152
118 196 152
118 196 152
106 175 143
106 175 143
41 63 55
41 63 55
41 63 54
43 69 56
41 63 54
41 63 54
41 63 54
36 56 39
36 56 39
41 63 54
43 69 56
43 69 55
41 63 54
41 62 54
41 62 54
41 62 54
40 62 54
40 62 54
40 62 53
35 55 38
35 55 38
35 55 38
40 62 53
40 62 53
40 62 53
40 62 53
40 62 53
42 68 55
40 62 53
40 62 53
40 62 53
34 54 37
34 54 38
34 54 38
34 54 38
34 54 38
40 61 52
39 61 52
39 61 52
39 61 52
39 61 52
39 61 52
39 61 52
33 53 37
34 53 37
34 53 37
34 54 37
31 47 35
34 54 37
39 61 52
39 61 52
39 61 52
41 67 53
39 61 52
39 61 52
33 53 36
33 53 36
33 53 36
33 53 36
33 53 36
33 53 36
33 53 36
39 60 51
41 67 53
38 60 51
38 60 51
38 60 51
41 66 53
41 66 53
112 195 147
112 195 147
105 175 141
112 195 147
112 195 147
112 195 147
112 195 147
104 175 141
104 175 141
104 175 141
104 175 141
112 196 147
112 196 147
112 196 147
112 196 147
112 196 147
112 196 147
112 196 147
112 196 147
112 196 147
105 175 142
105 175 142
32 52 35
32 52 35
32 52 35
30 46 34
33 52 35
33 53 36
33 53 36
33 53 36
106 176 143
106 176 143
106 176 143
106 176 143
106 176 143
106 176 143
106 176 143
114 197 148
106 176 143
106 177 143
114 197 149
107 177 144
107 177 144
107 177 144
115 198 149
107 177 144
107 177 144
108 178 144
108 178 145
108 178 145
46 71 58
46 71 58
44 65 57
33 49 38
48 73 60
48 73 60
46 68 59
46 68 59
46 68 59
46 68 60
47 69 60
47 69 60
47 69 60
48 69 61
48 70 61
50 76 63
37 57 41
50 72 63
53 78 65
53 79 66
53 79 66
54 79 66
54 80 67
54 80 67
55 80 67
55 81 68
56 81 68
56 82 69
56 82 69
57 82 69
57 83 70
58 83 70
58 84 71
58 84 71
59 84 72
59 85 72
60 85 72
130 211 164
130 212 165
131 212 165
131 213 166
132 213 166
124 193 161
132 214 167
133 214 167
133 215 168
126 195 163
127 195 164
126 196 163
127 196 164
127 196 164
128 197 165
128 197 165
128 198 165
129 198 166
137 219 171
137 219 171
33 49 37
33 49 37
33 49 37
138 220 172
138 220 172
130 200 167
130 200 167
130 201 167
131 201 167
138 222 173
139 222 173
139 222 173
139 222 173
139 222 173
139 222 173
139 222 173
139 222 174
131 202 168
131 202 168
65 87 78
68 93 79
32 52 34
131 201 168
139 222 173
131 201 168
131 201 167
130 201 167
130 201 167
138 222 172
130 200 167
130 200 167
137 221 172
129 200 166
137 220 171
129 199 166
128 199 165
128 199 165
128 198 165
61 83 73
127 198 164
127 197 164
127 197 164
126 197 163
126 196 163
126 196 163
125 196 162
125 195 162
125 195 161
124 195 161
124 194 161
57 79 69
57 78 69
56 78 69
56 78 68
55 77 68
55 77 68
55 77 67
54 76 67
32 52 35
54 75 66
56 81 67
53 75 65
53 74 65
52 74 65
52 74 64
51 73 64
51 73 64
51 73 63
50 72 63
50 72 63
30 47 34
33 53 36
33 53 36
49 71 62
49 70 61
48 70 61
50 76 62
48 70 60
47 69 60
47 69 60
47 69 60
47 69 59
33 53 36
33 53 36
33 53 36
33 53 36
46 67 58
48 73 60
45 67 58
45 67 58
47 73 59
45 66 57
44 66 57
44 66 57
34 54 37
34 54 37
34 54 37
34 54 37
34 54 37
43 65 56
43 65 56
43 65 56
43 65 56
43 65 56
43 65 56
43 65 56
116 198 150
116 198 150
116 198 150
116 198 150
116 198 150
115 198 150
108 177 145
108 177 145
108 177 144
107 177 144
107 177 144
107 177 144
115 197 149
115 197 149
115 197 149
115 197 149
115 197 149
115 197 149
115 197 149
115 197 149
107 176 144
107 176 144
115 196 149
114 196 149
115 196 150
115 196 150
115 196 150
109 176 146
109 176 146
118 196 152
110 177 147
118 196 152
110 177 147
118 196 152
118 196 152
115 196 150
114 195 148
41 63 55
41 63 54
41 63 54
43 69 56
41 63 54
41 63 54
43 69 56
43 69 56
41 63 54
43 69 55
43 69 55
41 62 54
43 69 55
43 68 55
40 62 54
43 68 55
40 62 53
40 62 53
40 62 53
40 62 53
42 68 55
40 62 53
40 62 53
40 62 53
40 62 53
40 62 53
42 68 54
40 62 53
42 68 54
40 62 53
40 62 53
40 61 53
34 54 38
34 54 38
42 68 54
39 61 52
39 61 52
39 61 52
39 61 52
39 61 52
39 61 52
39 61 52
41 67 54
39 61 52
34 54 37
34 54 37
34 54 37
39 61 52
39 61 52
39 61 52
39 61 52
41 67 53
39 61 52
39 61 52
39 61 51
39 60 51
33 53 36
31 47 34
33 53 36
33 53 36
33 53 36
38 60 51
38 60 51
38 60 51
38 60 51
38 60 51
38 60 51
104 175 141
112 195 147
112 195 147
112 195 147
104 175 141
112 195 147
112 195 147
104 175 141
112 195 147
104 175 141
112 196 147
104 175 141
104 175 141
104 175 141
112 196 147
112 196 147
112 196 147
112 196 147
112 196 147
112 196 147
112 196 147
105 175 141
105 175 141
105 175 141
112 196 147
105 175 142
32 52 35
32 52 35
33 52 35
33 53 36
33 53 36
33 53 36
30 46 34
113 196 148
106 176 143
106 176 143
106 176 143
106 176 143
114 197 148
114 197 148
106 176 143
114 197 148
106 177 143
107 177 144
107 177 144
107 177 144
107 177 144
107 177 144
107 177 144
115 198 150
108 178 145
116 199 150
116 199 150
116 199 150
43 65 56
44 65 57
44 66 57
48 73 60
48 73 60
48 74 60
46 68 59
46 68 59
47 68 60
47 69 60
47 69 60
47 69 60
50 76 62
50 76 63
51 76 63
51 76 63
50 72 64
51 72 64
53 79 66
53 79 66
54 79 67
52 74 65
55 80 67
55 81 68
53 75 67
54 75 67
54 76 67
54 76 68
57 83 70
57 83 70
58 83 71
58 84 71
59 84 71
59 85 72
57 79 71
58 80 71
58 80 72
131 212 165
131 213 166
132 213 166
132 214 167
133 214 167
133 214 167
133 215 168
134 215 168
127 196 164
127 196 164
127 196 164
127 197 164
128 197 165
128 198 165
129 198 166
129 198 166
129 199 166
130 199 167
130 199 167
33 49 37
33 49 37
138 221 173
130 200 167
130 201 167
131 201 168
139 222 173
131 201 168
131 202 168
132 202 168
132 202 169
140 223 174
132 202 169
140 223 174
140 223 174
132 202 169
132 202 169
132 202 169
66 88 79
66 88 79
66 88 79
32 52 34
32 51 34
31 51 34
131 202 168
131 202 168
139 223 173
131 202 168
131 201 168
131 201 168
130 201 167
138 222 172
138 222 172
138 221 172
129 200 166
137 221 171
129 199 166
129 199 166
128 199 165
136 219 170
128 198 165
127 198 164
127 197 164
127 197 164
126 197 163
126 196 163
133 217 168
133 216 167
125 195 162
132 216 167
124 194 161
124 194 161
57 79 69
56 78 69
58 84 70
56 77 68
55 77 68
55 77 67
57 82 69
56 82 68
54 75 66
53 75 66
53 75 65
55 81 67
52 74 65
54 80 66
51 73 64
51 73 64
51 73 63
53 78 65
50 72 63
33 53 36
33 53 36
51 77 63
49 71 61
49 70 61
48 70 61
48 70 61
48 69 60
47 69 60
47 69 60
47 69 60
47 68 59
46 68 59
46 68 59
46 68 59
46 68 58
45 67 58
45 67 58
45 67 58
45 67 58
45 66 57
44 66 57
44 66 57
44 66 57
44 66 57
44 66 57
34 54 37
46 72 58
43 65 56
43 65 56
43 65 56
43 65 56
43 65 56
43 65 56
108 178 145
116 198 150
108 178 145
116 198 150
108 178 145
116 198 150
115 198 150
115 198 150
108 177 145
115 198 150
107 177 144
107 177 144
115 197 149
107 177 144
107 177 144
115 197 149
107 177 144
115 197 149
115 197 149
115 197 149
115 197 149
107 176 144
115 197 149
114 197 149
107 176 144
114 196 149
107 176 144
107 176 144
108 176 145
115 196 150
108 176 146
108 176 146
110 177 147
110 177 147
110 177 147
110 177 147
108 176 145
114 195 148
41 63 54
41 63 54
41 63 54
41 63 54
43 69 56
43 69 56
41 63 54
43 69 55
41 62 54
41 62 54
43 68 55
106 175 143
40 62 54
40 62 54
40 62 53
40 62 53
40 62 53
40 62 53
42 68 55
42 68 55
42 68 55
40 62 53
40 62 53
40 62 53
40 62 53
40 62 53
42 68 54
40 62 53
40 61 53
40 61 53
42 68 54
42 68 54
39 61 52
39 61 52
39 61 52
39 61 52
39 61 52
39 61 52
39 61 52
39 61 52
39 61 52
39 61 52
39 61 52
39 61 52
39 61 52
39 61 52
39 61 52
39 61 52
39 61 52
39 61 52
39 61 51
39 61 51
39 60 51
39 60 51
39 60 51
39 60 51
38 60 51
33 53 36
38 60 51
38 60 51
38 60 51
41 66 53
38 60 51
38 60 51
38 60 51
104 175 141
104 175 141
104 175 141
104 175 141
112 195 147
112 195 147
112 195 147
104 175 141
104 175 141
112 195 146
104 175 141
104 175 141
104 175 141
104 175 141
104 175 141
104 175 141
104 175 141
112 196 147
112 196 147
112 196 147
112 196 147
104 175 141
104 175 141
104 175 141
104 175 141
105 175 141
105 175 141
105 175 141
105 175 142
30 46 34
33 53 36
33 53 36
30 46 34
33 53 36
33 53 36
106 176 143
106 176 143
106 176 143
114 197 148
114 197 148
114 197 148
114 197 148
114 197 148
114 197 148
106 177 143
114 197 149
114 198 149
107 177 144
107 177 144
115 198 149
115 198 149
115 198 150
115 199 150
116 199 150
116 199 150
116 199 150
116 199 150
44 65 56
115 200 150
108 179 145
116 200 150
48 74 60
48 74 61
49 74 61
47 68 60
49 75 62
49 75 62
50 75 62
50 76 62
50 76 63
51 76 63
51 77 63
51 77 64
112 183 149
120 205 155
51 73 65
54 80 67
54 80 67
53 74 66
53 75 66
56 81 68
54 76 67
54 76 68
55 76 68
55 77 68
58 83 70
58 84 71
126 211 160
119 190 156
57 79 71
58 80 71
58 80 72
59 80 72
59 81 72
60 81 73
132 214 167
133 214 167
133 215 168
134 215 168
126 195 163
127 196 164
133 217 167
35 55 39
88 151 93
128 197 165
128 198 165
129 198 166
129 199 166
130 199 167
130 199 167
130 200 167
138 220 173
131 200 168
138 222 173
131 201 168
139 222 173
131 202 168
132 202 168
132 202 169
132 202 169
140 223 174
132 203 169
132 203 169
133 203 170
133 203 170
141 224 175
133 203 170
133 203 170
133 203 170
133 203 170
67 89 79
67 89 79
67 89 79
29 45 33
32 52 34
32 51 34
31 51 34
31 51 34
132 203 169
132 203 169
132 202 169
139 223 174
139 223 173
139 223 173
139 222 173
138 222 173
138 222 172
138 222 172
138 221 172
137 221 172
129 200 166
129 199 166
128 199 165
128 199 165
128 198 165
135 219 169
135 218 169
134 218 169
134 218 168
134 217 168
133 217 168
133 216 167
132 216 167
124 195 161
124 194 161
123 194 160
56 78 69
56 78 69
56 77 68
58 83 69
57 83 69
54 76 67
56 82 68
56 82 68
56 81 67
119 190 156
119 189 156
119 189 155
54 80 66
51 73 64
51 73 64
51 73 63
33 53 36
33 53 36
33 53 36
33 53 36
30 46 34
49 71 61
48 70 61
114 185 151
48 70 61
50 76 62
47 69 60
47 69 60
47 69 59
46 68 59
33 53 36
33 53 36
33 53 36
46 67 58
48 73 60
45 67 58
45 67 58
45 67 58
45 66 57
44 66 57
44 66 57
44 66 57
44 66 57
34 54 37
34 54 37
43 65 56
43 65 56
43 65 56
43 65 56
43 65 56
109 178 145
108 178 145
108 178 145
108 178 145
108 178 145
108 178 145
116 198 150
108 177 145
108 177 145
108 177 145
115 198 150
107 177 144
107 177 144
107 177 144
107 177 144
107 177 144
107 177 144
107 177 144
107 176 144
115 197 149
115 197 149
115 197 149
107 176 144
107 176 144
107 176 144
107 176 144
114 196 149
114 196 149
107 176 144
114 196 149
114 196 149
115 196 150
115 196 150
115 196 150
108 176 145
108 176 145
107 176 145
107 176 145
114 195 148
43 69 56
43 69 56
43 69 56
43 69 55
43 69 55
43 69 55
43 69 55
43 68 55
113 195 148
106 175 143
106 175 143
106 175 143
40 62 53
40 62 53
40 62 53
42 68 55
42 68 55
42 68 55
42 68 55
42 68 55
40 62 53
40 62 53
105 175 142
105 175 142
40 62 53
40 61 53
40 61 53
40 61 53
42 68 54
42 67 54
39 61 52
39 61 52
42 67 54
39 61 52
39 61 52
105 175 142
105 175 142
39 61 52
39 61 52
39 61 52
39 61 52
39 61 52
41 67 53
41 67 53
41 67 53
41 67 53
39 61 52
39 61 51
39 60 51
39 60 51
39 60 51
39 60 51
38 60 51
38 60 51
38 60 51
38 60 51
33 53 36
33 53 36
38 60 51
38 60 51
38 60 51
38 60 51
104 175 141
104 175 141
112 195 147
104 175 141
104 175 141
104 175 141
112 195 146
86 150 91
104 175 141
104 175 141
104 175 141
104 175 141
104 175 141
104 175 141
104 175 141
104 175 141
104 175 141
104 175 141
104 175 141
104 175 141
112 196 146
104 175 141
104 175 141
104 175 141
104 175 141
104 175 141
104 175 141
104 175 141
104 175 141
105 175 141
112 196 147
105 175 141
112 196 147
33 53 36
30 46 34
33 53 36
33 53 36
33 53 36
113 197 148
114 197 148
114 197 148
114 197 148
114 197 148
114 197 148
114 197 148
114 197 148
114 197 148
106 177 143
114 198 149
107 177 144
115 198 149
115 198 149
115 198 149
115 198 149
115 199 150
115 199 150
116 199 150
108 178 145
108 179 145
115 200 149
107 179 144
115 200 150
116 200 150
116 200 150
108 180 145
117 201 151
49 74 61
47 68 60
49 75 62
50 75 62
50 75 62
50 76 62
50 76 63
51 76 63
112 183 148
112 183 149
120 205 154
113 184 150
121 206 155
52 74 65
52 74 66
53 75 66
53 75 67
54 75 67
54 76 67
54 76 68
55 77 68
55 77 69
56 78 69
126 211 160
126 211 161
127 212 161
128 212 162
121 191 157
59 80 72
59 81 72
60 81 73
60 82 73
63 88 75
133 215 168
126 195 163
127 195 164
125 196 162
133 217 167
133 218 168
134 218 169
35 55 39
35 55 39
129 199 166
130 199 167
130 199 167
130 200 167
138 221 173
131 200 168
138 222 173
139 222 173
139 223 173
131 202 168
132 202 169
140 223 174
132 203 169
133 203 169
133 203 170
133 203 170
133 203 170
133 204 170
133 204 170
141 225 176
142 225 176
142 225 176
133 204 170
134 204 171
142 225 176
68 89 80
68 89 80
32 52 35
32 52 34
32 52 34
32 52 34
31 51 34
31 51 34
31 51 34
31 51 34
140 224 175
140 224 174
132 203 169
140 223 174
139 223 174
139 223 173
131 202 168
139 222 173
138 222 173
138 222 172
138 221 172
137 221 172
129 200 166
129 199 166
128 199 165
128 199 165
135 219 170
135 219 169
127 197 164
134 218 169
126 197 163
126 196 163
125 196 162
133 216 167
124 195 161
124 194 161
124 194 160
59 85 71
58 84 70
58 84 70
58 83 69
57 83 69
57 83 69
56 82 68
128 211 162
128 211 162
127 211 161
119 189 156
119 189 155
118 188 155
51 73 64
32 52 35
33 53 36
33 53 36
33 53 36
33 53 36
33 53 36
33 53 36
30 46 34
115 185 152
114 184 151
114 184 151
47 69 60
47 69 60
47 69 60
33 53 36
33 53 36
33 53 36
33 53 36
33 53 36
33 53 36
111 181 148
111 181 148
111 181 148
45 66 57
44 66 57
47 72 59
44 66 57
34 53 37
34 54 37
34 54 37
34 54 37
34 54 37
43 65 56
43 65 56
109 179 146
109 178 146
108 178 145
108 178 145
108 178 145
116 198 150
108 178 145
34 54 38
34 54 38
34 54 38
87 151 92
108 177 144
115 198 150
107 177 144
107 177 144
107 177 144
107 177 144
115 197 149
107 177 144
107 177 144
35 55 38
35 55 38
35 55 38
107 176 144
107 176 144
107 176 144
107 176 144
107 176 144
107 176 144
107 176 144
107 176 144
107 176 144
107 176 144
114 196 149
107 176 144
115 196 149
107 176 144
107 176 144
115 196 149
113 195 148
41 63 54
41 63 54
43 69 55
43 69 55
43 68 55
106 175 143
113 195 148
113 195 148
113 195 148
106 175 143
106 175 142
105 175 142
113 195 148
42 68 55
42 68 55
40 62 53
42 68 55
42 68 54
42 68 54
113 195 147
113 195 147
113 195 147
105 175 142
105 175 142
105 175 142
40 61 52
42 67 54
42 67 54
42 67 54
39 61 52
42 67 54
42 67 54
42 67 54
105 175 142
105 175 142
105 175 142
105 175 142
39 61 52
39 61 52
41 67 53
41 67 53
41 67 53
41 67 53
41 67 53
41 67 53
41 67 53
105 175 142
105 175 142
105 175 142
105 175 142
38 60 51
38 60 51
41 66 53
33 53 36
31 47 34
33 53 36
33 53 36
33 53 36
33 53 36
38 60 51
104 175 141
104 175 141
104 175 141
112 195 146
104 175 141
104 175 141
104 175 141
32 52 35
32 52 35
33 52 35
32 52 35
104 175 141
104 175 141
104 175 141
104 175 141
104 175 141
104 175 141
104 175 141
104 175 141
104 175 141
86 150 90
32 52 35
32 52 35
104 175 141
112 196 146
112 196 146
104 175 141
112 196 146
104 175 141
104 175 141
104 175 141
104 175 141
104 175 141
105 175 141
112 196 147
105 175 142
33 53 36
33 53 36
42 67 54
39 61 52
106 176 143
113 197 148
114 197 148
114 197 148
106 176 143
114 197 148
106 176 143
114 197 148
114 197 148
114 197 149
107 177 144
107 177 144
107 177 144
107 177 144
115 198 149
115 198 149
115 199 150
116 199 150
116 199 150
107 178 144
115 199 149
115 200 149
115 200 150
116 200 150
108 179 145
116 201 150
116 201 151
117 201 151
117 202 151
47 69 60
47 69 60
50 75 62
50 76 62
50 76 63
119 204 153
119 204 154
120 204 154
120 205 154
113 184 149
113 184 150
121 206 156
122 206 156
55 80 67
53 75 66
53 75 67
54 76 67
57 82 69
55 77 68
55 77 68
125 210 160
126 211 160
126 211 161
127 212 161
127 212 162
120 191 157
121 192 158
129 214 164
62 87 74
60 82 73
60 82 74
63 89 76
60 82 73
64 90 77
125 196 161
133 218 167
134 218 168
134 219 168
134 219 169
135 220 169
128 199 165
35 55 39
35 55 38
138 221 173
131 201 168
131 201 168
139 222 173
139 223 173
131 202 168
131 202 168
132 203 169
140 224 174
140 224 175
133 204 170
133 204 170
134 204 171
134 204 171
134 204 171
134 205 171
142 226 176
142 226 177
134 205 171
142 226 176
134 205 171
134 205 171
135 205 172
135 205 172
68 90 81
32 52 35
32 52 35
32 52 34
32 52 34
32 51 34
31 51 34
31 51 34
31 51 34
29 45 32
78 129 84
141 225 175
141 224 175
140 224 175
140 224 174
140 223 174
139 223 174
131 202 168
131 202 168
138 222 173
138 222 172
78 129 85
29 45 33
137 221 171
137 220 171
136 220 170
128 198 165
135 219 170
135 219 169
134 218 169
134 218 168
134 217 168
133 217 167
133 216 167
124 195 161
132 215 166
124 194 161
123 194 160
58 84 70
58 84 70
58 83 69
57 83 69
129 212 163
128 212 163
128 211 162
128 211 162
127 211 161
127 210 161
119 189 155
32 52 35
33 53 36
33 53 36
31 47 34
33 53 36
33 53 36
33 53 36
33 53 36
33 53 36
33 53 36
33 53 36
114 184 151
114 184 151
86 150 91
33 53 36
33 53 36
33 53 37
33 53 36
33 53 36
33 53 36
33 53 36
33 53 36
33 53 36
111 181 148
111 181 148
111 181 147
44 66 57
33 53 37
34 54 37
34 54 37
34 54 37
34 54 37
34 54 37
34 54 37
34 54 37
87 151 92
109 178 146
108 178 145
108 178 145
108 178 145
108 178 145
34 54 37
34 54 38
34 54 38
34 54 38
34 54 38
34 54 38
34 54 38
115 198 149
107 177 144
107 177 144
115 197 149
107 177 144
107 177 144
107 177 144
35 55 39
35 55 38
35 55 38
35 55 38
35 55 38
107 176 144
107 176 144
107 176 144
107 176 144
107 176 144
107 176 144
107 176 144
114 196 149
114 196 149
114 196 149
114 196 149
114 196 149
106 176 143
107 176 144
113 195 148
106 175 143
43 69 55
113 195 148
113 195 148
106 175 143
113 195 148
113 195 148
113 195 148
113 195 148
80 131 88
113 195 148
113 195 148
113 195 147
42 68 55
42 68 54
42 68 54
113 195 147
113 195 147
105 175 142
105 175 142
113 195 147
113 195 147
113 195 147
113 195 147
113 195 147
42 67 54
42 67 54
42 67 54
42 67 54
42 67 54
105 175 142
113 195 147
113 195 147
113 195 147
113 195 147
105 175 142
105 175 142
113 195 147
41 67 53
39 61 52
41 67 53
41 67 53
41 67 53
41 67 53
112 195 147
112 195 147
112 195 147
105 175 141
112 195 147
105 175 141
38 60 51
33 53 36
33 53 36
33 53 36
33 53 36
33 53 36
33 53 36
33 53 36
33 53 36
104 175 141
104 175 141
104 175 141
104 175 141
104 175 141
78 129 86
32 52 35
32 52 35
32 52 35
33 52 35
33 53 36
33 53 36
32 52 35
104 175 141
104 175 141
104 175 141
104 175 141
104 175 141
104 175 141
86 150 90
32 52 35
32 52 35
32 52 35
32 52 35
32 52 35
104 175 141
104 175 141
104 175 141
112 196 146
104 175 141
104 175 141
104 175 141
104 175 141
112 196 147
112 196 147
112 196 147
112 196 147
105 175 142
39 61 52
39 61 52
106 176 142
106 176 143
113 197 148
114 197 148
114 197 148
114 197 148
114 197 148
105 176 142
113 197 148
114 197 148
106 177 143
107 177 144
107 177 144
107 177 144
107 177 144
115 198 149
115 199 150
115 199 150
114 199 149
115 199 149
115 199 149
115 200 149
115 200 149
115 200 150
116 200 150
116 201 150
116 201 150
117 201 151
117 201 151
117 202 151
117 202 152
47 69 60
50 75 62
118 203 153
119 203 153
119 204 153
120 204 154
120 205 154
120 205 155
113 184 150
121 206 155
114 185 151
122 207 156
123 207 157
123 208 157
56 82 68
54 76 67
55 76 68
125 210 159
125 210 160
126 211 160
126 211 161
127 212 161
127 212 162
128 213 162
128 213 163
121 192 158
130 214 164
123 194 159
123 194 160
60 82 73
61 87 73
125 196 162
125 196 162
133 218 167
134 218 168
134 219 168
135 219 169
135 220 169
128 199 165
136 221 170
129 200 166
131 200 168
139 222 173
139 222 173
139 223 173
131 202 168
132 202 168
132 203 169
132 203 169
133 204 170
141 225 175
141 225 175
134 204 170
134 205 171
134 205 171
135 205 172
143 226 177
143 226 177
143 227 177
135 206 172
135 206 172
135 206 172
135 206 172
135 206 172
135 206 172
135 206 172
136 206 173
32 52 35
32 52 35
32 52 35
32 52 34
32 52 34
32 51 34
31 51 34
31 51 34
29 45 32
29 45 32
29 45 32
141 225 176
141 225 175
141 225 175
133 203 170
140 224 174
140 224 174
140 223 174
139 223 173
29 45 32
29 45 33
29 45 33
29 45 33
29 45 32
129 200 166
136 220 171
136 220 170
136 219 170
135 219 169
135 218 169
134 218 169
134 217 168
126 196 162
29 45 33
29 45 33
29 45 33
132 215 166
131 215 165
131 214 165
58 84 70
130 213 164
121 192 158
129 212 163
128 212 163
128 212 162
128 211 162
127 211 161
32 52 35
32 52 35
33 53 36
33 53 36
33 53 36
33 53 36
31 47 34
33 53 36
33 53 36
33 53 36
33 53 36
33 53 36
33 53 36
33 53 35
33 53 36
33 53 36
33 53 37
33 53 37
33 53 37
33 53 36
33 53 36
33 53 36
33 53 36
33 53 36
33 53 36
33 53 36
111 181 148
33 53 36
34 53 37
34 54 37
34 54 37
34 54 37
34 54 37
34 54 37
34 54 37
34 54 37
34 54 37
34 54 37
34 54 37
108 178 145
108 178 145
34 54 37
34 54 38
34 54 38
34 54 38
34 54 38
34 54 38
34 54 38
34 54 38
34 54 38
34 54 38
115 197 149
107 177 144
107 177 144
107 177 144
35 55 38
35 55 39
35 55 39
35 55 39
35 55 38
35 55 38
35 55 38
35 55 38
88 151 93
107 176 144
107 176 144
107 176 144
107 176 143
114 196 149
114 196 149
114 196 149
114 196 149
114 196 149
106 176 143
114 196 149
106 175 143
113 195 148
106 175 143
113 195 148
113 195 148
113 195 148
113 195 148
80 131 88
33 49 37
33 49 37
33 49 37
113 195 147
113 195 147
113 195 147
113 195 147
113 195 147
105 175 142
113 195 147
113 195 147
113 195 147
113 195 147
80 130 87
32 48 36
32 48 36
113 195 147
113 195 147
113 195 147
42 67 54
113 195 147
105 175 142
113 195 147
113 195 147
113 195 147
113 195 147
113 195 147
79 130 87
112 195 147
112 195 147
112 195 147
41 67 53
41 67 53
41 67 53
112 195 147
112 195 147
112 195 147
112 195 147
112 195 147
112 195 147
112 195 147
33 53 36
33 53 36
33 53 36
33 53 36
31 47 35
33 53 36
33 53 36
33 53 36
33 53 36
33 53 36
33 53 36
33 53 36
104 175 141
104 175 141
30 46 34
32 52 35
32 52 35
30 46 34
33 52 35
33 52 35
33 53 36
33 53 36
33 53 36
32 52 35
32 52 35
104 175 141
104 175 141
104 175 141
30 46 33
32 52 35
32 52 35
32 52 35
32 52 35
32 52 35
32 52 35
32 52 35
32 52 34
112 196 146
104 175 141
104 175 141
104 175 141
112 196 146
112 196 146
112 196 147
112 196 147
112 196 147
112 196 147
112 196 147
112 196 147
105 175 142
113 196 148
106 176 142
113 197 148
106 176 143
106 176 143
106 176 143
113 197 147
113 197 147
113 197 148
113 197 148
114 197 148
114 198 148
107 177 144
107 177 144
115 198 149
107 177 144
107 178 144
106 177 143
114 199 148
106 178 143
115 199 149
115 199 149
115 200 149
107 179 144
116 200 150
116 200 150
116 201 150
108 180 145
117 201 151
117 202 151
117 202 151
118 202 152
110 181 147
118 203 153
119 203 153
119 204 153
119 204 154
120 204 154
120 205 154
121 205 155
121 206 155
121 206 156
122 207 156
114 186 151
123 208 157
123 208 157
124 209 158
124 209 158
125 209 159
125 210 159
126 211 160
126 211 160
127 212 161
127 212 162
120 191 157
128 213 163
129 214 163
122 193 158
130 215 164
123 194 159
124 195 161
132 216 166
124 196 161
133 217 167
125 197 162
134 219 168
134 219 169
127 198 164
127 199 164
136 221 170
136 221 171
137 222 171
137 222 172
138 223 172
131 202 168
131 202 168
139 224 174
132 203 169
132 203 169
133 204 170
133 204 170
133 204 170
142 226 176
134 205 171
134 205 171
135 206 171
143 227 177
143 227 178
144 227 178
135 206 172
136 207 173
136 207 173
136 207 173
136 207 173
136 207 173
136 207 173
136 207 173
136 207 173
136 207 173
136 207 173
32 52 35
32 52 35
32 52 34
32 52 34
32 52 34
32 51 34
31 51 34
29 45 32
29 45 32
29 45 32
29 45 32
29 45 32
142 226 176
141 225 176
141 225 175
141 225 175
140 224 175
29 45 32
29 45 32
29 45 33
32 51 34
29 45 33
29 45 32
29 45 32
29 45 32
137 220 171
136 220 171
128 199 165
135 219 170
135 219 169
78 129 85
29 45 33
29 46 33
29 46 33
29 45 33
29 45 33
29 45 33
131 215 165
131 214 165
130 214 165
130 213 164
129 213 164
129 212 163
121 191 158
78 129 85
30 46 33
32 52 35
33 53 36
33 53 36
33 53 36
33 53 36
33 53 36
33 53 36
33 53 36
33 53 36
33 53 36
33 53 36
33 53 36
33 53 36
33 53 36
33 53 36
33 53 36
34 53 37
33 53 37
33 53 37
33 53 37
33 53 36
33 53 36
33 53 36
33 53 36
33 53 36
33 53 36
33 53 36
33 53 37
34 54 37
34 54 37
34 54 37
34 54 37
34 54 37
34 54 37
34 54 37
34 54 37
34 54 37
34 54 37
34 54 37
34 54 37
34 54 37
34 54 37
35 54 38
34 54 38
34 54 38
34 54 38
34 54 38
34 54 38
34 54 38
34 54 38
34 54 38
34 54 38
34 54 38
87 151 92
35 54 38
35 55 39
35 55 39
35 55 39
35 55 39
35 55 39
35 55 38
35 55 38
35 55 38
35 55 38
35 55 38
35 55 38
106 176 143
106 176 143
114 196 149
114 196 149
114 196 149
114 196 148
114 196 148
114 196 148
114 196 148
106 175 143
113 195 148
113 195 148
113 195 148
113 195 148
33 49 37
33 49 37
33 49 37
33 49 37
33 49 37
33 49 37
33 49 37
113 195 147
113 195 147
113 195 147
113 195 147
113 195 147
113 195 147
105 175 142
32 48 36
32 48 36
32 48 36
32 48 36
32 48 36
113 195 147
113 195 147
113 195 147
105 175 142
113 195 147
113 195 147
113 195 147
113 195 147
113 195 147
31 47 35
31 47 35
31 47 35
31 47 35
112 195 147
112 195 147
112 195 147
112 195 147
112 195 147
112 195 147
112 195 147
112 195 147
104 175 141
104 175 141
31 47 34
31 47 34
33 53 36
33 53 36
33 53 36
33 53 36
33 53 36
33 53 36
33 53 36
33 53 36
33 53 36
33 53 36
31 47 35
33 53 36
32 52 35
32 52 35
32 52 35
32 52 35
32 52 35
33 52 35
33 53 35
33 53 36
30 46 34
33 53 36
33 53 36
33 53 35
32 52 35
32 52 35
32 52 35
32 52 35
32 52 35
32 52 35
30 46 33
32 52 35
32 52 35
32 52 35
32 52 35
32 52 35
32 52 35
32 52 34
104 175 141
112 196 146
104 175 141
112 196 146
112 196 146
104 175 141
112 196 147
104 175 141
112 196 147
112 196 147
112 196 147
113 196 147
113 196 147
106 176 142
106 176 143
113 197 147
113 197 147
113 197 147
113 197 147
113 197 147
113 197 148
113 197 148
114 198 148
114 198 148
114 198 148
107 177 144
107 177 144
106 177 143
106 177 143
106 177 143
106 178 143
107 178 143
107 178 144
115 200 149
115 200 149
115 200 150
116 200 150
116 201 150
116 201 150
117 201 151
117 202 151
117 202 151
117 202 152
110 181 147
118 203 152
111 182 147
111 182 148
119 204 153
120 204 154
120 205 154
120 205 155
121 206 155
121 206 156
122 207 156
122 207 156
123 207 157
115 187 152
116 187 153
116 188 153
125 209 159
125 210 159
118 189 155
126 211 160
127 211 161
127 212 161
128 213 162
128 213 163
129 214 163
129 214 164
130 215 164
131 215 165
131 216 165
124 195 161
124 196 161
133 218 167
133 218 168
134 219 168
134 219 169
135 220 169
136 220 170
136 221 170
137 221 171
137 222 171
138 222 172
138 223 172
139 223 173
131 202 168
140 224 174
132 203 169
133 204 170
133 204 170
134 205 170
134 205 171
134 205 171
135 206 171
135 206 172
135 206 172
135 206 172
136 207 173
136 207 173
144 228 178
136 207 173
136 207 173
145 229 179
145 229 179
137 208 174
145 229 179
137 208 174
137 208 174
137 208 174
137 208 174
137 208 174
137 208 174
32 52 35
32 52 35
32 52 34
32 52 34
32 52 34
31 51 34
29 45 32
29 45 32
29 45 32
29 45 32
29 45 32
29 45 32
29 45 32
142 226 176
29 45 32
29 45 32
29 45 32
29 45 33
29 45 33
29 45 33
29 45 33
29 45 33
29 45 32
29 45 32
29 45 32
78 129 85
136 220 171
128 199 165
29 45 32
29 45 33
29 45 33
30 46 33
30 46 33
29 46 33
29 45 33
29 45 33
29 45 33
29 45 33
131 214 165
130 214 165
122 193 159
129 213 164
29 45 33
30 46 33
30 46 34
32 52 35
33 53 36
33 53 36
33 53 36
33 53 36
33 53 36
31 47 35
33 53 36
33 53 36
31 47 34
33 53 36
33 53 36
30 46 34
33 53 36
33 53 36
33 53 37
34 54 37
34 53 37
33 53 37
33 53 37
33 53 37
33 53 36
33 53 36
33 53 36
33 53 36
33 53 36
33 53 36
34 53 37
34 54 37
34 54 37
34 54 37
34 54 37
34 54 37
34 54 37
34 54 37
34 54 37
34 54 37
34 54 37
34 54 37
34 54 37
34 54 37
34 54 38
35 55 38
35 54 38
35 54 38
34 54 38
34 54 38
34 54 38
34 54 38
34 54 38
34 54 38
34 54 38
34 54 38
34 54 38
35 55 38
35 55 39
35 55 39
35 55 39
35 55 39
35 55 39
35 55 39
35 55 39
35 55 38
35 55 38
35 55 38
35 55 38
35 55 38
33 49 37
80 131 88
114 196 148
114 196 148
114 196 148
106 176 143
114 196 148
114 196 148
113 195 148
113 195 148
33 49 37
33 49 37
33 49 37
33 49 37
33 49 37
33 49 37
33 49 37
33 49 37
33 49 37
33 49 37
113 195 147
113 195 147
113 195 147
113 195 147
32 48 36
32 48 36
32 48 36
32 48 36
32 48 36
32 48 36
32 48 36
32 48 36
32 48 36
113 195 147
113 195 147
113 195 147
113 195 147
113 195 147
31 47 35
31 47 35
31 47 35
31 47 35
31 47 35
31 47 35
31 47 35
105 175 142
112 195 147
112 195 147
112 195 147
112 195 147
112 195 147
112 195 147
31 47 34
31 47 34
33 53 36
31 47 34
31 47 34
33 53 36
33 53 36
33 53 36
33 53 36
33 53 36
33 53 36
33 53 36
33 53 36
33 53 36
33 53 36
33 53 36
33 53 36
33 53 36
32 52 35
30 46 34
32 52 35
30 46 34
33 53 36
33 53 36
33 53 36
33 53 36
33 53 36
33 53 36
33 53 36
32 52 35
32 52 35
32 52 35
32 52 35
32 52 35
32 52 35
32 52 35
32 52 35
32 52 35
32 52 35
32 52 35
32 52 35
32 52 35
32 52 34
31 51 34
112 196 146
112 196 146
112 196 146
112 196 146
112 196 146
112 196 147
112 196 147
104 175 141
112 196 147
112 196 147
113 196 147
113 197 147
105 176 142
113 197 147
113 197 147
113 197 147
113 197 147
113 197 147
113 197 147
105 176 142
113 197 148
114 198 148
106 177 143
114 198 148
105 177 142
114 198 148
106 177 143
106 177 143
106 178 143
106 178 143
115 199 149
115 199 149
107 178 144
115 200 149
116 200 150
116 201 150
116 201 150
116 201 151
117 201 151
109 180 146
117 202 151
110 181 146
110 181 147
110 182 147
111 182 148
119 204 153
111 183 148
112 183 149
120 205 154
121 205 155
121 206 155
122 206 156
122 207 156
123 207 157
115 186 152
115 187 152
116 187 153
116 188 153
117 189 154
118 189 154
118 190 155
127 211 161
119 191 156
128 213 162
128 213 162
129 214 163
129 214 164
130 215 164
131 215 165
123 195 160
124 195 161
124 196 161
125 196 162
125 197 162
134 219 168
135 219 169
127 199 164
136 220 170
136 221 170
137 222 171
137 222 171
130 201 167
138 223 172
131 202 168
131 203 168
132 203 169
132 204 169
141 225 175
141 226 176
134 205 171
134 205 171
135 206 172
135 206 172
135 206 172
136 207 173
144 228 178
136 207 173
144 229 179
145 229 179
145 229 179
145 229 179
137 208 174
137 208 174
138 209 175
146 230 180
138 209 175
138 209 175
138 209 175
146 230 180
138 209 175
138 209 175
146 230 180
146 230 180
145 230 180
32 52 35
32 52 34
32 52 34
29 45 33
29 45 33
29 45 32
29 45 32
29 45 32
29 45 32
29 45 32
29 45 32
29 45 32
29 45 32
29 45 32
29 45 32
29 45 33
29 45 33
29 45 33
29 45 33
29 45 33
29 45 33
29 45 32
29 45 32
29 45 32
29 45 32
29 45 32
29 45 33
29 45 33
29 46 33
30 46 33
30 46 33
30 46 33
29 46 33
29 45 33
29 45 33
29 45 33
29 45 33
29 45 33
130 214 165
29 45 33
30 46 33
30 46 33
32 52 35
33 53 36
33 53 36
33 53 36
33 53 36
33 53 36
33 53 36
33 53 36
33 53 36
33 53 36
33 53 36
33 53 36
33 53 36
33 53 36
33 53 36
33 53 36
34 54 37
34 54 37
34 54 37
34 53 37
33 53 37
33 53 37
33 53 37
33 53 36
33 53 36
33 53 36
33 53 36
33 53 37
34 54 37
34 54 37
34 54 37
34 54 37
34 54 37
34 54 37
34 54 37
34 54 37
34 54 37
34 54 37
34 54 37
34 54 37
34 54 37
34 54 37
35 55 38
35 55 38
35 55 38
35 55 38
35 54 38
34 54 38
34 54 38
34 54 38
34 54 38
34 54 38
34 54 38
34 54 38
35 54 38
35 55 39
35 55 39
35 55 39
35 55 39
35 55 39
35 55 39
35 55 39
35 55 39
35 55 39
35 55 39
35 55 38
35 55 38
35 55 38
33 49 37
33 49 37
33 49 37
32 49 37
114 196 148
114 196 148
114 196 148
114 196 148
33 49 37
33 49 37
33 49 37
33 49 37
33 49 37
33 49 37
33 49 37
33 49 37
33 49 37
33 49 37
33 49 37
33 49 37
33 49 37
80 130 87
32 48 36
32 48 36
32 48 36
32 48 36
32 48 36
32 48 36
32 48 36
32 48 36
32 48 36
32 48 36
32 48 36
113 195 147
113 195 147
87 151 92
31 47 35
31 47 35
31 47 35
31 47 35
31 47 35
31 47 35
31 47 35
31 47 35
31 47 35
31 47 35
112 195 147
112 195 147
104 175 141
79 130 86
31 47 34
31 47 34
31 47 34
31 47 34
31 47 34
31 47 34
31 47 35
31 47 35
33 53 36
33 53 36
33 53 36
33 53 36
33 53 36
33 53 36
33 53 36
33 53 36
31 47 35
33 53 37
33 53 36
33 53 36
32 52 35
33 52 35
30 46 34
33 53 36
33 53 36
33 53 36
33 53 36
33 53 36
33 53 36
31 47 34
33 53 36
33 52 35
32 52 35
32 52 35
32 52 35
32 52 35
32 52 35
32 52 35
32 52 35
30 46 34
32 52 35
32 52 35
32 52 35
32 52 35
32 52 35
32 51 34
29 45 32
112 196 146
112 196 146
104 175 141
112 196 146
112 196 146
112 196 147
112 196 147
112 196 147
112 196 147
105 175 142
105 176 142
105 176 142
105 176 142
113 197 147
113 197 147
113 197 147
113 197 147
113 197 148
113 197 148
113 198 148
114 198 148
105 177 142
105 177 142
106 177 142
106 177 143
106 177 143
106 177 143
106 178 143
106 178 143
107 178 144
107 178 144
107 179 144
115 200 150
116 200 150
116 201 150
108 180 145
116 201 151
109 180 146
109 181 146
117 202 152
110 181 147
110 182 147
111 182 147
119 204 153
111 183 148
112 183 149
112 184 149
113 184 149
121 206 155
121 206 156
122 207 156
114 186 151
115 186 152
115 187 152
116 187 153
116 188 153
117 188 154
117 189 154
118 189 155
118 190 155
119 191 156
128 212 162
128 213 162
129 214 163
129 214 163
130 215 164
130 215 165
123 195 160
124 195 160
124 196 161
125 196 162
125 197 162
126 198 163
127 198 163
127 199 164
136 221 170
136 221 170
137 222 171
137 222 172
138 223 172
138 223 173
139 224 173
132 203 168
132 204 169
132 204 169
133 205 170
133 205 170
134 205 171
143 227 177
135 206 172
135 207 172
136 207 173
136 207 173
137 208 173
145 229 179
145 229 179
145 230 180
138 209 175
146 230 180
146 230 180
146 230 180
146 230 181
138 210 175
139 210 175
147 231 181
139 210 176
139 210 176
139 210 176
147 231 181
147 231 181
147 231 181
146 231 181
146 230 181
138 209 175
138 209 175
32 52 34
29 45 33
29 45 33
29 45 33
29 45 32
29 45 32
29 45 32
31 51 34
29 45 32
29 45 32
29 45 32
29 45 32
29 45 33
29 45 33
29 45 33
32 52 34
29 45 33
29 45 33
29 45 33
29 45 33
29 45 32
29 45 32
29 45 32
29 45 32
29 45 33
29 45 33
30 46 33
30 46 33
30 46 33
30 46 33
30 46 33
29 46 33
29 45 33
29 45 33
29 45 33
29 45 33
29 45 33
29 45 33
30 46 33
30 46 34
32 52 35
33 53 36
33 53 36
56 82 68
54 75 66
53 75 66
53 75 66
33 53 36
31 47 35
33 53 36
33 53 36
33 53 36
33 53 36
33 53 36
33 53 36
33 53 37
49 71 62
49 71 62
34 54 37
34 54 37
34 53 37
34 53 37
33 53 37
33 53 37
33 53 37
33 53 36
33 53 36
34 53 37
34 54 37
46 68 59
34 54 37
34 54 37
34 54 37
34 54 37
34 54 37
34 54 37
34 54 37
34 54 37
34 54 37
34 54 37
34 54 37
34 54 38
35 55 38
35 55 38
35 55 38
35 55 38
35 55 38
35 54 38
35 54 38
34 54 38
34 54 38
34 54 38
34 54 38
34 54 38
35 55 38
35 55 39
35 55 39
35 55 39
35 55 39
35 55 39
35 55 39
35 55 39
35 55 39
35 55 39
35 55 39
35 55 39
35 55 39
33 49 37
33 49 37
33 49 37
33 49 37
33 49 37
33 49 37
32 49 37
80 131 88
114 196 148
33 49 37
33 49 37
33 49 37
33 49 37
33 49 37
33 49 37
33 49 37
33 49 37
33 49 37
33 49 37
33 49 37
33 49 37
33 49 37
32 48 36
32 48 36
32 48 36
32 48 36
32 48 36
32 48 36
32 48 36
32 48 36
32 48 36
32 48 36
32 48 36
32 48 36
32 48 36
31 47 35
31 47 35
31 47 35
31 47 35
31 47 35
31 47 35
34 54 37
34 54 37
31 47 35
31 47 35
31 48 35
31 48 35
31 47 34
33 53 36
31 47 34
31 47 34
31 47 34
31 47 34
31 47 34
33 53 36
31 47 35
31 47 35
31 47 35
31 47 35
33 53 36
33 53 36
33 53 36
31 47 35
33 53 36
33 53 36
31 47 35
33 53 37
33 53 37
39 61 52
39 61 52
33 53 36
33 53 36
33 53 36
33 53 36
33 53 36
33 53 36
30 46 34
33 53 36
33 53 36
33 53 36
33 53 36
38 60 51
33 53 36
32 52 35
32 52 35
32 52 35
32 52 35
32 52 35
32 52 35
32 52 35
32 52 35
32 52 35
32 52 35
32 52 35
32 52 35
32 52 35
32 52 34
29 45 32
29 45 32
112 196 146
112 196 146
112 196 146
112 196 146
112 196 146
112 196 147
104 175 141
105 175 141
105 175 141
105 176 142
105 176 142
113 197 147
105 176 142
113 197 147
113 197 147
113 197 147
113 197 148
113 197 148
105 176 142
113 198 147
105 177 142
105 177 142
106 177 142
106 177 143
106 177 143
106 178 143
106 178 143
107 178 143
107 178 144
107 178 144
107 179 144
107 179 144
116 201 150
116 201 150
116 201 151
109 180 145
109 180 146
109 181 146
110 181 146
110 181 147
110 182 147
111 182 148
111 183 148
111 183 148
120 205 154
112 184 149
113 184 150
113 185 150
114 185 151
114 186 151
115 186 151
115 187 152
116 187 152
116 188 153
117 188 154
117 189 154
118 189 155
118 190 155
119 190 156
119 191 156
120 192 157
121 192 157
129 214 163
130 215 164
122 194 159
123 195 160
124 195 160
132 217 166
125 196 162
125 197 162
126 198 163
127 198 163
135 220 169
128 199 165
128 200 165
137 222 171
137 222 172
138 223 172
131 202 167
131 203 168
132 203 169
132 204 169
133 204 170
133 205 170
142 227 176
134 206 171
135 206 171
135 207 172
136 207 172
144 229 178
145 229 179
137 208 174
145 230 180
146 230 180
146 230 180
146 230 180
146 231 181
147 231 181
147 231 181
147 231 181
147 231 181
147 232 182
147 232 182
140 211 176
140 211 176
140 211 177
148 232 182
148 232 182
147 232 182
147 232 182
147 232 182
139 210 176
147 231 181
139 210 176
147 231 181
147 231 181
29 45 33
29 45 33
29 45 32
29 45 32
29 45 32
29 45 32
29 45 32
29 45 32
29 45 32
29 45 33
29 45 33
29 45 33
30 46 33
29 45 33
29 45 33
29 45 33
29 45 33
29 45 33
29 45 33
29 45 32
29 45 32
29 45 33
29 45 33
30 46 33
30 46 33
30 46 33
30 46 33
30 46 33
30 46 33
30 46 33
29 45 33
29 45 33
29 45 33
29 45 33
29 45 33
30 46 33
30 46 33
30 46 34
33 53 36
58 83 70
55 77 68
54 76 67
54 76 67
54 75 66
53 75 66
53 75 65
52 74 65
33 53 36
33 53 36
33 53 36
33 53 36
33 53 36
33 53 36
50 72 62
49 71 62
49 71 62
49 71 62
48 70 61
48 70 61
34 54 37
34 53 37
33 53 37
33 53 37
33 53 37
33 53 37
34 54 37
46 68 59
46 68 59
46 67 59
45 67 58
34 54 37
34 54 37
34 54 37
34 54 37
34 54 37
34 54 37
34 54 37
34 54 37
34 54 37
44 66 57
46 72 58
44 65 57
35 55 38
35 55 38
35 55 38
35 55 38
35 55 38
35 54 38
34 54 38
34 54 38
34 54 38
35 54 38
35 55 39
43 64 56
35 55 39
35 55 39
35 55 39
35 55 39
35 55 39
35 55 39
35 55 39
35 55 39
35 55 39
35 55 39
35 55 39
33 49 37
33 49 37
33 49 37
33 49 37
33 49 37
33 49 37
33 49 37
33 49 37
32 49 37
34 50 38
33 49 37
33 49 37
33 49 37
33 49 37
33 49 37
33 49 37
33 49 37
33 49 37
33 49 37
33 49 37
33 49 37
33 49 37
32 48 36
32 48 36
32 48 36
32 48 36
32 48 36
32 48 36
32 48 36
32 48 36
32 48 36
32 48 36
32 48 36
32 48 36
32 48 36
31 47 35
31 47 35
31 47 35
31 47 35
31 47 35
34 54 37
34 54 37
31 47 35
31 48 35
34 54 37
31 48 35
32 48 36
31 47 35
31 47 34
33 53 36
31 47 34
31 47 34
31 47 34
31 47 35
31 47 35
31 47 35
31 47 35
31 47 35
31 47 35
33 53 36
31 47 35
33 53 36
33 53 36
33 53 36
33 53 37
33 53 37
39 61 52
39 61 52
39 61 51
41 67 53
39 60 51
33 53 36
33 53 36
33 53 36
33 53 36
33 53 36
33 53 36
33 53 36
33 53 36
38 60 51
38 60 51
38 60 51
41 66 53
32 52 35
32 52 35
32 52 35
30 46 33
32 52 35
32 52 35
32 52 35
32 52 35
32 52 35
32 52 35
38 60 51
38 60 51
32 52 35
32 52 35
29 45 33
29 45 32
29 45 32
112 196 146
104 175 141
112 196 146
104 175 141
104 175 141
104 175 141
105 175 141
105 175 141
105 176 142
105 176 142
105 176 142
105 176 142
105 176 142
113 197 147
113 197 147
113 197 147
113 198 147
113 198 147
113 198 147
113 198 147
105 177 142
114 198 148
106 177 143
106 177 143
106 178 143
106 178 143
115 199 149
107 178 144
107 179 144
107 179 144
116 200 150
116 201 150
116 201 150
116 201 151
109 180 146
109 181 146
109 181 146
110 181 147
110 182 147
118 203 153
111 182 148
111 183 148
112 183 149
112 184 149
113 184 149
113 185 150
121 206 156
114 186 151
122 207 157
115 187 152
115 187 152
116 188 153
116 188 153
125 210 159
126 210 160
118 190 155
119 190 156
119 191 156
128 213 162
120 192 157
121 193 158
130 215 164
122 194 159
123 194 160
123 195 160
124 196 161
125 196 162
125 197 162
126 198 163
127 198 163
127 199 164
128 199 165
128 200 165
129 201 166
130 201 166
130 202 167
131 202 168
131 203 168
132 203 169
140 225 175
133 205 170
133 205 170
134 206 171
142 227 177
143 228 177
135 207 172
136 207 173
136 208 173
137 208 174
145 230 180
146 230 180
146 230 180
146 231 181
139 210 176
147 231 181
147 232 181
147 232 182
148 232 182
148 232 182
148 232 182
148 232 182
148 233 183
148 233 183
148 233 183
148 233 183
148 233 183
140 212 177
148 233 183
148 233 183
148 232 182
148 232 182
148 232 182
148 232 182
148 232 182
139 210 176
147 231 181
29 45 33
29 45 33
29 45 32
29 45 32
29 45 32
29 45 32
29 45 32
29 45 32
29 45 33
29 45 33
30 46 33
32 52 35
29 46 33
29 45 33
29 45 33
32 52 34
29 45 33
29 45 33
29 45 32
29 45 32
29 45 33
29 45 33
30 46 33
30 46 33
30 46 33
30 46 33
30 46 33
30 46 33
30 46 33
30 46 33
29 45 33
29 45 33
32 52 34
29 45 33
30 46 33
30 46 34
30 46 34
56 78 69
58 84 70
57 83 69
55 77 67
54 76 67
54 76 66
53 75 66
55 81 67
55 81 67
52 74 65
52 74 64
33 53 36
33 53 36
33 53 36
50 72 63
50 72 63
50 71 62
49 71 62
49 71 62
49 70 61
48 70 61
48 70 61
48 69 60
34 53 37
33 53 37
33 53 37
34 53 37
46 68 59
48 74 61
46 68 59
46 67 59
45 67 58
45 67 58
45 67 58
45 67 58
34 54 37
34 54 37
34 54 37
34 54 37
34 54 37
44 66 57
44 66 57
44 65 57
44 65 57
43 65 56
46 71 58
43 65 56
35 55 38
35 55 38
35 55 38
35 54 38
35 54 38
34 54 38
35 55 38
43 64 56
43 64 56
43 64 56
42 64 56
42 64 56
35 55 39
35 55 39
35 55 39
35 55 39
35 55 39
35 55 39
35 55 39
33 49 37
33 49 37
33 49 37
33 49 37
33 49 37
33 49 37
33 49 37
33 49 37
33 49 37
33 49 37
41 63 55
33 49 37
33 49 37
33 49 37
33 49 37
33 49 37
33 49 37
33 49 37
33 49 37
33 49 37
33 49 37
33 49 37
33 49 37
33 49 37
32 48 36
32 48 36
32 48 36
32 48 36
32 48 36
32 48 36
32 48 36
32 48 36
32 48 36
32 48 36
32 48 36
32 48 36
31 47 35
31 47 35
31 47 35
31 47 35
31 47 35
31 47 35
31 48 35
31 48 35
31 48 35
32 48 36
32 48 36
32 48 36
31 47 35
31 47 34
31 47 34
31 47 34
31 47 34
31 47 35
31 47 35
31 47 35
33 53 36
33 53 36
31 47 35
31 47 35
33 53 36
31 47 35
33 53 36
33 53 36
39 61 52
39 61 52
39 61 51
39 61 51
39 60 51
39 60 51
41 67 53
39 60 51
33 53 36
33 53 36
33 53 36
30 46 34
33 53 36
33 53 36
38 60 51
41 66 53
38 60 51
38 60 51
38 60 51
38 60 51
33 53 36
32 52 35
32 52 35
32 52 35
32 52 35
32 52 35
32 52 35
38 60 51
38 60 51
40 66 52
38 60 51
38 60 51
38 60 51
32 52 35
32 52 34
29 45 32
29 45 32
28 44 32
104 175 141
104 175 141
104 175 141
104 175 141
104 175 141
104 175 141
105 176 141
113 197 147
105 176 142
105 176 142
113 197 147
105 176 142
112 197 147
113 197 147
113 197 147
113 198 147
105 176 142
113 198 147
113 198 147
113 198 148
114 198 148
114 199 148
106 178 143
106 178 143
106 178 143
107 178 144
107 178 144
115 200 149
115 200 150
116 201 150
116 201 150
116 201 150
117 201 151
117 202 151
109 181 146
110 181 146
110 182 147
110 182 147
111 182 148
111 183 148
111 183 148
112 184 149
112 184 149
113 184 150
121 206 155
122 207 156
122 207 156
123 208 157
115 187 152
116 187 153
124 209 158
117 188 154
117 189 154
118 190 155
126 211 161
119 191 156
128 213 162
120 192 157
129 214 163
129 214 164
130 215 164
131 216 165
123 195 160
124 196 161
125 196 161
125 197 162
126 197 163
126 198 163
127 199 164
128 199 165
128 200 165
129 201 166
130 201 166
130 202 167
139 224 173
139 224 174
132 204 169
133 204 169
133 205 170
134 205 171
134 206 171
143 228 177
135 207 172
136 207 173
136 208 173
137 208 174
137 209 174
138 209 174
138 210 175
146 231 180
139 210 176
147 232 181
140 211 177
148 232 182
148 232 182
148 233 183
149 233 183
149 233 183
149 233 183
149 233 183
149 233 183
141 212 178
141 212 178
149 234 184
149 234 184
149 234 184
149 234 183
149 233 183
149 233 183
141 212 178
149 233 183
149 233 183
148 233 183
148 232 182
148 232 182
28 44 31
29 45 33
29 45 33
29 45 32
29 45 32
29 45 32
29 45 32
29 45 33
29 45 33
73 98 84
70 92 82
72 98 84
69 91 82
29 46 33
29 45 33
29 45 33
29 45 33
29 45 33
29 45 33
29 45 33
29 45 33
30 46 33
30 46 33
66 92 78
63 85 76
30 46 33
30 46 33
30 46 33
30 46 33
30 46 33
30 46 33
29 45 33
29 45 33
30 46 33
30 46 33
30 46 34
59 85 71
56 78 69
56 78 69
55 77 68
55 77 68
55 76 67
54 76 67
56 82 68
53 75 66
53 75 65
52 74 65
52 74 65
54 80 66
51 73 64
51 73 63
50 72 63
52 78 64
50 72 62
49 71 62
49 71 62
49 71 61
48 70 61
48 70 61
48 70 61
47 69 60
47 69 60
33 53 37
47 68 59
49 74 61
46 68 59
46 68 59
46 68 59
45 67 58
45 67 58
45 67 58
45 67 58
45 67 58
45 66 57
34 54 37
34 54 37
34 54 37
44 66 57
46 72 58
44 65 57
44 65 56
46 71 58
46 71 58
43 65 56
45 71 58
43 65 56
35 55 38
35 55 38
35 55 38
35 54 38
43 64 56
45 70 57
42 64 56
45 70 57
45 70 57
42 64 55
42 64 55
42 64 55
35 55 39
35 55 39
35 55 39
35 55 39
35 55 39
33 49 37
33 49 37
33 49 37
33 49 37
33 49 37
33 49 37
33 49 37
33 49 37
33 49 37
33 49 37
43 69 56
43 69 56
33 49 37
33 49 37
33 49 37
33 49 37
33 49 37
33 49 37
33 49 37
33 49 37
33 49 37
43 69 55
41 62 54
43 68 55
32 48 36
32 48 36
32 48 36
32 48 36
32 48 36
32 48 36
32 48 36
32 48 36
32 48 36
32 48 36
32 48 37
42 68 54
32 48 36
31 47 35
31 47 35
34 54 37
31 48 35
31 48 35
34 54 37
32 48 36
32 48 36
32 48 36
32 48 36
32 48 36
42 67 54
31 47 35
31 47 34
31 47 35
31 47 35
33 53 36
33 53 36
33 53 36
31 47 35
31 47 35
31 47 35
33 53 36
31 47 35
33 53 36
39 61 52
39 61 51
39 60 51
39 60 51
39 60 51
39 60 51
39 60 51
38 60 51
38 60 51
38 60 51
41 66 53
33 53 36
30 47 34
33 53 36
38 60 51
38 60 51
38 60 51
38 60 51
38 60 51
38 60 51
38 60 51
38 60 51
38 60 51
32 52 35
32 52 35
32 52 35
32 52 35
38 60 51
38 60 51
38 60 51
38 60 51
38 60 51
38 60 51
38 60 51
38 60 51
38 60 51
32 52 35
29 45 33
112 196 146
112 196 146
112 196 146
104 175 141
104 175 141
104 175 141
104 175 141
112 197 147
105 176 141
105 176 142
105 176 142
112 197 146
104 176 141
112 197 147
112 197 147
113 197 147
113 198 147
113 198 147
113 198 147
113 198 147
105 177 142
113 198 148
114 199 148
106 177 143
106 178 143
106 178 143
106 178 143
115 200 149
115 200 149
115 200 149
115 200 150
116 201 150
116 201 150
116 201 151
117 202 151
117 202 151
117 202 152
118 203 152
110 182 147
110 182 147
119 204 153
111 183 148
112 183 149
120 205 154
121 206 155
121 206 155
121 206 156
114 186 151
122 207 157
123 208 157
115 187 152
116 188 153
117 188 153
117 189 154
118 189 155
118 190 155
119 191 156
119 191 156
128 213 162
121 192 157
129 214 163
130 215 164
131 216 165
123 195 160
132 217 166
124 196 161
125 197 162
126 197 163
126 198 163
127 199 164
128 199 164
128 200 165
129 201 166
138 223 172
138 223 172
139 224 173
131 203 168
140 225 174
141 226 175
133 205 170
142 227 176
134 206 171
143 228 177
135 207 172
136 208 173
136 208 173
137 209 174
137 209 174
138 210 175
146 231 180
147 232 181
147 232 181
147 232 182
148 233 182
148 233 183
149 233 183
141 212 178
149 234 183
141 213 178
150 234 184
150 234 184
150 234 184
142 213 179
142 213 179
142 213 179
142 213 179
142 213 179
142 213 179
150 234 184
150 234 184
150 234 184
150 234 184
142 213 179
150 234 184
149 234 184
149 233 183
28 44 31
28 44 31
76 102 88
76 102 88
29 45 33
31 51 34
29 45 32
29 45 32
29 45 33
74 100 85
73 99 85
73 99 85
73 98 84
72 98 84
72 97 83
71 97 83
29 45 33
29 45 33
29 45 33
29 45 33
29 45 33
29 45 33
68 93 79
67 93 79
66 92 78
66 92 78
65 91 77
65 91 77
30 46 33
30 46 33
30 46 33
30 46 33
30 46 33
29 45 33
30 46 33
30 46 34
60 86 72
60 85 71
57 79 69
59 84 70
58 84 70
58 83 70
55 77 67
54 76 67
54 76 67
53 75 66
53 75 66
53 74 65
52 74 65
52 74 64
51 73 64
51 73 64
53 79 65
50 72 63
50 72 63
49 71 62
49 71 62
49 71 62
48 70 61
48 70 61
48 70 61
48 69 60
47 69 60
49 75 61
49 75 61
46 68 59
46 68 59
46 68 59
48 74 60
48 74 60
45 67 58
45 67 58
45 67 58
45 67 58
47 73 59
44 66 57
44 66 57
46 72 59
44 66 57
44 66 57
44 65 57
46 71 58
43 65 56
43 65 56
43 65 56
43 65 56
45 71 57
43 65 56
43 65 56
35 55 38
43 64 56
45 71 57
42 64 56
42 64 55
42 64 55
42 64 55
42 64 55
42 64 55
42 64 55
42 64 55
42 64 55
35 55 39
35 55 39
35 55 39
33 49 37
33 49 37
33 49 37
33 49 37
33 49 37
33 49 37
33 49 37
33 49 37
33 49 37
33 49 37
43 69 56
43 69 56
33 49 37
33 49 37
33 49 37
33 49 37
33 49 37
33 49 37
33 49 37
43 68 55
43 68 55
43 68 55
43 68 55
43 68 55
40 62 53
32 48 36
32 48 36
32 48 36
32 48 36
32 48 36
32 48 36
32 48 36
40 62 53
42 68 54
42 68 54
42 68 54
42 68 54
31 47 35
31 48 35
31 48 35
31 48 36
32 48 36
34 54 37
32 48 36
32 48 36
32 48 36
39 61 52
42 67 54
41 67 54
31 47 35
31 47 35
31 47 35
31 47 35
31 47 35
31 47 35
31 47 35
31 47 35
33 53 36
31 47 35
31 47 35
41 67 53
41 67 53
41 67 53
39 60 51
41 67 53
39 60 51
38 60 51
38 60 51
41 66 53
41 66 53
38 60 51
38 60 51
38 60 51
41 66 52
38 60 51
41 66 52
38 60 51
38 60 51
38 60 51
38 60 51
38 60 51
38 60 51
38 60 51
38 60 51
38 60 51
38 60 51
32 52 35
38 60 51
38 60 51
38 60 51
38 60 51
38 60 51
38 60 51
38 60 51
38 60 51
38 60 51
38 60 51
112 196 146
112 196 146
112 196 146
104 175 141
112 196 146
112 196 146
112 196 146
104 175 141
104 175 141
104 175 141
104 175 141
105 176 141
104 175 141
104 176 141
112 197 146
112 197 146
104 176 141
112 197 147
113 197 147
113 198 147
105 176 142
113 198 147
113 198 147
105 177 142
114 198 148
106 177 143
114 199 148
114 199 148
114 199 149
107 178 143
115 200 149
115 200 149
115 200 149
116 201 150
116 201 150
108 180 145
116 201 151
117 202 151
117 202 151
118 202 152
110 182 147
110 182 147
111 182 147
111 183 148
119 204 154
120 205 154
120 205 154
121 206 155
121 206 155
114 185 151
122 207 156
123 208 157
123 208 157
124 209 158
124 209 158
117 189 154
117 189 154
118 190 155
119 190 155
119 191 156
128 213 162
128 214 163
129 214 163
130 215 164
130 215 164
131 216 165
124 195 160
132 217 166
133 218 167
134 219 168
126 198 163
127 199 164
128 199 164
128 200 165
129 201 166
138 223 172
138 223 172
139 224 173
139 225 174
132 204 169
133 204 170
141 226 176
142 227 176
143 228 177
135 207 172
136 207 172
136 208 173
137 208 174
137 209 174
138 209 175
138 210 175
147 232 181
147 232 181
148 233 182
148 233 182
148 233 182
141 212 177
149 234 183
142 213 178
150 234 184
150 234 184
150 235 184
150 235 185
143 214 180
143 214 180
143 214 180
151 235 185
143 214 180
143 214 180
143 214 180
143 214 180
143 214 180
151 235 185
151 235 185
151 235 185
151 235 185
150 235 185
77 128 83
28 44 31
28 44 31
28 44 31
77 103 89
74 96 87
76 102 88
29 45 32
29 45 32
75 101 87
75 101 87
75 100 86
74 100 86
74 99 85
73 99 85
73 99 84
72 98 84
72 98 83
71 97 83
68 90 81
29 45 33
29 45 33
29 45 33
69 94 80
68 94 80
65 87 78
67 93 79
66 92 78
66 92 78
65 91 77
65 91 77
64 90 76
30 46 33
30 46 33
30 46 33
30 46 33
30 46 33
61 87 73
61 86 72
60 86 72
57 79 70
59 85 71
58 84 70
58 84 70
55 77 68
55 77 67
54 76 67
54 76 66
56 81 68
53 75 66
52 74 65
54 80 66
54 80 66
54 79 65
53 79 65
53 78 65
50 72 63
52 78 64
49 71 62
49 71 62
49 70 61
48 70 61
48 70 61
50 76 62
50 75 62
49 75 61
49 75 61
49 75 61
49 74 61
48 74 60
46 68 59
46 67 58
45 67 58
45 67 58
45 67 58
45 67 58
47 73 59
44 66 57
44 66 57
44 66 57
46 72 58
44 66 57
44 65 57
43 65 56
43 65 56
46 71 58
43 65 56
43 65 56
43 65 56
43 65 56
43 65 56
45 71 57
45 71 57
45 70 57
42 64 55
42 64 55
42 64 55
42 64 55
42 64 55
42 64 55
42 64 55
44 70 57
42 64 55
42 64 55
42 64 55
44 70 57
33 49 37
33 49 37
33 49 37
33 49 37
33 49 37
33 49 37
33 49 37
33 49 37
33 49 37
33 49 37
43 69 56
43 69 56
43 69 55
33 49 37
33 49 37
33 49 37
43 69 55
41 62 54
43 68 55
43 68 55
43 68 55
43 68 55
43 68 55
43 68 55
40 62 53
32 48 36
32 48 36
32 48 36
32 48 36
32 48 37
42 68 54
42 68 54
42 68 54
40 62 53
42 68 54
42 68 54
42 68 54
32 48 36
31 48 36
32 48 36
32 48 36
32 48 36
32 48 36
42 67 54
42 67 54
41 67 54
41 67 54
41 67 53
41 67 53
41 67 53
33 53 36
31 47 35
31 47 35
31 47 35
31 47 35
31 47 35
31 47 35
41 67 53
41 67 53
41 67 53
41 67 53
41 67 53
41 67 53
38 60 51
38 60 51
38 60 51
38 60 51
38 60 51
38 60 51
38 60 51
38 60 51
41 66 52
40 66 52
40 66 52
40 66 52
38 60 51
38 60 51
38 60 51
38 60 51
38 60 51
38 60 51
40 66 52
38 60 51
38 60 50
38 60 50
40 66 52
40 66 52
38 60 50
38 60 50
38 60 50
38 60 50
38 60 50
38 60 50
40 66 52
38 60 50
112 196 146
112 196 146
112 196 146
112 196 146
112 196 146
112 196 146
112 196 146
104 175 141
112 196 146
112 196 146
104 175 141
104 175 141
104 175 141
112 197 146
104 175 141
104 176 141
112 197 146
104 176 141
104 176 141
104 176 141
113 197 147
113 198 147
113 198 147
113 198 147
113 198 147
113 198 148
114 199 148
114 199 148
106 178 143
114 199 148
114 199 149
115 200 149
115 200 149
115 200 149
115 200 150
116 201 150
116 201 150
108 180 145
117 202 151
109 181 146
117 202 151
118 203 152
118 203 152
118 203 153
119 204 153
119 204 153
120 205 154
120 205 154
121 206 155
121 206 155
121 207 156
122 207 156
122 208 157
123 208 157
124 209 158
124 209 158
125 210 159
125 210 159
126 211 160
118 190 155
127 212 161
128 213 162
120 192 157
129 214 163
129 215 164
130 215 164
131 216 165
131 217 166
132 217 166
133 218 167
133 219 168
134 219 168
135 220 169
127 199 164
128 200 165
129 201 166
137 223 172
138 223 172
139 224 173
139 225 174
140 225 174
141 226 175
141 227 176
142 227 176
143 228 177
143 228 177
144 229 178
144 229 179
137 209 174
137 209 174
138 210 175
138 210 175
147 232 181
147 233 182
148 233 182
148 233 183
149 234 183
149 234 183
149 235 184
150 235 184
150 235 184
150 235 185
151 235 185
151 236 185
143 215 180
151 236 186
144 215 181
144 215 181
144 215 181
152 236 186
152 236 186
144 215 181
144 215 181
144 215 181
144 215 181
152 236 186
144 215 180
143 215 180
28 43 31
28 44 31
28 44 31
28 44 31
78 104 90
78 104 89
77 103 89
77 103 89
74 96 87
74 96 86
76 102 88
76 101 87
75 101 87
75 101 86
74 100 86
74 100 86
71 93 83
73 99 85
72 98 84
72 98 84
71 97 83
71 97 83
29 45 33
70 96 81
67 89 79
69 94 80
68 94 80
65 87 78
65 87 77
66 92 78
66 92 78
65 91 77
65 91 76
62 84 74
64 89 75
30 46 33
30 46 33
62 88 74
61 87 73
61 87 73
60 86 72
60 86 72
59 85 71
56 78 69
58 84 70
55 77 68
57 83 69
54 76 67
54 76 67
54 75 66
55 81 67
55 81 67
55 80 66
54 80 66
54 79 66
53 79 65
53 79 65
50 72 63
52 78 64
52 78 64
49 71 62
49 71 61
48 70 61
48 70 61
48 70 61
50 76 62
50 75 61
49 75 61
49 75 61
49 74 61
48 74 60
48 74 60
46 67 58
45 67 58
45 67 58
45 67 58
45 67 58
45 66 57
47 72 59
47 72 59
46 72 58
46 72 58
46 72 58
46 72 58
43 65 56
109 179 146
109 179 146
109 178 146
43 65 56
43 65 56
43 65 56
43 64 56
45 71 57
43 64 55
45 70 57
45 70 57
45 70 57
42 64 55
108 177 145
107 177 144
42 64 55
42 64 55
44 70 57
42 64 55
42 64 55
44 70 57
44 70 57
44 70 56
44 70 56
33 49 37
33 49 37
33 49 37
33 49 37
33 49 37
33 49 37
33 49 37
33 49 37
43 69 55
43 69 55
43 69 55
43 69 55
43 68 55
43 68 55
43 68 55
43 68 55
43 68 55
43 68 55
43 68 55
42 68 55
42 68 55
42 68 55
40 62 53
32 48 36
32 48 36
42 68 54
42 68 54
42 68 54
42 68 54
42 68 54
42 68 54
42 68 54
42 68 54
42 68 54
42 67 54
39 61 52
34 54 37
32 48 36
32 48 36
42 67 54
42 67 54
41 67 54
41 67 54
41 67 53
41 67 53
41 67 53
41 67 53
39 61 52
31 47 35
31 47 35
31 47 35
31 47 35
31 47 35
41 67 53
41 67 53
41 67 53
41 67 53
38 60 51
41 67 53
38 60 51
41 66 53
38 60 51
38 60 51
38 60 51
38 60 51
41 66 52
38 60 51
40 66 52
40 66 52
40 66 52
40 66 52
40 66 52
40 66 52
104 175 141
112 195 146
104 175 141
104 175 141
40 66 52
38 60 50
38 60 50
40 66 52
40 66 52
40 66 52
38 60 50
40 66 52
40 66 52
38 60 50
112 196 146
104 175 141
40 66 52
38 60 50
112 196 146
112 196 146
112 196 146
112 196 146
112 196 146
112 196 146
112 196 146
104 175 141
104 175 141
112 196 146
112 196 146
112 196 146
104 175 140
104 175 141
104 175 141
104 175 141
104 175 141
112 197 146
104 176 141
104 176 141
112 197 147
104 176 141
113 198 147
113 198 147
113 198 147
113 198 147
105 177 142
113 198 148
106 177 142
114 199 148
106 178 143
106 178 143
114 199 149
115 200 149
115 200 149
107 179 144
115 201 150
108 179 145
116 201 150
116 201 151
117 202 151
109 181 146
109 181 146
118 203 152
110 182 147
111 182 147
119 204 153
111 183 148
120 205 154
112 184 149
121 206 155
121 206 155
122 207 156
122 207 156
123 208 157
123 208 157
124 209 158
124 209 159
125 210 159
126 211 160
118 190 155
119 190 156
127 212 161
128 213 162
129 214 163
129 214 163
130 215 164
131 216 165
131 216 165
132 217 166
133 218 167
133 218 167
134 219 168
135 220 169
135 220 169
128 200 165
129 200 165
137 223 172
130 202 167
139 224 173
139 225 174
140 225 174
141 226 175
141 227 176
142 227 176
143 228 177
143 228 177
144 229 178
145 230 179
145 230 179
146 231 180
138 210 175
139 210 176
147 232 181
148 233 182
148 233 182
141 212 178
149 234 183
150 235 184
150 235 184
150 235 184
151 236 185
143 215 180
151 236 185
143 215 180
144 215 181
144 215 181
144 216 181
145 216 181
145 216 181
145 216 182
153 237 187
145 216 182
145 216 182
145 216 182
145 216 182
145 216 182
145 216 181
144 216 181
27 43 30
28 44 31
28 44 31
28 44 31
28 44 31
76 98 89
79 104 90
76 98 88
78 104 89
75 97 88
75 97 87
74 96 87
74 96 86
74 95 86
75 101 87
75 101 87
75 100 86
74 100 86
74 99 85
73 99 85
73 98 84
72 98 84
71 97 83
69 90 81
68 90 80
70 96 81
69 95 81
66 88 79
68 94 80
65 87 78
67 93 79
64 86 77
66 92 78
65 91 77
62 84 75
62 84 74
30 46 33
30 46 33
60 82 73
62 88 74
61 87 73
58 80 71
58 80 70
132 215 166
59 85 71
59 84 70
58 84 70
58 83 69
55 77 67
57 82 68
128 211 162
128 211 162
127 210 161
55 81 67
54 80 66
54 80 66
54 79 65
53 79 65
53 78 65
52 78 64
52 78 64
52 77 63
51 77 63
49 70 61
122 205 157
114 184 151
48 69 60
50 75 62
47 69 60
49 75 61
49 74 61
49 74 60
48 74 60
48 74 60
48 73 60
45 67 58
45 67 58
47 73 59
47 73 59
47 72 59
47 72 59
46 72 58
46 72 58
46 72 58
46 72 58
117 200 151
117 199 151
117 199 151
109 179 146
109 178 146
108 178 145
43 65 56
45 71 57
45 71 57
45 70 57
45 70 57
45 70 57
42 64 55
44 70 57
115 198 150
107 177 144
107 177 144
107 177 144
44 70 56
42 64 55
42 64 55
44 70 56
44 70 56
44 70 56
44 70 56
44 70 56
44 70 56
33 49 37
33 49 37
33 49 37
33 49 37
33 49 37
33 49 37
43 69 55
41 62 54
41 62 54
43 68 55
43 68 55
40 62 53
43 68 55
43 68 55
43 68 55
42 68 55
42 68 55
42 68 55
42 68 55
42 68 55
42 68 54
32 48 37
40 62 53
42 68 54
40 62 53
42 68 54
42 68 54
42 68 54
42 68 54
42 67 54
42 67 54
42 67 54
42 67 54
42 67 54
32 48 36
39 61 52
41 67 54
41 67 54
41 67 53
41 67 53
41 67 53
41 67 53
41 67 53
41 67 53
39 61 52
41 67 53
41 67 53
31 47 35
41 67 53
41 67 53
41 67 53
41 67 53
41 67 53
38 60 51
41 66 53
41 66 53
41 66 53
38 60 51
41 66 53
38 60 51
38 60 51
38 60 51
112 195 147
40 66 52
40 66 52
40 66 52
38 60 51
40 66 52
40 66 52
112 195 146
112 195 146
104 175 141
104 175 141
104 175 141
104 175 141
40 66 52
40 66 52
40 66 52
40 66 52
40 66 52
38 60 50
40 66 52
40 66 52
112 196 146
112 196 146
104 175 141
104 175 141
104 175 141
38 60 50
112 196 146
104 175 141
104 175 141
112 196 146
104 175 141
112 196 146
112 196 146
112 196 146
112 196 146
112 196 146
103 175 140
104 175 140
112 196 146
112 197 146
104 175 141
104 175 141
104 176 141
104 176 141
112 197 146
104 176 141
112 197 147
112 197 147
113 198 147
113 198 147
113 198 147
113 198 147
105 177 142
105 177 142
106 177 142
114 199 148
106 178 143
106 178 143
107 178 143
107 178 144
115 200 149
115 200 149
116 201 150
116 201 150
116 201 150
117 202 151
117 202 151
109 181 146
110 181 146
110 182 147
110 182 147
111 182 148
119 204 153
112 183 148
112 184 149
120 206 155
121 206 155
121 207 156
122 207 156
122 208 157
123 208 157
124 209 158
124 209 158
117 188 153
117 189 154
118 190 155
118 190 155
119 191 156
120 191 156
120 192 157
129 214 163
130 215 164
130 215 164
131 216 165
132 217 166
132 217 166
133 218 167
134 219 168
134 220 169
135 220 169
128 200 165
136 222 171
129 201 166
130 202 167
131 202 167
139 224 173
140 225 174
141 226 175
141 227 175
142 227 176
143 228 177
143 229 177
144 229 178
145 230 179
145 230 179
146 231 180
146 232 181
139 211 176
147 233 182
148 233 182
149 234 183
149 234 183
141 213 178
150 235 184
150 235 184
151 236 185
151 236 185
151 237 186
152 237 186
152 237 186
152 237 186
153 238 187
153 238 187
145 216 182
145 217 182
145 217 182
153 238 188
146 217 182
146 217 183
146 217 183
146 217 182
154 238 188
145 217 182
145 217 182
153 238 187
153 238 187
153 237 187
28 44 31
28 44 31
28 44 31
77 99 90
79 105 91
77 98 89
76 98 89
76 98 88
75 97 88
75 97 87
75 97 87
74 96 87
141 211 178
148 232 182
148 231 182
147 231 181
74 100 86
74 99 85
73 99 85
73 98 84
70 92 82
69 91 82
69 90 81
68 90 80
67 89 80
69 95 81
133 204 170
140 224 175
67 93 79
65 86 77
66 92 78
63 85 76
65 91 77
29 45 33
30 46 33
32 52 35
30 46 33
30 46 33
62 87 73
61 87 73
133 216 167
132 216 166
132 215 166
131 214 165
58 84 70
58 84 70
55 77 68
30 46 34
30 46 34
30 46 34
120 190 157
127 210 161
126 210 161
54 80 66
126 209 160
117 188 154
53 79 65
53 78 64
52 78 64
52 77 64
51 77 63
31 47 34
79 130 86
114 184 151
114 184 151
121 204 156
49 75 61
49 75 61
120 203 155
49 74 61
48 74 60
48 74 60
48 74 60
48 73 60
47 73 59
119 201 153
118 201 153
110 180 147
47 72 59
46 72 58
46 72 58
46 72 58
117 200 152
117 200 151
117 200 151
117 199 151
109 179 146
116 199 151
109 178 145
116 199 150
116 199 150
42 64 55
45 70 57
45 70 57
45 70 57
44 70 57
115 198 150
115 198 150
115 198 150
115 197 149
107 177 144
107 177 144
107 177 144
44 70 56
44 70 56
44 70 56
44 70 56
44 70 56
44 70 56
44 70 56
44 70 56
44 70 56
44 70 56
33 49 37
33 49 37
33 49 37
40 62 54
40 62 54
40 62 53
40 62 53
43 68 55
113 195 148
113 195 148
42 68 55
42 68 55
42 68 55
42 68 55
40 62 53
32 48 37
32 48 37
32 48 37
32 48 37
42 68 54
40 61 53
42 68 54
113 195 147
42 67 54
42 67 54
42 67 54
42 67 54
42 67 54
42 67 54
32 48 36
32 48 36
32 48 36
41 67 53
39 61 52
41 67 53
41 67 53
41 67 53
41 67 53
39 61 52
41 67 53
41 67 53
41 67 53
41 67 53
31 47 35
31 47 35
41 67 53
41 67 53
41 67 53
41 66 53
41 66 53
112 195 147
41 66 53
41 66 53
41 66 52
41 66 52
40 66 52
40 66 52
104 175 141
112 195 146
112 195 146
38 60 51
40 66 52
40 66 52
40 66 52
112 195 146
112 195 146
112 195 146
104 175 141
112 195 146
112 195 146
104 175 141
112 195 146
104 175 141
40 66 52
38 59 50
40 66 52
40 66 52
40 66 52
112 196 146
104 175 141
112 196 146
112 196 146
104 175 141
104 175 141
104 175 141
104 175 141
28 44 31
112 196 146
112 196 146
112 196 146
112 196 146
104 175 141
112 196 146
112 196 146
103 175 140
103 175 140
103 175 140
103 175 140
104 175 140
104 175 140
112 197 146
104 175 141
104 176 141
104 176 141
104 176 141
104 176 141
112 197 147
105 176 141
113 198 147
113 198 147
105 177 142
105 177 142
113 198 147
105 177 142
106 177 143
106 178 143
106 178 143
106 178 143
107 178 143
115 200 149
107 179 144
107 179 144
116 201 150
116 201 150
116 201 150
109 180 145
109 181 146
109 181 146
118 203 152
110 182 147
110 182 147
111 183 148
111 183 148
112 183 149
112 184 149
113 184 149
113 185 150
122 207 156
122 207 156
123 208 157
123 208 157
124 209 158
124 210 158
117 189 154
117 189 154
118 190 155
119 191 156
119 191 156
120 192 157
121 192 157
121 193 158
130 215 164
131 216 165
131 217 165
132 217 166
133 218 167
133 219 168
134 219 168
135 220 169
136 221 170
128 200 165
129 201 166
130 202 167
130 202 167
139 224 173
140 225 174
133 204 169
141 226 175
142 227 176
143 228 177
135 207 172
144 229 178
137 208 173
145 230 179
146 231 180
146 232 181
139 211 176
140 211 176
140 212 177
141 213 178
149 234 183
150 235 184
150 235 184
151 236 185
151 236 185
151 237 186
152 237 186
144 216 181
153 238 187
145 217 182
153 238 187
145 217 182
146 217 182
146 217 183
154 239 188
146 218 183
146 218 183
146 218 183
146 218 183
146 218 183
146 218 183
146 218 183
146 218 183
154 239 188
154 239 188
154 238 188
154 238 188
153 238 188
153 238 187
28 44 32
153 237 187
153 237 187
77 99 90
79 105 91
77 98 89
79 104 90
76 98 88
78 104 89
142 213 179
149 233 184
141 212 178
148 232 183
148 232 182
147 231 182
74 100 86
71 93 84
71 93 83
70 92 83
70 92 82
71 97 83
69 90 81
68 90 80
134 205 171
134 204 171
141 225 175
140 224 175
140 223 174
64 86 77
66 92 78
29 45 33
30 46 33
30 46 33
30 46 33
30 46 33
30 46 33
32 52 35
126 196 163
133 217 167
132 216 167
132 215 166
131 215 166
123 193 160
130 214 165
30 46 33
30 46 34
30 46 34
30 46 34
30 46 34
30 46 34
127 210 161
126 210 161
126 209 160
125 209 160
125 208 159
125 208 159
50 72 63
52 78 64
30 46 34
31 47 34
33 53 36
31 47 34
79 130 86
122 205 156
121 204 156
121 204 155
121 204 155
120 203 155
120 203 154
48 74 60
48 74 60
48 73 60
31 47 35
31 47 35
31 47 35
118 201 153
118 201 152
118 201 152
44 66 57
117 200 152
117 200 152
117 200 151
117 200 151
109 179 146
117 199 151
116 199 151
109 178 145
108 178 145
108 178 145
116 198 150
116 198 150
45 70 57
44 70 57
115 198 150
115 198 150
115 198 150
115 198 150
115 198 149
115 197 149
115 197 149
115 197 149
115 197 149
115 197 149
115 197 149
44 70 56
44 70 56
44 69 56
44 69 56
44 69 56
44 69 56
44 69 56
44 69 56
44 69 56
114 196 148
40 62 53
40 62 53
106 175 142
105 175 142
105 175 142
113 195 148
105 175 142
42 68 55
42 68 55
32 48 37
32 48 37
32 48 37
32 48 37
32 48 37
32 49 37
32 49 37
32 49 37
113 195 147
113 195 147
113 195 147
42 67 54
42 67 54
42 67 54
42 67 54
34 54 37
32 48 36
32 48 36
32 48 36
32 48 36
41 67 53
41 67 53
113 195 147
113 195 147
41 67 53
41 67 53
41 67 53
41 67 53
41 67 53
31 47 35
31 47 35
31 47 35
31 47 35
38 60 51
41 66 53
38 60 51
104 175 141
112 195 147
112 195 147
112 195 147
40 66 52
40 66 52
40 66 52
30 46 34
30 46 34
30 46 34
112 195 146
112 195 146
104 175 141
40 66 52
104 175 141
112 195 146
112 195 146
112 195 146
112 195 146
112 195 146
112 195 146
104 175 141
104 175 141
112 195 146
112 195 146
112 195 146
38 59 50
40 66 52
112 196 146
112 196 146
112 196 146
112 196 146
104 175 141
112 196 146
112 196 146
112 196 146
104 175 141
112 196 146
28 44 31
28 44 31
112 196 146
112 196 146
112 196 146
112 196 146
111 196 145
103 175 140
111 196 145
103 175 140
103 175 140
111 196 146
104 175 140
104 175 140
112 197 146
104 175 141
104 176 141
104 176 141
104 176 141
104 176 141
112 197 147
105 176 141
105 176 142
105 177 142
113 198 147
105 177 142
105 177 142
106 177 142
114 199 148
106 178 143
106 178 143
106 178 143
107 178 143
107 179 144
107 179 144
107 179 144
116 201 150
108 180 145
116 202 151
109 180 146
109 181 146
109 181 146
110 182 147
110 182 147
111 182 147
111 183 148
111 183 148
112 184 149
112 184 149
113 185 150
121 207 156
122 207 156
122 208 157
123 208 157
123 209 158
116 188 153
117 188 153
117 189 154
118 190 155
118 190 155
127 212 161
120 191 156
120 192 157
121 193 158
122 193 158
122 194 159
131 216 165
132 217 166
132 218 167
133 218 167
134 219 168
127 198 163
127 199 164
128 200 165
129 201 166
129 201 166
130 202 167
131 203 168
132 204 168
132 204 169
141 226 175
142 227 176
143 228 177
143 229 177
144 229 178
145 230 179
145 231 179
138 210 175
138 210 175
139 211 176
140 212 177
140 212 177
141 213 178
149 235 184
142 214 179
150 236 185
151 236 185
151 237 186
152 237 186
152 237 186
153 238 187
153 238 187
153 239 187
146 217 182
146 218 183
146 218 183
146 218 183
147 218 183
147 218 184
147 219 184
155 240 189
147 219 184
147 219 184
147 219 184
155 240 189
155 240 189
155 240 189
155 240 189
155 239 189
155 239 189
154 239 189
154 239 188
146 217 183
146 217 183
146 217 183
153 237 188
145 216 182
78 100 90
77 99 90
79 105 91
76 98 89
143 214 180
143 213 180
150 234 184
150 233 184
141 212 178
141 211 178
140 211 177
140 210 176
147 231 181
71 93 84
71 93 83
70 92 83
70 92 82
69 91 82
135 206 172
135 205 172
134 205 171
134 204 170
133 204 170
140 224 174
132 202 169
29 45 33
29 46 33
30 46 33
30 46 33
30 46 33
30 46 33
30 46 33
30 46 33
30 46 33
30 46 33
133 216 167
124 195 161
132 215 166
131 215 165
30 46 33
30 46 34
30 46 34
30 46 34
30 46 34
30 46 34
32 52 35
30 46 34
30 46 34
126 209 160
126 209 160
117 188 154
125 208 159
117 187 153
30 46 34
31 47 34
31 47 34
31 47 34
31 47 34
33 53 36
30 47 34
79 130 86
121 204 155
121 204 155
120 203 155
112 182 149
120 203 154
112 182 149
31 47 35
31 47 35
31 47 35
31 47 35
31 47 35
31 47 35
118 201 152
118 201 152
117 200 152
110 179 146
117 200 151
117 200 151
117 200 151
117 199 151
109 179 146
109 178 146
108 178 145
108 178 145
108 178 145
116 198 150
116 198 150
116 198 150
115 198 150
115 198 150
115 198 150
115 198 150
115 198 149
115 197 149
107 177 144
107 177 144
107 177 144
107 177 144
115 197 149
115 197 149
107 176 144
44 69 56
44 69 56
44 69 56
44 69 56
41 63 54
44 69 56
114 196 148
114 196 148
106 175 142
105 175 142
105 175 142
105 175 142
113 195 147
113 195 147
113 195 147
32 48 37
32 48 37
32 48 37
32 48 37
32 49 37
32 49 37
32 49 37
32 49 37
32 49 37
33 49 37
113 195 147
113 195 147
113 195 147
113 195 147
32 48 36
32 48 36
32 48 36
32 48 36
34 54 37
32 48 36
32 48 36
32 48 36
32 48 36
112 195 147
112 195 147
112 195 147
41 67 53
41 67 53
31 47 35
31 47 35
31 47 35
31 47 35
31 47 35
31 47 35
31 47 35
31 47 35
112 195 147
112 195 147
104 175 141
112 195 147
112 195 147
112 195 146
79 130 86
30 46 34
30 46 34
30 46 34
30 46 34
30 47 34
78 129 86
112 195 146
112 195 146
112 195 146
112 195 146
112 195 146
112 195 146
112 195 146
112 195 146
104 175 141
104 175 141
112 195 146
112 195 146
112 195 146
112 195 146
104 175 141
112 196 146
112 196 146
104 175 141
112 196 146
112 196 146
104 175 141
112 196 146
104 175 141
104 175 141
104 175 141
112 196 146
112 196 146
28 44 32
28 44 31
28 44 31
104 175 141
111 196 145
111 196 145
111 196 145
111 196 145
103 175 140
103 175 140
103 175 140
103 175 140
104 175 140
104 175 140
112 197 146
104 175 141
104 176 141
104 176 141
104 176 141
104 176 141
104 176 141
113 198 147
105 176 142
105 177 142
105 177 142
105 177 142
105 177 142
106 177 142
106 178 143
114 199 148
106 178 143
106 178 143
107 178 144
115 200 149
107 179 144
108 179 144
108 180 145
116 201 150
116 202 151
109 181 146
109 181 146
110 181 146
110 182 147
110 182 147
119 204 153
119 204 153
112 183 148
112 184 149
113 184 149
113 185 150
114 185 150
114 186 151
123 208 157
115 187 152
116 188 152
124 210 158
117 189 154
125 211 160
118 190 155
119 191 155
119 191 156
128 213 162
121 193 157
121 193 158
122 194 159
123 195 160
131 217 166
132 217 166
133 218 167
126 197 162
126 198 163
135 220 169
128 200 165
128 200 165
129 201 166
130 202 167
139 224 173
139 225 174
132 204 169
133 205 170
134 206 170
134 206 171
143 228 177
144 229 178
145 230 179
145 231 179
138 210 175
147 232 181
139 211 176
140 212 177
140 212 177
141 213 178
142 213 178
142 214 179
143 215 179
143 215 180
144 216 180
152 237 186
145 216 181
153 238 187
153 239 188
154 239 188
146 218 183
146 218 183
147 218 183
147 219 184
147 219 184
147 219 184
155 241 190
156 241 190
148 220 185
156 241 190
148 219 185
156 241 190
156 241 190
156 241 190
156 241 190
156 240 190
156 240 190
155 240 190
155 240 189
147 218 184
155 239 189
155 239 189
146 218 183
146 217 183
154 238 188
146 216 182
145 216 182
145 216 182
144 215 181
144 215 181
143 214 180
151 235 185
142 213 179
142 213 179
141 212 178
31 51 34
85 150 90
140 210 177
139 210 176
138 209 175
73 99 85
70 92 83
137 207 174
136 207 173
143 227 178
135 205 172
134 205 171
133 204 170
141 224 175
29 45 33
29 45 33
30 46 33
30 46 33
30 46 34
30 46 33
30 46 33
30 46 33
30 46 33
30 46 33
30 46 33
30 46 33
29 45 33
132 216 166
30 46 33
30 46 33
30 46 34
30 46 34
30 46 34
30 46 34
30 46 34
30 46 34
30 46 34
30 46 34
30 46 34
30 46 34
125 209 160
125 208 159
30 46 34
30 46 34
31 47 35
31 47 35
31 47 34
31 47 34
31 47 34
31 47 34
30 47 34
30 46 34
79 130 86
121 204 155
112 183 149
112 182 149
31 47 34
31 47 35
31 47 35
31 47 35
31 47 35
31 47 35
31 47 35
31 47 35
31 47 35
118 200 152
117 200 152
117 200 152
117 200 151
117 200 151
117 199 151
109 179 146
116 199 151
108 178 145
108 178 145
116 199 150
108 178 145
116 198 150
116 198 150
115 198 150
115 198 150
115 198 150
107 177 144
115 198 149
107 177 144
115 197 149
107 177 144
107 177 144
107 177 144
107 177 144
107 176 144
115 197 149
114 197 149
114 197 149
44 69 56
44 69 56
44 69 56
44 69 56
106 176 143
106 176 143
105 175 142
105 175 142
105 175 142
105 175 142
88 151 93
32 48 37
32 48 37
32 48 37
32 48 37
32 49 37
32 49 37
32 49 37
32 49 37
32 49 37
33 49 37
33 49 37
33 49 37
33 49 37
113 195 147
32 48 36
32 48 36
32 48 36
32 48 36
32 48 36
32 48 36
32 48 36
32 48 36
32 48 36
32 48 36
32 48 36
112 195 147
112 195 147
112 195 147
31 47 35
31 47 35
31 47 35
31 47 35
31 47 35
31 47 35
31 47 35
31 47 35
31 47 35
31 47 35
112 195 147
112 195 147
112 195 146
104 175 141
79 130 86
30 46 34
30 46 34
30 46 34
30 46 34
30 47 34
30 47 34
31 47 34
30 46 34
112 195 146
112 195 146
112 195 146
112 195 146
112 195 146
104 175 141
104 175 141
104 175 141
104 175 141
104 175 141
104 175 141
104 175 141
104 175 141
104 175 141
104 175 141
112 196 146
112 196 146
112 196 146
112 196 146
112 196 146
104 175 141
104 175 141
104 175 141
112 196 146
104 175 141
104 175 141
112 196 146
104 175 141
28 44 31
111 196 145
103 175 140
111 196 145
111 196 145
111 196 145
111 196 145
111 196 145
103 175 140
103 175 140
103 175 140
104 175 140
104 175 140
104 175 141
104 176 141
104 176 141
104 176 141
112 197 146
112 197 146
112 198 147
113 198 147
113 198 147
113 198 147
105 177 142
105 177 142
105 177 142
106 177 142
106 178 143
106 178 143
114 199 148
115 200 149
107 179 144
107 179 144
107 179 144
116 201 150
116 201 150
116 201 150
117 202 151
109 181 146
109 181 146
110 181 146
110 182 147
110 182 147
119 204 153
111 183 148
112 184 149
112 184 149
121 206 155
113 185 150
114 186 151
122 208 156
123 208 157
123 209 158
124 209 158
116 188 153
117 189 154
118 190 155
118 190 155
119 191 156
120 192 156
120 192 157
129 214 163
122 194 158
122 194 159
123 195 160
132 217 166
133 218 167
125 197 162
126 198 163
135 220 169
127 199 164
128 200 165
129 201 166
130 202 167
130 202 167
131 203 168
132 204 169
133 205 170
133 205 170
134 206 171
135 207 172
136 208 172
144 230 179
137 209 174
138 210 175
138 210 175
147 233 181
140 212 177
140 212 177
141 213 178
142 214 178
142 214 179
143 215 180
143 215 180
144 216 181
144 216 181
145 217 182
153 239 187
146 218 183
146 218 183
146 218 183
147 219 184
147 219 184
147 219 184
156 241 190
148 220 185
148 220 185
148 220 185
156 242 191
148 220 185
149 220 185
149 220 185
149 220 186
157 241 191
157 241 191
157 241 191
157 241 191
156 241 191
148 220 185
156 241 190
148 219 185
156 240 190
155 240 189
155 240 189
155 239 189
154 239 188
146 217 183
154 238 188
145 216 182
153 237 187
145 215 181
144 215 181
144 214 180
143 214 180
85 150 89
31 51 34
31 51 34
31 51 34
31 51 34
140 210 177
139 210 176
138 209 175
138 209 175
137 208 174
144 228 179
144 228 178
135 206 172
135 205 172
134 205 171
31 51 34
29 45 33
30 46 33
30 46 33
30 46 34
30 46 34
30 46 34
30 46 33
30 46 33
30 46 33
30 46 33
30 46 33
30 46 33
30 46 33
29 45 33
30 46 33
30 46 34
30 46 34
30 46 34
30 46 34
30 46 34
30 46 34
32 52 35
30 46 34
30 46 34
30 46 34
30 46 34
32 52 35
30 46 34
30 46 34
31 47 34
33 53 36
31 47 35
31 47 35
33 53 36
31 47 34
31 47 34
33 53 36
30 47 34
30 47 34
30 46 34
79 130 86
79 130 86
31 47 35
31 47 35
31 47 35
31 47 35
31 47 35
31 47 35
31 47 35
31 47 35
31 47 35
31 47 35
31 47 35
79 130 86
117 200 151
117 200 151
109 179 146
109 179 146
109 179 146
108 178 145
108 178 145
108 178 145
108 178 145
108 178 145
108 178 145
108 178 145
115 198 150
115 198 150
115 198 150
115 198 149
115 198 149
107 177 144
107 177 144
107 177 144
107 177 144
107 177 144
107 177 144
107 176 144
114 197 149
114 197 149
114 197 149
114 197 149
114 197 149
33 53 37
33 53 36
33 53 36
105 175 142
105 175 142
35 55 38
35 55 38
35 55 38
32 48 37
32 49 37
32 49 37
32 49 37
32 49 37
32 49 37
33 49 37
33 49 37
33 49 37
33 49 37
33 49 37
33 49 37
33 49 37
32 48 36
32 48 36
32 48 36
32 48 36
32 48 36
34 54 37
32 48 36
32 48 36
32 48 36
32 48 36
32 48 36
32 48 36
32 48 36
31 47 35
31 47 35
31 47 35
31 47 35
31 47 35
31 47 35
31 47 35
31 47 35
31 47 35
31 47 35
31 47 35
31 47 35
31 47 34
112 195 146
30 46 34
30 46 34
30 46 34
30 46 34
30 46 34
30 47 34
30 47 34
31 47 34
31 47 34
31 47 34
31 47 34
30 46 34
104 175 141
112 195 146
104 175 141
104 175 141
104 175 141
104 175 141
104 175 141
104 175 141
104 175 141
104 175 141
104 175 141
104 175 141
104 175 141
104 175 141
112 196 146
112 196 146
104 175 141
112 196 146
112 196 146
104 175 141
104 175 141
112 196 146
112 196 146
104 175 141
112 196 146
104 175 141
111 196 145
103 174 140
111 196 145
111 196 145
111 196 145
111 196 145
111 196 145
111 196 145
111 196 145
111 196 145
103 175 140
103 175 140
104 175 140
104 175 140
104 175 141
104 176 141
112 197 146
112 197 146
112 197 146
112 197 146
112 198 147
113 198 147
113 198 147
113 198 147
113 198 147
113 198 147
113 199 148
106 177 142
106 178 143
106 178 143
114 200 148
107 178 143
107 179 144
115 200 149
107 179 144
116 201 150
116 201 150
116 202 151
117 202 151
117 202 151
109 181 146
118 203 152
110 182 147
119 204 153
111 183 148
111 183 148
112 184 149
112 184 149
121 206 155
113 185 150
122 207 156
122 208 157
123 208 157
124 209 158
124 210 158
117 189 154
117 189 154
118 190 155
127 212 161
119 191 156
128 213 162
121 193 157
121 193 158
122 194 159
123 195 159
123 195 160
132 218 166
133 218 167
134 219 168
126 198 163
135 221 169
128 200 165
129 201 165
137 223 172
138 224 172
131 203 168
132 204 169
132 204 169
133 205 170
142 227 176
143 228 177
135 207 172
136 208 173
137 209 174
138 210 174
138 210 175
139 211 176
140 212 177
140 212 177
141 213 178
142 214 179
142 214 179
143 215 180
152 237 186
144 216 181
153 238 187
145 217 182
146 217 182
146 218 183
154 240 189
147 219 184
147 219 184
148 219 184
148 220 185
148 220 185
156 242 191
149 221 185
149 221 186
149 221 186
149 221 186
157 243 191
149 221 186
157 243 192
149 221 186
158 242 192
150 221 186
157 242 192
149 221 186
157 242 191
157 242 191
157 241 191
157 241 191
156 241 191
148 219 185
156 240 190
155 240 190
27 43 30
147 218 184
154 239 189
154 238 188
146 217 183
145 216 182
145 216 182
144 215 181
31 51 33
31 51 34
31 51 34
31 51 34
31 51 34
31 51 34
31 51 34
29 45 32
139 210 176
138 209 175
138 209 175
137 208 174
136 207 173
136 207 173
85 150 90
31 51 34
32 51 34
29 45 33
30 46 33
30 46 34
30 46 34
30 46 34
30 46 34
30 46 34
30 46 33
30 46 33
30 46 33
30 46 33
30 46 33
32 52 35
30 46 33
30 46 33
30 46 34
30 46 34
30 46 34
30 46 34
30 46 34
30 46 34
33 52 35
30 46 34
30 46 34
30 46 34
30 46 34
30 46 34
30 46 34
30 46 34
31 47 35
31 47 35
31 47 35
31 47 35
31 47 35
31 47 35
31 47 34
31 47 34
31 47 34
31 47 34
30 47 34
30 46 34
31 47 34
31 47 35
31 47 35
31 47 35
31 47 35
31 47 35
31 47 35
31 47 35
31 47 35
31 47 35
31 47 35
31 47 35
31 47 35
31 47 35
87 150 92
109 179 146
109 179 146
109 179 146
108 178 145
108 178 145
108 178 145
108 178 145
108 178 145
108 178 145
108 178 145
108 177 145
115 198 150
107 177 144
107 177 144
107 177 144
107 177 144
107 177 144
107 177 144
107 177 144
107 177 144
115 197 149
107 176 144
107 176 144
107 176 144
107 176 144
107 176 144
114 197 149
33 53 37
33 53 37
33 53 37
35 55 38
35 55 38
35 55 38
35 55 38
35 55 38
35 55 38
32 49 37
32 49 37
33 49 37
33 49 37
33 49 37
33 49 37
33 49 37
33 49 37
33 49 37
33 49 37
33 49 37
33 49 37
34 54 37
32 48 36
32 48 36
34 54 37
32 48 36
32 48 36
32 48 36
32 48 36
32 48 36
32 48 36
32 48 36
34 54 38
32 48 36
31 47 35
31 47 35
31 47 35
31 47 35
31 47 35
33 53 37
31 47 35
34 53 37
34 53 37
31 47 35
31 47 35
31 47 35
31 47 35
30 46 34
30 46 34
30 46 34
30 46 34
30 46 34
30 47 34
31 47 34
31 47 34
31 47 34
33 53 36
31 47 34
31 47 35
30 46 34
86 150 90
104 175 141
104 175 141
104 175 141
104 175 141
104 175 141
104 175 141
104 175 141
104 175 141
104 175 141
104 175 141
104 175 141
104 175 141
112 195 146
112 196 146
104 175 141
104 175 141
104 175 141
104 175 141
104 175 141
104 175 141
112 196 146
104 175 141
104 175 141
111 196 145
111 196 145
111 196 145
111 196 145
111 196 145
111 196 145
103 175 140
111 196 145
111 196 145
111 196 145
103 175 140
111 196 145
111 196 146
103 175 140
104 175 140
104 175 140
104 175 141
112 197 146
112 197 146
112 197 146
112 197 146
104 176 141
112 198 147
113 198 147
113 198 147
113 198 147
113 198 147
113 199 147
105 177 142
106 178 142
106 178 143
114 199 148
106 178 143
115 200 149
115 200 149
115 200 149
115 201 150
116 201 150
116 201 150
108 180 145
117 202 151
117 202 151
109 181 146
118 203 152
118 204 152
119 204 153
111 183 148
112 184 148
112 184 149
113 184 149
121 206 155
114 185 150
122 207 156
123 208 157
123 209 157
116 188 153
124 210 159
117 189 154
118 190 154
126 212 160
119 191 156
120 191 156
128 214 162
121 193 158
122 194 158
122 194 159
131 216 165
132 217 166
133 218 167
133 219 167
134 219 168
135 220 169
136 221 170
128 200 165
129 201 166
130 202 167
131 203 167
131 203 168
132 204 169
133 205 170
134 206 171
134 206 171
135 207 172
144 229 178
145 230 179
146 231 180
146 232 180
147 232 181
140 212 176
140 212 177
141 213 178
142 214 178
142 214 179
151 236 185
144 216 180
152 238 186
145 217 182
145 217 182
154 239 188
146 218 183
147 219 184
155 241 189
148 219 184
148 220 185
148 220 185
149 221 185
157 242 191
149 221 186
149 221 186
150 221 186
150 222 187
150 222 187
158 243 192
158 243 192
158 243 192
158 243 192
83 149 87
150 222 187
158 243 192
150 222 187
158 243 192
158 242 192
150 221 186
157 242 192
157 242 191
149 220 186
76 128 83
27 43 30
27 43 30
156 240 190
155 239 189
155 239 189
154 238 189
146 217 183
145 216 182
31 51 33
31 51 33
31 51 34
31 51 34
29 45 32
31 51 34
31 51 34
31 51 34
31 51 34
31 51 33
85 150 89
138 209 175
138 209 175
137 208 174
31 51 34
31 51 34
31 51 34
29 45 33
30 46 33
30 46 33
30 46 34
68 94 80
30 46 34
30 46 34
30 46 34
30 46 34
30 46 33
30 46 33
30 46 33
30 46 33
30 46 33
30 46 33
30 46 34
30 46 34
31 47 34
30 47 34
30 46 34
30 46 34
30 46 34
30 46 34
30 46 34
30 46 34
30 46 34
30 46 34
30 46 34
30 46 34
31 47 34
31 47 35
31 47 35
31 47 35
31 47 35
31 47 35
31 47 35
31 47 35
31 47 34
31 47 34
31 47 34
31 47 34
30 47 34
31 47 35
31 47 35
31 48 35
31 47 35
31 47 35
31 47 35
31 47 35
31 47 35
31 47 35
31 47 35
31 47 35
31 47 35
31 47 35
31 47 35
33 53 36
33 53 36
87 150 92
109 179 146
109 179 145
108 178 145
108 178 145
108 178 145
108 178 145
116 198 150
108 178 145
108 178 145
108 177 144
107 177 144
107 177 144
115 198 149
107 177 144
107 177 144
115 197 149
107 177 144
107 177 144
107 177 144
107 176 144
114 197 149
114 197 149
107 176 144
107 176 144
33 53 37
33 53 37
33 53 37
33 53 37
35 55 38
35 55 38
35 55 38
35 55 38
35 55 38
35 55 38
33 49 37
33 49 37
33 49 37
33 49 37
33 49 37
33 49 37
33 49 37
33 49 37
33 49 37
33 49 37
33 49 37
33 49 37
43 68 55
32 48 36
32 48 36
32 48 36
32 48 36
32 48 36
32 48 36
32 48 36
32 48 36
32 48 36
32 48 36
34 54 38
34 54 38
31 48 35
31 47 35
33 53 37
31 47 35
31 47 35
31 47 35
31 47 35
31 47 35
31 47 35
31 47 35
34 54 37
31 47 35
31 47 35
31 47 34
30 46 34
30 46 34
33 53 36
31 47 34
31 47 34
31 47 34
31 47 34
31 47 34
31 47 35
31 47 35
31 47 35
30 47 34
30 46 34
104 174 141
104 174 141
112 195 146
104 174 141
104 174 141
112 195 146
104 175 141
104 175 141
104 175 141
104 175 141
104 175 141
112 195 146
112 195 146
104 175 141
112 196 146
104 175 141
104 175 141
104 175 141
104 175 141
104 175 141
104 175 141
103 174 140
111 196 145
111 196 145
111 196 145
111 196 145
103 174 140
111 196 145
111 196 145
111 196 145
111 196 145
111 196 145
111 196 145
111 196 145
103 175 140
111 196 146
111 197 146
112 197 146
112 197 146
112 197 146
112 197 146
112 197 146
112 197 146
112 197 146
112 198 146
104 176 141
105 176 141
113 198 147
105 177 142
113 198 147
113 199 147
114 199 148
106 178 143
106 178 143
114 199 148
114 200 149
115 200 149
115 200 149
115 201 149
116 201 150
116 201 150
116 202 150
108 180 145
109 181 146
117 203 151
118 203 152
118 203 152
110 182 147
111 183 148
111 183 148
120 205 154
120 206 154
121 206 155
121 207 155
122 207 156
122 208 156
115 187 152
123 209 158
124 209 158
125 210 159
125 211 159
126 211 160
127 212 161
119 191 156
120 192 157
129 214 163
121 193 158
122 194 159
131 216 165
123 195 160
124 196 161
133 218 167
134 219 168
126 198 163
135 221 169
136 221 170
137 222 171
129 201 166
138 224 172
131 203 168
132 204 169
133 205 169
133 205 170
134 206 171
135 207 172
136 208 173
145 230 179
145 231 179
146 232 180
147 232 181
139 211 176
148 234 182
141 213 178
150 235 184
150 236 184
143 215 180
144 216 180
144 216 181
153 238 187
145 217 182
146 218 183
146 218 183
155 240 189
155 241 190
156 241 190
156 242 190
157 242 191
157 242 191
149 221 186
150 222 186
150 222 187
150 222 187
150 222 187
150 222 187
151 223 187
151 223 188
151 223 188
151 223 188
28 48 29
28 48 30
159 244 193
159 244 193
151 222 188
159 243 193
158 243 193
158 243 192
158 243 192
158 243 192
27 43 30
27 43 30
27 43 30
27 43 30
156 240 190
156 240 190
147 218 184
147 218 184
154 239 189
31 51 33
31 51 33
31 51 34
31 51 34
31 51 34
31 51 34
31 51 34
31 51 34
31 51 34
31 51 34
31 51 34
29 45 32
31 51 33
146 230 180
31 51 33
31 51 34
31 51 34
32 51 34
29 45 33
30 46 33
30 46 34
69 95 81
68 94 80
68 94 80
67 93 79
30 46 34
30 46 34
30 46 34
30 46 33
30 46 33
30 46 33
32 52 35
30 46 34
30 46 34
61 87 73
60 86 72
60 86 72
30 47 34
30 46 34
30 46 34
30 46 34
30 46 34
30 46 34
30 46 34
30 46 34
30 46 34
30 46 34
31 47 35
54 80 66
31 47 35
31 47 35
31 47 35
31 47 35
31 47 35
31 47 35
31 47 35
31 47 34
31 47 34
31 47 34
31 47 34
31 47 35
31 48 35
31 48 36
31 48 35
31 47 35
31 47 35
31 47 35
31 47 35
31 47 35
31 47 35
31 47 35
31 47 35
31 47 35
33 53 37
33 53 36
33 53 36
33 53 36
33 53 36
33 53 36
108 178 145
116 199 150
116 199 150
116 199 150
108 178 145
108 178 145
108 178 145
108 177 144
115 198 150
115 198 149
115 198 149
115 198 149
115 198 149
107 177 144
107 177 144
107 177 144
107 177 144
107 176 144
114 197 149
107 176 144
107 176 144
107 176 144
34 53 37
34 53 37
33 53 37
33 53 37
35 55 38
35 55 38
35 55 38
35 55 38
35 55 38
35 55 38
35 55 38
33 49 37
33 49 37
33 49 37
33 49 37
33 49 37
33 49 37
33 49 37
33 49 37
43 68 55
43 68 55
43 68 55
42 68 55
34 54 37
32 48 36
34 54 38
32 48 36
32 48 36
32 48 36
34 54 38
32 48 36
32 48 36
32 48 36
42 68 54
42 68 54
42 68 54
31 47 35
33 53 37
31 47 35
31 47 35
31 47 35
31 47 35
34 54 37
31 47 35
31 47 35
31 47 35
31 48 35
41 67 53
31 47 35
30 47 34
30 47 34
33 53 36
31 47 34
31 47 34
31 47 34
33 53 36
31 47 35
31 47 35
31 47 35
33 53 36
31 47 35
30 46 34
32 52 35
104 174 141
104 174 141
104 174 141
104 174 141
104 174 141
104 174 141
104 175 141
104 175 141
112 195 146
112 195 146
112 195 146
112 196 146
112 196 146
104 175 141
104 175 141
104 175 141
104 175 141
104 175 141
112 196 146
104 175 141
111 196 145
111 196 145
111 196 145
103 174 140
111 196 145
111 196 145
111 196 145
111 196 145
111 196 145
103 175 140
111 196 145
111 196 145
111 196 145
111 196 145
103 175 140
103 175 140
112 197 146
112 197 146
112 197 146
104 176 141
112 197 146
104 176 141
112 197 146
112 198 146
112 198 147
113 198 147
105 177 142
113 198 147
113 198 147
113 199 148
106 177 142
106 178 143
114 199 148
106 178 143
106 178 143
115 200 149
115 200 149
115 201 149
116 201 150
116 201 150
116 202 150
117 202 151
117 202 151
109 181 146
118 203 152
118 204 152
119 204 153
119 204 153
119 205 154
120 205 154
120 206 155
121 206 155
121 207 156
122 207 156
123 208 157
123 208 157
124 209 158
124 210 158
117 189 154
125 211 160
126 212 160
127 212 161
119 191 156
128 214 162
121 193 158
121 193 158
130 216 164
123 195 160
132 217 166
132 218 167
133 219 167
134 219 168
135 220 169
136 221 170
128 200 165
129 201 166
138 223 172
131 203 167
131 203 168
140 226 174
133 205 170
134 206 171
135 207 171
144 229 178
144 230 178
145 231 179
138 210 175
139 211 175
147 233 181
148 234 182
149 234 183
150 235 184
142 214 179
143 215 180
152 237 186
152 238 186
153 238 187
145 217 182
154 239 188
155 240 189
155 241 189
148 220 184
156 242 190
148 220 185
157 242 191
157 243 191
158 243 192
158 243 192
150 222 187
151 223 187
151 223 188
151 223 188
151 223 188
151 223 188
159 245 194
151 223 188
28 48 29
28 48 29
28 48 30
152 223 189
152 223 188
152 223 188
151 223 188
151 223 188
151 222 188
159 244 193
27 43 29
27 43 30
27 43 30
27 43 30
77 128 83
157 241 191
156 241 191
148 219 185
148 219 185
147 218 184
147 218 184
146 217 183
31 51 34
31 51 34
31 51 34
31 51 34
31 51 34
31 51 34
31 51 34
31 51 34
31 51 34
31 51 34
31 51 33
31 51 33
31 51 34
31 51 34
31 51 34
32 52 34
30 46 33
30 46 33
70 96 82
70 95 81
69 95 81
68 94 80
68 93 79
67 93 79
66 92 78
30 46 34
32 52 35
32 52 35
30 46 33
30 46 33
30 46 34
62 88 74
61 87 73
61 86 73
60 86 72
60 85 71
59 85 71
30 47 34
30 46 34
30 46 34
33 53 36
30 46 34
30 46 34
30 46 34
31 47 34
55 80 67
54 80 66
54 79 66
53 79 65
31 47 35
31 47 35
31 47 35
31 47 35
31 47 35
33 53 36
31 47 34
33 53 36
31 47 35
31 47 35
50 75 62
49 75 61
49 75 61
31 48 35
31 47 35
31 47 35
31 47 35
31 47 35
31 47 35
31 47 35
31 47 35
31 47 35
33 53 37
33 53 37
33 53 36
33 53 36
33 53 36
33 53 36
33 53 36
33 53 36
108 178 145
108 178 145
108 178 145
108 178 145
108 178 145
115 198 150
115 198 150
107 177 144
107 177 144
115 198 149
115 198 149
115 197 149
115 197 149
107 177 144
115 197 149
107 177 144
107 176 144
107 176 144
107 176 144
34 54 37
34 54 37
34 54 37
34 53 37
34 53 37
35 55 38
35 55 38
35 55 38
35 55 38
35 55 38
35 55 38
35 55 38
33 49 37
33 49 37
33 49 37
33 49 37
33 49 37
33 49 37
43 68 55
43 68 55
43 68 55
42 68 55
42 68 55
42 68 55
42 68 55
32 48 36
32 48 36
32 48 36
34 54 38
32 48 36
32 48 36
32 48 36
42 68 54
42 68 54
42 68 54
42 68 54
42 67 54
31 47 35
34 53 37
31 47 35
31 47 35
31 47 35
31 47 35
31 47 35
31 47 35
41 67 53
41 67 53
41 67 53
41 67 53
41 67 53
33 53 36
31 47 34
31 47 34
31 47 34
31 47 34
31 47 35
31 47 35
31 47 35
31 47 35
41 67 53
41 67 53
41 67 53
30 46 34
32 52 35
86 150 90
104 174 141
112 195 146
104 174 141
112 195 146
112 195 146
112 195 146
112 195 146
112 195 146
112 195 146
104 175 141
112 196 146
112 196 146
112 196 146
104 175 141
104 175 141
104 175 141
104 175 141
111 196 145
103 174 140
111 196 145
26 42 29
103 174 140
103 174 140
111 196 145
111 196 145
111 196 145
111 196 145
111 196 145
111 196 145
111 196 145
111 196 145
103 175 140
103 175 140
103 175 140
103 175 140
103 175 140
104 175 140
112 197 146
112 197 146
112 197 146
112 197 146
112 197 146
112 198 146
104 176 141
113 198 147
105 177 142
113 198 147
113 199 147
105 177 142
106 177 142
106 178 143
106 178 143
114 200 148
107 178 143
115 200 149
115 200 149
115 201 150
116 201 150
116 201 150
116 202 151
117 202 151
117 202 151
117 203 152
118 203 152
118 204 152
111 183 147
111 183 148
120 205 154
120 206 154
121 206 155
121 207 155
122 207 156
122 208 156
123 208 157
123 209 157
124 209 158
124 210 159
117 189 154
126 211 160
126 212 160
127 212 161
128 213 162
128 214 163
129 215 163
130 215 164
122 194 159
131 217 165
124 196 161
133 218 167
134 219 168
134 220 168
135 221 169
136 221 170
137 222 171
138 223 172
138 224 172
139 225 173
140 225 174
133 205 169
142 227 176
134 206 171
143 229 177
144 229 178
145 230 179
146 231 180
146 232 180
147 233 181
148 233 182
149 234 183
149 235 183
150 236 184
151 236 185
143 215 180
144 216 181
145 217 182
145 217 182
154 240 188
155 240 189
155 241 189
148 220 184
156 242 190
157 242 191
149 221 186
158 243 192
158 243 192
158 244 192
159 244 193
159 244 193
151 223 188
151 223 188
152 224 188
152 224 189
160 245 194
83 149 86
28 48 29
28 48 29
28 48 30
28 48 30
160 245 195
152 224 189
152 224 189
152 224 189
152 223 189
84 149 88
27 43 29
27 43 30
27 43 30
27 43 30
27 43 30
158 242 192
158 242 192
157 241 191
149 220 186
156 240 190
156 240 190
147 218 184
147 218 184
146 217 183
31 51 34
32 51 34
31 51 34
31 51 34
31 51 34
31 51 34
31 51 34
31 51 34
31 51 34
31 51 34
31 51 33
31 51 34
31 51 34
32 52 34
32 52 35
30 46 33
71 97 83
71 96 82
70 96 82
69 95 81
69 94 80
68 94 80
67 93 79
67 92 78
66 92 78
30 46 34
30 46 34
30 46 33
30 46 34
63 89 75
62 88 74
62 87 73
61 87 73
60 86 72
60 86 72
59 85 71
59 84 71
58 84 70
30 46 34
30 46 34
30 46 34
30 46 34
30 46 34
55 81 67
55 80 67
54 80 66
54 80 66
53 79 65
53 79 65
53 78 65
31 47 35
31 47 35
33 53 36
31 47 35
31 47 35
33 53 36
31 47 35
50 76 62
50 75 62
49 75 61
49 75 61
49 74 61
49 74 61
31 48 35
31 47 35
31 47 35
31 47 35
31 47 35
31 47 35
31 47 35
33 53 37
33 53 37
33 53 37
33 53 37
33 53 36
33 53 36
33 53 36
33 53 36
33 53 36
33 53 36
108 178 145
108 178 145
115 198 150
115 198 150
115 198 150
107 177 144
115 198 149
115 198 149
115 198 149
115 198 149
115 197 149
115 197 149
115 197 149
107 177 144
114 197 149
107 176 144
107 176 144
34 54 37
34 54 37
34 54 37
34 54 37
34 54 37
35 55 38
35 55 38
35 55 38
35 55 38
35 55 38
35 55 39
35 55 39
35 55 39
33 49 37
33 49 37
43 68 55
43 68 55
43 68 55
43 68 55
42 68 55
42 68 55
42 68 55
42 68 55
42 68 55
42 68 54
32 48 36
32 48 36
32 48 36
32 48 36
42 68 54
42 68 54
42 68 54
42 68 54
42 67 54
42 67 54
42 67 54
42 67 54
42 67 54
31 47 35
31 47 35
31 47 35
31 47 35
31 47 35
41 67 53
41 67 53
41 67 53
41 67 53
41 67 53
41 67 53
41 67 53
31 47 35
31 47 34
31 47 34
31 47 35
31 47 35
33 53 36
31 47 35
41 67 53
41 67 53
41 67 53
41 66 53
41 66 53
41 66 53
30 46 34
32 52 35
104 174 141
112 195 146
104 174 141
112 195 146
112 195 146
104 174 141
112 195 146
112 195 146
112 195 146
112 195 146
112 196 146
112 196 146
112 196 146
104 175 141
104 175 141
104 175 141
104 175 141
111 196 145
111 196 145
111 196 145
26 42 29
26 42 29
103 174 140
111 196 145
111 196 145
103 175 140
111 196 145
111 196 145
111 196 145
111 196 145
103 175 140
103 175 140
103 175 140
103 175 140
103 175 140
103 175 140
112 197 146
104 176 140
112 197 146
112 197 146
112 197 146
112 198 146
112 198 147
113 198 147
113 198 147
113 198 147
113 198 147
105 177 142
105 177 142
114 199 148
106 178 143
114 199 148
114 200 148
115 200 149
115 200 149
115 201 149
115 201 150
108 180 145
116 202 150
116 202 151
117 202 151
117 203 151
118 203 152
110 182 147
110 182 147
119 204 153
111 183 148
120 205 154
120 206 154
113 185 149
121 207 155
122 207 156
114 186 151
123 208 157
123 209 158
124 210 158
125 210 159
125 211 159
126 211 160
127 212 161
119 191 156
120 192 157
121 193 157
129 215 163
130 216 164
123 195 160
132 217 166
124 196 161
133 219 167
134 219 168
135 220 169
127 199 164
128 200 165
129 201 166
138 223 172
139 224 173
140 225 174
140 226 174
133 205 170
142 228 176
143 228 177
144 229 178
144 230 179
137 209 174
146 232 180
147 232 181
140 212 176
148 234 183
141 213 178
150 235 184
151 236 185
151 237 185
144 216 181
153 238 187
153 239 187
154 240 188
155 240 189
155 241 189
156 241 190
148 220 185
157 242 191
157 243 191
158 243 192
158 244 192
159 244 193
159 244 193
159 245 193
152 224 188
160 245 194
160 246 194
160 246 195
152 225 189
27 47 29
28 47 29
28 48 29
28 48 30
28 48 30
84 149 87
153 225 190
153 225 190
153 224 190
161 246 195
29 49 31
29 49 31
27 43 30
27 43 30
27 43 30
27 43 30
27 43 30
159 243 193
158 242 192
158 242 192
149 220 186
149 220 186
148 219 185
148 219 185
147 218 184
155 239 189
146 217 183
146 217 183
32 51 34
31 51 34
31 51 34
31 51 34
31 51 34
31 51 34
31 51 34
31 51 34
31 51 34
31 51 34
31 51 34
32 52 34
71 93 83
72 98 84
72 97 83
71 97 83
70 96 82
70 95 81
69 95 81
68 94 80
68 93 79
67 93 79
66 92 78
66 91 77
65 91 77
30 46 34
64 89 76
63 89 75
62 88 74
62 88 74
61 87 73
61 86 72
60 86 72
59 85 71
59 85 71
58 84 70
58 84 70
57 83 69
30 46 34
30 46 34
56 82 68
55 81 67
55 81 67
54 80 66
54 80 66
54 79 66
53 79 65
53 78 65
52 78 64
52 78 64
33 53 36
31 47 35
31 47 35
31 47 35
50 76 62
50 76 62
50 75 62
49 75 61
49 75 61
49 75 61
49 74 61
48 74 60
48 74 60
31 47 35
31 47 35
31 47 35
31 47 35
34 54 37
34 53 37
33 53 37
33 53 37
33 53 37
33 53 37
33 53 36
33 53 36
33 53 36
33 53 36
33 53 36
33 53 36
33 53 36
115 198 150
115 198 150
115 198 150
115 198 149
115 198 149
115 198 149
115 198 149
115 198 149
115 197 149
115 197 149
107 177 144
114 197 149
114 197 149
107 176 144
34 54 37
34 54 37
34 54 37
34 54 37
34 54 37
34 54 37
35 55 38
35 55 38
35 55 39
35 55 39
35 55 39
35 55 39
35 55 39
35 55 39
43 68 55
43 68 55
43 68 55
42 68 55
42 68 55
42 68 55
42 68 55
42 68 55
42 68 55
42 68 54
42 68 54
42 68 54
42 68 54
32 48 36
42 68 54
42 68 54
42 68 54
42 68 54
42 67 54
42 67 54
42 67 54
42 67 54
42 67 54
42 67 54
42 67 54
31 47 35
31 47 35
31 47 35
41 67 53
41 67 53
41 67 53
41 67 53
41 67 53
41 67 53
41 67 53
41 67 53
41 67 53
41 67 53
31 47 34
31 47 35
31 47 35
31 47 35
41 67 53
41 67 53
41 66 53
41 66 53
41 66 53
41 66 53
41 66 53
41 66 53
30 46 34
32 52 35
32 51 34
112 195 146
112 195 146
112 195 146
112 195 146
112 195 146
112 195 146
112 195 146
112 195 146
112 195 146
112 196 146
112 196 146
112 196 146
112 196 146
112 196 146
104 175 141
104 175 141
27 43 30
111 196 145
111 196 145
26 42 29
26 42 29
26 42 28
111 196 145
111 196 145
111 196 145
111 196 145
111 196 145
103 175 140
103 175 140
103 175 140
103 175 140
103 175 140
103 175 140
103 175 140
111 197 146
104 175 140
104 176 140
104 176 141
112 197 146
112 197 146
112 198 146
112 198 147
113 198 147
113 198 147
105 177 142
105 177 142
105 177 142
105 177 142
114 199 148
106 178 143
106 178 143
106 178 143
107 179 143
115 200 149
115 201 149
116 201 150
116 201 150
108 180 145
117 202 151
117 202 151
117 203 151
110 182 146
110 182 147
110 182 147
111 183 148
111 183 148
112 184 149
112 184 149
121 206 155
121 207 155
122 207 156
122 208 157
123 209 157
124 209 158
124 210 158
125 210 159
125 211 160
126 212 160
119 191 156
119 191 156
128 214 162
121 193 158
122 194 158
130 216 164
131 217 165
132 217 166
125 197 161
125 197 162
134 220 168
127 199 164
136 221 170
137 222 171
137 223 172
130 202 167
139 225 173
132 204 169
133 205 169
133 206 170
134 206 171
143 229 177
144 230 178
145 230 179
146 231 180
146 232 181
139 211 176
148 234 182
141 213 178
150 235 184
142 214 179
151 237 185
144 216 181
153 238 187
145 217 182
146 218 183
146 219 183
155 241 189
156 241 190
148 220 185
157 242 191
157 243 192
158 243 192
158 244 193
159 244 193
159 245 193
160 245 194
160 245 194
160 246 194
161 246 195
161 246 195
153 225 190
27 47 29
27 47 29
28 48 29
28 48 29
28 48 30
28 48 30
154 225 191
154 225 191
154 225 190
153 225 190
29 49 31
29 49 31
29 49 31
27 43 30
27 43 30
27 43 30
27 43 30
27 43 30
159 244 193
151 222 188
150 222 187
150 221 187
157 242 192
149 220 186
148 220 185
148 219 185
147 218 184
147 218 184
146 217 183
146 217 182
153 237 187
31 51 34
29 45 32
31 51 34
31 51 34
31 51 34
31 51 34
31 51 34
31 51 34
32 52 34
72 94 84
71 93 84
70 92 83
72 98 84
71 97 83
71 96 82
70 96 82
69 95 81
69 94 80
68 94 80
67 93 79
67 92 78
66 92 78
65 91 77
30 46 34
30 46 34
63 89 75
63 88 75
62 88 74
61 87 73
61 87 73
60 86 72
60 85 72
59 85 71
59 84 70
58 84 70
58 83 69
57 83 69
56 82 68
56 82 68
56 81 67
55 81 67
55 80 67
54 80 66
54 79 66
53 79 65
53 79 65
52 78 64
52 78 64
52 77 64
51 77 63
31 47 35
51 76 63
50 76 62
50 76 62
50 75 62
49 75 61
49 75 61
49 75 61
49 74 61
48 74 60
48 74 60
48 74 60
31 48 35
31 47 35
31 47 35
34 54 37
34 54 37
34 53 37
34 53 37
33 53 37
33 53 37
33 53 37
33 53 37
33 53 36
33 53 36
33 53 36
33 53 36
31 47 35
31 47 35
31 47 35
115 198 150
115 198 149
115 198 149
107 177 144
115 198 149
115 198 149
115 197 149
115 197 149
114 197 149
107 177 144
114 197 149
114 197 149
106 176 143
41 62 54
34 54 37
34 54 37
34 54 37
34 54 37
35 55 39
35 55 39
35 55 39
35 55 39
35 55 39
35 55 39
40 62 53
40 62 53
43 68 55
42 68 55
42 68 55
42 68 55
42 68 55
42 68 55
42 68 54
42 68 54
42 68 54
42 68 54
42 68 54
42 68 54
40 61 53
42 68 54
42 68 54
42 68 54
42 67 54
42 67 54
42 67 54
42 67 54
42 67 54
42 67 54
42 67 54
41 67 54
41 67 54
41 67 53
41 67 53
41 67 53
41 67 53
41 67 53
41 67 53
41 67 53
41 67 53
41 67 53
41 67 53
41 67 53
41 67 53
41 67 53
31 47 35
31 47 35
41 67 53
41 66 53
41 66 53
41 66 53
41 66 53
41 66 53
41 66 53
41 66 52
41 66 52
41 66 52
40 66 52
32 52 35
32 52 35
78 129 85
104 174 141
112 195 146
112 195 146
104 174 141
112 195 146
112 195 146
112 195 146
112 195 146
112 196 146
112 196 146
104 175 141
112 196 146
104 175 141
112 196 146
104 175 141
104 175 141
27 43 30
103 175 140
111 196 145
26 42 29
26 42 29
111 196 145
103 175 140
103 175 140
103 175 140
103 175 140
103 175 140
103 175 140
103 175 140
103 175 140
103 175 140
103 175 140
103 175 140
103 175 140
112 197 146
104 176 140
104 176 141
112 197 146
112 197 146
112 198 146
112 198 147
104 176 141
105 177 141
105 177 142
105 177 142
105 177 142
113 199 148
106 178 142
114 199 148
114 200 148
106 178 143
107 179 143
107 179 144
115 201 149
116 201 150
116 201 150
116 202 150
117 202 151
109 181 146
117 203 151
110 182 146
110 182 147
111 183 147
111 183 148
111 183 148
112 184 149
112 184 149
113 185 150
122 207 156
122 208 156
123 208 157
123 209 157
124 209 158
124 210 159
125 211 159
126 211 160
126 212 160
119 191 156
120 192 156
120 192 157
121 193 158
122 194 159
122 195 159
131 217 165
132 218 166
133 218 167
134 219 168
134 220 169
135 221 169
136 222 170
137 223 171
138 223 172
139 224 173
131 203 168
132 204 169
133 205 170
134 206 171
135 207 172
136 208 172
144 230 179
145 231 179
146 232 180
147 233 181
148 233 182
149 234 183
149 235 183
150 236 184
151 236 185
152 237 186
152 238 186
145 217 182
146 218 182
154 240 189
147 219 184
148 220 184
156 242 190
157 242 191
157 243 192
158 244 192
150 223 187
151 223 188
159 245 194
160 245 194
160 246 194
161 246 195
161 246 195
161 247 195
153 225 190
154 226 190
154 226 191
28 48 29
28 48 29
28 48 30
28 48 30
28 48 30
154 226 191
154 226 191
84 149 87
29 49 31
29 49 31
29 49 31
27 43 30
27 43 30
27 43 30
27 43 30
27 43 30
85 107 97
160 244 194
151 223 188
159 243 193
151 222 187
150 221 187
150 221 186
149 220 186
156 241 191
148 219 185
147 218 184
147 218 184
146 217 183
145 217 182
145 216 182
31 51 34
31 51 34
31 51 34
31 51 34
31 51 34
31 51 34
31 51 34
73 95 85
72 94 85
72 93 84
71 93 83
70 92 83
69 91 82
71 97 83
70 96 82
70 95 81
69 95 81
68 94 80
68 93 79
67 93 79
66 92 78
30 46 33
30 46 34
30 46 34
30 46 34
30 46 33
62 88 74
62 87 74
133 216 167
61 86 72
60 86 72
59 85 71
59 85 71
58 84 70
58 83 70
30 46 34
30 46 34
33 53 36
56 81 68
55 81 67
55 80 67
54 80 66
54 80 66
53 79 65
53 79 65
53 78 65
52 78 64
52 78 64
51 77 63
31 47 35
31 47 35
50 76 62
50 76 62
50 75 62
49 75 61
49 75 61
49 75 61
49 74 61
48 74 60
48 74 60
48 74 60
48 73 60
47 73 60
34 54 37
34 54 37
34 54 37
34 54 37
34 54 37
34 53 37
33 53 37
33 53 37
33 53 37
33 53 37
33 53 36
33 53 36
33 53 36
31 47 35
31 47 35
31 47 35
31 47 35
31 47 35
115 198 149
107 177 144
115 198 149
115 198 149
115 198 149
115 197 149
114 197 149
107 177 144
107 177 144
114 197 149
106 176 143
41 62 53
41 62 53
43 69 55
34 54 37
34 54 37
35 55 39
35 55 39
35 55 39
40 62 53
40 62 53
40 62 53
40 62 53
40 62 53
40 62 53
42 68 55
42 68 55
42 68 55
42 68 54
42 68 54
42 68 54
42 68 54
42 68 54
40 62 53
40 61 53
40 61 53
40 61 52
42 67 54
42 67 54
42 67 54
42 67 54
42 67 54
42 67 54
42 67 54
41 67 54
41 67 54
41 67 53
31 47 35
31 48 35
31 48 35
41 67 53
41 67 53
41 67 53
41 67 53
41 67 53
41 67 53
41 67 53
41 67 53
41 67 53
41 67 53
41 67 53
38 60 51
38 60 51
41 66 53
41 66 53
41 66 53
41 66 53
41 66 53
41 66 52
41 66 52
41 66 52
40 66 52
40 66 52
40 66 52
40 66 52
40 66 52
32 52 35
29 45 33
112 195 146
112 195 146
112 195 146
112 195 146
112 195 146
112 195 146
112 195 146
112 195 146
112 196 146
112 196 146
112 196 146
104 175 141
104 175 141
104 175 141
112 196 146
112 196 146
27 43 30
27 43 30
111 196 145
26 42 29
26 42 29
26 42 28
103 175 139
111 196 145
103 175 140
111 196 145
103 175 140
103 175 140
103 175 140
103 175 140
103 175 140
103 175 140
103 175 140
111 197 146
104 175 140
104 176 140
104 176 141
104 176 141
112 197 146
112 198 146
104 176 141
113 198 147
105 177 141
105 177 142
105 177 142
113 199 147
114 199 148
106 178 142
114 199 148
106 178 143
106 178 143
115 200 149
107 179 144
107 179 144
108 180 144
116 201 150
108 180 145
109 181 145
109 181 146
109 181 146
110 182 147
110 182 147
111 183 147
111 183 148
112 184 148
112 184 149
113 185 149
121 207 155
122 207 156
122 208 156
123 208 157
123 209 157
124 210 158
116 189 153
117 189 154
118 190 155
118 191 155
119 191 156
120 192 157
121 193 157
121 193 158
122 194 159
123 195 160
123 196 160
132 218 166
133 219 167
134 220 168
135 220 169
136 221 170
136 222 171
137 223 171
130 202 167
131 203 168
132 204 168
133 205 169
141 227 176
134 206 171
135 207 172
136 208 173
137 209 174
146 231 180
147 232 181
147 233 181
148 234 182
149 235 183
150 235 184
151 236 185
151 237 185
152 238 186
145 217 182
145 218 182
154 240 188
147 219 184
147 220 184
148 220 185
149 221 186
157 243 192
158 244 192
159 244 193
159 245 193
160 245 194
160 246 194
152 224 189
161 246 195
161 247 195
161 247 196
154 226 190
154 226 191
154 226 191
154 226 191
163 248 197
155 227 191
28 48 30
28 48 30
28 48 30
155 227 192
28 48 30
29 49 31
29 49 31
29 49 31
29 49 31
27 43 30
27 43 30
27 43 30
27 43 30
88 114 99
88 113 99
152 224 189
160 244 194
160 244 194
151 222 188
151 222 187
158 242 192
150 221 186
157 241 191
148 220 185
148 219 185
147 218 184
155 239 189
154 238 188
30 50 32
78 100 91
77 99 90
31 51 34
31 51 34
31 51 34
31 51 34
74 96 86
73 95 86
73 94 85
72 94 84
71 93 84
70 92 83
70 92 82
69 91 82
68 90 81
70 96 82
69 95 81
69 94 80
68 94 80
67 93 79
30 46 33
30 46 34
30 46 34
30 46 34
30 46 34
30 46 34
30 46 34
134 217 168
133 217 168
133 216 167
132 215 166
60 85 71
59 85 71
58 84 70
30 46 34
30 47 34
30 47 34
30 46 34
30 46 34
30 46 34
55 81 67
126 209 160
126 209 160
54 79 65
53 79 65
53 78 65
52 78 64
52 78 64
31 47 34
31 47 35
31 47 35
31 47 35
31 47 35
50 76 62
50 75 61
121 204 155
49 75 61
49 74 61
48 74 60
48 74 60
48 74 60
48 73 60
47 73 59
45 67 58
45 67 58
34 54 37
34 54 37
34 54 37
34 54 37
34 53 37
34 53 37
33 53 37
33 53 37
33 53 37
33 53 37
31 47 35
31 47 35
31 47 35
31 47 35
31 47 35
31 47 35
31 47 35
31 47 35
115 198 149
115 198 149
115 198 149
115 197 149
114 197 149
107 177 144
107 177 144
107 176 143
106 176 143
106 176 143
40 62 53
40 62 53
40 62 53
40 62 53
35 55 39
40 62 53
40 62 53
40 62 53
40 62 53
40 62 53
40 62 53
40 62 53
40 62 53
42 68 55
42 68 54
42 68 54
42 68 54
42 68 54
42 68 54
40 61 53
40 61 53
40 61 53
40 61 52
39 61 52
39 61 52
39 61 52
42 67 54
42 67 54
42 67 54
42 67 54
41 67 54
41 67 54
41 67 53
31 47 35
31 48 35
31 48 35
31 48 36
32 48 36
31 47 35
41 67 53
41 67 53
41 67 53
41 67 53
41 67 53
41 67 53
41 67 53
41 67 53
38 60 51
38 60 51
38 60 51
38 60 51
41 66 53
41 66 53
41 66 52
112 195 147
41 66 52
40 66 52
40 66 52
40 66 52
40 66 52
40 66 52
38 60 51
38 60 51
38 60 51
32 52 35
32 52 34
29 45 32
104 174 141
111 195 146
111 195 146
104 174 141
112 195 146
112 195 146
112 196 146
112 196 146
104 175 141
104 175 141
104 175 141
104 175 141
104 175 141
112 196 146
112 196 146
27 43 31
27 43 30
111 196 145
26 42 29
111 196 145
111 196 145
111 196 145
103 175 140
103 175 140
103 175 140
103 175 140
103 175 140
103 175 140
103 175 140
111 197 145
103 175 140
103 175 140
103 175 140
104 175 140
104 176 140
104 176 141
112 197 146
112 198 146
104 176 141
104 176 141
113 198 147
105 177 141
113 198 147
105 177 142
105 177 142
105 178 142
106 178 143
106 178 143
106 178 143
106 179 143
107 179 144
115 201 149
107 179 144
108 180 144
108 180 145
108 180 145
109 181 145
109 181 146
118 203 152
110 182 147
110 182 147
111 183 148
111 183 148
112 184 148
112 184 149
113 185 149
121 207 155
114 186 150
122 208 156
123 209 157
123 209 158
116 188 153
117 189 153
117 189 154
118 190 155
119 191 155
119 191 156
120 192 157
129 214 163
121 194 158
122 194 159
123 195 160
124 196 161
125 197 161
133 219 168
126 198 163
127 199 164
136 222 170
137 222 171
129 202 166
130 202 167
131 203 168
132 204 169
133 205 170
134 206 171
135 207 171
135 208 172
136 208 173
137 209 174
138 210 175
139 211 176
148 233 182
149 234 183
149 235 184
150 236 184
151 237 185
144 216 180
153 238 187
153 239 187
154 240 188
147 219 183
147 219 184
148 220 185
149 221 185
149 221 186
158 244 192
150 223 187
159 245 193
160 245 194
160 246 194
160 246 195
161 247 195
161 247 195
162 247 196
154 226 191
162 248 196
154 227 191
163 248 197
155 227 192
155 227 192
155 227 192
155 227 192
28 48 30
28 48 30
28 48 30
29 48 30
29 49 31
29 49 31
29 49 31
29 49 31
27 43 30
27 43 30
27 43 30
86 108 99
88 114 100
86 108 98
161 245 195
160 245 195
160 244 194
160 244 194
151 222 188
159 243 193
150 221 187
150 221 186
149 220 186
148 220 185
148 219 185
147 218 184
30 50 32
30 50 33
79 100 91
78 100 90
77 99 90
77 98 89
31 51 34
75 97 88
74 96 87
74 96 86
73 95 85
72 94 85
72 93 84
71 93 83
70 92 83
69 91 82
69 91 81
68 90 80
70 95 81
69 95 81
68 94 80
30 46 33
30 46 33
30 46 34
30 46 34
30 46 34
30 46 34
30 46 34
30 46 34
30 46 34
30 46 33
133 216 167
132 216 167
132 215 166
59 85 71
30 46 34
30 46 34
31 47 34
33 53 36
30 47 34
30 46 34
30 46 34
30 46 34
30 46 34
126 209 160
125 209 160
125 208 159
53 79 65
52 78 64
52 78 64
31 47 35
31 47 35
31 47 35
31 47 35
31 47 35
31 47 35
31 47 35
121 204 155
120 203 155
120 203 155
48 74 60
48 74 60
48 74 60
48 73 60
45 67 58
45 67 58
45 67 58
45 66 57
44 66 57
34 54 37
34 54 37
34 54 37
34 54 37
34 53 37
34 53 37
33 53 37
33 53 37
31 47 35
31 47 35
31 47 35
31 47 35
31 47 35
31 47 35
31 47 35
31 47 35
31 47 35
31 47 35
115 198 149
107 177 144
114 197 149
114 197 149
107 177 144
106 176 143
106 176 143
106 176 143
40 62 53
40 62 53
40 62 53
40 62 53
40 62 53
40 62 53
40 62 53
40 62 53
40 62 53
40 62 53
40 62 53
40 62 53
40 62 53
42 68 54
42 68 54
42 68 54
105 175 142
40 61 53
40 61 53
40 61 53
40 61 52
39 61 52
39 61 52
39 61 52
39 61 52
39 61 52
42 67 54
42 67 54
41 67 54
41 67 54
41 67 53
34 54 37
31 48 35
31 48 35
31 48 36
32 48 36
32 48 36
32 48 36
32 48 36
41 67 53
41 67 53
41 67 53
41 67 53
41 67 53
41 67 53
38 60 51
38 60 51
38 60 51
38 60 51
38 60 51
38 60 51
38 60 51
112 195 147
112 195 147
112 195 147
40 66 52
40 66 52
40 66 52
40 66 52
38 60 51
38 60 51
38 60 50
38 60 50
38 60 50
38 60 50
32 52 35
29 45 32
77 129 84
111 195 146
111 195 146
111 195 146
104 174 140
104 174 140
104 174 140
104 174 140
104 174 140
104 175 140
104 175 140
104 175 141
104 175 141
104 175 141
112 196 146
28 44 31
27 43 30
102 174 139
111 196 145
111 196 145
111 196 145
111 196 145
111 196 145
103 175 140
103 175 140
103 175 140
103 175 140
103 175 140
103 175 140
103 175 140
103 175 140
111 197 146
103 175 140
104 176 140
112 197 146
104 176 141
112 197 146
112 198 146
104 176 141
104 176 141
113 198 147
113 198 147
105 177 142
105 177 142
105 177 142
105 178 142
106 178 143
106 178 143
106 178 143
115 200 149
107 179 144
107 179 144
107 179 144
116 201 150
116 202 150
108 180 145
109 181 146
117 203 151
110 182 146
118 204 152
118 204 153
111 183 148
111 183 148
112 184 149
112 184 149
113 185 150
113 185 150
114 186 151
114 187 151
123 209 157
116 188 152
116 188 153
117 189 154
117 190 154
118 190 155
119 191 156
128 213 162
120 192 157
121 193 158
122 194 158
122 195 159
123 195 160
124 196 161
133 219 167
126 198 162
134 220 169
135 221 169
128 200 165
137 223 171
138 224 172
131 203 167
131 204 168
132 204 169
133 205 170
142 228 176
135 207 172
136 208 173
137 209 173
137 210 174
146 232 181
139 211 176
140 212 177
149 235 183
150 235 184
142 215 179
151 237 186
144 216 181
145 217 182
154 239 188
146 219 183
155 241 189
148 220 185
157 242 191
149 221 186
150 222 187
150 222 187
151 223 188
160 245 194
160 246 194
161 246 195
161 247 195
161 247 196
154 226 191
154 226 191
154 227 191
155 227 192
155 227 192
155 227 192
155 228 192
156 228 192
156 228 192
156 228 193
156 228 193
156 228 193
156 228 193
156 228 193
29 49 31
29 49 31
29 49 31
29 49 31
27 43 30
27 43 30
90 115 101
89 115 101
89 115 100
89 114 100
161 246 196
161 245 195
153 224 189
160 245 194
160 244 194
151 222 188
151 222 187
158 242 192
149 221 186
149 220 186
156 241 190
30 50 32
30 50 33
30 50 33
79 101 91
78 100 91
78 99 90
77 99 89
79 104 90
75 97 88
75 97 87
74 96 86
73 95 86
73 94 85
72 94 84
138 209 175
70 92 83
70 92 82
69 91 81
68 90 81
68 89 80
67 89 79
29 45 33
30 46 33
30 46 34
30 46 34
30 46 34
30 46 34
30 46 34
30 46 34
30 46 34
30 46 34
30 46 34
30 46 33
30 46 33
132 215 166
30 46 33
30 46 34
31 47 34
31 47 34
31 47 34
31 47 34
31 47 34
30 47 34
30 46 34
30 46 34
30 46 34
30 46 34
125 208 159
125 208 159
124 207 159
31 47 35
31 47 35
31 47 35
31 47 35
31 47 35
31 47 35
31 47 35
31 47 35
31 47 35
79 130 86
120 203 155
120 203 154
120 203 154
48 74 60
45 67 58
45 67 58
45 67 58
45 67 58
45 66 57
44 66 57
44 66 57
44 66 57
34 54 37
34 54 37
34 54 37
34 54 37
34 53 37
33 53 37
31 47 35
31 47 35
31 47 35
31 47 35
31 47 35
31 47 35
31 47 35
31 47 35
31 47 35
31 47 35
31 47 35
31 47 35
79 130 86
107 177 144
107 177 143
106 176 143
106 176 143
106 176 143
106 176 143
40 62 53
40 62 53
40 62 53
40 62 53
40 62 53
40 62 53
40 62 53
40 62 53
40 62 53
40 62 53
40 62 53
40 62 53
40 62 53
105 175 142
105 175 142
105 175 142
40 61 52
39 61 52
39 61 52
39 61 52
39 61 52
39 61 52
39 61 52
39 61 52
39 61 52
39 61 52
41 67 53
113 195 147
31 47 35
31 48 35
31 48 35
31 48 36
32 48 36
32 48 36
34 54 37
34 54 37
32 48 36
32 48 36
31 47 35
41 67 53
41 67 53
41 67 53
38 60 51
38 60 51
38 60 51
38 60 51
38 60 51
38 60 51
38 60 51
104 175 141
104 175 141
104 175 141
112 195 146
112 195 146
112 195 146
40 66 52
38 60 51
38 60 50
38 60 50
38 60 50
38 60 50
38 60 50
38 60 50
38 60 50
38 60 50
29 45 33
29 45 32
111 195 146
111 195 146
104 174 140
104 174 140
104 174 140
104 174 140
104 174 140
111 196 146
104 175 140
104 175 140
104 175 140
104 175 140
104 175 141
104 175 141
110 196 145
110 196 145
110 196 145
111 196 145
111 196 145
111 196 145
111 196 145
111 196 145
111 196 145
111 196 145
103 175 140
103 175 140
111 196 145
111 197 145
103 175 140
111 197 145
103 175 140
111 197 146
112 197 146
112 197 146
112 197 146
112 197 146
112 198 146
112 198 146
112 198 147
105 177 141
105 177 142
105 177 142
113 199 147
113 199 147
106 178 142
106 178 143
106 178 143
106 178 143
107 179 143
115 200 149
115 201 149
115 201 150
116 201 150
116 202 150
108 181 145
109 181 146
109 181 146
110 182 146
110 182 147
110 183 147
111 183 148
111 184 148
112 184 149
120 206 155
113 185 150
113 186 150
114 186 151
123 208 157
115 187 152
116 188 152
116 188 153
125 211 159
118 190 154
118 190 155
127 213 161
120 192 156
120 193 157
121 193 158
122 194 159
123 195 159
131 217 166
124 196 161
133 219 167
126 198 163
135 220 169
136 221 170
128 200 165
129 201 166
130 202 167
131 203 168
132 204 169
133 205 169
133 206 170
142 228 177
143 229 177
136 208 173
137 209 174
146 232 180
147 233 181
140 212 176
140 213 177
141 213 178
142 214 179
143 215 180
144 216 180
144 217 181
145 217 182
154 240 188
147 219 184
156 241 190
148 220 185
157 243 191
150 222 186
150 222 187
151 223 188
151 224 188
152 224 189
160 246 195
161 247 195
161 247 196
162 248 196
154 226 191
163 248 197
155 227 192
155 227 192
155 228 192
156 228 192
156 228 193
164 250 198
156 228 193
156 228 193
156 228 193
156 228 193
156 228 193
156 228 193
156 228 193
29 49 31
29 49 31
29 49 31
91 116 102
90 116 102
88 110 100
90 116 101
89 115 101
89 115 100
162 246 196
161 246 196
161 246 195
153 224 189
160 245 194
160 244 194
159 243 193
150 222 187
150 221 187
149 221 186
30 50 32
30 50 32
30 50 33
30 50 33
79 101 92
79 101 91
78 100 90
80 105 91
79 105 91
78 104 90
77 103 89
74 96 87
74 96 86
73 95 85
139 210 176
138 209 175
138 208 175
70 92 82
69 91 82
69 90 81
68 90 80
32 52 34
30 46 33
30 46 33
30 46 34
30 46 34
30 46 34
30 46 34
30 46 34
30 46 34
30 46 34
30 46 34
30 46 34
30 46 34
30 46 33
30 46 33
30 46 34
30 46 34
31 47 35
31 47 35
31 47 34
31 47 34
31 47 34
31 47 34
30 47 34
33 53 36
30 46 34
30 46 34
30 46 34
79 129 86
31 47 34
31 47 35
31 47 35
31 47 35
31 47 35
31 47 35
31 47 35
31 47 35
31 47 35
31 47 35
33 53 36
31 47 35
120 203 154
120 203 154
112 182 149
111 181 148
45 67 58
45 67 58
45 67 57
45 66 57
44 66 57
44 66 57
44 66 57
44 66 57
44 65 56
34 54 37
34 54 37
34 54 37
31 47 35
31 47 35
31 47 35
31 47 35
31 47 35
31 47 35
31 47 35
31 47 35
31 47 35
31 47 35
31 47 35
31 47 35
31 47 35
31 47 35
33 53 36
87 150 91
114 197 149
106 176 143
106 176 143
106 176 143
40 62 53
40 62 53
40 62 53
105 175 142
105 175 142
105 175 142
105 175 142
40 62 53
40 62 53
40 62 53
40 62 53
34 54 38
34 54 38
105 175 142
105 175 142
105 175 142
105 175 142
39 61 52
105 175 142
105 175 142
39 61 52
39 61 52
39 61 52
39 61 52
39 61 52
87 151 92
31 47 35
31 48 35
34 54 37
31 48 36
32 48 36
32 48 36
32 48 36
32 48 36
34 54 37
32 48 36
32 48 36
32 48 36
32 48 36
41 66 53
105 175 141
105 175 141
104 175 141
38 60 51
38 60 51
38 60 51
38 60 51
104 175 141
104 175 141
104 175 141
104 175 141
104 175 141
112 195 146
112 195 146
104 175 141
104 175 141
38 60 50
38 60 50
38 60 50
38 60 50
38 60 50
38 60 50
38 60 50
38 59 50
38 59 50
32 52 35
29 45 32
28 44 32
103 174 140
103 174 140
103 174 140
103 174 140
104 174 140
104 174 140
104 174 140
104 174 140
111 196 146
111 196 146
104 175 140
110 196 144
102 174 139
110 196 145
110 196 145
110 196 145
110 196 145
111 196 145
103 174 139
111 196 145
111 196 145
111 196 145
103 175 140
111 196 145
111 196 145
103 175 140
103 175 140
111 197 145
103 175 140
103 175 140
111 197 146
112 197 146
104 176 140
112 197 146
112 197 146
112 198 146
104 176 141
112 198 147
105 177 141
105 177 142
105 177 142
113 199 147
105 177 142
106 178 142
114 199 148
106 178 143
114 200 148
115 200 149
107 179 144
107 179 144
116 201 150
116 201 150
116 202 150
117 202 151
109 181 146
109 181 146
110 182 146
110 182 147
119 204 153
111 183 148
111 184 148
112 184 149
112 185 149
113 185 150
122 207 156
122 208 156
123 208 157
123 209 157
124 210 158
116 189 153
117 189 154
118 190 155
118 191 155
119 191 156
128 214 162
121 193 157
121 194 158
122 194 159
123 195 160
132 217 166
124 197 161
125 197 162
134 220 168
135 221 169
136 222 170
137 222 171
137 223 172
130 202 167
131 203 168
132 204 169
133 205 170
142 228 176
135 207 171
135 208 172
136 209 173
145 231 179
138 210 175
139 211 176
148 234 182
141 213 178
150 235 184
150 236 185
151 237 185
152 238 186
145 217 182
146 218 182
146 219 183
147 219 184
148 220 185
149 221 185
157 243 191
150 222 187
151 223 187
151 223 188
152 224 189
160 246 195
153 225 190
161 247 196
162 248 196
154 226 191
163 248 197
155 227 192
155 228 192
156 228 192
156 228 193
156 228 193
156 229 193
157 229 193
157 229 193
157 229 194
157 229 194
165 251 199
157 229 194
157 229 194
157 229 193
157 228 194
157 228 193
89 111 101
89 110 101
91 117 102
90 116 102
88 110 100
90 116 101
89 115 101
162 247 197
162 246 196
162 246 196
161 246 195
153 224 189
160 245 194
159 244 194
151 222 188
158 243 193
30 50 32
30 50 32
30 50 33
30 50 33
80 102 93
80 102 92
79 101 91
81 106 92
80 106 92
79 105 91
79 104 90
78 104 89
77 103 89
74 96 86
140 211 177
139 210 176
139 209 176
138 209 175
137 208 174
136 207 173
69 91 81
32 52 34
32 52 35
30 46 33
30 46 34
30 46 34
33 53 36
30 46 34
30 46 34
30 46 34
30 46 34
30 46 34
30 46 34
30 46 34
30 46 34
30 46 34
30 46 33
30 46 34
31 47 34
31 47 35
31 47 35
31 47 35
33 53 36
33 53 36
31 47 34
31 47 34
30 47 34
30 46 34
30 46 34
30 46 34
30 46 34
31 47 35
31 47 35
34 54 37
31 47 35
31 47 35
31 47 35
31 47 35
33 53 36
33 53 36
31 47 35
31 47 35
31 47 35
31 47 35
31 47 35
112 182 149
111 182 148
111 181 148
111 181 148
45 67 57
44 66 57
44 66 57
44 66 57
44 66 57
44 66 57
44 65 56
43 65 56
43 65 56
34 54 37
31 47 35
31 47 35
31 47 35
31 47 35
31 47 35
31 47 35
31 47 35
31 47 35
31 47 35
31 47 35
31 47 35
31 47 35
31 47 35
33 53 36
33 53 36
33 53 36
33 53 36
87 150 91
106 176 143
106 176 143
106 176 143
40 62 53
40 62 53
105 175 142
105 175 142
105 175 142
105 175 142
40 62 53
88 151 93
34 54 38
34 54 38
32 48 36
34 54 38
35 54 38
105 175 142
105 175 142
105 175 142
105 175 142
105 175 142
105 175 142
39 61 52
39 61 52
39 61 52
34 54 37
31 48 35
34 54 37
34 54 37
32 48 36
32 48 36
32 48 36
32 48 36
32 48 36
32 48 36
32 48 36
32 48 36
34 54 37
32 48 36
32 48 36
32 48 36
31 47 35
104 175 141
104 175 141
104 175 141
38 60 51
38 60 51
104 175 141
104 175 141
104 175 141
104 175 141
104 175 141
104 175 141
104 175 141
32 52 35
104 175 141
104 175 141
104 175 141
38 60 50
38 60 50
38 60 50
38 60 50
38 59 50
38 59 50
38 59 50
38 59 50
38 59 50
37 59 50
29 45 33
29 45 32
85 150 89
103 174 140
103 174 140
111 195 146
111 196 146
111 196 146
103 174 140
103 174 140
103 175 140
110 196 144
110 196 144
110 196 144
110 196 144
110 196 145
110 196 145
102 174 139
110 196 145
111 196 145
111 196 145
103 175 139
111 196 145
111 196 145
111 196 145
103 175 140
103 175 140
111 196 145
103 175 140
111 197 145
111 197 145
111 197 145
111 197 146
112 197 146
112 197 146
112 197 146
112 198 146
112 198 146
112 198 146
112 198 147
113 198 147
105 177 142
113 199 147
105 177 142
105 177 142
106 178 142
106 178 143
114 200 148
114 200 149
115 200 149
115 201 149
107 179 144
116 201 150
116 202 150
116 202 150
117 202 151
117 203 151
109 181 146
110 182 147
110 182 147
111 183 147
111 183 148
112 184 148
120 206 154
113 185 149
121 207 155
114 186 150
114 186 151
123 209 157
115 188 152
124 210 158
125 210 159
125 211 159
126 212 160
119 191 155
127 213 161
120 192 157
121 193 157
121 194 158
130 216 164
123 195 160
132 218 166
133 218 167
133 219 168
134 220 168
127 199 164
136 222 170
137 223 171
130 202 166
130 203 167
131 204 168
140 226 174
141 227 175
142 228 176
135 207 172
136 208 173
137 209 173
138 210 174
138 211 175
139 212 176
140 212 177
149 235 183
142 214 179
151 237 185
144 216 180
144 217 181
145 217 182
146 218 183
155 241 189
147 220 184
148 220 185
157 243 191
158 243 192
150 223 187
159 245 193
152 224 188
152 224 189
153 225 189
153 225 190
162 248 196
162 248 196
163 248 197
155 227 192
155 228 192
156 228 193
156 228 193
164 250 199
165 250 199
157 229 194
165 251 199
165 251 199
157 229 194
157 229 194
157 229 194
165 251 199
157 229 194
27 47 28
157 229 194
157 229 194
157 229 194
89 111 101
89 111 101
91 117 102
91 116 102
90 116 101
90 116 101
163 247 197
154 226 191
162 247 196
161 246 196
161 246 195
160 245 195
160 244 194
77 128 83
30 50 32
30 50 32
30 50 32
30 50 33
31 50 33
148 219 185
82 108 94
82 108 93
81 107 93
80 106 92
80 105 91
79 105 90
78 104 90
77 103 89
149 233 183
148 232 183
140 211 177
139 210 176
138 209 175
138 208 174
137 207 174
31 51 34
32 52 34
30 46 33
30 46 34
30 46 34
69 95 81
68 94 80
30 47 34
30 46 34
30 46 34
30 46 34
30 46 34
30 46 34
30 46 34
30 46 34
30 46 34
30 46 34
30 46 34
31 47 35
60 85 72
31 47 35
31 47 35
31 47 35
31 47 35
31 47 34
31 47 34
31 47 34
33 53 36
30 46 34
30 46 34
31 47 34
31 47 35
31 47 35
31 47 35
31 47 35
31 47 35
31 47 35
31 47 35
31 47 35
31 47 35
31 47 35
31 47 35
31 47 35
31 47 35
33 53 36
33 53 36
33 53 36
111 181 148
111 181 148
111 181 148
111 181 148
44 66 57
44 66 57
44 66 57
44 66 57
44 65 56
43 65 56
43 65 56
45 71 57
45 71 57
31 47 35
31 47 35
31 47 35
31 47 35
31 47 35
31 47 35
31 47 35
31 47 35
31 47 35
31 47 35
31 47 35
31 47 35
33 53 36
33 53 36
33 53 36
33 53 36
33 53 36
33 53 36
33 53 36
106 176 143
106 176 143
106 176 143
105 175 142
105 175 142
105 175 142
34 54 38
34 54 38
34 54 38
34 54 38
35 54 38
35 54 38
32 48 36
35 55 38
105 175 142
105 175 142
105 175 142
105 175 142
105 175 142
105 175 142
105 175 142
34 54 37
34 54 37
34 54 37
34 54 37
34 54 37
34 54 37
32 48 36
32 48 36
32 48 36
34 54 37
32 48 36
32 48 36
32 48 36
34 54 37
32 48 36
32 48 36
32 48 36
32 48 36
32 48 36
104 175 141
104 175 141
104 175 141
104 175 141
104 175 141
104 175 141
104 175 141
104 175 141
104 175 141
104 175 141
32 52 35
30 46 34
33 52 35
104 175 141
104 175 141
104 175 141
104 175 141
38 59 50
38 59 50
38 59 50
38 59 50
38 59 50
37 59 50
37 59 50
37 59 50
40 66 51
40 66 51
29 45 32
31 51 33
103 174 140
103 174 140
103 174 140
103 174 140
103 174 140
103 174 140
103 174 140
110 196 144
110 196 144
110 196 144
110 196 144
110 196 144
110 196 144
110 196 145
110 196 145
102 174 139
110 196 145
111 196 145
111 196 145
111 196 145
111 196 145
111 196 145
103 175 140
111 196 145
111 196 145
111 197 145
111 197 145
111 197 145
111 197 145
111 197 146
103 176 140
112 197 146
112 197 146
112 198 146
112 198 146
112 198 146
112 198 147
113 198 147
113 198 147
105 177 142
105 177 142
105 177 142
114 199 148
106 178 143
106 178 143
106 178 143
115 200 149
115 201 149
115 201 149
116 201 150
108 180 145
116 202 150
117 202 151
117 203 151
117 203 152
110 182 147
110 182 147
111 183 147
119 205 153
120 205 154
120 206 154
121 206 155
121 207 155
114 186 150
122 208 156
123 209 157
124 209 158
124 210 158
125 211 159
117 190 154
126 212 160
127 213 161
119 192 156
120 192 157
121 193 158
122 194 158
122 195 159
123 195 160
124 196 161
125 197 162
126 198 162
134 220 169
135 221 169
128 200 165
137 223 171
130 202 167
139 225 173
132 204 168
132 205 169
133 206 170
134 207 171
135 207 172
136 208 173
137 209 174
138 210 175
139 211 175
148 233 182
149 234 183
149 235 184
150 236 184
143 215 180
152 238 186
145 217 181
154 239 188
154 240 188
147 219 184
156 242 190
157 242 191
157 243 191
158 244 192
151 223 187
151 224 188
152 224 189
152 225 189
161 247 195
162 247 196
162 248 196
163 248 197
155 227 192
164 249 198
156 228 193
156 228 193
156 229 193
157 229 194
165 251 199
157 229 194
157 230 194
157 230 194
166 251 200
166 251 200
158 230 194
158 230 194
27 47 28
27 47 29
158 229 194
165 251 200
157 229 194
157 229 194
157 229 194
89 111 101
89 110 101
156 227 193
164 248 198
163 248 197
163 247 197
162 247 197
162 246 196
161 246 196
161 245 195
27 43 30
27 43 30
30 50 32
30 50 32
30 50 33
30 50 33
31 51 33
156 240 190
155 239 190
155 239 189
81 107 93
81 106 92
80 106 91
79 105 91
78 104 90
150 234 185
150 233 184
149 233 183
148 232 182
147 231 182
139 209 176
138 209 175
31 51 34
32 52 34
32 52 35
30 46 33
30 46 34
70 95 82
69 95 81
68 94 80
68 93 79
67 93 79
30 46 34
30 46 34
30 46 34
30 46 34
30 46 34
30 46 34
30 46 34
30 46 34
31 47 34
60 86 72
60 86 72
59 85 71
31 47 35
31 47 35
31 47 35
31 47 35
31 47 34
31 47 34
31 47 34
30 47 34
30 47 34
31 47 35
31 47 35
54 79 66
53 79 65
31 47 35
31 47 35
31 47 35
31 47 35
31 47 35
31 47 35
31 47 35
31 47 35
31 47 35
33 53 36
31 47 35
33 53 36
31 47 35
33 53 36
33 53 36
111 181 148
111 181 148
110 180 147
110 180 147
44 66 57
44 66 56
44 65 56
43 65 56
46 71 58
45 71 57
45 71 57
45 71 57
45 71 57
31 47 35
31 47 35
31 47 35
31 47 35
31 47 35
31 47 35
31 47 35
31 47 35
31 47 35
33 53 36
33 53 36
33 53 36
33 53 36
33 53 36
33 53 36
33 53 36
33 53 36
33 53 36
33 53 36
106 176 143
105 175 142
34 54 38
34 54 38
34 54 38
35 54 38
32 48 36
32 48 36
35 55 38
35 55 38
35 55 38
35 55 38
105 175 142
105 175 142
105 175 142
105 175 142
87 151 92
34 54 37
34 54 37
34 54 37
34 54 37
34 54 37
34 54 37
34 54 37
34 54 37
32 48 36
32 48 36
32 48 36
32 48 36
32 48 36
32 48 36
32 48 36
32 48 36
32 48 36
32 48 36
42 68 54
42 67 54
42 67 54
33 53 36
104 175 141
104 175 141
104 175 141
104 175 141
104 175 141
104 175 141
104 175 141
32 52 35
30 46 34
33 52 35
33 52 35
33 53 36
33 52 35
104 175 141
104 175 141
104 175 141
38 59 50
37 59 50
37 59 50
37 59 50
37 59 50
40 66 51
40 65 51
40 65 51
40 65 51
40 65 51
29 45 33
29 45 32
31 50 33
103 174 140
111 195 146
103 174 140
103 174 140
111 196 145
111 196 145
75 127 81
110 196 144
110 196 144
110 196 144
110 196 144
110 196 144
102 174 139
110 196 145
110 196 145
110 196 145
111 196 145
111 196 145
103 175 139
111 196 145
103 175 139
103 175 140
103 175 140
111 196 145
111 197 145
111 197 145
111 197 145
111 197 145
111 197 146
103 176 140
112 197 146
112 197 146
112 198 146
112 198 146
104 176 141
104 177 141
113 198 147
113 198 147
113 199 147
113 199 147
113 199 148
106 178 142
114 200 148
114 200 148
114 200 149
115 200 149
115 201 149
115 201 149
116 201 150
116 202 150
116 202 150
117 202 151
117 203 151
118 203 152
118 204 152
110 182 147
111 183 148
119 205 153
120 206 154
120 206 154
121 207 155
113 185 150
122 208 156
114 187 151
123 209 157
124 209 158
124 210 158
125 211 159
126 211 160
126 212 160
127 213 161
128 213 162
120 193 157
129 215 163
122 194 159
131 216 165
131 217 166
132 218 166
133 219 167
134 220 168
135 221 169
136 221 170
136 222 170
137 223 171
138 224 172
139 225 173
132 204 169
141 227 175
134 206 170
134 207 171
135 208 172
136 209 173
145 231 179
138 210 175
147 233 181
148 234 182
149 235 183
150 236 184
151 236 185
143 216 180
152 238 186
153 239 187
154 240 188
155 241 189
147 220 184
148 220 185
149 221 186
150 222 186
150 223 187
151 223 188
152 224 188
160 246 194
153 225 190
162 247 196
162 248 196
163 248 197
163 249 197
163 249 198
164 250 198
164 250 198
165 250 199
157 229 194
165 251 199
157 230 194
166 251 200
158 230 195
158 230 195
158 230 195
158 230 195
83 148 86
27 47 28
27 47 28
83 148 86
158 230 195
158 230 195
158 229 194
157 229 194
165 250 199
157 229 194
157 228 194
156 228 193
164 249 198
156 227 193
163 248 197
155 226 192
162 247 196
162 246 196
27 43 30
27 43 30
27 43 30
30 50 32
30 50 32
30 50 33
31 51 33
82 104 94
149 219 185
156 240 190
155 239 189
154 238 189
81 107 92
80 106 92
152 236 186
151 235 186
151 235 185
150 234 184
149 233 183
148 232 183
148 231 182
147 231 181
31 51 34
31 51 34
32 52 34
32 52 35
30 46 34
71 96 82
70 96 82
69 95 81
68 94 80
68 94 80
67 93 79
66 92 78
66 91 78
30 46 34
30 46 34
30 46 34
30 46 34
30 46 34
30 46 34
61 87 73
61 86 73
60 86 72
59 85 71
59 85 71
58 84 70
31 47 35
31 47 35
31 47 35
31 47 34
31 47 34
31 47 34
31 47 34
31 47 35
54 80 66
54 79 66
53 79 65
53 78 65
52 78 64
31 47 35
31 47 35
31 47 35
31 47 35
31 47 35
33 53 37
31 47 35
33 53 36
33 53 36
33 53 36
33 53 36
33 53 36
33 53 36
33 53 36
33 53 36
110 180 147
110 180 147
110 180 147
110 180 147
44 65 56
43 65 56
46 71 58
45 71 57
45 71 57
45 71 57
45 71 57
45 71 57
45 70 57
31 47 35
31 47 35
31 47 35
31 47 35
31 47 35
31 47 35
31 47 35
33 53 37
33 53 36
33 53 36
33 53 36
33 53 36
33 53 36
33 53 36
33 53 36
33 53 36
33 53 36
33 53 36
34 54 38
34 54 38
35 54 38
35 54 38
32 48 36
35 55 38
35 55 38
35 55 38
35 55 38
35 55 38
35 55 38
35 55 38
105 175 142
79 130 87
34 54 37
31 48 35
34 54 37
34 54 37
34 54 37
34 54 37
32 48 36
34 54 37
34 54 37
34 54 37
34 54 37
32 48 36
32 48 36
32 48 36
32 48 36
34 54 37
32 48 36
32 48 36
42 68 54
42 67 54
42 67 54
42 67 54
42 67 54
31 47 35
104 175 141
104 175 141
104 175 141
104 175 141
104 175 141
32 52 35
32 52 35
33 52 35
33 52 35
33 53 36
33 53 36
33 53 36
33 53 36
104 175 141
104 175 141
104 175 141
104 175 141
37 59 50
37 59 50
40 65 51
40 65 51
40 65 51
40 65 51
40 65 51
40 65 51
40 65 51
40 65 51
29 45 32
31 51 33
85 149 89
103 174 140
103 174 140
103 174 140
111 196 145
103 174 140
25 41 28
110 196 144
110 196 144
110 196 144
110 196 144
102 174 139
110 196 144
110 196 145
102 174 139
102 174 139
110 196 145
111 196 145
103 175 139
103 175 139
103 175 139
103 175 140
103 175 140
111 197 145
111 197 145
111 197 145
111 197 145
111 197 145
111 197 146
112 197 146
112 197 146
112 197 146
112 198 146
112 198 146
112 198 146
112 198 147
113 198 147
105 177 142
113 199 147
105 177 142
105 178 142
114 199 148
106 178 143
114 200 148
114 200 149
115 200 149
115 201 149
115 201 149
116 201 150
116 202 150
116 202 150
117 203 151
109 181 146
109 182 146
110 182 147
110 183 147
119 205 153
119 205 153
120 206 154
120 206 154
121 207 155
121 207 155
122 208 156
114 187 151
123 209 157
124 210 158
124 210 158
125 211 159
126 211 160
126 212 160
127 213 161
128 214 162
128 214 163
121 193 158
130 216 164
123 195 159
123 196 160
132 218 166
133 219 167
126 198 163
135 221 169
136 222 170
137 222 171
129 202 166
138 224 172
139 225 173
132 204 169
141 227 175
142 228 176
135 207 171
136 208 172
145 230 179
145 231 180
146 232 180
139 212 176
148 234 182
149 235 183
150 236 184
151 237 185
144 216 180
153 238 187
153 239 187
146 218 183
155 241 189
156 242 190
157 242 191
157 243 191
150 222 187
151 223 187
151 224 188
152 224 189
161 246 195
161 247 195
162 248 196
162 248 196
163 249 197
163 249 197
164 250 198
164 250 198
165 250 199
165 251 199
165 251 199
166 251 200
158 230 194
158 230 195
158 230 195
158 230 195
158 231 195
27 47 28
27 47 28
27 47 28
27 47 29
158 230 195
158 230 195
158 230 195
158 230 195
158 230 195
166 251 200
28 48 30
157 229 194
157 228 194
156 228 193
164 249 198
164 248 198
163 248 197
163 247 197
27 43 30
27 43 30
27 43 30
28 44 31
30 50 32
30 50 33
30 50 33
83 105 95
82 104 95
149 220 186
148 219 185
147 218 184
155 239 189
154 238 188
153 237 187
152 236 187
152 236 186
151 235 185
150 234 184
149 233 184
149 233 183
148 232 182
29 45 32
31 51 34
32 52 34
32 52 35
32 52 35
72 97 83
71 97 83
70 96 82
69 95 81
69 94 81
68 94 80
65 87 78
67 92 78
66 92 78
65 91 77
30 46 34
30 46 34
30 46 34
30 46 34
62 88 74
61 87 73
61 86 73
60 86 72
60 85 72
59 85 71
58 84 70
58 84 70
57 83 69
31 47 35
31 47 35
31 47 34
31 47 34
31 47 35
54 80 66
54 80 66
54 79 66
53 79 65
53 79 65
52 78 64
52 78 64
31 47 35
31 47 35
31 47 35
31 47 35
31 47 35
31 47 35
33 53 37
33 53 36
33 53 36
33 53 36
33 53 36
33 53 36
33 53 36
33 53 36
33 53 36
33 53 36
110 180 147
110 180 147
110 180 147
46 71 58
45 71 57
45 71 57
45 71 57
45 71 57
45 71 57
45 71 57
45 70 57
45 70 57
44 70 56
31 47 35
31 47 35
31 47 35
31 47 35
33 53 37
33 53 37
33 53 37
33 53 37
33 53 36
33 53 36
33 53 36
33 53 36
33 53 36
33 53 36
33 53 36
33 53 36
35 54 38
35 55 38
35 55 38
32 48 37
32 48 37
35 55 38
35 55 38
35 55 38
35 55 38
32 49 37
35 55 38
35 55 38
34 54 37
34 54 37
34 54 37
34 54 37
34 54 37
34 54 37
32 48 36
34 54 37
34 54 37
34 54 37
34 54 37
34 54 37
34 54 37
32 48 36
32 48 36
32 48 36
32 48 36
42 68 54
42 67 54
42 67 54
42 67 54
42 67 54
42 67 54
42 67 54
42 67 54
42 67 54
33 53 36
104 175 141
104 175 141
30 46 34
30 46 34
30 46 34
30 46 34
33 53 36
33 53 36
33 53 36
33 53 36
33 53 36
30 46 34
32 52 35
104 174 141
104 174 141
104 174 141
112 195 146
40 65 51
40 65 51
40 65 51
40 65 51
40 65 51
40 65 51
40 65 51
39 65 51
39 65 51
29 45 33
31 51 33
30 50 33
103 174 140
103 174 140
103 174 140
111 196 145
111 196 145
26 41 28
25 41 28
110 196 144
110 196 144
102 174 139
110 196 144
110 196 144
110 196 144
110 196 145
110 196 145
110 196 145
111 196 145
103 175 139
103 175 139
103 175 139
103 175 140
103 175 140
103 175 140
103 175 140
103 175 140
103 175 140
103 175 140
111 197 146
103 176 140
112 197 146
104 176 141
112 198 146
112 198 146
112 198 146
104 177 141
105 177 141
105 177 142
105 177 142
105 177 142
105 178 142
114 199 148
114 200 148
114 200 148
114 200 149
115 201 149
115 201 149
115 201 150
108 180 144
116 202 150
116 202 151
109 181 146
117 203 151
118 203 152
110 182 147
110 183 147
119 205 153
119 205 153
120 206 154
120 206 154
113 185 150
121 207 156
122 208 156
123 208 157
123 209 157
124 210 158
124 210 159
125 211 159
126 212 160
126 212 161
127 213 161
128 214 162
120 193 157
121 194 158
130 216 164
123 195 160
124 196 160
132 218 167
133 219 167
134 220 168
135 221 169
136 222 170
137 223 171
138 223 172
138 224 173
139 225 173
132 204 169
133 205 170
142 228 176
143 229 177
144 230 178
145 231 179
146 232 180
147 232 181
147 233 182
148 234 182
149 235 183
150 236 184
143 215 180
144 216 181
153 239 187
154 239 188
154 240 188
155 241 189
156 242 190
157 243 191
158 243 192
150 222 187
151 223 188
152 224 188
160 246 194
161 247 195
162 247 196
162 248 196
163 249 197
163 249 197
164 250 198
164 250 198
165 250 199
165 251 199
165 251 199
157 230 194
166 252 200
158 230 195
158 231 195
166 252 201
159 231 195
27 47 28
27 47 28
27 47 28
27 47 29
27 47 29
167 252 201
159 231 195
167 252 201
158 230 195
83 149 87
28 48 30
28 48 30
157 229 194
157 229 194
157 228 194
156 228 193
156 227 193
163 248 198
27 43 30
27 43 30
27 43 30
27 43 30
28 44 31
30 50 33
30 50 33
84 106 96
83 105 95
83 104 95
149 220 186
148 219 185
148 219 185
147 218 184
154 238 188
153 237 188
153 237 187
152 236 186
151 235 185
150 234 185
150 234 184
149 233 183
29 45 32
29 45 32
32 51 34
32 52 34
32 52 35
73 98 84
72 98 84
71 97 83
70 96 82
70 95 81
69 95 81
68 94 80
67 93 79
67 92 79
66 92 78
65 91 77
65 90 77
64 90 76
30 46 34
63 88 75
62 88 74
61 87 73
61 87 73
60 86 72
60 85 72
59 85 71
59 84 70
58 84 70
57 83 69
57 83 69
56 82 68
31 47 35
31 47 35
55 81 67
55 80 67
54 80 66
54 79 66
53 79 65
53 79 65
52 78 65
52 78 64
52 77 64
51 77 63
31 47 35
31 47 35
31 47 35
31 47 35
33 53 37
33 53 37
33 53 36
33 53 36
33 53 36
33 53 36
33 53 36
33 53 36
33 53 36
33 53 36
33 53 36
31 47 34
117 200 152
117 200 152
117 200 151
45 71 57
45 71 57
45 71 57
45 71 57
45 70 57
45 70 57
45 70 57
44 70 56
44 70 56
44 70 56
31 47 35
31 47 35
34 53 37
33 53 37
33 53 37
33 53 37
33 53 37
33 53 36
33 53 36
33 53 36
33 53 36
33 53 36
33 53 36
33 53 36
32 48 37
35 55 38
32 48 37
35 55 38
32 48 37
35 55 38
35 55 38
35 55 38
35 55 38
35 55 38
35 55 38
35 55 38
34 54 37
34 54 37
34 54 37
34 54 37
34 54 37
34 54 37
32 48 36
34 54 37
34 54 37
32 48 36
32 48 36
34 54 37
32 48 36
32 48 36
32 48 36
42 68 54
42 67 54
42 67 54
42 67 54
42 67 54
42 67 54
42 67 54
42 67 54
42 67 54
41 67 54
41 67 54
33 53 37
32 52 35
32 52 35
32 52 35
33 52 35
33 53 35
33 53 36
33 53 36
33 53 36
33 53 36
33 53 36
33 53 36
33 53 36
33 53 36
32 52 35
112 195 146
112 195 146
112 195 146
40 65 51
40 65 51
40 65 51
39 65 51
39 65 51
39 65 51
39 65 51
39 65 51
39 65 51
39 65 51
103 174 139
103 174 139
103 174 139
103 174 139
103 174 139
103 174 140
111 196 145
111 196 145
25 41 28
25 41 27
110 196 144
110 196 144
110 196 144
110 196 144
110 196 144
110 196 144
110 196 145
102 174 139
111 196 145
102 175 139
103 175 139
103 175 139
111 196 145
103 175 140
111 197 145
103 175 140
111 197 145
111 197 145
111 197 145
111 197 146
103 176 140
104 176 140
112 198 146
112 198 146
112 198 146
104 176 141
104 177 141
105 177 141
105 177 142
105 177 142
105 177 142
113 199 148
106 178 142
114 200 148
114 200 148
115 200 149
115 201 149
115 201 149
115 201 150
108 180 144
108 180 145
116 202 151
117 203 151
109 181 146
110 182 146
110 182 147
110 183 147
111 183 148
111 184 148
112 184 149
120 206 155
121 207 155
122 207 156
122 208 156
123 209 157
123 209 157
116 188 153
125 210 159
117 189 154
126 212 160
127 212 161
119 191 156
120 192 157
121 193 157
129 215 164
122 194 159
131 217 165
124 196 160
133 219 167
125 198 162
126 199 163
135 221 169
128 200 165
137 223 171
138 224 172
139 225 173
131 204 168
132 205 169
141 227 175
134 206 171
135 207 172
136 208 173
137 209 174
138 210 175
139 211 175
140 212 176
149 234 183
149 235 184
142 215 179
151 237 185
144 216 181
145 217 182
154 240 188
155 241 189
155 241 190
148 220 185
157 243 191
150 222 186
150 223 187
159 245 193
152 224 189
161 246 195
161 247 195
154 226 190
162 248 196
155 227 192
155 228 192
164 250 198
164 250 198
157 229 193
165 251 199
166 251 200
166 252 200
166 252 200
166 252 200
167 252 201
159 231 195
27 47 28
27 47 28
27 47 28
27 47 28
27 47 29
27 47 29
167 252 201
159 231 196
159 231 196
28 48 30
28 48 30
28 48 30
84 149 87
158 229 195
157 229 194
157 228 194
157 228 193
156 228 193
164 248 198
27 43 30
27 43 30
27 43 30
28 44 31
30 50 32
30 50 33
85 107 97
84 106 96
83 105 96
83 105 95
149 220 186
149 220 186
148 219 185
147 218 184
147 217 183
146 217 183
153 237 187
152 236 186
151 235 186
151 235 185
150 234 184
29 45 32
29 45 32
31 51 34
32 52 34
32 52 35
71 93 84
70 92 83
70 91 82
71 97 83
70 96 82
70 96 82
69 95 81
68 94 80
65 87 78
67 93 79
66 92 78
65 91 77
65 91 77
64 90 76
61 83 74
61 82 73
62 88 74
62 87 73
61 87 73
60 86 72
60 86 72
59 85 71
56 78 69
58 84 70
58 83 69
57 83 69
57 82 68
56 82 68
56 81 68
55 81 67
55 80 67
54 80 66
54 79 66
53 79 65
53 79 65
53 78 65
52 78 64
52 77 64
51 77 63
51 77 63
51 76 63
31 47 35
34 53 37
33 53 37
33 53 37
33 53 37
31 47 35
33 53 36
33 53 36
33 53 36
33 53 36
33 53 36
33 53 36
33 53 36
33 53 36
31 47 35
31 47 34
117 200 151
117 200 151
117 200 151
45 71 57
45 71 57
45 70 57
45 70 57
44 70 56
44 70 56
44 70 56
44 70 56
44 70 56
42 63 54
34 54 37
34 53 37
34 53 37
33 53 37
33 53 37
33 53 37
33 53 37
33 53 36
33 53 36
33 53 36
33 53 36
33 53 36
35 55 38
35 55 38
35 55 38
35 55 38
35 55 38
35 55 38
35 55 38
35 55 38
35 55 38
35 55 38
35 55 38
40 62 53
40 62 53
34 54 37
34 54 37
34 54 37
34 54 37
34 54 37
34 54 37
32 48 36
34 54 37
34 54 37
34 54 37
34 54 38
34 54 38
40 61 52
42 67 54
42 67 54
42 67 54
42 67 54
42 67 54
42 67 54
42 67 54
41 67 54
39 61 52
41 67 53
41 67 53
41 67 53
41 67 53
33 52 35
33 52 35
33 53 35
33 53 36
33 53 36
33 53 36
30 46 34
30 46 34
33 53 36
33 53 36
33 53 36
33 53 36
33 53 36
32 52 35
112 195 146
112 195 146
112 195 146
112 195 146
39 65 51
39 65 51
39 65 51
39 65 51
39 65 51
39 65 51
39 65 51
103 174 139
103 174 139
103 174 139
103 174 139
103 174 139
111 195 145
103 174 139
103 174 139
111 196 145
111 196 145
26 41 28
25 41 28
102 174 139
110 196 144
110 196 144
110 196 144
102 174 139
110 196 144
102 174 139
102 174 139
102 175 139
102 175 139
103 175 139
103 175 139
103 175 139
103 175 140
103 175 140
103 175 140
103 175 140
111 197 145
111 197 145
111 197 146
112 197 146
112 197 146
112 198 146
104 176 141
104 176 141
104 176 141
112 198 147
105 177 141
105 177 142
105 177 142
105 177 142
113 199 148
106 178 142
106 178 143
114 200 148
115 200 149
115 201 149
115 201 149
115 201 150
108 180 144
116 202 150
116 202 151
109 181 146
109 181 146
110 182 146
110 182 147
110 183 147
111 183 148
111 184 148
120 206 154
112 185 149
121 207 155
122 207 156
122 208 156
123 209 157
123 209 157
124 210 158
125 211 159
125 211 159
126 212 160
118 191 155
119 192 156
120 192 157
121 193 157
121 194 158
122 195 159
123 195 160
132 218 166
133 219 167
125 198 162
134 220 168
135 221 169
136 222 170
137 223 171
138 224 172
131 203 167
140 226 174
132 205 169
133 206 170
142 228 176
135 208 172
136 208 173
137 209 174
138 210 175
147 233 181
148 234 182
149 235 183
150 236 184
142 215 179
151 237 185
144 217 181
153 239 187
146 218 183
155 241 189
156 242 190
156 242 191
157 243 191
150 222 187
151 223 187
151 224 188
160 246 194
161 247 195
161 247 195
162 248 196
163 248 197
163 249 197
164 250 198
156 228 193
165 251 199
165 251 199
157 230 194
166 252 200
166 252 200
166 252 200
167 253 201
159 231 196
159 231 196
27 47 28
27 47 28
27 47 28
27 47 29
27 47 29
27 47 29
159 231 196
159 231 196
28 48 29
28 48 30
28 48 30
28 48 30
158 230 195
158 229 195
158 229 195
157 229 194
165 250 199
164 249 199
164 249 198
156 227 192
163 248 197
27 43 31
28 44 31
30 50 33
86 107 98
85 107 97
84 106 97
84 106 96
83 105 95
150 221 187
149 220 186
148 219 185
148 219 184
147 218 184
146 217 183
145 216 182
152 237 187
152 236 186
151 235 185
28 44 32
29 45 32
29 45 32
32 51 34
32 52 35
72 94 85
71 93 84
71 92 83
70 92 82
69 91 82
68 90 81
70 96 82
69 95 81
68 94 80
68 93 80
67 93 79
66 92 78
66 91 77
65 91 77
62 84 75
61 83 74
61 82 73
60 82 73
62 87 74
61 87 73
60 86 72
60 86 72
59 85 71
59 84 71
58 84 70
58 83 70
57 83 69
57 82 69
56 82 68
53 75 66
53 75 66
55 80 67
54 80 66
54 80 66
53 79 65
53 79 65
53 78 65
52 78 64
52 78 64
51 77 63
51 77 63
51 76 63
50 76 62
48 70 61
34 54 37
34 53 37
31 47 35
33 53 37
33 53 37
33 53 36
33 53 36
33 53 36
33 53 36
33 53 36
33 53 36
31 47 35
31 47 35
33 53 36
31 47 34
31 47 34
117 200 151
117 200 151
116 199 151
45 70 57
45 70 57
44 70 56
44 70 56
44 70 56
44 70 56
44 70 56
42 63 54
42 63 54
41 63 54
34 54 37
34 53 37
34 53 37
33 53 37
33 53 37
33 53 37
33 53 37
33 53 36
33 53 36
33 53 36
35 55 38
35 55 38
35 55 38
35 55 38
35 55 38
35 55 38
35 55 38
35 55 38
35 55 38
40 62 53
40 62 53
40 62 53
40 62 53
34 54 37
34 54 37
34 54 37
34 54 37
34 54 37
34 54 37
34 54 37
34 54 37
34 54 38
34 54 38
40 61 52
39 61 52
39 61 52
39 61 52
42 67 54
42 67 54
42 67 54
42 67 54
41 67 54
41 67 54
41 67 53
41 67 53
41 67 53
41 67 53
39 61 52
39 61 52
33 53 36
33 53 36
33 53 36
30 46 34
33 53 36
33 53 36
33 53 36
30 47 34
33 53 36
31 47 34
33 53 36
33 53 36
38 60 51
33 53 36
30 46 33
112 195 146
112 195 146
112 195 146
39 65 51
39 65 51
39 65 51
39 65 51
39 65 51
103 174 139
103 174 139
103 174 139
111 195 145
103 174 139
103 174 139
103 174 139
103 174 139
103 174 139
103 174 139
103 174 139
111 196 145
26 42 28
25 41 28
25 41 27
110 196 144
110 196 144
102 174 139
102 174 139
110 196 144
102 174 139
110 196 145
102 175 139
102 175 139
103 175 139
103 175 139
103 175 139
103 175 140
103 175 140
111 197 145
103 175 140
103 175 140
111 197 145
103 176 140
103 176 140
104 176 140
104 176 141
112 198 146
112 198 146
104 176 141
104 177 141
105 177 141
105 177 142
105 177 142
113 199 147
105 178 142
106 178 142
106 178 143
106 178 143
115 200 149
115 201 149
107 179 144
115 201 150
116 202 150
108 180 145
108 181 145
109 181 146
117 203 151
110 182 146
118 204 152
119 204 153
111 183 148
111 184 148
120 206 154
121 206 155
113 185 150
122 208 156
122 208 156
123 209 157
115 188 152
124 210 158
125 211 159
117 190 154
118 190 155
119 191 155
119 192 156
120 192 157
121 193 158
122 194 158
122 195 159
123 195 160
124 196 161
133 219 167
134 220 168
134 220 169
135 221 169
136 222 170
137 223 171
138 224 172
131 203 168
140 226 174
141 227 175
133 206 170
142 228 177
135 208 172
136 209 173
145 231 179
138 210 175
139 211 176
148 234 182
141 213 178
150 236 184
143 215 179
152 238 186
144 217 181
153 239 187
154 240 188
155 241 189
156 242 190
157 243 191
149 222 186
150 222 187
151 223 188
151 224 188
152 225 189
153 225 190
162 248 196
162 248 196
163 249 197
163 249 197
164 250 198
164 250 198
165 251 199
165 251 199
157 230 194
166 252 200
158 231 195
167 253 201
159 231 196
159 231 196
167 253 201
167 253 201
27 47 28
27 47 29
27 47 29
27 47 29
27 47 29
160 231 196
28 48 29
28 48 30
28 48 30
28 48 30
28 48 30
159 230 195
166 251 200
166 251 200
165 250 200
165 250 199
165 249 199
156 228 193
164 249 198
163 248 197
163 247 197
28 44 31
89 115 100
86 108 98
85 107 97
85 106 97
84 106 96
83 105 95
150 221 187
149 220 186
149 219 185
148 219 185
147 218 184
146 217 183
146 217 182
145 216 182
144 215 181
28 44 32
29 45 32
29 45 32
29 45 33
32 52 34
73 95 86
72 94 85
71 93 84
71 93 83
70 92 82
69 91 82
71 97 83
68 90 80
69 95 81
69 94 80
68 94 80
67 93 79
66 92 78
66 92 78
63 85 75
64 90 76
61 83 74
61 83 73
60 82 73
59 81 72
59 81 71
61 86 72
60 86 72
59 85 71
59 85 71
58 84 70
58 83 70
57 83 69
57 82 69
54 76 67
53 75 66
53 75 66
52 74 65
52 74 65
54 80 66
53 79 65
53 79 65
53 78 65
52 78 64
52 78 64
51 77 63
51 77 63
51 76 63
48 70 61
48 70 61
47 69 60
47 69 60
34 53 37
31 47 35
31 47 35
33 53 37
33 53 36
33 53 36
33 53 36
33 53 36
33 53 36
31 47 35
31 47 35
33 53 36
31 47 35
31 47 35
33 53 36
79 130 86
116 199 151
116 199 151
116 199 150
44 70 56
44 70 56
44 70 56
44 70 56
42 63 54
42 63 54
41 63 54
41 63 54
41 63 54
41 63 54
34 54 37
34 53 37
33 53 37
33 53 37
33 53 37
33 53 37
33 53 37
33 53 36
32 49 37
32 49 37
35 55 38
33 49 37
35 55 38
35 55 38
40 62 53
40 62 53
40 62 53
40 62 53
40 62 53
40 62 53
40 62 53
40 62 53
34 54 37
34 54 37
34 54 37
32 48 36
32 48 36
34 54 38
34 54 38
40 61 52
39 61 52
39 61 52
39 61 52
39 61 52
39 61 52
42 67 54
42 67 54
41 67 54
41 67 54
41 67 53
41 67 53
41 67 53
41 67 53
39 61 52
39 61 52
39 61 52
39 61 52
39 61 52
33 53 36
30 46 34
33 53 36
33 53 36
33 53 36
33 53 36
33 53 36
33 53 36
33 53 36
38 60 51
38 60 51
38 60 51
38 60 51
32 52 35
112 195 146
112 195 146
112 195 146
112 195 146
39 65 51
39 65 51
111 195 145
103 174 139
103 174 139
103 174 139
103 174 139
103 174 139
103 174 139
111 195 145
103 174 139
103 174 139
103 174 139
103 174 139
103 174 139
111 196 145
111 196 145
25 41 28
25 41 28
110 196 144
110 196 144
110 196 144
102 174 139
102 174 139
102 174 139
102 174 139
102 175 139
102 175 139
102 175 139
103 175 139
103 175 139
103 175 140
103 175 140
111 197 145
103 175 140
103 175 140
103 175 140
103 176 140
103 176 140
104 176 140
104 176 141
112 198 146
104 176 141
104 176 141
104 177 141
105 177 141
105 177 142
105 177 142
105 177 142
105 178 142
106 178 142
106 178 143
106 178 143
115 200 149
115 201 149
115 201 149
115 201 150
108 180 145
108 180 145
108 181 145
109 181 146
109 182 146
110 182 146
110 182 147
111 183 147
111 183 148
111 184 148
112 184 149
112 185 149
113 185 150
122 208 156
122 208 156
115 187 152
123 209 158
124 210 158
117 189 153
117 190 154
118 190 155
119 191 155
119 192 156
128 214 162
121 193 158
130 216 164
122 195 159
123 196 160
132 218 166
125 197 162
134 220 168
135 221 169
135 221 170
128 201 165
137 223 171
138 224 172
131 203 168
132 204 169
141 227 175
134 206 170
134 207 171
135 208 172
136 209 173
145 231 179
138 211 175
139 212 176
148 234 182
149 235 183
150 236 184
151 237 185
152 238 186
144 217 181
153 239 188
154 240 188
155 241 189
148 220 185
157 243 191
149 222 186
158 244 192
151 223 188
152 224 188
160 246 194
153 225 190
154 226 190
154 227 191
163 249 197
155 228 192
164 250 198
164 250 199
165 251 199
165 251 199
166 252 200
166 252 200
166 252 201
167 253 201
159 231 196
159 232 196
159 232 196
159 232 196
160 232 196
160 232 196
27 47 29
27 47 29
27 47 29
28 48 29
28 48 29
28 48 30
28 48 30
28 48 30
28 48 30
159 230 196
158 230 195
166 251 200
166 251 200
165 250 199
157 228 194
164 249 199
164 249 198
163 248 198
163 248 197
162 247 197
162 247 196
88 114 100
88 114 99
85 107 97
84 106 96
83 105 96
150 221 187
149 220 186
149 220 186
148 219 185
147 218 184
147 217 183
146 217 183
145 216 182
28 44 31
28 44 32
29 45 32
29 45 32
29 45 33
76 102 88
73 95 86
72 94 85
72 93 84
71 93 83
70 92 83
72 97 83
69 90 81
68 90 80
67 89 80
66 88 79
68 94 80
67 93 79
67 92 78
66 92 78
63 85 75
62 84 75
61 83 74
61 83 73
60 82 73
60 81 72
59 81 72
58 80 71
58 80 70
59 85 71
59 85 71
58 84 70
58 84 70
57 83 69
54 76 67
54 76 67
53 75 66
53 75 66
52 74 65
52 74 65
52 73 64
51 73 64
53 79 65
53 78 65
52 78 64
52 78 64
51 77 63
51 77 63
48 70 61
48 70 61
48 70 61
47 69 60
47 69 60
47 69 60
34 53 37
34 53 37
33 53 37
33 53 37
33 53 37
33 53 36
31 47 35
33 53 36
31 47 35
31 47 35
31 47 35
31 47 35
31 47 35
31 47 35
31 47 34
31 47 34
79 130 86
116 199 150
116 199 150
116 199 150
44 70 56
44 70 56
42 63 54
41 63 54
41 63 54
41 63 54
41 63 54
41 63 54
41 63 54
41 63 54
34 53 37
34 53 37
33 53 37
33 53 37
33 53 37
33 53 37
33 49 37
35 55 38
35 55 38
35 55 38
40 62 53
40 62 53
40 62 53
40 62 53
40 62 53
40 62 53
40 62 53
40 62 53
40 62 53
40 62 53
34 54 37
34 54 37
34 54 37
34 54 38
34 54 38
39 61 52
39 61 52
39 61 52
39 61 52
39 61 52
39 61 52
39 61 52
39 61 52
41 67 54
41 67 54
41 67 53
41 67 53
41 67 53
41 67 53
39 61 52
39 61 52
39 61 52
39 61 52
39 61 52
39 61 51
39 61 51
33 53 36
33 53 36
33 53 36
33 53 36
33 53 36
33 53 36
33 53 36
38 60 51
38 60 51
38 60 51
38 60 51
38 60 51
38 60 51
33 53 35
29 45 33
112 195 146
112 195 146
112 195 146
112 195 146
102 174 139
102 174 139
102 174 139
102 174 139
102 174 139
102 174 139
110 195 145
110 195 145
110 195 145
102 174 139
103 174 139
103 174 139
103 174 139
103 174 139
103 174 139
103 174 139
110 196 144
110 196 144
110 196 144
110 196 144
102 174 139
102 174 139
102 174 139
102 174 139
102 174 139
102 175 139
102 175 139
102 175 139
103 175 139
111 196 145
103 175 140
103 175 140
103 175 140
103 175 140
103 175 140
111 197 145
103 176 140
103 176 140
112 197 146
104 176 141
104 176 141
104 176 141
104 176 141
104 177 141
105 177 141
105 177 142
105 177 142
105 177 142
105 178 142
114 200 148
106 178 143
106 179 143
115 200 149
107 179 144
107 179 144
107 180 144
108 180 145
108 180 145
108 181 145
109 181 146
117 203 151
110 182 146
118 204 152
119 205 153
111 183 148
111 184 148
112 184 149
113 185 149
113 185 150
114 186 150
114 187 151
123 209 157
115 188 152
124 210 158
117 189 153
117 190 154
118 190 155
119 191 155
119 192 156
128 214 162
121 193 158
122 194 158
122 195 159
123 196 160
124 196 161
133 219 167
126 198 162
135 221 169
136 222 170
136 222 170
137 223 171
138 224 172
131 203 168
140 226 174
133 205 170
134 206 170
135 207 171
135 208 172
136 209 173
137 210 174
138 211 175
139 212 176
140 213 177
141 213 178
150 236 184
151 237 185
152 238 186
153 239 187
145 218 182
154 240 188
155 241 189
148 220 185
149 221 185
149 222 186
150 223 187
151 223 188
152 224 188
161 247 195
153 226 190
154 226 191
154 227 191
163 249 197
155 228 192
164 250 198
165 251 199
165 251 199
166 252 200
166 252 200
166 252 200
158 231 195
159 231 196
167 253 201
159 232 196
159 232 196
160 232 196
160 232 197
160 232 197
160 232 197
94 120 105
91 113 103
168 253 202
160 232 197
28 48 30
28 48 30
28 48 30
28 48 30
159 230 196
159 230 195
166 251 200
158 229 195
165 250 200
165 250 199
157 228 193
156 228 193
156 227 192
163 248 197
155 226 191
162 247 196
161 246 196
88 114 99
87 113 99
84 106 96
151 222 188
150 221 187
150 221 186
149 220 186
148 219 185
147 218 184
147 218 184
146 217 183
31 50 33
28 44 32
29 45 32
29 45 32
29 45 33
77 103 89
74 96 87
73 95 86
73 94 85
72 94 84
71 93 83
70 92 83
69 91 82
69 91 81
68 90 80
67 89 80
66 88 79
66 88 78
67 93 79
67 92 78
130 201 167
129 200 166
62 84 75
62 83 74
61 83 73
60 82 73
60 81 72
59 81 72
58 80 71
58 80 70
57 79 70
59 85 71
58 84 70
58 84 70
121 192 158
54 76 67
54 76 67
53 75 66
53 75 66
52 74 65
52 74 65
52 73 64
51 73 64
51 73 63
53 78 65
52 78 64
52 78 64
51 77 63
49 71 62
48 70 61
48 70 61
48 70 61
47 69 60
47 69 60
47 69 60
47 68 59
46 68 59
34 53 37
33 53 37
33 53 37
33 53 37
33 53 36
31 47 35
31 47 35
31 47 35
31 47 35
31 47 35
31 47 35
31 47 35
31 47 35
31 47 35
31 47 34
31 47 34
79 130 86
116 199 150
116 199 150
108 178 145
42 63 54
41 63 54
41 63 54
41 63 54
41 63 54
41 63 54
41 63 54
41 63 54
41 63 54
41 63 54
34 53 37
34 53 37
33 53 37
33 53 37
33 49 37
33 49 37
40 62 53
40 62 53
40 62 53
40 62 53
40 62 53
40 62 53
40 62 53
40 62 53
40 62 53
40 62 53
40 62 53
40 62 53
40 61 53
34 54 38
40 61 52
39 61 52
39 61 52
39 61 52
39 61 52
39 61 52
39 61 52
39 61 52
39 61 52
39 61 52
39 61 52
39 61 52
41 67 53
41 67 53
41 67 53
39 61 52
39 61 52
41 67 53
39 61 52
39 61 52
39 61 51
39 60 51
39 60 51
39 60 51
39 60 51
33 53 36
31 47 34
33 53 36
33 53 36
38 60 51
38 60 51
38 60 51
38 60 51
38 60 51
38 60 51
38 60 51
38 60 51
38 60 51
30 46 33
29 45 32
112 195 146
103 174 140
103 174 140
29 49 31
102 174 139
102 174 139
102 174 139
110 195 145
110 195 145
102 174 139
110 195 145
102 174 139
102 174 139
102 174 139
102 174 139
103 174 139
103 174 139
102 174 139
110 196 144
110 196 144
110 196 144
102 174 139
110 196 144
110 196 144
102 174 139
102 174 139
102 174 139
110 196 144
102 175 139
110 196 145
102 175 139
111 196 145
103 175 139
111 197 145
103 175 140
103 175 140
111 197 145
111 197 145
111 197 145
111 197 145
103 176 140
104 176 140
104 176 140
104 176 141
104 176 141
104 176 141
112 198 147
105 177 141
113 199 147
105 177 142
113 199 147
105 178 142
106 178 142
106 178 143
106 179 143
106 179 143
115 201 149
115 201 149
107 180 144
108 180 145
116 202 150
108 181 145
109 181 146
109 182 146
110 182 146
110 183 147
111 183 147
111 183 148
112 184 148
112 184 149
113 185 149
113 186 150
114 186 150
114 187 151
115 187 152
115 188 152
116 188 153
125 211 159
117 190 154
118 190 155
119 191 156
119 192 156
120 193 157
121 193 158
122 194 158
122 195 159
131 217 165
124 197 161
125 197 162
126 198 163
127 199 163
136 222 170
136 222 171
129 202 166
130 203 167
139 225 173
132 204 169
133 205 170
134 206 170
135 207 171
136 208 172
136 209 173
137 210 174
146 232 181
147 233 181
140 213 177
141 214 178
142 214 179
151 237 185
152 238 186
153 239 187
145 218 182
154 241 189
147 220 184
148 220 185
149 221 186
150 222 186
150 223 187
151 224 188
152 224 189
152 225 189
153 226 190
154 226 191
154 227 191
155 227 192
164 250 198
164 250 198
165 251 199
165 251 199
166 252 200
166 252 200
158 231 195
159 231 195
159 231 196
159 232 196
159 232 196
160 232 196
160 232 197
160 232 197
160 232 197
160 232 197
160 232 197
91 113 103
160 232 197
160 232 197
160 232 197
28 48 30
28 48 30
29 49 30
167 252 201
159 230 196
158 230 195
158 230 195
166 251 200
165 250 199
165 250 199
164 249 198
156 227 193
163 248 197
163 248 197
154 226 191
154 225 190
161 246 195
160 245 194
160 244 194
151 222 188
150 222 187
150 221 187
149 220 186
148 219 185
148 219 184
147 218 184
30 50 33
31 51 33
29 45 32
29 45 32
29 45 32
78 104 90
77 103 89
77 102 88
73 95 86
73 94 85
72 94 84
71 93 84
137 208 174
136 207 173
135 206 172
68 90 81
67 89 80
67 88 79
66 88 78
65 87 78
32 52 35
130 201 167
130 200 167
129 199 166
64 90 76
61 83 74
60 82 73
126 197 163
61 87 73
58 80 71
58 80 70
57 79 70
57 79 69
56 78 69
122 192 159
121 192 158
121 191 158
54 76 67
53 75 66
53 75 66
53 74 65
52 74 65
52 73 64
51 73 64
51 73 63
50 72 63
50 72 63
52 78 64
52 77 63
115 185 152
48 70 61
48 70 61
48 70 61
47 69 60
47 69 60
47 69 60
47 68 59
46 68 59
46 68 59
46 68 59
34 53 37
33 53 37
33 53 37
31 47 35
31 47 35
31 47 35
31 47 35
33 53 36
31 47 35
31 47 35
31 47 35
31 47 35
31 47 35
31 47 35
31 47 34
31 47 34
108 178 145
108 178 145
108 178 145
108 178 144
41 63 54
41 63 54
41 63 54
41 63 54
41 63 54
41 63 54
41 63 54
41 63 54
41 63 54
41 63 54
34 53 37
86 150 91
42 68 55
42 68 55
40 62 53
40 62 53
40 62 53
40 62 53
40 62 53
40 62 53
40 62 53
40 62 53
40 62 53
40 62 53
40 61 53
40 61 53
42 68 54
39 61 52
39 61 52
39 61 52
39 61 52
39 61 52
39 61 52
105 175 142
39 61 52
39 61 52
39 61 52
39 61 52
39 61 52
39 61 52
41 67 53
39 61 52
39 61 52
39 61 52
39 61 52
39 61 52
39 61 51
41 67 53
39 60 51
39 60 51
39 60 51
38 60 51
38 60 51
33 53 36
33 53 36
38 60 51
38 60 51
38 60 51
38 60 51
38 60 51
38 60 51
38 60 51
38 60 51
38 60 51
38 60 51
38 60 51
32 52 35
29 45 33
112 195 146
104 174 141
111 195 145
111 195 145
102 174 139
102 174 139
102 174 139
102 174 139
102 174 139
102 174 139
102 174 139
102 174 139
102 174 139
110 196 145
102 174 139
102 174 139
102 174 139
102 174 139
102 174 139
110 196 144
110 196 144
110 196 144
110 196 144
110 196 144
110 196 144
102 174 139
102 174 139
102 174 139
102 175 139
102 175 139
111 196 145
103 175 139
111 196 145
111 197 145
111 197 145
111 197 145
111 197 145
103 175 140
111 197 145
103 176 140
112 197 146
112 197 146
104 176 140
104 176 141
104 176 141
112 198 146
104 177 141
113 199 147
105 177 142
105 177 142
105 178 142
105 178 142
106 178 142
106 178 143
114 200 148
106 179 143
115 201 149
115 201 149
107 180 144
108 180 145
108 181 145
108 181 145
109 181 146
117 203 151
118 204 152
110 183 147
119 205 153
111 183 148
112 184 148
112 184 149
113 185 149
113 186 150
114 186 150
122 208 156
115 187 152
115 188 152
124 210 158
125 211 159
126 212 160
126 212 160
127 213 161
128 214 162
120 193 157
121 193 158
122 194 159
123 195 159
123 196 160
124 197 161
125 197 162
126 198 163
127 199 163
136 222 170
128 201 165
129 202 166
130 203 167
131 204 168
132 204 169
133 205 170
142 228 176
135 207 171
136 208 172
137 209 173
146 232 180
138 211 175
139 212 176
148 234 182
141 214 178
142 215 179
143 215 180
144 216 181
145 217 181
146 218 182
146 219 183
147 220 184
148 221 185
149 221 186
150 222 186
150 223 187
151 224 188
152 224 189
153 225 189
153 226 190
154 226 191
154 227 191
155 228 192
156 228 192
164 250 198
157 229 193
157 230 194
166 252 200
166 252 200
166 252 201
159 231 195
167 253 201
159 232 196
168 254 202
160 232 196
160 232 197
160 232 197
160 232 197
160 232 197
168 254 202
160 232 197
168 254 202
160 232 197
160 232 197
160 232 197
29 48 30
91 113 103
159 231 196
167 252 201
166 251 201
158 230 195
166 251 200
165 250 200
165 250 199
164 249 199
164 249 198
163 248 198
163 248 197
162 247 196
162 246 196
153 225 190
152 224 189
160 244 194
159 244 193
159 243 193
150 221 187
149 220 186
148 220 185
148 219 185
30 50 33
31 51 33
31 51 33
29 45 32
29 45 32
79 105 91
76 98 88
77 103 89
77 102 88
76 102 88
75 101 87
72 94 84
138 208 175
137 208 174
136 207 173
136 206 173
135 205 172
67 89 80
69 95 81
66 88 78
32 52 35
32 52 35
32 52 35
32 52 35
129 199 166
128 199 165
128 198 165
127 197 164
126 197 163
126 196 163
59 80 71
58 80 70
57 79 70
57 79 69
32 52 35
33 52 35
32 52 35
121 191 158
128 211 163
120 190 157
53 75 66
119 189 156
118 189 155
52 73 64
51 73 64
51 73 63
50 72 63
50 72 63
50 71 62
123 206 157
115 185 152
122 205 157
114 184 151
48 70 61
47 69 60
47 69 60
47 69 60
47 68 59
46 68 59
46 68 59
46 68 59
46 67 58
45 67 58
31 47 35
31 47 35
31 47 35
31 47 35
31 47 35
31 47 35
31 47 35
31 47 35
31 47 35
31 47 35
31 47 35
31 47 35
31 47 35
31 47 34
116 199 150
116 199 150
108 178 145
108 178 144
107 177 144
107 177 144
41 63 54
41 63 54
41 63 54
41 63 54
41 63 54
41 63 54
41 63 54
41 63 53
41 62 53
33 52 35
42 68 55
42 68 55
40 62 53
40 62 53
40 62 53
105 175 142
40 62 53
40 62 53
40 62 53
40 62 53
40 61 53
40 61 53
42 68 54
42 67 54
42 67 54
42 67 54
39 61 52
39 61 52
39 61 52
105 175 142
105 175 142
105 175 142
39 61 52
39 61 52
39 61 52
39 61 52
39 61 52
34 54 37
34 54 37
39 61 52
39 61 52
39 61 51
39 61 51
39 60 51
39 60 51
39 60 51
39 60 51
38 60 51
38 60 51
38 60 51
38 60 51
38 60 51
38 60 51
38 60 51
38 60 51
38 60 51
38 60 51
38 60 51
38 60 51
38 60 51
38 60 51
38 60 51
38 60 51
38 60 51
38 60 51
112 195 146
112 195 146
104 174 141
30 50 32
103 174 140
29 49 31
102 174 139
102 174 139
102 174 139
102 174 139
102 174 139
102 174 139
102 174 139
102 174 139
110 195 144
110 196 144
110 196 144
110 196 144
110 196 144
110 196 144
110 196 144
110 196 144
110 196 144
110 196 144
110 196 144
110 196 144
102 174 139
102 174 139
102 174 139
102 175 139
110 196 145
102 175 139
102 175 139
111 196 145
111 197 145
103 175 140
111 197 145
111 197 145
111 197 145
111 197 145
111 197 145
112 197 146
112 197 146
104 176 140
104 176 141
104 176 141
104 177 141
104 177 141
105 177 141
105 177 142
105 177 142
105 178 142
114 199 148
114 200 148
114 200 148
114 200 148
115 201 149
115 201 149
115 201 149
107 180 144
116 202 150
108 181 145
108 181 145
109 181 146
109 182 146
110 182 146
118 204 152
111 183 147
111 184 148
112 184 148
112 185 149
121 207 155
113 186 150
122 208 156
122 208 156
115 187 152
124 210 158
116 189 153
117 189 154
126 212 160
118 191 155
119 191 156
128 214 162
128 214 162
121 193 158
122 194 159
123 195 159
123 196 160
132 218 166
125 197 162
126 198 163
127 199 163
136 222 170
137 223 171
129 202 166
130 203 167
131 204 168
132 204 169
133 205 170
142 228 176
135 207 171
136 208 172
145 231 179
137 210 174
147 233 181
147 234 182
140 213 177
149 235 183
142 215 179
143 215 180
144 216 181
153 239 187
146 218 182
146 219 183
155 241 189
148 221 185
149 221 186
150 222 186
159 245 193
151 224 188
152 224 189
161 247 195
153 226 190
154 226 191
155 227 191
155 228 192
164 250 198
164 250 198
157 229 193
165 251 199
166 252 200
158 230 195
158 231 195
159 231 195
167 253 201
159 232 196
159 232 196
168 254 202
160 232 197
160 232 197
160 233 197
168 254 202
160 233 197
160 233 197
168 254 202
160 232 197
160 232 197
160 232 197
160 232 196
159 231 196
159 231 196
159 231 196
159 230 195
166 251 200
158 229 195
165 250 200
165 250 199
164 249 199
164 249 198
163 248 198
155 226 192
162 247 197
162 247 196
153 225 190
26 42 29
160 244 194
159 244 194
159 243 193
158 242 192
149 220 186
85 149 89
30 50 33
30 50 33
31 51 33
31 51 33
29 45 32
80 106 91
79 105 91
78 104 90
77 103 89
77 102 88
76 102 88
75 101 87
147 230 181
138 209 175
137 208 174
136 207 173
136 206 173
135 206 172
134 205 171
133 204 170
32 52 35
30 46 34
32 52 35
32 52 35
32 52 35
32 52 35
128 199 165
128 198 165
127 197 164
126 197 163
126 196 163
125 195 162
124 195 161
57 79 70
86 150 91
33 53 36
33 53 36
33 52 35
32 52 35
120 191 157
120 190 157
119 190 156
119 189 156
118 189 155
118 188 155
118 188 154
51 73 63
50 72 63
50 72 63
124 207 158
123 206 158
123 206 157
122 205 157
114 184 151
114 184 151
114 184 151
47 69 60
47 69 60
47 68 59
46 68 59
46 68 59
46 68 59
46 67 58
45 67 58
47 73 59
47 73 59
31 47 35
31 47 35
31 47 35
31 47 35
31 47 35
31 47 35
31 47 35
31 47 35
31 47 35
31 47 35
31 47 35
116 199 150
116 199 150
116 199 150
115 199 150
115 198 150
107 178 144
107 177 144
107 177 144
107 177 144
41 63 54
41 63 54
41 63 54
41 63 53
41 62 53
41 62 53
86 150 91
30 46 34
40 62 53
42 68 55
113 195 147
105 175 142
105 175 142
105 175 142
40 62 53
40 61 53
40 61 53
42 68 54
42 68 54
39 61 52
42 67 54
42 67 54
42 67 54
42 67 54
39 61 52
105 175 142
105 175 142
105 175 142
105 175 142
105 175 142
105 175 142
39 61 52
39 61 52
34 54 37
34 54 37
34 54 37
34 54 37
39 61 51
39 61 51
39 60 51
105 175 142
41 67 53
39 60 51
38 60 51
38 60 51
41 66 53
38 60 51
41 66 53
41 66 53
41 66 52
38 60 51
38 60 51
38 60 51
38 60 51
38 60 51
38 60 51
38 60 51
38 60 51
38 60 51
38 60 51
38 60 50
112 195 146
112 195 146
111 195 146
111 195 146
104 174 141
30 50 33
103 174 140
29 49 31
102 174 139
102 174 139
110 195 145
102 174 139
102 174 139
102 174 139
110 195 144
110 195 144
110 195 144
110 196 144
102 174 139
102 174 139
102 174 139
110 196 144
110 196 144
110 196 144
110 196 144
110 196 144
102 174 139
110 196 144
102 174 139
102 174 139
102 174 139
102 175 139
102 175 139
102 175 139
111 196 145
111 196 145
111 197 145
111 197 145
103 175 140
103 175 140
111 197 145
111 197 145
111 197 145
103 176 140
112 198 146
112 198 146
104 176 141
104 176 141
104 177 141
104 177 141
105 177 141
105 177 142
113 199 147
113 199 147
114 199 148
114 200 148
114 200 148
114 200 148
115 201 149
115 201 149
115 201 149
116 202 150
116 202 150
108 181 145
117 203 151
109 181 146
109 182 146
110 182 147
110 183 147
111 183 147
119 205 153
112 184 148
112 185 149
113 185 149
113 186 150
122 208 156
122 208 156
115 187 152
115 188 152
124 210 158
125 211 159
117 190 154
118 191 155
119 191 156
128 214 162
120 193 157
121 194 158
122 194 159
123 195 159
123 196 160
124 197 161
133 219 167
134 220 168
135 221 169
136 222 170
137 223 171
137 224 171
130 203 167
131 204 168
132 204 169
133 205 170
134 206 171
135 207 171
136 208 172
137 209 173
146 232 180
138 211 175
139 212 176
148 234 182
141 214 178
150 236 184
151 237 185
152 238 186
153 239 187
154 240 188
146 219 183
147 220 184
148 221 185
149 221 186
150 222 186
150 223 187
151 224 188
152 224 189
153 225 189
153 226 190
154 226 191
155 227 191
155 228 192
164 250 198
164 250 198
157 229 193
165 251 199
158 230 194
166 252 200
158 231 195
167 253 201
167 253 201
159 232 196
160 232 196
168 254 202
168 254 202
160 232 197
160 233 197
168 254 202
160 233 197
160 233 197
160 232 197
160 232 197
160 232 197
168 253 202
168 253 202
159 231 196
167 253 201
167 252 201
159 230 195
158 230 195
166 251 200
157 229 194
157 229 194
165 250 199
164 249 198
164 248 198
155 227 192
162 247 197
162 247 196
26 42 29
27 42 29
160 244 194
159 244 194
159 243 193
158 242 192
77 128 83
30 50 32
30 50 33
31 51 33
31 51 33
29 45 32
81 106 92
80 106 91
79 105 91
78 104 90
78 103 89
77 103 88
74 95 86
148 231 182
147 230 181
138 209 175
145 229 180
137 207 173
136 206 173
135 206 172
134 205 171
32 52 35
32 52 35
32 52 35
32 52 35
32 52 35
32 52 35
32 52 35
32 52 35
30 46 33
127 198 164
126 197 163
126 196 163
125 196 162
125 195 161
124 194 161
32 52 35
33 53 36
33 53 36
33 53 36
33 52 35
32 52 35
32 52 35
119 190 156
119 189 156
118 189 155
118 188 155
118 188 154
117 187 154
117 187 154
124 207 158
124 207 158
123 206 158
123 206 157
122 206 157
122 205 156
114 184 151
114 184 151
121 204 155
113 183 150
47 68 59
46 68 59
46 68 59
46 68 59
46 67 58
48 73 60
47 73 59
47 73 59
47 73 59
47 72 59
31 47 35
31 47 35
31 47 35
31 47 35
31 47 35
31 47 35
31 47 35
31 47 35
116 199 150
116 199 150
116 199 150
116 199 150
115 199 150
115 198 150
115 198 149
115 198 149
107 177 144
107 177 144
107 177 144
107 177 144
41 63 53
41 62 53
41 62 53
41 62 53
33 53 36
33 53 36
113 195 147
113 195 147
113 195 147
105 175 142
105 175 142
105 175 142
40 61 53
40 61 53
42 68 54
42 67 54
42 67 54
42 67 54
42 67 54
42 67 54
42 67 54
113 195 147
105 175 142
105 175 142
105 175 142
105 175 142
105 175 142
105 175 142
87 151 92
34 54 37
34 54 37
31 47 35
34 54 37
34 54 37
34 54 37
34 54 37
105 175 142
105 175 142
105 175 142
38 60 51
38 60 51
38 60 51
38 60 51
41 66 53
41 66 53
41 66 52
41 66 52
40 66 52
40 66 52
38 60 51
38 60 51
112 195 146
38 60 51
38 60 51
38 60 51
38 60 51
38 60 50
111 195 146
111 195 146
111 195 146
111 195 146
111 195 146
111 195 146
111 195 146
104 174 140
30 50 32
111 195 145
29 49 31
102 174 139
102 174 139
102 174 139
102 174 139
110 195 144
110 195 144
102 174 139
110 195 144
110 196 144
110 196 144
110 196 144
110 196 144
110 196 144
110 196 144
110 196 144
110 196 144
110 196 144
110 196 144
110 196 144
110 196 144
102 174 139
102 174 139
110 196 144
110 196 145
110 196 145
111 196 145
103 175 139
111 197 145
111 197 145
111 197 145
111 197 145
111 197 145
111 197 145
103 176 140
111 197 146
112 198 146
112 198 146
104 176 141
104 176 141
104 177 141
104 177 141
105 177 141
113 199 147
113 199 147
113 199 147
114 199 148
114 200 148
114 200 148
106 179 143
115 201 149
107 179 144
115 201 149
116 202 150
116 202 150
116 202 150
108 181 145
109 181 146
117 203 152
118 204 152
110 183 147
111 183 147
119 205 153
120 206 154
120 206 154
121 207 155
121 207 155
122 208 156
122 209 156
123 209 157
124 210 158
124 210 158
125 211 159
117 190 154
118 191 155
119 191 156
120 192 156
128 215 162
121 194 158
122 194 159
123 195 159
123 196 160
132 218 166
133 219 167
134 220 168
127 199 163
128 200 164
137 223 171
137 224 171
130 203 167
131 204 168
132 205 169
133 205 170
142 228 176
135 207 171
144 230 178
137 209 173
137 210 174
147 233 181
147 234 182
140 213 177
149 235 183
142 215 179
151 237 185
144 216 181
153 239 187
154 240 188
146 219 183
155 241 189
148 221 185
149 221 186
158 244 192
159 245 193
151 224 188
152 224 189
153 225 189
153 226 190
154 226 191
154 227 191
155 228 192
156 228 192
164 250 198
165 251 199
165 251 199
166 252 200
158 231 195
158 231 195
159 231 195
159 232 196
159 232 196
159 232 196
160 232 196
160 232 197
160 232 197
160 233 197
160 233 197
160 233 197
160 233 197
168 254 202
168 254 202
26 46 27
160 232 197
160 232 196
159 231 196
159 231 196
159 231 196
167 252 201
166 251 200
158 230 195
165 250 200
165 250 199
165 250 199
156 228 193
164 249 198
155 227 192
162 247 197
26 42 29
26 42 29
27 43 30
160 245 194
159 244 194
159 243 193
77 128 83
28 44 31
30 50 33
31 50 33
31 51 33
31 51 34
81 107 93
81 106 92
80 106 91
79 105 91
78 104 90
78 103 89
77 103 88
74 96 86
148 231 182
147 231 181
138 209 175
145 229 180
145 228 179
136 207 173
135 206 172
32 52 34
32 52 35
32 52 35
32 52 35
32 52 35
32 52 35
32 52 35
32 52 35
32 52 35
32 52 35
30 46 33
86 150 90
126 196 163
125 196 162
125 195 162
32 52 35
33 53 36
33 53 36
33 53 36
33 53 36
33 53 36
33 53 35
33 52 35
32 52 35
32 52 35
119 189 155
118 188 155
118 188 155
117 187 154
125 208 159
124 207 158
124 207 158
123 206 158
123 206 157
123 206 157
122 205 156
122 205 156
121 205 156
113 183 150
113 183 150
113 183 150
112 182 149
46 68 59
46 68 59
48 74 60
48 73 60
47 73 59
47 73 59
47 73 59
47 72 59
47 72 59
31 47 35
31 47 35
31 47 35
31 47 35
31 47 35
31 47 35
33 53 36
116 199 150
116 199 150
116 199 150
116 199 150
115 199 150
115 198 150
115 198 149
115 198 149
115 198 149
115 198 149
107 177 144
107 177 144
107 177 144
107 177 144
41 62 53
86 150 91
33 53 36
33 53 36
113 195 147
113 195 147
113 195 147
105 175 142
105 175 142
105 175 142
113 195 147
42 67 54
42 67 54
42 67 54
42 67 54
42 67 54
42 67 54
113 195 147
113 195 147
113 195 147
113 195 147
105 175 142
105 175 142
105 175 142
79 130 87
31 47 35
34 54 37
31 47 35
34 54 37
34 54 37
34 54 37
34 54 37
32 48 36
34 54 37
105 175 142
105 175 142
105 175 141
38 60 51
38 60 51
41 66 53
41 66 53
41 66 52
41 66 52
40 66 52
40 66 52
40 66 52
40 66 52
104 175 141
104 175 141
112 195 146
104 175 141
38 60 50
38 60 50
111 195 146
111 195 146
111 195 146
111 195 146
111 195 146
111 195 146
111 195 146
111 195 146
111 195 146
104 174 140
30 50 32
111 195 145
29 49 31
28 48 30
102 174 139
110 195 144
110 195 144
110 195 144
110 195 144
110 195 144
110 195 144
110 196 144
110 196 144
110 196 144
110 196 144
110 196 144
102 174 139
110 196 144
110 196 144
102 174 139
110 196 144
110 196 144
110 196 144
110 196 144
110 196 144
110 196 144
110 196 144
110 196 145
111 196 145
111 196 145
111 197 145
111 197 145
111 197 145
111 197 145
103 175 140
111 197 145
103 176 140
111 197 146
112 198 146
112 198 146
112 198 146
112 198 146
104 177 141
112 198 147
113 199 147
113 199 147
113 199 147
113 199 147
114 200 148
106 178 142
114 200 148
114 200 148
106 179 143
115 201 149
115 201 149
116 202 150
116 202 150
108 181 145
108 181 145
117 203 151
109 182 146
118 204 152
110 183 147
119 205 153
119 205 153
120 206 154
120 206 154
121 207 155
121 207 155
122 208 156
122 209 156
123 209 157
124 210 158
116 189 153
125 211 159
126 212 160
118 191 155
119 191 156
128 214 162
120 193 157
121 194 158
122 194 159
131 217 165
131 218 166
132 218 166
125 198 162
134 220 168
135 221 169
136 222 170
137 223 171
137 224 171
138 224 172
139 225 173
140 226 174
133 205 170
134 206 171
143 229 177
144 230 178
136 209 173
137 210 174
138 211 175
139 212 176
148 234 182
149 235 183
150 236 184
143 215 180
152 238 186
153 239 187
154 240 188
154 241 189
155 241 189
148 221 185
149 221 186
150 222 186
150 223 187
151 224 188
160 246 194
152 225 189
153 226 190
154 226 191
154 227 191
163 249 197
164 250 198
164 250 198
165 251 199
165 251 199
166 252 200
166 252 200
166 253 201
159 231 195
159 231 196
159 232 196
159 232 196
160 232 196
160 232 197
160 232 197
160 233 197
160 233 197
160 233 197
160 233 197
82 148 85
26 46 27
26 46 28
160 232 197
160 232 196
159 231 196
159 231 196
167 252 201
158 231 195
158 230 195
166 251 200
157 229 194
157 229 194
165 250 199
164 249 198
156 227 192
163 248 197
26 42 29
26 42 29
27 43 29
27 43 30
160 245 194
159 244 194
27 43 30
28 44 31
30 50 33
30 50 33
31 51 33
31 51 33
80 102 92
79 101 91
81 106 92
78 99 90
79 105 91
78 104 90
78 103 89
77 103 88
148 232 183
148 231 182
147 231 181
146 230 180
145 229 180
145 228 179
144 228 178
32 52 34
32 52 35
32 52 35
32 52 35
32 52 35
32 52 35
32 52 35
32 52 35
32 52 35
32 52 35
32 52 35
32 52 35
32 52 35
32 52 35
125 196 162
32 52 35
33 52 35
33 53 36
33 53 36
33 53 36
33 53 36
33 53 36
33 53 36
33 53 36
33 52 35
32 52 35
32 52 35
86 150 91
118 188 155
117 187 154
125 208 159
124 207 158
124 207 158
123 207 158
123 206 157
123 206 157
122 205 157
122 205 156
121 205 156
121 204 155
121 204 155
113 183 150
112 183 149
112 182 149
46 68 58
48 74 60
48 73 60
47 73 59
47 73 59
47 73 59
47 72 59
47 72 59
46 72 58
46 72 58
31 47 35
31 47 35
31 47 35
31 47 35
116 199 150
116 199 150
116 199 150
116 199 150
116 199 150
115 199 150
115 198 150
115 198 149
115 198 149
115 198 149
115 198 149
115 198 149
115 198 149
107 177 144
107 177 144
107 177 144
30 47 34
33 53 36
33 53 36
113 195 147
113 195 147
113 195 147
32 48 36
113 195 147
113 195 147
113 195 147
42 67 54
42 67 54
39 61 52
42 67 54
113 195 147
113 195 147
113 195 147
113 195 147
113 195 147
113 195 147
105 175 142
87 151 92
34 54 37
34 54 37
34 54 37
34 54 37
34 54 37
34 54 37
31 48 35
34 54 37
34 54 37
34 54 37
34 54 37
105 175 141
105 175 141
105 175 141
112 195 147
41 66 53
41 66 52
41 66 52
40 66 52
40 66 52
40 66 52
38 60 51
112 195 146
112 195 146
112 195 146
104 175 141
104 175 141
104 175 141
111 195 146
111 195 146
111 195 146
111 195 146
111 195 146
111 195 146
111 195 146
111 195 146
111 195 146
111 195 146
111 195 146
111 195 146
30 50 33
30 50 32
29 49 31
102 174 139
110 195 144
110 195 144
25 41 27
110 195 144
102 174 138
102 174 138
110 195 144
102 174 139
110 196 144
110 196 144
110 196 144
110 196 144
110 196 144
110 196 144
110 196 144
110 196 144
110 196 144
110 196 144
102 174 139
102 174 139
110 196 144
110 196 144
110 196 144
110 196 145
111 196 145
111 196 145
103 175 139
111 197 145
111 197 145
103 175 140
111 197 145
103 175 140
111 197 145
111 197 146
112 198 146
112 198 146
112 198 146
112 198 146
112 198 146
112 198 147
113 199 147
105 177 141
113 199 147
113 199 147
114 200 148
114 200 148
114 200 148
114 200 148
115 201 149
115 201 149
115 201 149
116 202 150
116 202 150
116 202 150
117 203 151
109 181 146
109 182 146
118 204 152
118 204 152
119 205 153
119 205 153
120 206 154
112 185 149
121 207 155
121 207 155
122 208 156
122 209 156
123 209 157
115 188 152
124 210 158
125 211 159
126 212 160
126 212 160
119 191 156
120 192 156
128 215 162
121 194 158
130 216 164
131 217 165
131 218 166
132 218 166
133 219 167
134 220 168
135 221 169
127 200 164
136 223 171
137 224 171
130 203 167
139 225 173
132 204 169
141 227 175
142 228 176
135 207 171
136 208 172
145 231 179
137 210 174
138 211 175
139 212 176
148 234 182
141 214 178
150 236 184
151 237 185
144 216 180
153 239 187
145 218 182
154 241 188
147 220 184
156 242 190
149 221 185
158 244 192
150 223 187
151 224 188
152 224 188
152 225 189
161 247 195
154 226 190
162 249 197
163 249 197
155 228 192
164 250 198
165 251 199
165 251 199
166 252 200
166 252 200
166 252 200
159 231 195
159 231 196
159 232 196
159 232 196
160 232 196
160 232 196
160 232 197
160 232 197
160 233 197
160 233 197
26 46 27
26 46 27
26 46 28
82 148 85
168 253 202
160 232 196
159 231 196
159 231 196
159 231 196
27 47 29
158 230 195
166 251 200
165 251 200
157 229 194
157 228 193
164 249 198
164 249 198
26 42 29
26 42 29
27 42 29
27 43 30
161 245 195
160 245 194
27 43 30
28 44 31
28 44 31
30 50 33
31 50 33
31 51 33
80 102 93
80 102 92
79 101 91
78 100 91
78 99 90
79 105 91
78 104 90
78 103 89
149 233 184
149 232 183
148 232 182
147 231 181
146 230 180
145 229 180
145 228 179
29 45 33
32 52 34
32 52 35
32 52 35
30 46 34
33 52 35
32 52 35
32 52 35
32 52 35
32 52 35
32 52 35
32 52 35
32 52 35
32 52 35
32 52 35
32 52 35
32 52 35
33 53 36
33 53 36
33 53 36
33 53 36
33 53 36
30 46 34
33 53 36
33 53 36
33 53 36
33 52 35
32 52 35
32 52 35
32 52 35
125 208 159
125 208 159
124 207 158
124 207 158
123 207 158
123 206 157
123 206 157
114 185 151
122 205 156
121 205 156
121 204 156
121 204 155
121 204 155
120 203 155
112 182 149
120 203 154
119 202 154
48 73 59
47 73 59
47 73 59
47 73 59
47 72 59
46 72 58
44 66 57
46 72 58
46 72 58
46 71 58
31 47 35
31 47 35
78 129 85
116 199 150
116 199 150
116 199 150
115 199 150
115 199 150
115 198 150
115 198 149
115 198 149
115 198 149
115 198 149
115 198 149
115 198 149
115 198 149
114 198 149
87 150 91
33 53 36
33 53 36
33 53 36
113 195 147
80 130 87
32 48 36
32 48 36
113 195 147
113 195 147
113 195 147
42 67 54
42 67 54
113 195 147
113 195 147
113 195 147
113 195 147
113 195 147
113 195 147
113 195 147
87 151 92
34 54 37
31 47 35
34 54 37
31 47 35
34 54 37
34 54 37
34 54 37
32 48 36
34 54 37
34 54 37
34 54 37
34 54 37
34 54 37
34 54 37
112 195 147
112 195 147
112 195 147
41 66 52
40 66 52
40 66 52
40 66 52
40 66 52
112 195 146
112 195 146
112 195 146
112 195 146
112 195 146
104 175 141
111 195 146
111 195 146
111 195 146
111 195 146
111 195 146
111 195 146
111 195 146
111 195 146
111 195 146
111 195 146
111 195 146
111 195 146
111 195 146
111 195 146
111 195 146
102 174 139
102 174 139
110 195 144
110 195 144
110 195 144
110 195 144
110 195 144
110 195 144
110 195 144
110 195 144
110 196 144
102 174 139
110 196 144
110 196 144
110 196 144
110 196 144
102 174 139
110 196 144
110 196 144
110 196 144
102 174 139
102 174 139
102 174 139
102 174 139
102 175 139
102 175 139
110 196 145
111 196 145
111 196 145
111 197 145
111 197 145
103 175 140
111 197 145
111 197 145
111 197 145
103 176 140
111 197 146
112 198 146
112 198 146
104 176 141
104 176 141
104 177 141
112 198 146
104 177 141
113 199 147
113 199 147
113 199 147
114 200 148
114 200 148
106 178 143
114 200 148
115 201 149
115 201 149
115 201 149
116 202 150
116 202 150
116 202 150
108 181 145
109 181 146
117 204 151
110 182 146
118 204 152
119 205 153
119 205 153
112 184 148
120 206 154
121 207 155
121 207 155
122 208 156
122 209 156
123 209 157
115 188 152
124 210 158
125 211 159
126 212 160
118 191 155
127 213 161
128 214 162
128 215 162
129 215 163
122 194 158
131 217 165
131 218 166
132 218 166
133 219 167
126 198 163
135 221 169
136 222 170
128 201 165
137 224 171
138 224 172
139 225 173
140 226 174
133 205 170
142 228 176
135 207 171
144 230 178
136 209 173
145 232 180
146 233 180
139 212 176
148 234 182
149 235 183
142 214 179
151 237 185
152 238 186
144 217 181
153 240 188
154 241 188
155 241 189
156 242 190
149 221 185
149 222 186
150 223 187
159 245 193
160 246 194
152 225 189
153 226 190
162 248 196
154 227 191
163 249 197
164 250 198
156 228 193
165 251 199
165 251 199
165 252 200
166 252 200
166 252 200
158 231 195
167 253 201
159 232 196
159 232 196
159 232 196
160 232 196
160 232 197
168 254 202
160 232 197
26 46 27
26 46 27
26 46 27
26 46 28
160 232 197
160 232 196
159 232 196
167 253 201
159 231 196
27 47 29
27 47 29
158 230 195
166 251 200
165 250 200
165 250 199
164 250 199
156 228 193
163 249 198
26 42 29
26 42 29
27 43 29
27 43 30
161 245 195
27 43 30
27 43 30
28 44 31
28 44 31
30 50 33
31 51 33
81 103 93
80 102 93
80 102 92
79 101 91
78 100 91
77 99 90
77 99 89
78 104 90
150 234 184
149 233 184
149 232 183
148 232 182
147 231 181
146 230 180
145 229 180
29 45 32
29 45 33
32 52 35
32 52 35
33 52 35
67 89 80
66 88 79
33 52 35
30 46 34
30 46 34
32 52 35
32 52 35
32 52 35
32 52 35
32 52 35
32 52 35
32 52 35
33 52 35
33 53 36
33 53 36
33 53 36
33 53 36
33 53 36
33 53 36
33 53 36
33 53 36
33 53 36
33 53 36
33 52 35
32 52 35
32 52 35
30 46 34
30 46 34
124 208 159
124 207 158
123 207 158
123 206 157
123 206 157
122 205 157
122 205 156
122 205 156
121 204 156
121 204 155
121 204 155
120 203 155
112 182 149
120 203 154
119 202 154
119 202 153
119 202 153
47 73 59
47 73 59
47 72 59
46 72 58
46 72 58
46 72 58
46 72 58
46 71 58
46 71 58
30 46 34
30 46 34
30 46 34
78 129 85
116 199 150
115 199 150
115 199 150
115 199 150
115 198 149
115 198 149
115 198 149
115 198 149
115 198 149
115 198 149
115 198 149
114 198 149
107 177 143
40 62 53
33 53 36
33 53 36
32 48 36
32 48 36
32 48 36
32 48 36
113 195 147
113 195 147
113 195 147
113 195 147
113 195 147
113 195 147
113 195 147
113 195 147
113 195 147
105 175 142
34 54 37
31 47 35
31 47 35
31 47 35
34 54 37
34 54 37
34 54 37
34 54 37
34 54 37
34 54 37
34 54 37
34 54 37
34 54 37
34 54 37
34 54 37
34 54 37
34 54 37
112 195 147
112 195 147
112 195 147
112 195 146
40 66 52
40 66 52
112 195 146
112 195 146
112 195 146
112 195 146
112 195 146
112 195 146
112 195 146
104 175 141
112 195 146
111 195 146
111 195 146
111 195 146
111 195 146
111 195 146
111 195 146
111 195 146
111 195 146
111 195 146
111 195 146
111 195 146
111 195 146
102 174 139
102 174 139
102 174 139
102 174 139
102 174 139
102 174 139
110 195 144
110 195 144
25 40 27
110 195 144
110 195 144
110 195 144
110 196 144
110 196 144
110 196 144
110 196 144
102 174 139
110 196 144
110 196 144
110 196 144
102 174 139
102 174 139
110 196 144
102 174 139
102 174 139
110 196 144
102 175 139
102 175 139
110 196 145
102 175 139
102 175 139
111 197 145
111 197 145
111 197 145
111 197 145
111 197 145
103 175 140
111 197 145
103 176 140
103 176 140
112 198 146
112 198 146
112 198 146
104 177 141
104 177 141
113 199 147
113 199 147
113 199 147
113 199 147
113 200 148
114 200 148
114 200 148
114 200 148
115 201 149
115 201 149
107 180 144
116 202 150
108 180 145
116 202 150
117 203 151
109 181 146
109 182 146
118 204 152
118 204 152
119 205 153
111 184 148
120 206 154
112 185 149
121 207 155
113 186 150
122 208 156
122 209 156
123 209 157
115 188 152
124 210 158
125 211 159
126 212 160
118 191 155
127 213 161
119 192 156
128 215 162
121 194 158
130 216 164
131 217 165
131 218 165
132 218 166
133 219 167
134 220 168
135 221 169
136 222 170
136 223 170
137 223 171
138 224 172
139 225 173
140 226 174
141 227 175
142 228 176
134 207 171
135 208 172
144 231 179
145 232 179
146 232 180
147 233 181
148 234 182
149 235 183
150 236 184
143 215 179
152 238 186
152 239 187
145 218 182
154 240 188
155 241 189
156 242 190
157 243 191
157 244 191
158 244 192
151 223 188
151 224 188
152 225 189
161 247 195
162 248 196
162 248 196
155 227 191
163 250 197
164 250 198
164 251 198
157 229 194
165 252 199
166 252 200
166 252 200
158 231 195
167 253 201
167 253 201
159 232 196
167 254 202
159 232 196
168 254 202
160 232 196
26 46 27
26 46 27
26 46 27
26 46 28
26 46 28
168 253 202
159 232 196
159 231 196
167 253 201
27 47 29
27 47 29
27 47 29
158 230 195
158 229 195
157 229 194
165 250 199
156 228 193
156 228 193
163 249 198
163 248 197
27 43 29
27 43 30
27 43 30
27 43 30
27 43 30
28 44 31
28 44 31
28 44 31
31 51 33
82 104 94
81 103 93
80 102 93
80 102 92
79 101 91
78 100 90
77 99 90
77 99 89
143 214 180
142 213 179
149 233 184
149 232 183
148 232 182
147 231 181
146 230 181
29 45 32
29 45 33
32 52 35
32 52 35
32 52 35
68 90 80
67 89 80
66 88 79
66 87 78
33 53 35
32 52 35
32 52 35
32 52 35
32 52 35
32 52 35
32 52 35
32 52 35
32 52 35
33 53 36
58 80 71
58 80 71
60 85 72
33 53 36
33 53 36
33 53 36
33 53 36
33 53 36
33 53 36
33 53 36
33 53 36
33 53 35
30 46 34
30 46 34
30 46 34
32 52 35
78 129 86
123 207 158
123 206 157
123 206 157
122 206 157
122 205 156
122 205 156
121 204 156
121 204 155
121 204 155
112 183 149
112 182 149
120 203 154
112 182 149
119 202 153
119 202 153
119 202 153
118 201 153
47 72 59
46 72 58
46 72 58
46 72 58
46 72 58
46 71 58
46 71 58
30 46 34
30 46 34
30 46 34
30 46 34
30 46 34
115 199 150
115 199 150
115 199 150
115 198 149
115 198 149
115 198 149
115 198 149
115 198 149
115 198 149
114 198 149
107 177 144
107 177 143
40 62 53
40 62 53
40 62 53
32 48 36
32 48 36
32 48 36
32 48 36
113 195 147
113 195 147
113 195 147
113 195 147
113 195 147
113 195 147
113 195 147
113 195 147
34 54 37
31 47 35
31 47 35
31 47 35
31 47 35
34 54 37
34 54 37
34 54 37
34 54 37
34 54 37
32 48 36
34 54 37
34 54 37
34 54 37
34 54 37
32 48 36
34 54 37
39 61 52
39 61 52
39 61 52
112 195 146
112 195 146
112 195 146
112 195 146
112 195 146
112 195 146
112 195 146
112 195 146
112 195 146
112 195 146
104 175 141
104 175 141
104 175 141
112 195 146
111 195 146
111 195 146
111 195 146
111 195 146
111 195 146
111 195 146
111 195 146
111 195 146
111 195 146
111 195 146
102 174 139
110 195 144
110 195 144
102 174 139
102 174 139
102 174 139
102 174 139
102 174 139
102 174 139
102 174 139
25 41 27
24 40 27
110 195 144
110 195 144
110 196 144
110 196 144
110 196 144
110 196 144
110 196 144
102 174 139
102 174 139
102 174 139
102 174 139
102 174 139
102 174 139
102 174 139
102 174 139
102 174 139
102 175 139
102 175 139
110 196 144
110 196 145
111 196 145
111 197 145
103 175 139
103 175 139
111 197 145
111 197 145
111 197 145
111 197 145
103 176 140
103 176 140
104 176 140
112 198 146
104 176 141
104 177 141
104 177 141
113 199 147
113 199 147
113 199 147
113 199 147
113 200 148
114 200 148
114 200 148
114 200 148
106 179 143
115 201 149
115 201 149
107 180 144
108 180 144
108 181 145
108 181 145
109 181 146
109 182 146
110 182 146
118 204 152
119 205 153
119 205 153
120 206 154
120 206 154
121 207 155
121 207 155
122 208 156
114 187 151
123 209 157
124 210 158
116 189 153
125 211 159
125 212 160
118 191 155
119 191 155
119 192 156
120 193 157
129 215 163
122 194 158
131 217 165
123 196 160
132 218 166
133 219 167
134 220 168
126 199 163
135 222 170
136 223 170
137 223 171
138 224 172
139 225 173
140 226 174
141 227 175
142 228 176
134 207 171
143 230 177
136 209 173
145 231 179
138 211 175
139 212 176
148 234 182
141 213 177
142 214 178
151 237 185
151 238 186
152 239 186
153 239 187
154 240 188
155 241 189
148 220 184
156 243 191
157 243 191
158 244 192
159 245 193
159 246 194
160 246 194
153 225 189
161 248 196
162 248 196
163 249 197
163 249 197
164 250 198
164 250 198
165 251 199
165 251 199
166 252 200
166 252 200
166 252 200
158 231 195
159 231 195
167 253 201
167 253 201
159 232 196
159 232 196
26 46 27
26 46 27
26 46 27
26 46 28
26 46 28
26 46 28
159 232 196
159 232 196
159 231 196
27 47 29
27 47 29
27 47 29
27 47 29
158 230 195
166 251 200
165 250 199
157 228 194
164 249 198
164 249 198
155 227 192
163 248 197
162 247 196
27 43 30
88 114 99
161 245 195
27 43 31
28 44 31
28 44 31
28 44 31
82 104 95
82 104 94
83 109 95
80 102 93
80 101 92
79 101 91
78 100 90
77 99 90
144 215 181
143 214 180
142 213 179
141 212 178
149 232 183
148 232 182
147 231 181
29 45 32
29 45 32
29 45 33
32 52 35
32 52 35
71 97 83
68 90 80
69 95 81
66 88 79
66 87 78
65 87 78
64 86 77
32 52 35
32 52 35
32 52 35
32 52 35
32 52 35
32 52 35
33 53 36
59 81 72
58 80 71
58 80 71
57 79 70
57 79 69
56 78 69
33 53 36
33 53 36
33 53 36
30 47 34
33 53 36
33 53 36
33 53 36
30 46 34
30 46 34
30 46 34
30 46 34
30 46 34
30 46 34
123 206 157
123 206 157
122 206 157
122 205 156
122 205 156
121 204 156
121 204 155
121 204 155
112 183 149
112 182 149
112 182 149
112 182 149
111 182 148
111 181 148
119 202 153
118 201 153
118 201 153
46 72 58
46 72 58
46 72 58
46 72 58
46 71 58
33 52 35
30 46 34
30 46 34
30 46 34
30 46 34
30 46 34
30 46 34
30 46 34
115 199 150
115 198 149
115 198 149
115 198 149
115 198 149
115 198 149
115 198 149
114 198 149
107 177 144
107 177 143
106 177 143
40 62 53
40 62 53
34 54 38
32 48 36
32 48 36
32 48 36
32 48 36
113 195 147
113 195 147
113 195 147
113 195 147
113 195 147
31 47 35
31 47 35
34 54 37
31 47 35
31 47 35
31 48 35
31 48 35
31 48 36
34 54 37
34 54 37
34 54 37
34 54 37
34 54 37
34 54 37
34 54 37
34 54 37
34 54 37
39 61 52
39 61 52
39 61 52
39 61 52
39 61 52
104 175 141
112 195 146
112 195 146
112 195 146
112 195 146
112 195 146
112 195 146
112 195 146
104 175 141
104 175 141
104 175 141
104 175 141
104 175 141
104 175 141
29 45 32
111 195 146
111 195 146
111 195 146
111 195 146
111 195 146
111 195 146
111 195 146
111 195 146
102 174 139
110 195 144
102 174 139
102 174 139
102 174 139
102 174 139
102 174 139
110 195 144
102 174 139
102 174 139
102 174 139
110 195 144
25 40 27
102 174 138
110 195 144
110 196 144
110 196 144
110 196 144
110 196 144
110 196 144
102 174 139
102 174 139
102 174 139
102 174 139
102 174 139
102 174 139
110 196 144
102 174 139
110 196 144
102 175 139
102 175 139
102 175 139
110 196 145
111 197 145
111 197 145
111 197 145
111 197 145
111 197 145
111 197 145
111 197 145
103 176 140
103 176 140
103 176 140
112 198 146
104 176 140
104 176 141
104 177 141
104 177 141
104 177 141
105 177 141
113 199 147
113 199 147
113 200 148
114 200 148
114 200 148
114 200 148
115 201 149
115 201 149
107 180 144
115 202 150
108 180 144
108 181 145
108 181 145
109 181 146
109 182 146
110 182 146
110 183 147
119 205 153
119 205 153
111 184 148
120 206 154
121 207 155
121 207 155
122 208 156
122 209 156
123 209 157
115 188 152
124 210 158
125 211 159
117 190 154
118 191 155
127 213 161
119 192 156
120 193 157
121 193 158
130 216 164
122 195 159
131 218 165
132 218 166
133 219 167
134 220 168
126 199 163
135 222 169
136 222 170
137 223 171
138 224 172
131 203 167
132 204 168
141 227 175
133 206 170
142 229 176
135 208 172
136 209 173
145 231 179
138 211 175
139 211 176
148 234 182
149 235 183
150 236 184
142 215 179
151 238 185
152 238 186
145 218 182
146 218 182
155 241 189
155 242 190
156 243 190
157 243 191
150 222 186
150 223 187
151 224 188
160 246 194
161 247 195
153 226 190
162 248 196
162 249 196
163 249 197
155 228 192
156 228 193
164 251 199
165 251 199
165 252 199
158 230 194
158 231 195
166 253 200
167 253 201
167 253 201
167 253 201
167 253 201
26 46 27
26 46 27
26 46 27
26 46 27
26 46 28
26 46 28
27 46 28
167 253 202
159 231 196
27 47 29
27 47 29
27 47 29
27 47 29
83 149 87
158 230 195
165 251 200
165 250 199
165 250 199
164 249 198
164 249 198
163 248 197
163 248 197
162 247 196
162 247 196
161 246 195
161 245 195
160 244 194
159 244 193
28 44 31
85 111 97
82 104 95
82 103 94
81 103 93
80 102 92
79 101 92
79 101 91
78 100 90
144 215 181
144 215 181
151 235 185
142 213 179
141 212 178
141 211 178
140 211 177
29 45 32
29 45 32
29 45 33
29 46 33
32 52 35
71 97 83
68 90 81
70 96 82
67 89 80
66 88 79
66 87 78
65 87 77
67 92 78
63 85 76
33 52 35
32 52 35
32 52 35
32 52 35
32 52 35
60 81 72
59 81 72
58 80 71
58 80 71
57 79 70
57 79 69
56 78 69
56 77 68
33 53 36
33 53 36
33 53 36
33 53 36
33 53 36
33 53 36
30 46 34
30 46 34
30 46 34
30 46 34
30 46 34
32 52 35
30 46 34
30 46 34
122 206 157
122 205 156
122 205 156
121 205 156
121 204 155
113 183 150
112 183 149
112 182 149
112 182 149
112 182 149
111 182 148
111 181 148
111 181 148
111 181 148
118 201 153
118 201 152
118 201 152
46 72 58
46 72 58
43 65 56
30 46 34
30 46 34
30 46 34
30 46 34
30 46 34
30 46 34
30 46 34
30 46 34
30 46 34
30 46 34
115 198 149
115 198 149
115 198 149
115 198 149
115 198 149
107 177 144
107 177 144
106 177 143
106 177 143
40 62 53
40 62 53
32 48 36
32 48 36
32 48 36
35 55 38
32 48 37
113 195 147
113 195 147
113 195 147
31 47 35
31 47 35
31 47 35
31 47 35
31 47 35
31 48 35
34 54 37
32 48 36
32 48 36
32 48 36
32 48 36
34 54 37
34 54 37
34 54 37
34 54 37
34 54 37
34 54 37
39 61 52
39 61 52
39 61 52
39 61 52
39 61 52
39 61 52
39 61 52
33 53 37
112 195 146
104 175 141
112 195 146
112 195 146
112 195 146
104 175 141
104 175 141
104 175 141
104 174 141
104 174 141
104 174 141
104 174 141
104 174 141
104 174 141
111 195 146
111 195 146
111 195 146
111 195 146
111 195 146
111 195 146
102 174 139
102 174 139
102 174 139
110 195 144
102 174 139
102 174 139
102 174 139
102 174 139
102 174 139
102 174 139
102 174 139
102 174 139
102 174 139
102 174 139
25 41 27
24 40 27
110 195 144
102 174 138
110 196 144
110 196 144
102 174 138
102 174 138
110 196 144
102 174 139
102 174 139
110 196 144
102 174 139
102 174 139
102 174 139
102 174 139
102 174 139
102 175 139
102 175 139
102 175 139
102 175 139
111 197 145
111 197 145
111 197 145
111 197 145
111 197 145
103 175 140
103 175 140
103 176 140
103 176 140
103 176 140
104 176 140
104 176 140
112 198 146
104 177 141
104 177 141
113 199 147
105 177 141
113 199 147
105 178 142
105 178 142
114 200 148
114 200 148
114 200 148
115 201 149
107 179 143
107 180 144
115 202 150
108 180 144
108 181 145
108 181 145
109 181 146
109 182 146
110 182 146
110 183 147
110 183 147
111 184 148
120 206 154
120 206 154
121 207 155
113 186 150
122 208 156
122 209 156
123 209 157
123 210 158
116 189 153
117 189 153
117 190 154
126 212 160
127 213 161
119 192 156
120 193 157
129 215 163
130 216 164
130 217 164
123 196 160
132 218 166
125 197 161
134 220 168
134 221 168
135 222 169
128 201 165
137 223 171
138 224 172
139 225 173
131 204 168
132 205 169
141 228 175
134 207 171
135 208 172
136 209 173
137 209 174
146 232 180
147 233 181
148 234 182
149 235 183
149 236 183
150 237 184
143 216 180
152 238 186
153 239 187
154 240 188
154 241 189
155 242 189
148 221 185
149 221 185
149 222 186
150 223 187
151 224 188
152 224 188
160 247 194
161 247 195
153 226 190
154 227 191
163 249 197
163 250 197
156 228 192
156 229 193
165 251 199
157 230 194
165 252 200
166 252 200
166 252 200
166 253 200
167 253 201
74 126 79
23 39 25
26 46 27
26 46 27
26 46 27
26 46 28
26 46 28
26 46 28
27 47 28
83 148 86
27 47 28
27 47 29
27 47 29
27 47 29
28 47 29
158 230 195
158 229 194
157 229 194
165 250 199
164 250 199
156 228 193
164 249 198
163 248 197
163 248 197
162 247 196
161 247 196
161 246 195
160 245 194
160 244 194
159 244 193
158 243 193
85 111 97
84 110 96
84 110 95
81 103 93
80 102 92
79 101 92
79 101 91
145 216 182
144 215 181
144 214 181
143 214 180
142 213 179
149 233 183
141 211 177
85 150 89
29 45 32
29 45 32
29 45 33
30 46 33
70 92 82
69 91 82
68 90 81
68 89 80
67 89 79
66 88 79
65 87 78
65 87 77
64 86 77
63 85 76
63 85 75
62 84 75
32 52 35
32 52 35
60 82 73
60 81 72
61 87 73
58 80 71
58 80 70
57 79 70
57 79 69
56 78 69
56 77 68
55 77 68
55 76 67
33 53 36
33 53 36
30 47 34
33 53 36
30 46 34
30 46 34
30 46 34
30 46 34
30 46 34
30 46 34
30 46 34
30 46 34
30 46 34
78 129 85
122 205 156
121 205 156
113 183 150
113 183 150
120 204 155
112 182 149
112 182 149
112 182 149
111 182 148
111 181 148
111 181 148
111 181 148
110 181 147
118 201 152
118 201 152
118 201 152
117 200 152
30 46 34
33 53 36
30 46 34
30 46 34
30 46 34
30 46 34
30 46 34
30 46 34
30 46 34
30 46 34
30 46 34
30 46 34
30 46 34
115 198 149
115 198 149
115 198 149
107 177 144
107 177 143
106 177 143
106 177 143
106 177 143
40 62 53
32 48 36
32 48 37
32 48 37
35 55 38
32 48 37
113 195 147
34 54 37
31 47 35
31 47 35
31 47 35
34 54 37
31 48 35
31 48 35
32 48 36
32 48 36
32 48 36
32 48 36
32 48 36
32 48 36
32 48 36
34 54 37
32 48 36
34 54 37
39 61 52
42 67 54
39 61 52
39 61 52
39 61 52
39 61 52
39 61 52
39 61 52
39 61 52
39 61 52
112 195 146
112 195 146
112 195 146
104 175 141
104 175 141
104 174 141
104 174 141
104 174 141
104 174 141
104 174 141
104 174 141
104 174 141
104 174 141
104 174 141
29 45 32
111 195 146
111 195 146
111 195 145
102 174 139
102 174 139
102 174 139
102 174 139
102 174 139
102 174 139
102 174 139
102 174 139
110 195 144
102 174 139
110 195 144
102 174 139
102 174 139
102 174 139
102 174 139
102 174 139
25 41 27
24 40 27
74 127 80
102 174 138
102 174 138
110 196 144
102 174 138
110 196 144
110 196 144
102 174 138
110 196 144
110 196 144
102 174 139
102 174 139
102 174 139
102 174 139
102 174 139
102 175 139
102 175 139
102 175 139
102 175 139
110 197 145
111 197 145
111 197 145
111 197 145
111 197 145
103 175 140
103 175 140
103 176 140
103 176 140
103 176 140
104 176 140
104 176 140
104 176 141
104 177 141
104 177 141
113 199 147
105 177 141
105 177 142
105 178 142
105 178 142
114 200 148
114 200 148
114 200 148
106 179 143
107 179 143
107 180 144
107 180 144
108 180 144
116 202 150
108 181 145
109 181 146
109 182 146
110 182 146
118 204 152
110 183 147
119 205 153
120 206 154
112 185 149
112 185 149
121 207 155
122 208 156
122 208 156
123 209 157
123 210 157
116 189 153
125 211 159
125 212 159
118 190 155
119 191 155
119 192 156
120 193 157
129 215 163
121 194 158
122 195 159
123 196 160
132 218 166
133 219 167
133 220 168
134 221 168
135 221 169
136 222 170
129 201 165
138 224 172
139 225 173
131 204 168
140 227 174
133 206 170
142 228 176
135 208 172
144 230 178
137 209 173
138 210 174
147 233 181
147 234 182
140 213 177
149 236 183
142 215 179
151 237 185
144 216 180
153 239 187
145 218 182
154 241 188
147 220 184
148 220 184
148 221 185
157 244 191
150 223 187
151 223 187
151 224 188
160 246 194
161 247 195
161 248 195
154 226 191
163 249 197
163 249 197
164 250 198
164 250 198
156 229 193
165 251 199
165 251 199
157 230 194
166 252 200
166 252 200
74 126 79
23 39 25
26 46 27
26 46 27
26 46 27
26 46 28
26 46 28
26 46 28
27 47 28
90 112 102
27 47 28
27 47 29
27 47 29
27 47 29
27 47 29
28 48 29
158 230 195
165 251 200
165 250 199
165 250 199
156 228 193
164 249 198
163 249 197
163 248 197
162 248 197
154 226 191
153 225 190
161 246 195
160 245 194
159 245 194
159 244 193
158 243 193
158 242 192
84 110 96
84 109 95
83 109 94
80 102 92
82 107 93
146 217 183
145 216 182
144 215 181
144 214 180
143 214 180
142 213 179
141 212 178
85 150 89
31 51 34
29 45 32
29 45 33
30 46 33
70 92 83
72 98 84
69 91 82
68 90 81
68 89 80
67 89 79
66 88 79
65 87 78
67 93 79
64 86 77
63 85 76
63 85 75
62 84 75
61 83 74
32 52 35
60 82 73
60 81 72
59 81 72
58 80 71
58 80 70
60 85 71
57 78 69
56 78 69
56 77 68
55 77 68
55 76 67
54 76 67
33 53 36
31 47 34
30 47 34
30 46 34
30 46 34
30 46 34
30 46 34
30 46 34
33 52 35
30 46 34
30 46 34
30 46 34
30 46 34
30 46 34
121 205 156
113 183 150
113 183 150
112 183 149
112 182 149
112 182 149
112 182 149
111 182 148
111 181 148
111 181 148
111 181 148
110 181 147
110 180 147
110 180 147
118 201 152
117 200 152
30 46 34
30 46 34
30 46 34
30 46 34
30 46 34
30 46 34
30 46 34
30 46 34
30 46 34
30 46 34
30 46 34
30 46 34
30 46 34
30 46 34
86 150 91
107 177 144
107 177 144
107 177 143
106 177 143
106 177 143
106 177 143
40 62 53
32 48 37
32 48 37
32 49 37
32 49 37
32 49 37
32 49 37
31 47 35
31 47 35
31 48 35
31 48 35
34 54 37
34 54 37
32 48 36
32 48 36
34 54 37
32 48 36
32 48 36
32 48 36
32 48 36
32 48 36
34 54 37
39 61 52
39 61 52
39 61 52
39 61 52
39 61 52
39 61 52
39 61 52
39 61 52
39 61 52
39 61 52
39 61 52
39 61 52
104 175 141
112 195 146
104 174 141
104 174 141
104 174 141
104 174 141
104 174 141
104 174 141
104 174 141
104 174 141
104 174 141
104 174 141
104 174 141
104 174 141
29 45 33
111 195 145
103 174 140
28 48 30
102 174 139
102 174 139
102 174 139
102 174 139
102 174 139
102 174 139
102 174 139
102 174 139
110 195 144
102 174 139
102 174 139
102 174 139
102 174 139
102 174 139
102 174 139
102 174 139
25 41 28
25 41 27
110 195 144
110 196 144
102 174 138
110 196 144
110 196 144
102 174 138
102 174 138
102 174 138
102 174 139
102 174 139
102 174 139
110 196 144
102 174 139
102 174 139
102 174 139
110 196 144
102 175 139
102 175 139
102 175 139
102 175 139
102 175 139
103 175 139
103 175 139
103 175 140
111 197 145
103 175 140
111 197 145
103 176 140
103 176 140
103 176 140
112 198 146
104 176 141
104 177 141
104 177 141
104 177 141
105 177 141
105 177 142
113 199 147
113 200 147
114 200 148
114 200 148
106 179 143
114 201 149
107 179 143
107 180 144
107 180 144
116 202 150
108 181 145
108 181 145
109 181 145
109 182 146
110 182 146
118 204 152
110 183 147
111 184 148
111 184 148
120 206 154
112 185 149
121 207 155
113 186 150
114 187 151
123 209 157
115 188 152
116 188 153
116 189 153
125 212 159
118 190 155
118 191 155
119 192 156
128 214 162
121 193 157
129 216 164
122 195 159
123 196 160
132 218 166
133 219 167
133 220 167
134 221 168
127 200 164
128 200 164
129 201 165
129 202 166
130 203 167
131 204 168
132 205 169
133 206 170
134 206 171
143 229 177
136 208 172
136 209 173
145 232 180
138 211 175
147 234 181
148 234 182
149 235 183
150 236 184
151 237 185
152 238 186
152 239 186
145 218 182
154 240 188
155 241 189
156 242 190
156 243 190
149 222 186
150 222 186
150 223 187
151 224 188
152 224 188
152 225 189
153 226 190
162 248 196
154 227 191
163 249 197
163 250 197
164 250 198
156 229 193
165 251 199
165 251 199
165 252 199
166 252 200
23 39 25
23 39 25
23 39 25
26 46 27
26 46 27
26 46 27
26 46 28
26 46 28
27 46 28
90 112 101
90 112 101
159 231 195
158 231 195
27 47 29
27 47 29
28 48 29
28 48 29
165 251 200
157 229 194
165 250 199
156 228 193
164 249 198
164 249 198
163 248 197
163 248 197
162 247 196
162 247 196
161 246 195
160 246 195
160 245 194
159 244 193
159 244 193
158 243 192
158 242 192
157 241 191
156 241 190
83 109 94
82 108 94
146 217 183
146 217 182
145 216 182
144 215 181
143 214 180
143 214 180
142 213 179
141 212 178
31 51 33
29 45 32
29 45 33
29 45 33
73 99 85
73 98 84
72 98 84
71 97 83
68 90 81
67 89 80
67 89 79
66 88 79
65 87 78
65 87 77
64 86 77
63 85 76
63 85 75
62 84 75
64 89 76
63 89 75
62 88 74
59 81 72
59 81 72
58 80 71
58 80 70
57 79 70
57 78 69
56 78 69
56 77 68
55 77 68
54 76 67
54 76 67
54 75 66
55 81 67
31 47 34
31 47 34
30 47 34
30 46 34
30 46 34
30 46 34
30 46 34
30 46 34
30 46 34
30 46 34
30 46 34
30 46 34
32 52 35
32 52 35
113 183 150
112 183 149
120 203 154
112 182 149
112 182 149
111 182 148
111 181 148
111 181 148
111 181 148
110 181 147
110 180 147
110 180 147
110 180 147
117 200 152
30 47 34
30 46 34
30 46 34
30 46 34
30 46 34
30 46 34
30 46 34
30 46 34
30 46 34
30 46 34
30 46 34
32 52 35
32 52 35
30 46 34
30 46 34
115 198 149
114 198 149
107 177 143
106 177 143
106 177 143
106 177 143
106 176 143
32 49 37
32 49 37
32 49 37
35 55 38
42 68 55
42 68 55
31 48 35
31 48 35
34 54 37
32 48 36
32 48 36
32 48 36
32 48 36
34 54 37
32 48 36
32 48 36
32 48 36
32 48 36
32 48 36
42 67 54
42 67 54
39 61 52
39 61 52
39 61 52
39 61 52
39 61 52
39 61 52
39 61 52
39 61 52
39 61 52
39 61 52
39 61 52
39 61 52
39 61 52
104 174 141
104 174 141
104 174 141
104 174 141
104 174 141
104 174 141
104 174 141
104 174 141
104 174 141
104 174 141
104 174 141
104 174 141
104 174 141
104 174 141
28 44 32
103 174 140
103 174 140
102 174 139
102 174 139
102 174 139
102 174 139
102 174 139
102 174 139
110 195 144
102 174 139
102 174 139
102 174 139
102 174 139
102 174 139
102 174 139
102 174 139
110 195 144
102 174 139
110 195 144
101 174 138
110 195 144
110 196 144
102 174 138
102 174 138
102 174 138
102 174 138
102 174 138
102 174 138
102 174 138
102 174 139
102 174 139
102 174 139
102 174 139
102 174 139
102 174 139
102 174 139
102 175 139
102 175 139
102 175 139
110 197 145
111 197 145
102 175 139
103 175 139
111 197 145
103 175 140
103 175 140
103 176 140
103 176 140
103 176 140
103 176 140
112 198 146
112 198 146
104 177 141
104 177 141
104 177 141
105 177 141
105 177 142
105 178 142
113 200 147
105 178 142
106 178 143
114 200 148
106 179 143
107 179 143
107 180 144
107 180 144
108 180 144
108 181 145
108 181 145
117 203 151
109 182 146
109 182 146
110 183 147
110 183 147
111 183 148
111 184 148
112 184 149
120 207 155
121 207 155
113 186 150
114 187 151
115 187 151
115 188 152
116 188 153
116 189 153
125 211 159
126 212 160
127 213 161
119 192 156
120 192 157
120 193 157
121 194 158
122 195 159
131 217 165
123 196 160
132 219 167
133 220 167
134 220 168
127 199 163
128 200 164
137 223 171
129 202 166
130 203 167
131 204 168
140 226 174
141 227 175
134 206 170
143 229 177
135 208 172
136 209 173
137 210 174
138 211 175
139 212 176
148 234 182
141 213 177
150 236 184
142 215 179
143 216 180
152 239 186
153 239 187
146 218 182
155 241 189
147 220 184
148 221 185
149 221 185
149 222 186
158 245 192
151 223 188
160 246 194
152 225 189
153 225 189
153 226 190
162 248 196
162 249 196
155 227 192
163 250 197
164 250 198
164 251 198
165 251 199
165 251 199
23 39 25
23 39 25
23 39 25
23 39 25
26 46 27
26 46 27
26 46 28
26 46 28
26 46 28
89 111 101
89 111 101
89 111 101
166 252 200
158 230 195
158 230 195
28 47 29
28 48 29
89 111 101
157 229 194
157 229 194
165 250 199
164 249 198
164 249 198
163 249 197
163 248 197
162 248 197
162 247 196
161 247 196
161 246 195
160 245 194
160 245 194
151 223 188
158 244 193
158 243 192
157 242 191
157 241 191
156 241 190
155 240 190
155 239 189
154 238 188
153 238 188
145 216 182
144 215 181
143 214 180
143 213 179
142 213 179
31 51 33
31 51 34
29 45 32
29 45 33
74 100 86
73 99 85
73 98 84
72 98 84
71 97 83
70 96 82
67 89 80
133 204 170
133 203 169
140 223 174
65 86 77
64 86 76
63 85 76
63 84 75
62 84 75
64 89 75
63 89 75
62 88 74
62 88 74
61 87 73
58 80 71
58 80 70
123 194 160
57 78 69
56 78 69
55 77 68
57 83 69
54 76 67
54 76 67
53 75 66
55 81 67
55 81 67
54 80 66
31 47 34
30 47 34
30 46 34
30 46 34
30 46 34
30 46 34
30 46 34
30 46 34
30 46 34
30 46 34
32 52 35
32 52 35
32 52 35
32 52 35
112 183 149
112 182 149
112 182 149
111 182 148
111 181 148
111 181 148
111 181 148
110 181 147
110 180 147
110 180 147
110 180 147
117 200 152
45 71 57
45 71 57
30 46 34
30 46 34
30 46 34
30 46 34
30 46 34
30 46 34
30 46 34
30 46 34
30 46 34
30 46 34
30 46 34
30 46 34
115 198 149
114 198 149
114 198 149
114 198 149
106 177 143
106 177 143
106 177 143
106 176 143
32 49 37
35 55 38
42 68 55
42 68 55
40 62 53
42 68 55
42 68 54
32 48 36
32 48 36
32 48 36
32 48 36
32 48 36
32 48 36
32 48 36
32 48 36
32 48 36
32 48 36
39 61 52
42 67 54
39 61 52
39 61 52
39 61 52
39 61 52
39 61 52
39 61 52
39 61 52
39 61 52
39 61 52
39 61 52
39 61 52
39 61 52
39 61 52
41 67 53
41 67 53
104 174 141
104 174 141
104 174 141
104 174 141
104 174 141
104 174 141
104 174 141
104 174 141
112 195 146
104 174 141
104 174 141
104 174 141
112 195 146
39 65 51
29 45 32
103 174 140
103 174 139
28 48 30
102 174 139
102 174 139
102 174 139
102 174 139
102 174 139
110 195 144
102 174 139
102 174 139
102 174 139
102 174 139
102 174 139
102 174 139
110 195 144
110 195 144
110 195 144
110 195 144
110 195 144
110 195 144
110 196 144
110 196 144
102 174 138
102 174 138
110 196 144
102 174 138
102 174 138
102 174 138
102 174 138
102 174 139
110 196 144
102 174 139
102 174 139
102 174 139
110 196 144
102 175 139
110 196 144
110 196 144
110 197 145
111 197 145
102 175 139
103 175 139
103 175 139
103 175 140
103 175 140
103 176 140
103 176 140
111 198 146
112 198 146
112 198 146
104 176 141
104 177 141
104 177 141
112 199 147
113 199 147
105 177 142
113 199 147
105 178 142
105 178 142
106 178 142
106 179 143
106 179 143
107 179 143
107 180 144
107 180 144
108 180 144
116 202 150
108 181 145
109 181 145
109 182 146
109 182 146
110 183 147
110 183 147
111 183 148
111 184 148
120 206 154
112 185 149
113 185 150
113 186 150
122 208 156
114 187 151
115 188 152
116 188 152
116 189 153
117 190 154
118 190 154
118 191 155
119 192 156
120 192 156
120 193 157
121 194 158
122 195 159
131 217 165
123 196 160
124 197 161
133 219 167
134 220 168
127 199 163
127 200 164
128 201 165
129 202 166
130 203 167
131 204 168
132 204 168
133 205 169
133 206 170
134 207 171
135 208 172
136 209 173
137 210 174
138 210 175
139 211 175
139 212 176
149 235 183
149 236 183
150 237 184
151 237 185
144 216 180
145 217 181
145 218 182
146 219 183
147 220 184
148 220 184
148 221 185
149 222 186
150 222 187
150 223 187
151 224 188
152 224 188
152 225 189
153 226 190
153 226 190
162 248 196
163 249 197
163 249 197
163 250 198
164 250 198
164 251 198
23 39 25
23 39 25
23 39 25
23 39 25
23 39 26
26 46 27
26 46 28
26 46 28
26 46 28
89 111 101
89 111 101
89 111 101
91 117 102
158 230 195
158 230 195
158 230 194
157 230 194
89 111 101
89 111 100
157 229 194
157 228 193
164 250 198
156 228 193
163 249 198
163 248 197
163 248 197
162 247 196
154 225 190
153 225 190
153 224 189
152 224 189
159 245 194
151 223 188
158 243 192
158 243 192
26 42 28
156 241 191
156 240 190
155 240 189
154 239 189
154 238 188
153 237 187
152 237 187
144 215 181
143 214 180
142 213 179
31 51 33
31 51 33
31 51 34
29 45 33
75 100 86
74 100 86
73 99 85
72 98 84
72 98 83
71 97 83
70 96 82
70 95 81
141 224 175
132 203 169
132 202 169
131 201 168
64 86 76
63 85 76
62 84 75
64 90 76
64 89 75
63 89 75
62 88 74
62 87 74
61 87 73
61 86 72
124 194 161
123 194 160
131 214 165
56 78 69
55 77 68
55 77 68
54 76 67
54 76 67
56 81 68
53 75 66
55 81 67
54 80 66
54 80 66
31 47 34
30 47 34
30 46 34
30 46 34
30 46 34
30 46 34
30 46 34
30 46 34
32 52 35
32 52 35
32 52 35
32 52 35
32 52 35
32 52 35
112 182 149
112 182 149
111 182 148
111 181 148
111 181 148
111 181 148
110 181 147
110 180 147
110 180 147
118 201 152
117 201 152
45 71 57
45 71 57
45 71 57
33 53 36
30 46 34
30 46 34
30 46 34
30 46 34
30 46 34
30 46 34
30 46 34
30 46 34
30 46 34
115 198 149
115 198 149
114 198 149
114 198 149
114 198 149
114 198 149
114 197 148
106 177 143
106 176 143
42 68 55
42 68 55
42 68 55
42 68 55
42 68 54
42 68 54
42 68 54
32 48 36
32 48 36
32 48 36
34 54 37
32 48 36
32 48 36
32 48 36
32 48 36
42 67 54
42 67 54
42 67 54
42 67 54
42 67 54
42 67 54
39 61 52
39 61 52
39 61 52
39 61 52
39 61 52
39 61 52
39 61 52
39 61 52
39 61 52
41 67 53
39 61 52
39 61 52
39 61 51
39 61 51
104 174 141
104 174 141
104 174 141
104 174 141
104 174 141
104 174 141
104 174 141
112 195 146
104 174 141
112 195 146
112 195 146
39 65 51
39 65 51
39 65 51
31 51 33
29 49 32
103 174 139
110 195 144
102 174 139
110 195 144
102 174 139
110 195 144
102 174 139
102 174 139
102 174 139
102 174 139
102 174 139
110 195 144
102 174 139
109 195 144
110 195 144
110 195 144
101 174 138
110 195 144
101 174 138
110 196 144
110 196 144
101 174 138
102 174 138
102 174 138
102 174 138
102 174 138
102 174 138
102 174 138
102 174 139
102 174 139
102 174 139
102 174 139
102 174 139
110 196 144
102 175 139
110 196 144
110 196 144
110 197 144
111 197 145
102 175 139
103 175 139
103 175 139
103 175 140
103 175 140
103 176 140
103 176 140
103 176 140
103 176 140
104 176 140
104 176 141
112 198 146
112 198 146
104 177 141
104 177 141
113 199 147
113 199 147
113 200 147
105 178 142
106 178 142
106 179 143
106 179 143
115 201 149
107 179 144
107 180 144
107 180 144
116 202 150
108 181 145
109 181 145
109 182 146
109 182 146
110 183 147
110 183 147
119 205 153
111 184 148
120 206 154
120 207 154
113 185 149
113 186 150
114 187 151
114 187 151
115 188 152
116 188 152
116 189 153
117 190 154
117 190 154
118 191 155
119 192 156
128 214 162
120 193 157
121 194 158
122 194 158
122 195 159
123 196 160
124 197 161
125 198 162
126 198 162
126 199 163
135 222 169
128 201 165
129 202 166
130 202 167
131 203 167
131 204 168
140 227 175
133 206 170
134 207 171
143 229 177
136 209 173
145 231 179
146 232 180
138 211 175
147 234 181
140 213 177
149 235 183
142 215 179
143 215 179
143 216 180
144 217 181
145 218 182
146 219 183
155 241 189
147 220 184
148 221 185
149 221 185
149 222 186
150 223 187
159 245 193
160 246 194
152 225 189
152 225 189
161 248 195
154 226 190
154 227 191
163 249 197
163 249 197
164 250 198
23 39 25
23 39 25
23 39 25
23 39 25
23 39 26
24 39 26
26 46 27
26 46 28
26 46 28
89 111 100
89 111 100
89 111 100
89 111 100
158 230 194
166 252 200
157 230 194
165 251 200
165 251 199
157 229 194
157 229 193
165 250 199
156 228 193
164 249 198
156 227 192
163 248 197
163 248 197
162 248 196
162 247 196
153 225 190
161 246 195
160 246 194
160 245 194
151 223 188
159 244 193
158 243 192
26 42 28
157 242 191
156 241 190
156 240 190
155 240 189
154 239 188
154 238 188
153 237 187
152 237 187
152 236 186
151 235 185
31 51 33
31 51 33
31 51 34
31 51 34
73 95 85
74 100 86
74 100 85
73 99 85
72 98 84
72 97 83
71 97 83
70 96 82
142 225 176
141 224 175
140 224 175
132 202 169
131 201 168
130 201 167
130 200 167
65 91 77
64 90 76
63 89 75
63 89 75
62 88 74
62 87 73
61 87 73
60 86 72
132 215 166
131 214 166
131 214 165
122 193 159
122 192 159
55 77 67
54 76 67
56 82 68
56 81 68
55 81 67
55 81 67
54 80 66
54 80 66
53 79 65
53 79 65
31 47 34
30 47 34
30 46 34
30 46 34
30 46 34
30 46 34
33 52 35
30 46 34
32 52 35
32 52 35
32 52 35
32 52 35
30 46 34
32 52 35
111 182 148
111 181 148
111 181 148
111 181 148
110 181 147
110 180 147
110 180 147
117 201 152
117 201 152
117 200 151
45 71 57
45 71 57
45 71 57
45 70 57
30 47 34
30 46 34
30 46 34
30 46 34
30 46 34
33 53 36
30 46 34
30 46 34
115 198 149
115 198 149
114 198 149
114 198 149
114 198 149
114 198 148
114 198 148
114 197 148
114 197 148
42 68 55
42 68 55
42 68 55
42 68 54
42 68 54
42 68 54
42 68 54
42 68 54
32 48 36
32 48 36
32 48 36
32 48 36
32 48 36
42 67 54
42 67 54
42 67 54
42 67 54
42 67 54
42 67 54
42 67 54
113 195 147
113 195 147
39 61 52
39 61 52
39 61 52
39 61 52
39 61 52
39 61 52
39 61 52
41 67 53
39 61 52
41 67 53
41 67 53
41 67 53
41 67 53
104 174 141
104 174 141
104 174 141
112 195 146
104 174 141
112 195 146
104 174 141
104 174 141
112 195 146
112 195 146
39 65 51
39 65 51
39 65 51
39 65 51
29 45 32
103 174 140
103 174 139
28 48 30
102 174 139
102 174 139
102 174 139
102 174 139
102 174 139
102 174 139
102 174 139
110 195 144
110 195 144
109 195 144
109 195 144
101 174 138
109 195 144
109 195 144
110 195 144
110 195 144
110 195 144
110 196 144
101 174 138
110 196 144
101 174 138
102 174 138
110 196 144
102 174 138
102 174 138
110 196 144
102 174 138
110 196 144
110 196 144
110 196 144
110 196 144
110 196 144
110 196 144
110 196 144
110 196 144
110 197 144
110 197 145
111 197 145
103 175 139
103 175 139
103 175 140
103 175 140
111 197 145
111 197 145
103 176 140
103 176 140
104 176 140
104 176 140
112 198 146
104 177 141
112 199 146
104 177 141
113 199 147
113 199 147
113 200 147
105 178 142
114 200 148
106 179 143
106 179 143
106 179 143
107 179 144
107 180 144
107 180 144
108 180 145
116 203 150
109 181 145
109 182 146
109 182 146
110 182 147
110 183 147
111 183 147
119 206 153
120 206 154
120 207 154
121 207 155
121 208 155
114 186 150
114 187 151
115 188 152
115 188 152
116 189 153
125 211 159
117 190 154
118 191 155
127 213 161
119 192 156
120 193 157
121 194 158
130 216 164
122 195 159
123 196 160
132 218 166
133 219 167
125 198 162
126 199 163
135 222 169
136 222 170
129 201 165
138 224 172
139 225 173
139 226 173
132 205 169
133 206 170
134 207 171
143 229 177
136 208 172
145 231 179
145 232 179
138 211 175
147 234 181
140 213 177
141 213 177
141 214 178
150 237 185
151 238 185
152 238 186
145 217 181
145 218 182
146 219 183
147 220 184
156 242 190
148 221 185
149 222 186
150 222 186
150 223 187
159 246 193
152 224 188
152 225 189
153 225 189
161 248 195
154 226 190
162 249 196
163 249 197
23 39 25
23 39 25
23 39 25
23 39 25
23 39 25
24 39 26
24 40 26
26 46 28
26 46 28
88 110 100
88 110 100
88 110 100
88 110 100
88 110 100
157 230 194
157 230 194
157 229 194
157 229 194
165 251 199
157 229 193
156 229 193
156 228 193
156 228 193
164 249 198
155 227 192
163 248 197
154 226 191
162 247 196
162 247 196
153 225 190
161 246 195
160 245 194
160 245 194
159 244 193
158 244 193
26 42 28
26 42 28
157 241 191
156 241 190
155 240 190
155 239 189
27 43 30
154 238 188
153 237 187
152 236 186
151 236 186
143 214 180
142 213 179
31 51 34
31 51 34
76 102 87
75 101 87
74 100 86
74 99 85
73 99 85
70 92 82
71 97 83
71 97 82
142 226 177
142 225 176
141 224 175
140 224 174
139 223 174
139 222 173
130 201 167
137 221 172
137 220 171
64 90 76
63 89 75
63 89 75
62 88 74
62 87 73
61 87 73
132 216 167
132 215 166
131 214 165
131 214 165
122 193 159
122 192 159
121 191 158
128 212 163
56 82 68
56 81 67
55 81 67
55 80 67
54 80 66
54 80 66
53 79 65
53 79 65
53 78 65
52 78 64
30 47 34
33 53 36
30 46 34
30 46 34
33 53 36
30 46 34
33 52 35
32 52 35
32 52 35
32 52 35
32 52 35
32 52 35
32 52 35
32 52 35
111 181 148
111 181 147
110 181 147
110 180 147
110 180 147
117 201 152
117 201 152
117 200 151
45 71 57
45 71 57
45 71 57
45 70 57
45 70 56
44 70 56
30 46 34
30 46 34
30 46 34
30 46 34
33 53 36
115 198 149
115 198 149
115 198 149
114 198 149
114 198 149
114 198 149
114 198 148
114 198 148
114 197 148
114 197 148
42 68 55
42 68 54
42 68 54
42 68 54
42 68 54
42 68 54
42 68 54
42 68 54
32 48 36
32 48 36
32 48 36
42 67 54
42 67 54
42 67 54
42 67 54
42 67 54
42 67 54
42 67 54
113 195 147
113 195 147
113 195 147
113 195 147
39 61 52
39 61 52
39 61 52
39 61 52
41 67 53
41 67 53
41 67 53
39 61 51
41 67 53
41 67 53
41 67 53
41 67 53
41 67 53
30 47 34
104 174 141
104 174 141
104 174 141
104 174 141
104 174 141
112 195 146
112 195 146
112 195 146
112 195 146
39 65 51
39 65 51
39 65 51
39 65 51
39 65 51
30 50 33
29 49 31
28 48 30
102 174 139
110 195 144
102 174 139
102 174 139
102 174 139
102 174 139
110 195 144
109 195 144
109 195 144
109 195 144
109 195 144
109 195 144
101 174 138
109 195 144
109 195 144
110 195 144
110 195 144
110 196 144
110 196 144
110 196 144
101 174 138
101 174 138
102 174 138
102 174 138
110 196 144
102 174 138
102 174 138
102 174 139
110 196 144
110 196 144
110 196 144
110 196 144
110 196 144
110 196 144
110 196 144
102 175 139
110 197 145
111 197 145
111 197 145
103 175 139
103 175 139
103 175 140
103 176 140
103 176 140
103 176 140
103 176 140
104 176 140
112 198 146
112 198 146
112 198 146
112 199 146
113 199 147
113 199 147
113 199 147
113 200 147
114 200 148
106 178 142
114 200 148
106 179 143
106 179 143
107 179 144
107 180 144
107 180 144
108 180 145
116 203 150
108 181 145
117 203 151
109 182 146
110 182 146
118 205 152
119 205 153
119 206 153
120 206 154
112 185 149
121 207 155
121 208 155
114 186 150
114 187 151
115 188 152
115 188 152
116 189 153
117 189 153
117 190 154
118 191 155
119 191 155
119 192 156
120 193 157
121 193 157
121 194 158
122 195 159
131 217 165
132 218 166
124 197 161
133 220 167
126 199 163
135 221 169
136 222 170
137 223 171
137 224 172
130 203 167
131 204 168
132 205 169
133 205 169
134 206 170
143 229 177
135 208 172
144 231 178
145 232 179
138 211 175
147 233 181
139 212 176
148 235 183
149 236 183
150 237 184
143 216 180
152 238 186
144 217 181
153 240 187
154 240 188
155 241 189
147 220 184
148 221 185
149 221 185
149 222 186
150 223 187
151 223 187
151 224 188
152 224 188
152 225 189
153 226 190
153 226 190
162 248 196
23 39 25
23 39 25
23 39 25
23 39 25
23 39 25
23 39 26
24 39 26
24 40 26
26 46 28
88 110 99
88 110 99
88 110 99
88 110 99
88 110 99
88 110 99
157 229 194
157 229 194
157 229 193
157 229 193
164 250 199
156 228 193
156 228 193
156 228 192
155 228 192
163 249 197
155 227 192
163 248 197
154 226 191
162 247 196
161 247 195
161 246 195
160 246 194
160 245 194
159 244 193
159 244 193
26 41 28
26 42 28
26 42 29
156 241 191
156 241 190
155 240 189
27 43 30
27 43 30
153 238 188
153 237 187
152 236 186
143 214 180
143 214 179
142 213 179
141 212 178
31 51 34
73 95 86
72 94 85
74 100 86
73 99 85
73 98 84
72 98 84
71 97 83
143 226 177
142 226 176
141 225 176
141 224 175
140 224 174
139 223 174
139 222 173
138 221 172
137 221 172
137 220 171
136 219 170
135 219 170
63 88 74
62 88 74
61 87 73
133 216 167
132 216 167
132 215 166
123 194 160
131 214 165
130 213 164
129 213 164
129 212 163
128 212 163
128 211 162
56 81 67
55 81 67
55 80 66
54 80 66
54 80 66
53 79 65
53 79 65
53 78 64
52 78 64
52 78 64
30 47 34
30 47 34
33 53 36
33 53 36
33 53 36
33 53 36
33 52 35
32 52 35
32 52 35
32 52 35
32 52 35
32 52 35
32 52 35
32 52 35
111 181 147
110 181 147
118 201 152
118 201 152
117 201 152
117 201 152
117 200 151
117 200 151
45 71 57
45 70 57
45 70 56
44 70 56
44 70 56
44 70 56
44 70 56
30 46 34
30 46 34
30 46 34
115 198 149
115 198 149
115 198 149
114 198 149
114 198 149
114 198 149
114 198 148
114 198 148
114 197 148
114 197 148
40 62 53
42 68 54
42 68 54
42 68 54
42 68 54
42 68 54
42 68 54
42 68 54
42 68 54
42 67 54
42 67 54
42 67 54
42 67 54
42 67 54
42 67 54
42 67 54
113 195 147
113 195 147
113 195 147
113 195 147
105 175 142
113 195 147
39 61 52
39 61 52
113 195 147
112 195 147
41 67 53
41 67 53
39 61 51
41 67 53
41 67 53
41 67 53
41 67 53
41 67 53
41 67 53
41 66 53
104 174 141
104 174 141
104 174 141
112 195 146
112 195 146
112 195 146
112 195 146
112 195 146
39 65 51
39 65 51
39 65 51
39 65 51
39 65 51
39 65 51
29 45 32
103 174 140
102 174 139
28 48 29
102 174 139
110 195 144
102 174 139
110 195 144
109 195 143
109 195 143
101 174 138
109 195 144
109 195 144
109 195 144
101 174 138
109 195 144
101 174 138
109 195 144
109 195 144
109 195 144
110 196 144
110 196 144
101 174 138
101 174 138
101 174 138
102 174 138
102 174 138
102 174 138
102 174 138
110 196 144
110 196 144
110 196 144
110 196 144
110 196 144
110 196 144
110 196 144
110 196 144
110 196 144
102 175 139
110 197 145
102 175 139
102 175 139
111 197 145
103 175 139
103 175 140
103 176 140
103 176 140
103 176 140
103 176 140
103 176 140
112 198 146
104 176 141
112 198 146
104 177 141
113 199 147
113 199 147
105 178 142
113 200 147
113 200 148
114 200 148
114 200 148
106 179 143
106 179 143
107 179 143
107 180 144
116 202 150
108 180 144
116 203 150
108 181 145
117 203 151
109 182 146
118 204 152
118 205 152
119 205 153
119 206 153
111 184 148
120 207 154
121 207 155
121 208 155
122 208 156
114 187 151
115 187 151
115 188 152
116 189 153
125 211 159
117 190 154
118 191 155
118 191 155
119 192 156
128 214 162
121 193 157
121 194 158
130 217 164
123 196 159
123 196 160
132 219 166
133 220 167
126 199 163
127 199 163
127 200 164
136 223 170
137 224 171
130 203 167
131 204 168
132 204 168
132 205 169
133 206 170
134 207 171
135 208 172
136 209 173
137 209 173
137 210 174
138 211 175
147 234 181
148 235 182
149 235 183
150 236 184
142 215 179
151 238 185
144 217 181
145 218 181
154 240 188
154 241 188
147 220 184
148 220 184
156 243 190
157 244 191
150 222 186
150 223 187
151 224 188
151 224 188
152 225 189
152 225 189
161 247 195
161 248 195
154 226 190
23 39 25
23 39 25
23 39 25
23 39 26
24 39 26
24 40 26
24 40 26
89 115 100
90 116 100
87 109 99
90 116 100
90 116 100
87 109 99
87 109 99
165 250 199
156 229 193
156 229 193
156 228 193
156 228 193
156 228 193
164 249 198
155 228 192
155 227 192
155 227 191
154 226 191
162 248 196
154 226 191
161 247 195
153 225 190
160 246 195
160 245 194
159 245 194
151 223 188
25 41 28
26 42 28
26 42 28
26 42 29
156 241 190
155 240 190
27 43 30
27 43 30
27 43 30
153 237 187
152 237 187
144 215 181
143 214 180
150 235 185
142 213 179
141 212 178
140 211 177
140 211 176
72 94 85
72 93 84
73 99 85
73 98 84
72 98 83
143 227 178
143 226 177
142 226 176
141 225 176
141 224 175
140 223 174
139 223 174
139 222 173
130 201 167
129 200 166
129 199 166
136 219 170
135 219 170
135 218 169
62 88 74
133 217 168
133 216 167
132 216 166
132 215 166
123 194 160
130 214 165
130 213 164
129 213 164
121 191 158
128 212 163
128 211 162
127 211 162
127 210 161
55 80 66
54 80 66
54 79 66
53 79 65
53 79 65
50 72 63
52 78 64
52 77 64
49 71 62
51 77 63
33 53 36
33 53 36
33 53 36
33 53 36
33 53 36
33 53 35
33 52 35
32 52 35
32 52 35
32 52 35
32 52 35
32 52 35
32 52 35
30 46 34
118 201 152
118 201 152
117 201 152
117 201 152
117 200 151
117 200 151
45 71 57
45 70 57
45 70 56
44 70 56
44 70 56
44 70 56
44 70 56
44 70 56
30 47 34
29 45 33
115 198 149
115 198 149
114 198 149
114 198 149
114 198 149
114 198 149
114 198 148
114 198 148
114 197 148
114 197 148
42 68 54
42 68 54
42 68 54
42 68 54
42 68 54
42 68 54
42 68 54
39 61 52
39 61 52
42 67 54
42 67 54
42 67 54
42 67 54
42 67 54
113 195 147
113 195 147
113 195 147
113 195 147
113 195 147
113 195 147
113 195 147
113 195 147
105 175 142
112 195 147
112 195 147
112 195 147
39 61 51
41 67 53
41 67 53
41 67 53
41 67 53
41 67 53
41 67 53
41 66 53
41 66 53
41 66 53
104 174 141
112 195 146
112 195 146
112 195 146
112 195 146
112 195 146
112 195 146
39 65 51
39 65 51
39 65 51
39 65 51
39 65 51
39 65 51
39 65 51
39 65 51
30 50 33
29 49 31
28 48 30
102 174 139
110 195 144
109 195 143
101 174 138
109 195 143
109 195 143
109 195 143
101 174 138
109 195 143
109 195 143
109 195 143
109 195 144
101 174 138
109 195 144
109 195 144
109 195 144
109 196 144
110 196 144
110 196 144
110 196 144
101 174 138
101 174 138
102 174 138
110 196 144
110 196 144
110 196 144
110 196 144
110 196 144
102 174 139
110 196 144
110 196 144
110 196 144
110 196 144
110 196 144
110 197 144
102 175 139
111 197 145
102 175 139
111 197 145
103 175 139
103 175 140
103 176 140
103 176 140
111 198 145
111 198 146
112 198 146
112 198 146
112 198 146
104 177 141
104 177 141
113 199 147
113 199 147
105 177 142
113 200 147
113 200 148
114 200 148
114 200 148
114 201 148
106 179 143
107 179 143
107 180 144
107 180 144
108 180 144
108 181 145
117 203 151
109 182 146
109 182 146
110 182 146
118 205 152
110 183 147
119 205 153
120 206 154
120 206 154
121 207 155
121 207 155
113 186 150
122 209 156
115 187 151
115 188 152
116 189 153
116 189 153
117 190 154
118 190 154
118 191 155
119 192 156
120 192 156
129 215 163
129 216 163
130 216 164
131 217 165
131 218 166
132 219 166
133 219 167
134 220 168
126 199 163
127 200 164
128 201 165
137 223 171
130 202 166
130 203 167
131 204 168
132 205 169
141 228 175
134 207 171
135 207 171
144 230 178
145 231 179
145 232 179
146 233 180
139 212 176
148 234 182
149 235 183
149 236 183
150 237 184
143 216 180
144 216 180
153 239 187
145 218 182
146 219 183
146 219 183
147 220 184
148 221 185
148 221 185
149 222 186
150 223 186
150 223 187
151 224 188
151 224 188
160 246 194
161 247 195
161 247 195
161 248 195
162 248 196
154 227 191
23 39 25
24 39 26
24 40 26
86 108 98
89 115 99
89 115 100
87 109 98
87 109 98
87 109 98
87 109 98
87 109 98
89 115 100
156 228 193
156 228 193
156 228 193
156 228 192
156 228 192
155 228 192
155 227 192
155 227 192
155 227 191
154 227 191
162 248 196
154 226 191
153 225 190
161 246 195
152 224 189
160 245 194
152 223 188
159 244 193
25 41 28
26 41 28
26 42 28
26 42 29
26 42 29
156 241 190
27 43 29
27 43 30
27 43 30
153 238 188
153 237 187
144 215 181
144 215 180
143 214 180
142 213 179
141 212 178
141 212 178
140 211 177
139 210 176
139 210 175
71 93 84
71 93 83
70 92 82
144 228 178
143 227 178
143 226 177
142 225 176
141 225 175
140 224 175
140 223 174
139 223 173
131 201 167
130 200 167
129 200 166
129 199 166
128 198 165
135 219 169
135 218 169
134 217 168
133 217 168
133 216 167
132 216 166
132 215 166
131 214 165
130 214 165
130 213 164
122 192 158
121 191 158
120 191 157
128 211 162
127 211 162
127 210 161
126 210 161
54 80 66
54 79 65
53 79 65
53 79 65
52 78 64
52 78 64
49 71 62
51 77 63
49 70 61
48 70 61
33 53 36
33 53 36
33 53 36
33 53 36
33 53 36
33 53 36
33 52 35
32 52 35
32 52 35
32 52 35
30 46 34
32 52 35
30 46 34
30 46 34
30 46 33
117 201 152
117 201 152
117 200 151
117 200 151
42 64 55
45 70 56
44 70 56
44 70 56
44 70 56
44 70 56
44 70 56
44 70 56
44 70 56
29 45 33
29 45 33
29 45 33
114 198 149
114 198 149
114 198 149
114 198 148
114 198 148
114 198 148
114 197 148
114 197 148
42 68 54
42 68 54
42 68 54
42 68 54
42 68 54
39 61 52
39 61 52
39 61 52
39 61 52
42 67 54
42 67 54
42 67 54
105 175 142
113 195 147
113 195 147
113 195 147
113 195 147
105 175 142
113 195 147
113 195 147
105 175 142
105 175 142
105 175 142
112 195 147
112 195 147
112 195 147
112 195 147
41 67 53
41 67 53
41 67 53
41 67 53
41 66 53
41 66 53
41 66 53
41 66 53
38 60 51
38 60 51
112 195 146
112 195 146
112 195 146
112 195 146
112 195 146
39 65 51
39 65 51
39 65 51
39 65 51
39 65 51
39 65 51
39 65 51
39 65 51
39 65 51
31 51 33
30 50 32
29 49 31
102 174 139
110 195 144
109 195 143
109 195 143
109 195 143
101 174 138
109 195 143
109 195 143
101 174 138
109 195 143
109 195 143
109 195 143
109 195 143
101 174 138
109 195 144
109 195 144
109 196 144
109 196 144
101 174 138
110 196 144
110 196 144
101 174 138
110 196 144
102 174 138
110 196 144
110 196 144
110 196 144
102 174 138
110 196 144
110 196 144
110 196 144
110 196 144
110 196 144
110 196 144
110 197 144
110 197 144
110 197 145
111 197 145
103 175 139
111 197 145
103 175 140
103 176 140
103 176 140
111 198 145
111 198 146
112 198 146
112 198 146
104 176 141
112 198 146
112 199 146
113 199 147
113 199 147
113 199 147
113 199 147
105 178 142
105 178 142
114 200 148
114 201 148
114 201 149
107 179 143
107 180 144
107 180 144
116 202 150
108 181 145
116 203 151
117 203 151
117 204 151
118 204 152
118 205 152
119 205 153
119 205 153
119 206 154
120 206 154
120 207 155
121 207 155
122 208 156
122 209 156
123 209 157
115 188 152
124 210 158
116 189 153
117 190 154
117 190 154
118 191 155
119 192 156
128 214 162
128 215 162
129 216 163
130 216 164
131 217 165
123 196 160
132 219 166
133 219 167
134 220 168
126 199 163
135 222 169
128 201 165
129 201 165
129 202 166
138 225 172
131 204 168
132 205 169
133 206 169
142 228 176
143 229 177
135 208 172
144 231 178
137 210 174
138 210 174
147 233 181
147 234 182
140 213 177
141 214 178
150 236 184
151 237 185
143 216 180
144 217 181
153 239 187
145 218 182
146 219 183
147 220 184
156 242 190
148 221 185
149 221 185
149 222 186
150 223 187
150 223 187
159 246 193
160 246 194
160 247 194
161 247 195
161 247 195
153 226 190
162 248 196
162 248 196
24 40 26
88 114 98
88 114 99
86 108 97
88 114 99
89 115 99
86 108 98
86 108 98
86 108 98
86 108 98
86 108 98
156 228 192
155 228 192
155 228 192
155 228 192
163 249 197
163 249 197
155 227 191
154 227 191
154 226 191
162 248 196
26 46 28
153 225 190
153 225 190
152 224 189
152 224 189
152 224 188
159 245 193
151 223 187
25 41 28
26 42 28
26 42 29
26 42 29
156 241 190
27 42 29
27 43 30
27 43 30
27 43 30
153 238 187
145 216 181
144 215 181
143 214 180
143 214 179
142 213 179
141 212 178
140 212 177
140 211 177
139 210 176
138 209 175
138 209 175
137 208 174
137 207 174
136 207 173
143 227 177
142 226 177
142 225 176
141 225 175
140 224 175
140 223 174
131 202 168
130 201 167
130 200 167
129 200 166
128 199 165
128 198 165
127 198 164
127 197 164
134 217 168
133 217 168
133 216 167
132 216 166
124 194 161
131 214 165
130 214 165
122 192 159
129 213 164
121 191 158
120 191 157
120 190 157
119 190 156
127 210 161
126 210 161
126 209 160
125 209 160
53 79 65
53 78 65
52 78 64
52 78 64
52 77 63
49 71 62
49 70 61
48 70 61
48 70 61
48 69 60
33 53 36
33 53 36
30 46 34
33 53 36
33 53 36
33 53 35
33 52 35
32 52 35
32 52 35
32 52 35
30 46 34
30 46 34
30 46 34
30 46 34
78 129 85
117 200 151
117 200 151
117 200 151
45 70 56
44 70 56
44 70 56
44 70 56
44 70 56
44 70 56
44 70 56
29 45 33
29 45 33
29 45 33
29 45 33
29 45 33
29 45 33
114 198 149
114 198 148
114 198 148
114 198 148
114 197 148
114 197 148
42 68 54
42 68 54
42 68 54
39 61 52
39 61 52
39 61 52
39 61 52
39 61 52
39 61 52
39 61 52
42 67 54
113 195 147
113 195 147
113 195 147
105 175 142
113 195 147
113 195 147
113 195 147
105 175 142
105 175 142
112 195 147
105 175 142
105 175 142
112 195 147
112 195 147
112 195 147
105 175 142
41 67 53
41 67 53
41 66 53
41 66 53
41 66 53
41 66 53
38 60 51
38 60 51
38 60 51
38 60 51
112 195 146
112 195 146
112 195 146
112 195 146
39 65 51
37 59 49
39 65 51
39 65 51
39 65 51
39 65 51
39 65 51
39 65 51
37 58 49
103 174 140
102 174 139
102 174 139
102 174 139
102 174 139
110 195 144
24 40 26
109 195 143
109 195 143
109 195 143
101 174 138
101 174 138
109 195 143
109 195 143
109 195 143
109 195 143
109 195 143
101 174 138
109 195 143
109 195 144
109 196 144
109 196 144
109 196 144
110 196 144
101 174 138
101 174 138
110 196 144
110 196 144
110 196 144
110 196 144
102 174 138
110 196 144
110 196 144
110 196 144
110 196 144
102 175 139
110 196 144
102 175 139
110 197 144
110 197 144
110 197 145
111 197 145
103 175 139
111 197 145
111 197 145
111 197 145
103 176 140
111 198 145
111 198 145
112 198 146
112 198 146
112 198 146
112 198 146
112 199 146
112 199 147
105 177 141
105 177 142
113 199 147
113 200 147
114 200 148
114 200 148
114 201 148
114 201 148
115 201 149
107 180 144
107 180 144
116 202 150
116 202 150
116 203 150
109 181 145
117 204 151
118 204 152
118 204 152
118 205 153
119 205 153
119 206 153
120 206 154
112 185 149
121 207 155
113 186 150
114 187 151
123 209 157
123 210 157
115 188 152
116 189 153
117 190 153
117 190 154
126 213 160
127 213 161
128 214 162
120 193 157
129 215 163
121 194 158
130 217 164
131 218 165
124 196 160
124 197 161
125 198 162
126 199 163
135 221 169
136 222 170
137 223 171
129 202 166
138 225 172
139 225 173
132 204 168
132 205 169
133 206 170
134 207 171
143 230 177
136 209 172
145 231 179
145 232 180
146 233 180
147 234 181
140 213 176
140 213 177
149 236 183
150 237 184
151 237 185
152 238 186
152 239 186
153 240 187
154 240 188
154 241 189
147 220 184
148 220 184
156 243 190
149 222 186
158 244 192
158 245 192
159 245 193
159 246 193
160 246 194
160 246 194
160 247 194
161 247 195
161 248 195
161 248 196
154 226 190
85 107 96
87 113 98
88 114 98
88 114 99
88 114 99
88 114 99
88 114 99
86 108 97
86 108 97
163 249 197
155 227 192
155 227 192
155 227 192
163 249 197
155 227 191
154 227 191
154 227 191
154 226 191
154 226 190
26 46 28
27 47 28
161 246 195
161 246 195
160 246 194
160 245 194
151 223 188
159 244 193
150 222 187
158 243 192
26 42 28
26 42 29
26 42 29
156 241 190
27 43 30
27 43 30
27 43 30
27 43 30
145 216 182
144 215 181
144 215 181
143 214 180
142 213 179
142 213 178
141 212 178
140 211 177
140 211 176
139 210 176
138 209 175
137 209 174
137 208 174
136 207 173
136 206 173
135 206 172
142 226 176
134 204 171
141 225 175
140 224 174
132 202 169
131 202 168
130 201 167
130 200 167
129 200 166
128 199 165
128 198 165
127 198 164
126 197 163
126 196 163
133 217 167
133 216 167
132 215 166
131 215 166
131 214 165
122 193 159
130 213 164
121 192 158
121 191 158
120 191 157
120 190 157
119 190 156
119 189 156
118 189 155
126 209 160
118 188 154
125 208 159
53 78 64
52 78 64
52 78 64
52 77 63
49 71 61
48 70 61
48 70 61
48 70 60
48 69 60
47 69 60
47 69 60
33 53 36
33 53 36
33 53 36
30 46 34
33 53 36
33 52 35
30 46 34
32 52 35
30 46 34
30 46 34
30 46 34
30 46 34
30 46 34
30 46 33
117 200 151
117 200 151
116 200 151
116 200 151
44 70 56
44 70 56
44 70 56
44 70 56
44 70 56
29 46 33
29 45 33
29 45 33
29 45 33
29 45 33
29 45 33
32 52 34
78 129 85
114 198 148
114 198 148
114 197 148
114 197 148
42 68 54
40 61 52
39 61 52
39 61 52
39 61 52
39 61 52
39 61 52
39 61 52
39 61 52
105 175 142
113 195 147
113 195 147
113 195 147
113 195 147
113 195 147
113 195 147
105 175 142
105 175 142
105 175 142
105 175 142
105 175 142
105 175 142
105 175 142
105 175 142
112 195 147
112 195 147
105 175 142
41 66 53
41 66 53
41 66 53
41 66 53
41 66 53
38 60 51
38 60 51
38 60 51
40 66 52
38 60 51
38 60 51
112 195 146
112 195 146
112 195 146
39 65 51
39 65 51
39 65 51
39 65 51
39 65 51
39 65 51
39 65 51
103 174 140
102 174 139
102 174 139
110 195 144
102 174 139
102 174 139
102 174 139
102 174 139
110 195 144
109 195 143
109 195 143
101 174 138
101 174 138
101 174 138
109 195 143
109 195 143
109 195 143
109 195 143
109 195 143
109 195 143
101 174 138
109 195 143
101 174 138
101 174 138
101 174 138
101 174 138
101 174 138
110 196 144
101 174 138
110 196 144
110 196 144
110 196 144
102 174 138
102 174 138
102 174 138
110 196 144
102 174 139
102 175 139
110 196 144
110 196 144
110 197 144
102 175 139
110 197 145
111 197 145
102 175 139
111 197 145
103 175 139
111 197 145
111 197 145
111 198 145
111 198 145
112 198 146
112 198 146
112 198 146
104 177 141
112 199 146
104 177 141
113 199 147
113 199 147
113 199 147
113 200 147
105 178 142
114 200 148
114 200 148
114 201 148
115 201 149
115 201 149
107 180 144
107 180 144
116 202 150
116 203 150
117 203 151
117 204 151
118 204 152
118 204 152
118 205 152
119 205 153
111 184 148
120 206 154
120 207 154
113 185 149
121 208 155
122 208 156
122 209 156
123 209 157
124 210 158
116 189 153
125 211 159
125 212 159
126 213 160
127 213 161
127 214 161
128 215 162
129 215 163
129 216 163
130 217 164
131 217 165
123 196 160
132 219 166
133 220 167
126 199 162
126 199 163
135 222 169
136 223 170
137 224 171
130 202 166
139 225 173
131 204 168
132 205 169
141 228 175
134 207 170
143 229 177
144 230 178
136 209 173
145 232 179
146 232 180
147 233 181
139 212 176
148 235 182
149 236 183
150 236 184
151 237 185
143 216 180
144 217 181
144 217 181
145 218 182
154 241 188
146 219 183
147 220 184
148 221 184
148 221 185
157 244 191
158 244 192
158 245 192
159 245 193
159 246 193
151 224 188
160 246 194
160 247 194
161 247 195
161 247 195
161 248 195
162 248 196
87 113 98
87 113 98
87 113 98
87 113 98
88 114 98
88 114 98
88 114 98
155 227 191
155 227 191
163 249 197
163 249 197
154 227 191
154 227 191
154 226 191
154 226 191
154 226 190
153 226 190
26 46 28
27 46 28
27 47 28
152 224 189
152 224 189
152 224 188
159 245 193
159 244 193
158 244 193
150 222 187
157 243 192
149 221 186
26 42 29
82 108 93
155 240 190
155 240 189
27 43 30
27 43 30
80 106 91
153 237 187
144 215 181
143 214 180
151 235 185
142 213 179
141 212 178
141 212 178
140 211 177
139 210 176
139 210 175
138 209 175
145 229 179
137 208 173
136 207 173
135 206 172
135 205 172
134 205 171
133 204 170
141 224 175
132 203 169
131 202 168
131 201 168
130 201 167
129 200 166
129 199 166
128 199 165
135 219 170
127 198 164
126 197 163
134 217 168
125 196 162
125 195 161
132 215 166
131 215 166
131 214 165
122 193 159
122 192 159
121 192 158
129 212 163
120 191 157
120 190 157
119 190 156
119 189 156
118 189 155
118 188 155
125 209 160
125 208 159
124 208 159
124 207 158
52 78 64
49 71 62
49 71 61
48 70 61
48 70 61
48 70 60
47 69 60
47 69 60
49 75 61
47 68 59
33 53 36
33 53 36
33 53 36
33 53 36
33 53 36
33 53 35
30 46 34
30 46 34
30 46 34
30 46 34
30 46 34
30 46 34
30 46 34
30 46 34
30 46 33
116 200 151
116 200 151
116 199 150
116 199 150
44 70 56
44 70 56
30 46 33
30 46 33
30 46 33
29 46 33
29 45 33
29 45 33
29 45 33
29 45 33
29 45 33
32 52 34
114 198 148
114 197 148
114 197 148
39 61 52
39 61 52
39 61 52
39 61 52
39 61 52
39 61 52
39 61 52
105 175 142
105 175 142
105 175 142
113 195 147
113 195 147
113 195 147
113 195 147
105 175 142
105 175 142
105 175 142
105 175 142
105 175 142
105 175 142
105 175 142
105 175 142
105 175 142
105 175 142
112 195 147
112 195 147
112 195 147
112 195 147
41 66 53
41 66 53
38 60 51
38 60 51
38 60 51
38 60 51
38 60 51
38 60 51
40 66 52
40 66 52
112 195 146
112 195 146
112 195 146
112 195 146
39 65 51
39 65 51
39 65 51
39 65 51
37 58 49
110 195 145
102 174 139
102 174 139
102 174 139
110 195 144
102 174 139
102 174 139
102 174 139
102 174 139
110 195 144
24 40 26
101 174 138
101 174 138
109 195 143
109 195 143
109 195 143
109 195 143
109 195 143
109 195 143
109 195 143
101 174 138
109 195 143
109 195 143
109 196 143
101 174 138
101 174 138
101 174 138
101 174 138
101 174 138
101 174 138
101 174 138
101 174 138
102 174 138
110 196 144
110 196 144
102 174 138
110 196 144
110 196 144
110 196 144
110 196 144
110 196 144
110 197 144
110 197 144
110 197 144
111 197 145
102 175 139
103 175 139
111 197 145
111 197 145
111 197 145
111 198 145
111 198 145
103 176 140
112 198 146
112 198 146
112 198 146
112 199 146
112 199 146
113 199 147
105 177 141
113 199 147
105 178 142
114 200 148
114 200 148
114 200 148
114 201 148
106 179 143
107 180 144
115 202 149
116 202 150
116 202 150
108 181 145
108 181 145
117 204 151
117 204 151
118 204 152
110 183 147
119 205 153
119 206 153
111 184 148
120 207 154
121 207 155
121 208 155
122 208 156
122 209 156
115 187 151
123 210 157
116 189 153
125 211 159
125 212 159
126 212 160
126 213 161
119 192 156
128 214 162
120 193 157
129 216 163
130 216 164
131 217 165
123 196 160
132 219 166
125 198 161
134 220 168
126 199 163
135 222 169
136 222 170
137 223 171
138 224 172
130 203 167
139 226 173
140 226 174
141 227 175
133 206 170
142 229 176
143 230 177
136 209 173
145 231 179
146 232 180
138 211 175
147 234 181
148 234 182
149 235 183
149 236 183
150 237 184
143 215 179
151 238 186
144 217 181
145 218 181
154 240 188
146 219 183
147 219 183
155 242 189
148 221 185
157 243 191
149 222 186
158 244 192
158 245 192
159 245 193
151 224 188
151 224 188
160 246 194
160 247 194
160 247 194
161 247 195
161 247 195
161 248 195
87 113 97
84 106 96
87 113 98
87 113 98
87 113 98
162 248 196
162 248 196
154 226 191
154 226 191
154 226 191
154 226 191
154 226 191
154 226 190
153 226 190
153 226 190
26 46 28
26 46 28
27 47 28
160 246 194
152 224 189
152 224 188
159 245 193
159 244 193
150 222 187
158 243 192
149 221 186
149 221 186
156 242 191
148 220 185
82 108 93
155 240 189
154 239 189
154 239 188
153 238 187
80 106 91
152 237 186
152 236 186
143 214 180
142 214 179
142 213 179
141 212 178
140 212 177
140 211 177
139 210 176
138 209 175
138 209 175
137 208 174
144 229 178
136 207 173
135 206 172
135 205 172
134 205 171
133 204 170
133 203 169
132 203 169
131 202 168
131 201 168
130 201 167
129 200 166
129 199 166
128 199 165
127 198 164
127 197 164
126 197 163
126 196 163
125 196 162
124 195 161
124 194 161
131 215 165
123 193 160
122 193 159
122 192 159
121 192 158
121 191 158
120 191 157
120 190 157
119 190 156
119 189 156
118 189 155
118 188 155
117 188 154
117 187 154
124 208 159
124 207 158
116 186 153
115 186 152
49 71 61
48 70 61
48 70 61
48 70 60
50 75 62
49 75 61
47 69 59
47 68 59
46 68 59
46 68 59
33 53 36
33 53 36
33 53 36
30 46 34
30 46 34
30 46 34
30 46 34
30 46 34
30 46 34
30 46 34
30 46 34
30 46 34
30 46 34
30 46 33
78 129 85
116 199 150
116 199 150
116 199 150
41 63 54
32 52 35
30 46 33
30 46 33
30 46 33
30 46 33
29 45 33
29 45 33
29 45 33
29 45 33
29 45 33
29 45 33
29 45 33
114 197 148
39 61 52
39 61 52
39 61 52
39 61 52
39 61 52
105 175 142
105 175 142
105 175 142
105 175 142
105 175 142
105 175 142
113 195 147
105 175 142
105 175 142
105 175 142
105 175 142
105 175 142
105 175 142
105 175 142
105 175 142
105 175 142
105 175 142
105 175 142
105 175 141
105 175 141
112 195 147
112 195 147
112 195 147
38 60 51
38 60 51
38 60 51
38 60 51
38 60 51
38 60 51
38 60 51
40 66 52
38 60 51
38 60 51
32 52 35
112 195 146
112 195 146
111 195 146
39 65 51
39 65 51
37 58 49
103 174 140
102 174 139
110 195 144
102 174 139
102 174 139
102 174 139
102 174 139
110 195 144
102 174 139
102 174 139
102 174 139
110 195 144
24 40 26
109 195 143
109 195 143
101 174 138
109 195 143
109 195 143
101 174 138
109 195 143
109 195 143
109 195 143
109 195 143
109 195 143
101 174 138
101 174 138
109 196 143
101 174 138
101 174 138
101 174 138
101 174 138
110 196 144
110 196 144
110 196 144
110 196 144
110 196 144
110 196 144
110 196 144
110 196 144
102 174 139
110 196 144
110 196 144
110 196 144
110 197 144
102 175 139
102 175 139
102 175 139
102 175 139
103 175 139
103 175 139
103 175 140
103 176 140
111 198 145
111 198 145
111 198 146
103 176 140
112 198 146
112 198 146
112 199 146
104 177 141
113 199 147
113 199 147
113 199 147
113 200 147
113 200 148
114 200 148
114 200 148
106 179 143
106 179 143
107 179 143
107 180 144
116 202 150
116 202 150
116 203 150
117 203 151
109 182 146
117 204 151
118 204 152
118 205 152
110 183 147
119 206 153
111 184 148
120 207 154
121 207 155
113 186 150
113 186 150
122 209 156
123 209 157
115 188 152
116 188 152
124 211 158
117 190 154
126 212 160
126 213 160
127 214 161
119 192 156
128 215 162
129 216 163
130 216 164
122 195 159
131 218 165
132 218 166
133 219 167
133 220 167
134 221 168
135 221 169
136 222 170
136 223 170
137 224 171
130 203 167
139 225 173
131 204 168
140 227 174
133 206 170
134 207 171
135 207 171
135 208 172
144 231 178
137 210 174
146 232 180
138 211 175
147 234 181
148 235 182
149 235 183
150 236 184
150 237 184
151 238 185
152 238 186
152 239 186
145 218 182
154 240 188
154 241 188
155 241 189
155 242 189
148 221 185
157 243 191
157 244 191
158 244 192
150 223 187
158 245 192
159 245 193
159 246 193
160 246 194
160 246 194
152 225 189
152 225 189
161 247 195
161 247 195
86 112 97
86 112 97
84 106 95
162 248 196
162 248 196
162 248 196
162 248 196
153 226 190
153 226 190
153 226 190
153 226 190
153 225 190
161 247 195
26 46 28
26 46 28
27 47 28
27 47 28
152 224 189
151 223 188
151 223 188
159 244 193
158 244 192
150 222 187
157 243 192
149 221 186
157 242 191
148 220 185
156 241 190
155 240 189
146 218 183
154 239 188
153 238 188
153 238 187
152 237 186
152 236 186
151 236 185
151 235 185
150 234 184
141 213 178
141 212 178
140 211 177
139 211 176
139 210 176
138 209 175
137 209 174
137 208 174
136 207 173
135 206 172
30 50 33
134 205 171
134 204 171
133 204 170
140 224 175
140 223 174
139 223 173
130 201 167
130 200 167
129 200 166
129 199 165
128 199 165
127 198 164
127 197 164
126 197 163
126 196 162
125 195 162
124 195 161
124 194 161
131 215 165
131 214 165
122 193 159
122 192 159
121 192 158
121 191 158
120 191 157
127 211 162
119 190 156
119 189 156
118 189 155
118 188 155
117 188 154
117 187 154
117 187 153
116 187 153
116 186 153
115 186 152
115 185 152
48 70 61
48 70 61
48 69 60
47 69 60
47 69 60
47 69 59
46 68 59
46 68 59
46 68 59
46 67 58
33 53 36
30 46 34
30 46 34
33 53 36
30 46 34
30 46 34
30 46 34
32 52 35
30 46 34
30 46 34
30 46 34
30 46 34
30 46 34
30 46 34
32 52 35
116 199 150
116 199 150
32 52 35
30 46 33
30 46 33
30 46 33
30 46 33
30 46 33
30 46 33
29 46 33
29 45 33
29 45 33
29 45 33
29 45 33
29 45 33
29 45 33
39 61 52
39 61 52
39 61 52
105 175 142
105 175 142
105 175 142
113 195 147
105 175 142
105 175 142
105 175 142
113 195 147
105 175 142
105 175 142
105 175 142
105 175 142
105 175 142
105 175 142
105 175 142
105 175 142
105 175 142
105 175 142
105 175 141
105 175 141
105 175 141
104 175 141
112 195 147
112 195 147
112 195 147
104 175 141
38 60 51
38 60 51
38 60 51
38 60 51
38 60 51
38 60 51
40 66 52
38 60 51
38 60 50
38 60 50
111 195 146
111 195 146
111 195 146
104 174 140
103 174 140
102 174 139
110 195 144
102 174 139
102 174 139
102 174 139
102 174 139
102 174 139
102 174 139
102 174 139
102 174 139
110 195 144
102 174 139
102 174 139
110 195 144
24 40 26
109 195 143
101 174 138
109 195 143
109 195 143
109 195 143
109 195 143
109 195 143
109 195 143
101 174 138
109 195 143
101 174 138
101 174 138
101 174 138
101 174 138
101 174 138
101 174 138
101 174 138
101 174 138
101 174 138
110 196 144
110 196 144
110 196 144
110 196 144
110 196 144
102 174 138
110 196 144
110 196 144
110 196 144
102 175 139
110 196 144
102 175 139
102 175 139
102 175 139
111 197 145
102 175 139
103 175 139
103 175 140
103 176 140
111 198 145
111 198 145
111 198 146
112 198 146
112 198 146
112 198 146
112 199 146
112 199 146
113 199 147
105 177 141
105 178 142
113 200 147
113 200 147
114 200 148
106 179 143
106 179 143
106 179 143
107 179 143
107 180 144
107 180 144
108 180 144
116 203 150
108 181 145
117 203 151
109 182 146
118 204 152
118 205 152
119 205 153
119 205 153
119 206 153
120 206 154
120 207 154
113 186 150
113 186 150
122 209 156
114 187 151
123 210 157
115 188 152
116 189 153
125 211 159
125 212 160
126 213 160
127 213 161
127 214 161
120 193 157
129 215 163
121 194 158
122 195 159
123 196 159
132 218 166
132 219 166
133 220 167
134 220 168
135 221 169
127 200 164
136 223 170
137 223 171
129 202 166
130 203 167
139 226 173
140 227 174
141 227 175
142 228 176
142 229 176
143 230 177
144 230 178
145 231 179
145 232 179
146 233 180
147 234 181
148 234 182
140 213 177
149 236 183
142 215 178
151 237 185
151 238 185
152 238 186
153 239 187
145 218 182
146 218 182
154 241 188
147 220 183
155 242 189
156 243 190
156 243 191
157 243 191
157 244 191
158 244 192
158 245 192
150 223 187
159 245 193
159 246 193
160 246 194
152 225 188
160 247 194
160 247 194
160 247 195
86 112 96
161 247 195
161 247 195
153 225 190
161 247 195
161 247 195
153 225 190
153 225 190
153 225 190
153 225 189
152 225 189
26 46 28
26 46 28
27 46 28
27 47 28
27 47 28
151 223 188
151 223 188
151 223 187
150 222 187
150 222 187
157 243 192
157 243 191
148 221 185
156 242 190
148 220 184
147 219 184
155 240 189
154 239 188
153 239 188
153 238 187
152 237 187
152 237 186
151 236 185
151 235 185
150 235 184
150 234 184
149 233 183
140 212 177
140 211 177
139 210 176
138 210 175
138 209 175
137 208 174
136 208 173
136 207 173
30 50 32
30 50 33
134 205 171
133 204 170
141 225 175
140 224 174
139 223 174
139 223 173
138 222 172
130 200 167
129 200 166
128 199 165
128 198 165
127 198 164
127 197 163
126 197 163
125 196 162
125 195 162
124 195 161
132 215 166
131 215 165
130 214 165
130 213 164
122 192 158
121 192 158
121 191 157
120 191 157
120 190 156
119 190 156
119 189 156
118 189 155
118 188 155
117 188 154
117 187 154
116 187 153
124 207 158
124 207 158
115 186 152
115 185 152
115 185 152
114 185 151
48 69 60
47 69 60
47 69 60
49 75 61
46 68 59
46 68 59
46 68 58
46 67 58
45 67 58
47 73 59
33 53 36
30 46 34
33 53 36
33 53 36
30 46 34
30 46 34
30 46 34
30 46 34
30 46 34
30 46 34
30 46 34
30 46 34
30 46 34
30 46 34
30 46 33
30 46 33
30 46 33
30 46 33
30 46 33
30 46 33
30 46 33
30 46 33
32 52 35
30 46 33
29 46 33
29 45 33
29 45 33
29 45 33
29 45 33
105 175 142
105 175 142
105 175 142
105 175 142
105 175 142
105 175 142
105 175 142
105 175 142
105 175 142
113 195 147
112 195 147
105 175 142
105 175 142
105 175 142
105 175 142
105 175 142
105 175 142
105 175 142
105 175 142
105 175 142
105 175 141
105 175 141
104 175 141
104 175 141
112 195 147
104 175 141
104 175 141
104 175 141
104 175 141
38 60 51
38 60 51
38 60 51
38 60 51
38 60 51
38 60 51
38 60 50
38 60 50
38 60 50
38 60 50
111 195 146
104 174 140
103 174 140
102 174 139
102 174 139
110 195 144
102 174 139
110 195 144
102 174 139
102 174 139
102 174 139
102 174 139
110 195 144
102 174 139
102 174 138
110 195 144
102 174 138
102 174 138
110 195 144
24 40 26
109 195 143
109 195 143
109 195 143
109 195 143
109 195 143
101 174 138
101 174 138
101 174 138
101 174 138
101 174 138
109 195 143
101 174 138
101 174 138
101 174 138
101 174 138
101 174 138
101 174 138
101 174 138
110 196 144
110 196 144
110 196 144
110 196 144
110 196 144
110 196 144
102 174 138
102 174 139
110 196 144
110 196 144
110 196 144
102 175 139
110 197 144
102 175 139
110 197 144
102 175 139
102 175 139
111 197 145
103 175 139
111 197 145
103 176 140
111 198 145
111 198 145
112 198 146
112 198 146
112 198 146
112 199 146
112 199 146
104 177 141
105 177 141
113 199 147
113 200 147
105 178 142
114 200 148
106 179 142
106 179 143
106 179 143
115 201 149
107 180 144
107 180 144
108 180 144
108 181 145
116 203 150
117 203 151
117 204 151
118 204 152
118 205 152
118 205 152
119 205 153
119 206 153
120 206 154
112 185 149
121 207 155
121 208 155
114 187 150
114 187 151
115 188 152
115 188 152
116 189 153
116 189 153
125 212 159
126 212 160
127 213 161
127 214 161
128 214 162
129 215 163
129 216 163
130 217 164
131 217 165
123 196 160
124 197 161
125 198 161
134 220 168
126 199 163
135 222 169
128 201 164
128 201 165
137 224 171
130 203 167
131 204 167
140 226 174
132 205 169
141 228 175
142 229 176
135 207 171
143 230 178
136 209 173
145 232 179
138 210 174
146 233 181
147 234 181
148 235 182
140 213 177
149 236 183
142 215 179
151 237 185
143 216 180
144 217 181
144 217 181
153 240 187
154 240 188
154 241 188
155 241 189
155 242 189
156 242 190
156 243 190
157 243 191
157 244 191
158 244 192
158 245 192
158 245 192
159 245 193
159 246 193
159 246 193
159 246 194
160 246 194
160 246 194
160 247 194
160 247 194
160 246 194
160 246 194
160 247 195
160 247 195
160 246 195
152 225 189
152 225 189
160 246 194
26 46 27
26 46 28
26 46 28
27 47 28
27 47 28
27 47 28
151 223 188
158 244 193
158 244 192
150 222 187
157 243 192
157 242 191
157 242 191
156 242 190
156 241 190
147 219 184
155 240 189
154 240 188
146 218 182
153 238 187
152 238 187
152 237 186
151 236 186
151 236 185
150 235 184
150 234 184
149 234 183
149 233 183
140 211 177
139 211 176
139 210 176
138 209 175
137 209 174
145 229 179
136 207 173
30 50 32
30 50 33
135 205 171
134 205 171
141 225 175
133 203 169
140 224 174
139 223 173
139 222 173
138 222 172
137 221 172
129 199 166
128 199 165
128 198 164
127 198 164
126 197 163
126 196 163
125 196 162
125 195 162
124 195 161
131 215 166
131 214 165
130 214 165
130 213 164
129 213 164
129 212 163
120 191 157
120 190 157
119 190 156
119 189 156
119 189 155
118 189 155
118 188 155
117 188 154
125 208 159
124 208 159
124 207 158
123 207 158
123 206 157
123 206 157
115 185 151
114 185 151
114 184 151
47 69 60
47 69 59
47 68 59
46 68 59
46 68 59
46 68 58
45 67 58
45 67 58
47 73 59
47 73 59
47 73 59
30 46 34
30 46 34
30 46 34
30 46 34
30 46 34
30 46 34
30 46 34
30 46 34
30 46 34
30 46 34
30 46 34
30 46 34
116 199 150
44 69 55
43 69 55
30 46 33
30 46 33
30 46 33
30 46 33
30 46 33
30 46 33
30 46 33
30 46 33
30 46 33
29 46 33
29 45 33
29 45 33
105 175 142
105 175 142
105 175 142
105 175 142
105 175 142
105 175 142
105 175 142
113 195 147
113 195 147
112 195 147
112 195 147
105 175 142
105 175 142
112 195 147
105 175 142
105 175 142
105 175 142
105 175 142
105 175 141
105 175 141
105 175 141
104 175 141
112 195 147
112 195 147
112 195 147
104 175 141
104 175 141
104 175 141
104 175 141
38 60 51
38 60 51
38 60 51
38 60 51
38 60 50
38 60 50
38 60 50
38 60 50
38 60 50
40 66 52
111 195 145
102 174 139
102 174 139
102 174 139
110 195 144
102 174 139
102 174 139
102 174 139
102 174 139
102 174 139
102 174 138
102 174 138
102 174 138
102 174 138
102 174 138
102 174 138
102 174 138
102 174 138
102 174 138
24 40 27
24 40 26
109 195 143
109 195 143
109 195 143
109 195 143
101 174 138
101 174 138
101 174 138
101 174 138
101 174 138
101 174 138
101 174 138
101 174 138
109 196 143
101 174 138
101 174 138
109 196 144
101 174 138
101 174 138
110 196 144
110 196 144
110 196 144
110 196 144
110 196 144
110 196 144
110 196 144
110 196 144
102 175 139
102 175 139
102 175 139
102 175 139
102 175 139
102 175 139
102 175 139
102 175 139
111 197 145
103 175 139
103 176 140
103 176 140
103 176 140
111 198 145
112 198 146
112 198 146
112 198 146
104 177 141
112 199 146
112 199 146
113 199 147
105 177 141
105 178 142
105 178 142
105 178 142
114 200 148
106 179 143
106 179 143
106 179 143
107 180 144
107 180 144
107 180 144
108 181 145
116 203 150
117 203 151
117 204 151
117 204 152
118 204 152
110 183 147
119 205 153
119 206 153
120 206 154
120 207 154
112 185 149
113 186 150
113 186 150
114 187 151
115 187 151
115 188 152
116 189 152
116 189 153
117 190 154
126 212 160
126 213 160
127 214 161
128 214 162
120 193 157
129 216 163
130 216 164
130 217 164
123 196 160
132 218 166
124 197 161
133 220 167
134 221 168
127 199 163
127 200 164
128 201 165
129 202 166
130 202 166
130 203 167
131 204 168
140 227 174
133 206 169
142 228 176
142 229 176
135 208 172
144 230 178
145 231 179
145 232 179
146 233 180
147 233 181
147 234 181
148 235 182
149 235 183
141 214 178
150 237 184
143 216 179
143 216 180
144 217 181
144 217 181
145 218 182
154 240 188
154 241 188
155 241 189
155 242 189
156 242 190
148 221 185
157 243 191
157 244 191
157 244 191
158 244 192
158 245 192
158 245 192
159 245 193
159 245 193
159 246 193
159 246 193
73 126 79
160 246 194
160 246 194
152 224 188
160 246 194
160 246 194
160 246 194
160 246 194
160 246 194
160 246 194
26 46 28
26 46 28
27 47 28
27 47 28
27 47 28
27 47 29
158 244 192
150 222 187
158 243 192
157 243 191
157 242 191
156 242 191
148 220 185
148 220 184
155 241 189
147 219 183
154 240 188
146 218 182
153 239 187
153 238 187
152 237 186
151 237 186
151 236 185
150 235 185
150 235 184
149 234 183
149 234 183
148 233 183
148 232 182
147 231 181
138 210 175
138 209 175
137 208 174
137 208 173
30 50 32
30 50 33
30 50 33
134 205 171
142 225 176
141 225 175
140 224 174
140 223 174
131 202 168
138 222 173
138 222 172
137 221 171
136 220 171
136 220 170
127 198 164
127 197 164
126 197 163
133 217 168
125 196 162
124 195 161
132 215 166
131 215 166
131 214 165
130 214 164
130 213 164
129 213 163
129 212 163
128 212 162
120 190 157
127 211 161
119 189 156
126 210 161
118 188 155
118 188 154
117 188 154
117 187 154
124 208 158
124 207 158
123 207 158
123 206 157
123 206 157
122 206 157
122 205 156
114 184 151
114 184 150
113 184 150
46 68 59
46 68 59
46 68 59
46 68 58
45 67 58
48 73 59
47 73 59
47 73 59
47 73 59
47 72 59
30 46 34
30 46 34
30 46 34
30 46 34
30 46 34
30 46 34
30 46 34
30 46 34
30 46 34
30 46 34
30 46 34
108 178 145
116 199 150
43 69 55
43 69 55
30 46 33
30 46 33
30 46 33
30 46 33
30 46 33
30 46 33
30 46 33
30 46 33
30 46 33
30 46 33
29 45 33
105 175 142
105 175 142
105 175 142
105 175 142
105 175 142
113 195 147
113 195 147
112 195 147
112 195 147
112 195 147
112 195 147
112 195 147
105 175 142
105 175 142
105 175 142
105 175 142
105 175 141
105 175 141
105 175 141
104 175 141
104 175 141
112 195 147
112 195 147
112 195 147
112 195 147
112 195 146
104 175 141
104 175 141
104 175 141
104 175 141
38 60 51
38 60 50
38 60 50
38 60 50
38 60 50
38 60 50
40 66 52
111 195 146
111 195 145
111 195 145
83 149 87
102 174 139
102 174 139
102 174 139
110 195 144
102 174 139
102 174 138
102 174 138
102 174 138
110 195 144
110 195 144
110 195 144
102 174 138
102 174 138
102 174 138
110 195 144
102 174 138
102 174 138
102 174 138
24 40 26
109 195 143
109 195 143
101 174 138
101 174 138
101 174 138
101 174 138
101 174 138
101 174 138
109 195 143
109 195 143
101 174 138
101 174 138
109 196 143
101 174 138
101 174 138
101 174 138
109 196 144
101 174 138
110 196 144
101 174 138
110 196 144
110 196 144
110 196 144
110 196 144
102 174 138
102 174 139
102 175 139
102 175 139
102 175 139
102 175 139
102 175 139
102 175 139
102 175 139
111 197 145
103 175 139
103 175 139
103 176 140
103 176 140
103 176 140
111 198 145
103 176 140
103 176 140
112 198 146
112 198 146
112 199 146
112 199 146
104 177 141
105 177 141
105 178 142
105 178 142
105 178 142
106 178 142
106 179 143
114 201 148
115 201 149
115 201 149
107 180 144
107 180 144
108 181 144
108 181 145
108 181 145
117 204 151
117 204 151
118 204 152
118 205 152
119 205 153
111 184 148
120 206 154
120 207 154
112 185 149
113 186 150
113 186 150
122 209 156
114 187 151
123 210 157
116 188 152
116 189 153
117 190 153
117 190 154
126 213 160
119 191 155
127 214 161
128 215 162
129 215 163
129 216 163
122 195 159
131 217 165
132 218 166
124 197 161
133 220 167
125 198 162
126 199 163
127 200 164
128 201 164
128 201 165
129 202 166
130 203 167
139 226 173
131 204 168
140 227 174
141 228 175
142 229 176
134 207 171
143 230 177
144 231 178
137 210 173
146 232 180
146 233 180
147 234 181
148 234 182
148 235 182
141 214 178
141 214 178
142 215 179
151 238 185
143 216 180
144 217 181
144 217 181
153 240 187
146 218 182
154 241 188
155 241 189
155 242 189
147 220 184
156 243 190
148 221 185
157 243 191
149 222 186
157 244 191
158 244 192
158 245 192
158 245 192
158 245 192
73 126 79
22 38 24
151 223 188
159 245 193
151 224 188
159 245 193
159 245 193
159 245 193
159 245 193
151 223 188
151 223 188
151 223 188
27 46 28
27 47 28
27 47 28
27 47 29
81 103 93
150 222 186
149 221 186
149 221 186
157 242 191
156 242 190
148 220 185
147 220 184
155 241 189
147 219 183
146 218 183
154 239 188
153 239 187
145 217 181
144 216 181
152 237 186
151 237 185
142 214 179
150 235 184
150 234 184
149 234 183
148 233 182
148 233 182
147 232 182
147 231 181
146 231 180
145 230 180
137 208 174
30 50 32
30 50 32
30 50 33
31 51 33
142 226 176
141 225 176
141 225 175
140 224 174
139 223 174
139 223 173
138 222 172
137 221 172
137 221 171
136 220 171
136 219 170
135 219 169
127 197 164
126 197 163
125 196 162
125 196 162
132 216 166
132 215 166
131 215 165
131 214 165
130 214 164
130 213 164
129 213 163
129 212 163
120 191 157
128 211 162
119 190 156
119 189 156
118 189 155
118 188 155
125 209 160
117 188 154
124 208 159
124 208 158
124 207 158
123 207 158
123 206 157
123 206 157
122 206 157
122 205 156
122 205 156
113 184 150
113 183 150
113 183 150
46 68 59
46 68 58
46 67 58
45 67 58
47 73 59
47 73 59
47 73 59
47 73 59
47 72 58
46 72 58
46 72 58
30 46 34
30 46 34
30 46 34
30 46 34
30 46 34
30 46 34
30 46 34
30 46 34
116 199 150
116 199 150
116 199 150
43 69 55
43 69 55
43 69 55
43 69 55
30 46 33
30 46 33
30 46 33
30 46 33
30 46 33
30 46 33
30 46 33
30 46 33
30 46 33
105 175 142
105 175 142
105 175 142
113 195 147
113 195 147
112 195 147
112 195 147
112 195 147
112 195 147
112 195 147
112 195 147
112 195 147
112 195 147
112 195 147
105 175 141
105 175 141
105 175 141
104 175 141
104 175 141
112 195 147
112 195 147
112 195 147
112 195 147
112 195 146
112 195 146
112 195 146
112 195 146
104 175 141
104 175 141
104 175 141
38 60 50
38 60 50
38 60 50
38 60 50
40 66 52
111 195 146
111 195 145
111 195 145
111 195 145
111 195 145
111 195 145
102 174 139
102 174 139
102 174 139
102 174 138
102 174 138
102 174 138
102 174 138
102 174 138
102 174 138
102 174 138
110 195 144
102 174 138
110 195 144
102 174 138
110 195 144
102 174 138
102 174 138
110 195 144
24 40 27
24 39 26
101 174 138
101 174 138
101 174 138
101 174 138
109 195 143
101 174 138
101 174 138
101 174 138
101 174 138
109 196 143
101 174 138
101 174 138
101 174 138
101 174 138
109 196 143
101 174 138
101 174 138
110 196 144
101 174 138
101 174 138
101 174 138
110 196 144
102 174 138
102 174 138
102 174 138
110 196 144
102 175 139
102 175 139
102 175 139
110 197 144
102 175 139
102 175 139
102 175 139
111 197 145
103 175 139
103 176 139
111 197 145
111 198 145
103 176 140
111 198 146
112 198 146
112 198 146
112 198 146
112 199 146
104 177 141
104 177 141
105 177 141
105 178 142
113 200 147
105 178 142
106 178 142
106 179 143
106 179 143
106 179 143
115 201 149
115 202 149
107 180 144
108 180 144
108 181 145
108 181 145
117 203 151
117 204 151
109 182 146
110 183 147
119 205 153
111 184 148
111 184 148
120 206 154
112 185 149
113 186 149
113 186 150
122 209 156
114 187 151
115 188 152
115 188 152
116 189 153
117 189 153
117 190 154
118 191 154
127 213 161
127 214 161
128 214 162
128 215 163
129 216 163
130 216 164
131 217 165
131 218 165
124 197 160
124 197 161
125 198 162
126 199 163
127 200 163
127 200 164
128 201 165
129 202 166
130 202 166
130 203 167
131 204 168
132 205 169
141 227 175
141 228 175
142 229 176
143 230 177
144 230 178
144 231 178
145 232 179
146 232 180
146 233 180
147 234 181
140 213 176
140 213 177
141 214 178
142 214 178
142 215 179
143 216 179
152 238 186
144 217 181
144 217 181
153 240 187
154 240 188
154 241 188
155 241 189
155 242 189
155 242 189
156 242 190
156 243 190
148 221 185
157 243 191
157 244 191
149 222 186
149 222 186
73 126 79
22 38 24
23 38 24
158 245 192
158 245 193
159 245 193
159 245 193
150 223 187
159 245 193
150 223 187
158 245 193
150 223 187
150 223 187
150 222 187
27 47 28
27 47 28
81 103 92
80 102 92
149 221 186
149 221 186
148 221 185
156 242 190
156 241 190
155 241 190
147 219 184
155 240 189
154 240 188
154 239 188
153 239 187
145 217 181
144 216 181
144 216 180
143 215 180
143 215 179
150 236 184
75 127 81
149 234 183
149 234 183
148 233 182
147 232 181
147 231 181
138 210 175
146 230 180
145 230 179
137 208 173
30 50 32
30 50 33
31 50 33
142 226 176
142 226 176
141 225 175
140 224 175
140 224 174
139 223 173
138 222 173
138 222 172
137 221 172
137 221 171
136 220 170
135 219 170
135 219 169
134 218 169
126 197 163
125 196 162
133 216 167
132 216 166
131 215 166
131 215 165
130 214 165
130 214 164
129 213 164
129 213 163
128 212 163
128 212 162
127 211 162
127 211 161
127 210 161
118 189 155
118 188 155
117 188 154
125 208 159
124 208 159
124 208 158
124 207 158
123 207 158
123 206 157
123 206 157
122 206 156
122 205 156
122 205 156
121 205 156
113 183 150
113 183 150
112 183 149
112 183 149
46 67 58
48 73 59
47 73 59
47 73 59
47 73 59
47 72 59
47 72 58
46 72 58
46 72 58
46 72 58
46 72 58
30 46 34
30 46 34
30 46 34
30 46 34
30 46 34
33 52 35
116 199 150
116 199 150
115 199 150
43 69 55
43 69 55
43 69 55
43 69 55
43 69 55
40 62 53
30 46 33
30 46 33
30 46 33
30 46 33
30 46 33
30 46 33
30 46 33
105 175 142
113 195 147
113 195 147
105 175 142
112 195 147
112 195 147
112 195 147
112 195 147
112 195 147
112 195 147
112 195 147
112 195 147
105 175 142
105 175 141
105 175 141
104 175 141
104 175 141
112 195 147
112 195 147
112 195 147
112 195 147
112 195 146
112 195 146
112 195 146
112 195 146
112 195 146
112 195 146
104 175 141
104 175 141
104 175 141
38 60 50
38 60 50
38 60 50
111 195 146
111 195 145
111 195 145
111 195 145
111 195 145
111 195 145
111 195 145
111 195 145
102 174 138
102 174 138
102 174 138
102 174 138
102 174 138
102 174 138
102 174 138
102 174 138
102 174 138
102 174 138
102 174 138
102 174 138
102 174 138
110 195 144
102 174 138
102 174 138
110 195 144
35 61 46
35 61 46
24 40 26
101 174 138
101 174 138
101 174 138
101 174 138
101 174 138
101 174 138
101 174 138
101 174 138
101 174 138
101 174 138
101 174 138
101 174 138
101 174 138
101 174 138
109 196 143
101 174 138
101 174 138
101 174 138
101 174 138
101 174 138
110 196 144
102 174 138
102 174 138
102 174 138
110 196 144
110 196 144
102 175 139
102 175 139
110 197 144
102 175 139
102 175 139
102 175 139
111 197 145
111 197 145
103 175 139
103 175 139
103 176 140
111 198 145
103 176 140
103 176 140
112 198 146
112 198 146
112 198 146
104 177 141
104 177 141
104 177 141
105 177 141
113 199 147
105 178 142
105 178 142
114 200 148
106 179 142
114 201 148
106 179 143
107 179 143
107 180 144
107 180 144
108 180 144
108 181 145
108 181 145
117 203 151
117 204 151
118 204 152
110 183 147
110 183 147
111 184 147
111 184 148
112 184 148
112 185 149
113 185 149
113 186 150
122 208 156
114 187 151
115 188 151
123 210 157
116 189 152
125 211 159
117 190 154
118 190 154
118 191 155
127 214 161
128 214 162
128 215 162
129 216 163
130 216 164
130 217 164
123 196 159
123 196 160
124 197 161
125 198 162
126 198 162
126 199 163
135 222 169
128 201 164
128 201 165
129 202 166
130 203 167
131 204 167
140 226 174
140 227 174
141 228 175
142 228 176
142 229 176
143 230 177
144 231 178
136 209 173
145 232 179
146 233 180
138 211 175
147 234 181
140 213 176
140 213 177
141 214 178
142 214 178
150 237 184
143 216 179
143 216 180
144 217 181
144 217 181
153 240 187
153 240 188
146 219 183
146 219 183
147 220 183
155 242 189
156 242 190
148 221 184
156 243 190
156 243 190
157 243 191
22 38 24
22 38 24
23 38 24
23 39 25
158 244 192
158 244 192
158 244 192
150 222 187
158 244 192
150 222 187
150 222 187
150 222 186
150 222 186
149 222 186
149 222 186
149 222 186
80 102 92
80 102 92
80 102 91
148 221 185
148 220 185
156 242 190
156 241 190
155 241 189
155 240 189
154 240 189
154 240 188
154 239 188
153 239 187
153 238 187
152 238 186
152 237 186
151 237 185
151 236 185
150 236 184
25 41 27
149 234 183
149 234 183
148 233 182
148 233 182
26 42 29
147 231 181
146 230 180
137 209 174
137 208 174
136 207 173
136 207 172
30 50 33
31 51 33
67 89 79
133 204 170
141 225 175
140 224 174
139 223 174
139 223 173
138 222 172
138 222 172
137 221 171
136 220 171
136 220 170
135 219 170
127 198 164
134 218 168
134 217 168
133 217 167
132 216 167
132 216 166
131 215 166
131 215 165
130 214 165
130 213 164
129 213 164
129 212 163
128 212 163
128 211 162
127 211 162
127 211 161
126 210 161
126 210 160
118 188 155
125 209 159
125 208 159
124 208 159
124 207 158
124 207 158
123 207 157
123 206 157
122 206 157
122 206 156
122 205 156
121 205 156
121 205 155
121 204 155
121 204 155
112 183 149
112 183 149
120 203 154
48 73 59
47 73 59
47 73 59
47 73 59
47 72 58
46 72 58
46 72 58
46 72 58
46 72 58
46 71 58
46 71 57
30 46 34
30 46 34
30 46 34
30 46 34
116 199 150
116 199 150
116 199 150
115 199 150
115 199 150
43 69 55
43 69 55
43 69 55
43 69 55
43 68 54
43 68 54
30 46 33
30 46 33
30 46 33
30 46 33
30 46 33
30 46 33
113 195 147
113 195 147
112 195 147
105 175 142
112 195 147
112 195 147
112 195 147
112 195 147
112 195 147
112 195 147
112 195 147
112 195 147
112 195 147
105 175 141
104 175 141
112 195 147
112 195 147
112 195 147
112 195 147
112 195 147
112 195 146
112 195 146
112 195 146
112 195 146
112 195 146
112 195 146
112 195 146
104 175 141
104 175 141
104 175 141
104 175 141
40 66 52
111 195 145
111 195 145
111 195 145
111 195 145
111 195 145
111 195 145
111 195 145
111 195 145
111 195 145
111 195 145
102 174 138
102 174 138
102 174 138
110 195 144
110 195 144
102 174 138
102 174 138
102 174 138
102 174 138
102 174 138
102 174 138
102 174 138
102 174 138
102 174 138
102 174 138
35 61 46
33 55 44
33 55 44
24 40 27
26 46 27
101 174 138
101 174 138
101 174 138
109 195 143
109 195 143
109 195 143
101 174 138
109 195 143
101 174 138
109 196 143
101 174 138
101 174 138
101 174 138
101 174 138
101 174 138
109 196 143
101 174 138
110 196 144
110 196 144
110 196 144
101 174 138
110 196 144
102 174 138
110 196 144
110 196 144
102 175 139
110 196 144
102 175 139
102 175 139
102 175 139
102 175 139
111 197 145
102 175 139
103 175 139
103 175 139
103 176 140
103 176 140
103 176 140
103 176 140
103 176 140
104 176 140
104 177 140
104 177 141
104 177 141
112 199 146
113 199 147
105 178 141
113 200 147
105 178 142
105 178 142
106 179 142
106 179 143
106 179 143
115 201 149
107 180 144
107 180 144
107 180 144
116 203 150
116 203 150
108 181 145
117 204 151
117 204 152
118 204 152
110 183 147
111 183 147
119 206 153
120 206 154
112 185 149
121 207 155
113 186 150
113 186 150
114 187 151
114 187 151
115 188 152
116 188 152
116 189 153
125 212 159
117 190 154
118 191 155
118 191 155
119 192 156
128 215 162
120 193 157
129 216 163
122 195 158
122 195 159
123 196 160
124 197 161
124 197 161
125 198 162
126 199 163
127 200 163
127 200 164
136 223 170
129 202 166
129 202 166
130 203 167
131 204 168
132 205 168
132 205 169
141 228 175
142 229 176
134 207 171
143 230 177
144 231 178
145 231 179
137 210 174
138 211 175
138 211 175
139 212 176
140 213 177
140 213 177
141 214 178
150 236 184
142 215 179
151 238 185
151 238 185
144 217 180
144 217 181
145 218 181
153 240 187
154 240 188
154 241 188
155 241 189
155 241 189
155 242 189
156 242 190
148 221 184
22 38 24
22 38 24
23 38 24
23 38 25
23 39 25
149 221 186
157 243 191
157 243 191
157 243 191
149 222 186
149 222 186
149 222 186
149 222 186
149 221 186
157 243 191
157 243 191
149 221 185
148 221 185
79 101 91
79 101 91
148 220 185
148 220 184
147 219 184
147 219 184
147 219 183
154 240 188
154 240 188
153 239 188
153 239 187
153 238 187
152 238 186
152 237 186
151 237 185
151 236 185
150 236 184
25 41 27
25 41 28
149 234 183
148 233 182
148 233 182
26 42 29
26 42 29
146 231 180
146 230 180
145 230 179
136 208 173
136 207 173
135 206 172
135 206 171
134 205 171
67 88 79
133 204 170
140 224 175
140 224 174
139 223 173
139 223 173
138 222 172
137 221 172
137 221 171
136 220 170
128 199 165
135 219 169
127 197 163
134 218 168
125 196 162
125 196 162
124 195 161
124 195 161
131 215 165
131 214 165
130 214 164
130 213 164
129 213 163
129 212 163
128 212 162
128 211 162
127 211 161
127 210 161
126 210 161
126 210 160
125 209 160
117 188 154
125 208 159
124 208 159
116 187 153
123 207 158
123 207 157
123 206 157
122 206 157
122 206 156
122 205 156
121 205 156
121 205 155
121 204 155
120 204 155
120 204 155
112 182 149
120 203 154
119 203 154
119 202 153
47 73 59
47 73 59
47 72 58
46 72 58
46 72 58
46 72 58
46 72 58
46 71 57
45 71 57
45 71 57
45 71 57
30 46 34
30 46 34
116 199 150
116 199 150
116 199 150
115 199 150
115 199 150
43 69 55
43 69 55
43 69 55
43 69 54
43 68 54
43 68 54
43 68 54
42 68 54
30 46 33
30 46 33
30 46 33
30 46 33
112 195 147
112 195 147
112 195 147
112 195 147
112 195 147
112 195 147
112 195 147
112 195 147
112 195 147
112 195 147
112 195 147
112 195 147
112 195 147
112 195 147
112 195 147
112 195 147
112 195 147
112 195 147
112 195 146
112 195 146
112 195 146
112 195 146
112 195 146
112 195 146
104 175 141
112 195 146
112 195 146
104 175 141
104 175 141
112 195 146
111 195 145
111 195 145
111 195 145
111 195 145
111 195 145
111 195 145
111 195 145
111 195 145
111 195 145
111 195 145
111 195 145
111 195 145
102 174 138
102 174 138
102 174 138
102 174 138
102 174 138
102 174 138
102 174 138
102 174 138
102 174 138
102 174 138
102 174 138
110 195 144
102 174 138
102 174 138
35 61 46
35 61 46
35 61 46
35 61 46
35 61 46
24 40 26
101 174 138
101 174 138
101 174 138
101 174 138
101 174 138
109 195 143
101 174 138
109 195 143
101 174 138
101 174 138
101 174 138
101 174 138
101 174 138
101 174 138
101 174 138
101 174 138
109 196 144
109 196 144
101 174 138
110 196 144
101 174 138
102 174 138
102 174 138
102 174 138
102 174 138
102 175 139
110 196 144
102 175 139
102 175 139
110 197 144
102 175 139
102 175 139
102 175 139
103 175 139
111 197 145
103 176 140
103 176 140
103 176 140
111 198 145
103 176 140
103 176 140
104 177 140
104 177 141
104 177 141
104 177 141
104 177 141
105 178 141
105 178 142
113 200 147
105 178 142
114 200 148
106 179 143
106 179 143
106 179 143
107 180 143
107 180 144
107 180 144
116 202 150
108 181 145
108 181 145
109 182 146
109 182 146
110 182 146
118 205 152
110 183 147
111 184 148
111 184 148
112 185 148
120 207 154
113 186 149
113 186 150
114 187 150
114 187 151
115 188 152
115 188 152
116 189 153
116 189 153
117 190 154
118 191 154
126 213 160
127 214 161
128 214 162
128 215 162
129 216 163
121 194 158
122 195 159
123 196 160
123 196 160
124 197 161
125 198 162
126 198 162
134 221 168
127 200 164
128 201 164
128 201 165
129 202 166
130 203 167
130 203 167
131 204 168
132 205 169
133 206 169
141 228 176
142 229 176
143 230 177
135 208 172
136 209 173
137 210 173
137 210 174
138 211 175
139 212 175
139 212 176
140 213 177
149 235 183
141 214 178
141 214 178
142 215 179
151 237 185
143 216 180
144 217 180
144 217 181
144 217 181
153 240 187
153 240 188
154 240 188
146 219 183
155 241 189
155 241 189
22 38 24
22 38 24
22 38 24
23 38 24
23 39 25
23 39 25
156 243 190
157 243 191
157 243 191
148 221 185
148 221 185
157 243 191
148 221 185
148 221 185
148 221 185
148 221 185
148 221 185
148 220 185
148 220 184
156 242 190
155 242 189
147 219 184
147 219 184
147 219 183
146 218 183
146 218 183
146 218 182
145 217 182
153 239 187
153 238 187
152 238 186
152 237 186
151 237 185
151 236 185
150 236 184
25 41 27
25 41 27
25 41 28
148 233 183
148 233 182
26 42 29
26 42 29
26 42 29
146 230 180
145 230 179
137 208 173
136 207 173
135 207 172
135 206 172
134 206 171
134 205 171
133 204 170
133 204 170
132 203 169
132 202 168
139 223 173
138 222 173
138 222 172
137 221 171
137 220 171
136 220 170
127 198 164
135 219 169
134 218 169
134 218 168
125 196 162
125 195 162
124 195 161
124 194 161
123 194 160
130 214 165
130 214 164
129 213 164
129 213 163
128 212 163
128 212 162
128 211 162
127 211 161
127 210 161
126 210 160
126 209 160
117 188 154
117 188 154
117 187 154
124 208 158
124 207 158
123 207 158
123 207 157
123 206 157
122 206 157
122 205 156
122 205 156
121 205 156
121 204 155
121 204 155
120 204 155
120 204 154
112 182 149
112 182 149
119 203 154
119 202 153
119 202 153
119 202 153
46 72 58
46 72 58
46 72 58
44 65 56
46 71 58
46 71 57
45 71 57
45 71 57
45 71 57
45 71 57
116 200 150
108 179 145
116 199 150
116 199 150
115 199 150
115 199 150
115 199 149
43 69 55
43 69 55
43 68 54
43 68 54
43 68 54
42 68 54
42 68 54
42 68 54
42 68 54
30 46 33
93 157 97
112 195 147
112 195 147
112 195 147
112 195 147
112 195 147
112 195 147
112 195 147
105 175 142
112 195 147
112 195 147
112 195 147
104 175 141
104 175 141
112 195 147
112 195 147
112 195 147
112 195 146
112 195 146
112 195 146
112 195 146
112 195 146
112 195 146
112 195 146
112 195 146
112 195 146
112 195 146
112 195 146
104 174 141
111 195 146
111 195 145
111 195 145
111 195 145
111 195 145
111 195 145
111 195 145
111 195 145
111 195 145
111 195 145
111 195 145
111 195 145
111 195 145
111 195 145
29 49 31
102 174 138
102 174 138
102 174 138
102 174 138
102 174 138
102 174 138
102 174 138
102 174 138
102 174 138
110 195 144
110 195 144
102 174 138
110 195 144
35 61 46
35 61 46
33 54 44
35 61 46
35 61 46
24 40 26
26 46 27
101 174 138
101 174 138
101 174 138
101 174 138
101 174 138
101 174 138
109 195 143
101 174 138
109 196 143
101 174 138
101 174 138
101 174 138
101 174 138
109 196 143
109 196 143
109 196 143
109 196 144
110 196 144
110 196 144
101 174 138
101 174 138
102 174 138
110 196 144
102 174 138
110 196 144
102 175 139
102 175 139
110 197 144
102 175 139
102 175 139
102 175 139
102 175 139
102 175 139
103 175 139
103 176 139
103 176 140
111 198 145
111 198 145
111 198 146
103 176 140
104 176 140
112 199 146
104 177 141
104 177 141
104 177 141
113 199 147
105 178 142
105 178 142
113 200 147
106 178 142
114 201 148
106 179 143
106 179 143
107 180 143
107 180 144
107 180 144
108 181 144
108 181 145
116 203 151
117 203 151
117 204 151
109 182 146
110 183 147
110 183 147
111 184 147
111 184 148
112 185 148
112 185 149
113 185 149
113 186 150
122 208 156
114 187 151
123 209 157
115 188 152
124 211 158
116 189 153
117 190 154
117 190 154
126 213 160
119 192 155
119 192 156
120 193 157
129 215 163
121 194 158
122 195 159
122 195 159
123 196 160
124 197 161
124 197 161
125 198 162
126 199 163
127 200 163
127 200 164
128 201 165
129 202 165
129 202 166
130 203 167
131 204 167
131 204 168
132 205 169
133 206 170
133 206 170
142 229 176
135 208 172
135 208 172
136 209 173
137 210 174
137 210 174
138 211 175
139 212 175
139 212 176
140 213 177
140 213 177
141 214 178
141 214 178
150 237 184
142 215 179
143 216 180
143 216 180
152 239 186
144 217 181
153 239 187
153 240 187
145 218 182
154 241 188
22 38 24
22 38 24
22 38 24
23 38 24
23 39 25
23 39 25
23 39 25
148 220 184
148 220 184
148 220 185
148 220 185
148 220 185
148 220 185
148 220 185
148 220 184
148 220 184
148 220 184
147 220 184
147 220 184
147 220 184
155 241 189
147 219 183
146 219 183
146 219 183
146 218 183
146 218 183
145 218 182
145 217 182
145 217 181
152 238 186
152 238 186
152 237 186
151 237 185
151 236 185
150 236 184
25 41 27
25 41 27
25 41 28
25 41 28
148 233 182
76 127 82
26 42 29
26 42 29
146 231 180
137 209 174
137 208 174
136 208 173
136 207 173
135 206 172
142 227 177
134 205 171
133 205 170
133 204 170
132 203 169
132 203 169
131 202 168
131 202 168
130 201 167
137 221 172
137 221 171
136 220 171
136 220 170
135 219 169
135 218 169
134 218 168
126 196 162
125 196 162
125 195 161
124 195 161
123 194 160
123 194 160
122 193 159
130 214 164
129 213 164
121 192 158
128 212 163
128 212 162
127 211 162
127 211 161
126 210 161
126 210 160
118 188 155
117 188 154
125 208 159
117 187 153
116 187 153
116 186 153
123 207 158
123 207 157
123 206 157
114 185 151
122 205 156
122 205 156
121 205 156
121 204 155
121 204 155
120 204 155
120 204 154
112 182 149
112 182 149
111 182 148
119 202 153
119 202 153
119 202 153
118 202 153
46 72 58
46 72 58
46 72 58
46 71 57
45 71 57
45 71 57
45 71 57
45 71 57
108 179 145
108 179 145
108 179 145
116 199 150
116 199 150
115 199 150
115 199 150
115 199 149
43 69 55
43 68 54
43 68 54
43 68 54
42 68 54
42 68 54
42 68 54
42 68 54
42 68 54
40 62 52
106 176 143
112 195 147
112 195 147
112 195 147
112 195 147
112 195 147
105 175 142
112 195 147
112 195 147
112 195 147
104 175 141
104 175 141
104 175 141
104 175 141
104 175 141
112 195 147
112 195 146
112 195 146
112 195 146
104 175 141
112 195 146
112 195 146
112 195 146
112 195 146
112 195 146
112 195 146
104 174 141
104 174 140
111 195 145
111 195 145
111 195 145
111 195 145
111 195 145
111 195 145
111 195 145
111 195 145
111 195 145
111 195 145
111 195 145
111 195 145
111 195 145
111 195 145
111 195 145
111 195 145
102 174 138
110 195 144
102 174 138
102 174 138
102 174 138
102 174 138
110 195 144
110 195 144
110 195 144
110 195 144
110 195 144
101 174 138
35 61 46
35 61 46
35 61 46
33 54 44
35 61 46
35 61 46
35 61 46
24 40 26
101 174 138
101 174 138
101 174 138
101 174 138
101 174 138
109 195 143
109 195 143
101 174 138
109 196 143
101 174 138
101 174 138
101 174 138
109 196 143
109 196 143
109 196 143
109 196 143
109 196 144
109 196 144
110 196 144
101 174 138
110 196 144
102 174 138
102 174 138
102 174 138
102 175 138
102 175 139
102 175 139
102 175 139
102 175 139
102 175 139
102 175 139
102 175 139
102 175 139
103 175 139
111 197 145
111 198 145
111 198 145
111 198 145
111 198 145
112 198 146
104 176 140
104 177 140
104 177 141
104 177 141
104 177 141
105 177 141
105 178 141
105 178 142
105 178 142
105 178 142
106 179 142
106 179 143
106 179 143
107 179 143
107 180 144
107 180 144
107 180 144
116 203 150
108 181 145
117 203 151
117 204 151
118 204 152
110 183 146
110 183 147
111 183 147
119 206 153
111 184 148
112 185 149
112 185 149
113 186 150
122 208 156
114 187 151
123 209 157
115 188 152
115 188 152
116 189 153
117 190 153
117 190 154
118 191 154
127 213 161
127 214 161
120 193 156
120 193 157
121 194 158
130 216 164
122 195 159
123 196 160
123 196 160
124 197 161
125 198 162
125 198 162
126 199 163
135 222 169
127 201 164
128 201 165
129 202 166
130 203 166
130 203 167
131 204 168
132 205 168
132 205 169
141 228 175
134 207 170
134 207 171
135 208 172
136 209 172
136 209 173
137 210 174
137 210 174
138 211 175
139 212 175
139 212 176
140 213 176
140 213 177
141 214 178
141 214 178
142 215 179
142 215 179
143 216 179
143 216 180
144 217 180
152 239 186
153 239 187
145 218 181
22 38 24
22 38 24
22 38 24
23 38 24
23 39 25
23 39 25
23 39 25
74 126 79
147 219 184
147 220 184
155 241 189
147 220 184
155 241 189
147 220 184
147 220 184
155 241 189
147 220 184
147 219 184
155 241 189
155 241 189
146 219 183
146 219 183
146 219 183
146 218 183
145 218 182
154 239 188
145 217 182
145 217 182
144 217 181
152 238 186
144 216 181
143 215 180
151 237 185
151 236 185
142 214 179
25 41 27
25 41 27
25 41 28
25 41 28
148 233 182
147 233 182
26 42 29
26 42 29
26 42 29
145 230 180
137 208 174
136 208 173
136 207 173
135 207 172
135 206 172
134 205 171
134 205 170
133 204 170
132 204 169
132 203 169
131 202 168
131 202 167
130 201 167
130 201 167
129 200 166
137 221 171
136 220 170
135 219 170
135 219 169
134 218 169
134 218 168
125 196 162
125 196 162
132 216 166
124 195 161
123 194 160
131 214 165
122 193 159
122 192 159
121 192 158
129 212 163
128 212 162
128 211 162
127 211 162
127 211 161
126 210 161
126 210 160
126 209 160
125 209 159
125 208 159
124 208 159
116 187 153
116 186 153
115 186 152
123 206 157
122 206 157
122 206 156
122 205 156
121 205 156
121 205 155
121 204 155
121 204 155
120 204 155
112 183 149
112 182 149
112 182 149
111 182 148
111 182 148
111 181 148
118 202 153
118 202 153
118 201 152
118 201 152
46 71 58
46 71 57
45 71 57
45 71 57
43 65 55
45 71 57
108 179 145
108 179 145
108 179 145
108 178 145
108 178 145
115 199 150
115 199 150
115 199 149
115 199 149
43 68 54
43 68 54
42 68 54
42 68 54
42 68 54
42 68 54
42 68 54
42 68 54
93 157 97
106 176 142
105 175 142
112 195 147
112 195 147
112 195 147
112 195 147
112 195 147
112 195 147
104 175 141
104 175 141
104 175 141
104 175 141
104 175 141
104 175 141
104 175 141
112 195 146
104 175 141
104 175 141
112 195 146
112 195 146
112 195 146
112 195 146
112 195 146
112 195 146
112 195 146
104 174 140
104 174 140
104 174 140
111 195 145
111 195 145
111 195 145
111 195 145
111 195 145
111 195 145
111 195 145
111 195 145
111 195 145
111 195 145
111 195 145
111 195 145
111 195 145
111 195 145
111 195 145
111 195 145
27 47 29
102 174 138
102 174 138
102 174 138
101 174 138
110 195 144
101 174 138
110 195 144
101 174 138
110 195 144
110 195 144
35 61 46
35 61 46
35 61 46
32 54 44
35 61 46
35 61 46
35 61 46
35 61 46
24 40 26
26 46 27
101 174 138
101 174 138
101 174 138
101 174 138
109 195 143
101 174 138
101 174 138
101 174 138
101 174 138
109 196 143
101 174 138
109 196 143
101 174 138
109 196 143
109 196 143
109 196 143
109 196 144
101 174 138
101 174 138
110 196 144
101 174 138
102 174 138
102 174 138
102 174 138
110 196 144
102 175 139
102 175 139
102 175 139
102 175 139
102 175 139
102 175 139
102 175 139
103 175 139
103 175 139
111 197 145
111 198 145
111 198 145
103 176 140
103 176 140
112 198 146
104 177 140
104 177 141
112 199 146
104 177 141
104 177 141
105 178 141
105 178 142
105 178 142
105 178 142
106 179 142
106 179 143
106 179 143
106 179 143
107 180 144
115 202 149
116 202 150
116 203 150
116 203 150
117 203 151
117 204 151
117 204 151
118 204 152
110 183 147
119 205 153
111 184 148
111 184 148
112 185 148
112 185 149
113 186 149
113 186 150
122 209 156
122 209 156
115 188 151
123 210 157
116 189 153
116 189 153
117 190 154
126 212 160
126 213 160
127 214 161
119 192 156
120 193 157
121 194 157
129 216 163
122 195 159
122 195 159
123 196 160
132 219 166
124 197 161
125 198 162
126 199 162
126 199 163
127 200 164
128 201 165
128 201 165
129 202 166
130 203 167
130 203 167
131 204 168
140 227 174
141 227 175
133 206 170
134 207 170
134 207 171
143 230 177
136 209 172
136 209 173
137 210 174
146 232 180
138 211 175
139 212 175
147 234 181
140 213 176
140 213 177
141 214 177
141 214 178
142 215 178
142 215 179
151 237 185
143 216 180
151 238 185
152 239 186
22 38 24
22 38 24
22 38 24
22 38 24
23 38 24
23 39 25
23 39 25
23 39 25
146 219 183
146 219 183
146 219 183
146 219 183
146 219 183
146 219 183
146 219 183
146 219 183
146 219 183
146 219 183
154 241 188
146 219 183
146 218 183
146 218 183
154 240 188
145 218 182
145 218 182
145 217 182
145 217 181
145 217 181
144 216 181
144 216 181
144 216 180
143 215 180
143 215 180
150 236 185
142 214 179
75 127 81
25 41 27
25 41 27
25 41 28
25 41 28
147 233 182
26 42 29
26 42 29
26 42 29
27 43 29
137 208 174
137 208 173
136 207 173
143 228 178
135 206 172
134 206 171
134 205 171
133 204 170
133 204 169
132 203 169
131 203 168
131 202 168
130 202 167
138 222 172
130 200 166
129 200 166
128 199 165
128 199 165
135 219 169
135 219 169
134 218 168
126 196 163
125 196 162
125 195 161
124 195 161
124 194 160
123 194 160
123 193 159
130 214 164
122 192 158
121 192 158
121 191 158
128 212 162
128 211 162
127 211 161
127 210 161
126 210 161
118 189 155
118 188 154
117 188 154
117 187 154
116 187 153
124 207 158
116 186 153
115 186 152
115 185 152
115 185 151
122 206 156
122 205 156
121 205 156
121 205 155
121 204 155
120 204 155
112 183 149
112 183 149
112 182 149
112 182 148
119 203 153
111 182 148
111 181 148
111 181 148
110 181 147
118 201 152
118 201 152
118 201 152
45 71 57
45 71 57
45 71 57
45 71 57
108 179 145
108 179 145
108 179 145
108 179 145
108 178 145
108 178 144
107 178 144
115 199 149
115 199 149
115 199 149
115 198 149
43 68 54
42 68 54
42 68 54
42 68 54
42 68 54
42 68 54
40 62 52
106 176 143
106 176 142
112 195 147
112 195 147
112 195 147
112 195 147
112 195 147
112 195 147
104 175 141
104 175 141
104 175 141
104 175 141
104 175 141
104 175 141
104 175 141
104 175 141
112 195 146
112 195 146
112 195 146
112 195 146
112 195 146
112 195 146
112 195 146
112 195 146
104 174 141
104 174 140
104 174 140
104 174 140
103 174 140
111 195 145
111 195 145
111 195 145
111 195 145
111 195 145
111 195 145
111 195 145
111 195 145
111 195 145
111 195 145
111 195 145
111 195 145
111 195 145
111 195 145
111 195 145
103 174 140
35 57 47
102 174 138
101 174 138
110 195 144
110 195 144
101 174 138
110 195 144
110 195 144
110 195 144
110 195 144
35 61 46
35 61 46
35 61 46
35 61 46
35 61 46
32 54 44
35 61 46
32 54 44
35 61 46
35 61 46
26 46 27
101 174 138
101 174 138
109 195 143
109 195 143
101 174 138
101 174 138
101 174 138
101 174 138
109 196 143
109 196 143
109 196 143
109 196 143
101 174 138
109 196 143
109 196 143
109 196 143
109 196 144
110 196 144
110 196 144
110 196 144
101 174 138
102 174 138
110 196 144
102 174 138
110 196 144
102 175 139
102 175 139
102 175 139
102 175 139
102 175 139
110 197 144
111 197 145
111 197 145
103 175 139
111 197 145
111 198 145
111 198 145
103 176 140
111 198 146
112 198 146
104 177 140
104 177 141
104 177 141
104 177 141
113 199 147
105 178 141
105 178 142
113 200 147
105 178 142
114 200 148
106 179 143
114 201 148
106 179 143
115 202 149
115 202 149
107 180 144
108 181 144
108 181 145
117 203 151
117 204 151
117 204 151
118 204 152
110 183 147
110 183 147
111 184 147
111 184 148
120 206 154
112 185 149
121 207 155
113 186 150
113 186 150
114 187 151
114 187 151
115 188 152
124 210 158
116 189 153
125 212 159
125 212 159
126 213 160
127 213 161
127 214 161
128 215 162
128 215 162
121 194 158
121 194 158
122 195 159
123 196 159
123 196 160
124 197 161
125 198 161
125 198 162
126 199 163
127 200 163
127 200 164
136 223 170
137 224 171
138 224 172
138 225 172
139 226 173
139 226 174
140 227 174
141 228 175
133 206 170
142 229 176
134 207 171
135 208 172
136 209 172
136 209 173
137 210 174
146 232 180
138 211 175
138 211 175
139 212 176
139 213 176
140 213 177
140 213 177
141 214 178
150 236 184
142 215 179
142 215 179
143 216 179
25 44 25
22 38 24
22 38 24
22 38 24
23 38 24
23 39 25
23 39 25
23 39 25
23 39 25
153 240 188
145 218 182
146 218 182
146 218 182
146 218 182
146 218 182
154 240 188
146 218 182
146 218 182
154 240 188
145 218 182
145 218 182
145 218 182
145 218 182
145 217 182
153 239 187
144 217 181
144 217 181
144 216 181
144 216 180
144 216 180
143 215 180
151 237 185
143 215 179
150 236 184
150 236 184
141 214 178
25 41 27
25 41 27
25 41 28
25 41 28
26 41 28
26 42 28
26 42 29
26 42 29
27 42 29
72 98 83
137 208 173
136 207 173
144 228 178
135 206 172
134 206 171
134 205 171
133 205 170
133 204 170
132 204 169
132 203 169
131 202 168
131 202 167
130 201 167
129 201 166
129 200 166
137 221 171
128 199 165
128 198 164
127 198 164
134 218 169
126 197 163
125 196 162
133 217 167
124 195 161
124 195 161
131 215 165
123 194 160
122 193 159
122 193 159
121 192 158
121 192 158
128 212 163
120 191 157
120 190 156
119 190 156
127 210 161
118 189 155
126 209 160
117 188 154
117 188 154
117 187 154
116 187 153
124 207 158
115 186 152
115 186 152
115 185 152
114 185 151
114 185 151
122 205 156
113 184 150
121 205 155
121 204 155
120 204 155
112 183 149
112 183 149
112 182 149
112 182 148
111 182 148
111 181 148
111 181 148
111 181 147
110 181 147
110 181 147
118 201 152
110 180 147
117 201 152
117 201 151
45 71 57
45 71 57
108 179 145
108 179 145
108 179 145
108 178 145
108 178 145
115 199 150
107 178 144
107 178 144
107 178 144
115 199 149
115 198 149
115 198 149
107 177 144
42 68 54
42 68 54
42 68 54
42 68 54
93 157 97
106 176 143
106 176 142
112 195 147
105 175 141
112 195 147
112 195 147
104 175 141
104 175 141
104 175 141
104 175 141
104 175 141
104 175 141
104 175 141
104 175 141
104 175 141
104 175 141
112 195 146
112 195 146
112 195 146
104 175 141
112 195 146
112 195 146
104 174 141
104 174 140
104 174 140
104 174 140
103 174 140
103 174 140
103 174 140
103 174 140
111 195 145
111 195 145
111 195 145
111 195 145
111 195 145
111 195 145
111 195 145
111 195 145
111 195 145
111 195 145
111 195 145
111 195 145
103 174 140
103 174 140
102 174 139
34 56 46
110 195 144
101 174 138
110 195 144
110 195 144
101 174 138
110 195 144
110 195 144
110 195 144
101 174 138
35 61 46
35 61 46
35 61 46
35 61 46
35 61 46
35 61 46
35 61 46
35 61 46
35 61 45
35 61 45
24 40 26
26 46 27
101 174 138
101 174 138
101 174 138
101 174 138
101 174 138
109 195 143
109 196 143
109 196 143
109 196 143
109 196 143
109 196 143
109 196 143
101 174 138
109 196 143
109 196 143
109 196 143
101 174 138
101 174 138
110 196 144
110 196 144
110 196 144
102 174 138
102 174 138
102 175 138
102 175 139
102 175 139
102 175 139
102 175 139
110 197 144
110 197 144
111 197 145
111 197 145
111 197 145
111 197 145
103 176 140
111 198 145
111 198 145
111 198 145
112 198 146
112 198 146
104 177 141
104 177 141
104 177 141
104 177 141
105 177 141
105 178 142
105 178 142
105 178 142
114 200 148
106 179 142
106 179 143
114 201 149
115 201 149
115 202 149
115 202 149
107 180 144
116 203 150
108 181 145
117 203 151
109 182 146
117 204 152
110 183 146
110 183 147
110 183 147
111 184 148
111 184 148
112 185 149
112 185 149
113 186 150
121 208 155
114 187 150
114 187 151
115 188 152
115 188 152
124 211 158
125 211 159
125 212 159
126 212 160
126 213 160
127 214 161
127 214 162
128 215 162
120 194 157
121 194 158
130 217 164
122 195 159
131 218 165
124 197 160
124 197 161
125 198 162
126 199 162
126 199 163
127 200 164
128 201 164
128 201 165
137 224 171
138 224 172
138 225 172
139 226 173
140 226 174
140 227 174
141 228 175
133 206 170
134 207 171
134 208 171
143 230 177
136 209 172
136 209 173
137 210 174
137 210 174
138 211 175
138 211 175
139 212 176
139 212 176
140 213 177
140 213 177
149 236 183
141 214 178
141 215 178
25 44 25
25 45 26
22 38 24
22 38 24
23 38 24
23 39 25
23 39 25
23 39 25
77 103 88
75 97 86
153 239 187
145 217 182
145 217 182
153 239 187
145 218 182
145 218 182
153 239 187
153 239 187
145 218 182
145 217 182
145 217 182
153 239 187
153 239 187
144 217 181
152 239 186
152 238 186
144 216 181
144 216 180
151 238 186
143 216 180
143 215 180
151 236 185
142 214 179
142 214 179
150 235 184
141 213 178
149 235 183
148 234 183
25 41 27
25 41 28
25 41 28
73 99 84
146 232 181
26 42 29
26 42 29
27 43 30
71 97 82
144 229 178
136 207 172
135 207 172
135 206 171
134 205 171
133 205 170
133 204 170
132 204 169
132 203 169
131 203 168
131 202 168
130 202 167
130 201 167
129 200 166
129 200 165
128 199 165
128 199 165
127 198 164
127 198 164
134 218 168
126 197 163
125 196 162
125 196 162
124 195 161
124 194 161
123 194 160
123 193 160
122 193 159
122 192 159
121 192 158
121 191 158
120 191 157
120 191 157
119 190 156
119 190 156
126 210 161
118 189 155
118 188 155
117 188 154
117 188 154
116 187 153
116 187 153
116 186 153
115 186 152
115 186 152
115 185 152
114 185 151
114 185 151
114 184 151
113 184 150
121 205 155
121 204 155
113 183 149
112 183 149
112 182 149
112 182 149
111 182 148
111 182 148
111 181 148
111 181 148
111 181 147
110 181 147
110 180 147
110 180 147
110 180 147
117 201 152
117 200 151
117 200 151
108 179 145
108 179 145
108 179 145
108 179 145
108 178 145
108 178 145
108 178 144
107 178 144
107 178 144
107 178 144
107 178 144
115 198 149
115 198 149
115 198 149
114 198 149
114 198 149
42 68 54
42 68 54
106 177 143
106 176 142
106 176 142
112 195 147
112 195 147
104 175 141
104 175 141
104 175 141
104 175 141
104 175 141
104 175 141
104 175 141
104 175 141
104 175 141
104 175 141
104 175 141
104 175 141
104 175 141
104 175 141
112 195 146
112 195 146
104 174 141
111 195 146
104 174 140
104 174 140
104 174 140
103 174 140
103 174 140
103 174 140
103 174 140
103 174 140
111 195 145
111 195 145
111 195 145
111 195 145
111 195 145
111 195 145
111 195 145
111 195 145
111 195 145
111 195 145
103 174 140
103 174 140
102 174 139
110 195 144
36 62 47
101 174 138
110 195 144
101 174 138
110 195 144
110 195 144
101 174 138
110 195 144
101 174 138
110 195 144
32 54 44
35 61 46
35 61 46
35 61 46
32 54 44
35 61 46
32 54 44
35 61 45
35 61 45
35 61 45
35 61 45
32 54 44
26 46 27
101 174 138
101 174 138
101 174 138
101 174 138
101 174 138
109 195 143
109 196 143
109 196 143
101 174 138
109 196 143
109 196 143
109 196 143
109 196 143
109 196 143
101 174 138
109 196 143
109 196 143
110 196 144
110 196 144
101 174 138
110 196 144
110 196 144
110 196 144
110 196 144
102 175 139
102 175 139
110 197 144
110 197 144
110 197 144
102 175 139
110 197 145
111 197 145
111 197 145
111 197 145
111 198 145
111 198 145
111 198 145
103 176 140
112 198 146
112 198 146
112 199 146
112 199 146
112 199 146
104 177 141
104 177 141
105 178 141
105 178 142
105 178 142
105 178 142
114 201 148
114 201 148
114 201 148
115 201 149
115 202 149
107 180 144
116 202 150
116 203 150
116 203 150
117 203 151
117 204 151
117 204 151
118 204 152
110 183 147
110 183 147
111 184 148
119 206 153
112 185 148
112 185 149
113 186 149
121 208 155
114 187 150
114 187 151
115 188 151
123 210 157
124 211 158
124 211 158
125 212 159
125 212 159
126 213 160
127 213 161
127 214 161
128 215 162
128 215 162
121 194 158
121 194 158
122 195 159
123 196 159
123 196 160
124 197 161
124 198 161
125 198 162
126 199 163
126 199 163
127 200 164
128 201 164
137 223 171
137 224 171
138 225 172
138 225 172
139 226 173
140 226 174
140 227 174
141 228 175
133 206 170
134 207 171
134 208 171
135 208 172
136 209 172
136 209 173
137 210 173
137 210 174
138 211 174
138 211 175
139 212 175
139 212 176
140 213 176
140 213 177
140 213 177
24 44 25
25 45 26
25 45 26
22 38 24
23 38 24
23 38 24
23 39 25
23 39 25
76 102 87
74 96 85
77 103 87
144 217 181
144 217 181
152 239 186
152 239 186
144 217 181
144 217 181
144 217 181
144 217 181
152 239 186
152 239 186
144 217 181
152 238 186
144 216 181
152 238 186
144 216 180
143 216 180
143 216 180
143 215 180
151 237 185
26 46 27
142 215 179
142 214 179
142 214 178
149 235 184
141 213 178
149 234 183
148 234 182
148 234 182
147 233 182
25 41 28
73 99 84
72 98 83
146 231 180
145 231 180
145 230 179
71 97 82
71 97 82
144 228 178
143 228 177
135 206 172
134 206 171
134 205 170
133 204 170
133 204 169
132 203 169
131 203 168
131 202 168
130 202 167
130 201 167
129 201 166
129 200 166
128 200 165
30 49 32
128 198 164
127 198 164
134 218 169
134 218 168
133 217 168
133 217 167
124 195 161
124 195 161
123 194 160
123 194 160
130 214 165
122 193 159
121 192 158
121 192 158
121 191 157
120 191 157
120 190 157
119 190 156
119 190 156
126 210 160
118 189 155
118 188 154
117 188 154
117 187 154
116 187 153
116 187 153
116 186 153
115 186 152
123 206 157
115 185 151
114 185 151
114 185 151
114 184 151
113 184 150
113 184 150
113 183 150
112 183 149
112 183 149
112 182 149
112 182 149
111 182 148
111 182 148
111 181 148
111 181 148
110 181 147
110 181 147
110 180 147
110 180 147
110 180 147
109 180 146
117 200 151
117 200 151
108 179 145
116 200 150
108 179 145
108 179 145
108 178 145
108 178 145
107 178 144
107 178 144
107 178 144
107 178 144
107 178 144
107 177 144
107 177 144
115 198 149
114 198 149
114 198 149
114 198 149
85 136 92
106 177 143
106 176 142
105 176 142
105 175 141
104 175 141
104 175 141
104 175 141
104 175 141
104 175 141
104 175 141
104 175 141
104 175 141
104 175 141
104 175 141
104 175 141
104 175 141
104 175 141
104 175 141
112 195 146
112 195 146
104 174 140
104 174 140
104 174 140
104 174 140
103 174 140
103 174 140
103 174 140
111 195 146
103 174 140
103 174 140
103 174 140
111 195 145
111 195 145
111 195 145
111 195 145
111 195 145
111 195 145
111 195 145
111 195 145
111 195 145
103 174 140
103 174 140
110 195 144
102 174 139
101 174 138
101 174 138
101 174 138
101 174 138
110 195 144
101 174 138
101 174 138
110 195 144
109 195 144
109 195 144
35 61 46
35 61 46
35 61 46
35 61 46
35 61 45
35 61 45
35 61 45
32 54 44
35 61 45
32 54 44
35 61 45
35 61 45
35 61 45
26 46 28
26 46 27
101 174 138
109 195 143
109 195 143
109 195 143
109 195 143
109 196 143
109 196 143
109 196 143
109 196 143
101 174 138
109 196 143
109 196 143
101 174 138
109 196 143
109 196 143
109 196 143
101 174 138
101 174 138
101 174 138
101 174 138
110 196 144
102 174 138
102 175 138
102 175 138
110 197 144
102 175 139
110 197 144
110 197 144
110 197 144
110 197 144
111 197 145
102 175 139
111 197 145
111 198 145
111 198 145
103 176 140
111 198 145
112 198 146
103 176 140
112 198 146
112 199 146
104 177 141
104 177 141
113 199 147
105 178 141
105 178 142
105 178 142
114 200 148
114 200 148
114 201 148
114 201 148
115 201 149
107 180 143
107 180 144
115 202 150
116 203 150
116 203 150
116 203 151
117 204 151
117 204 151
118 204 152
118 205 152
110 183 147
111 184 147
111 184 148
111 184 148
112 185 149
112 185 149
113 186 150
113 186 150
114 187 151
123 209 157
115 188 152
124 210 158
124 211 158
125 211 159
125 212 159
126 212 160
126 213 160
127 214 161
127 214 161
128 215 162
129 215 163
121 194 158
130 217 164
122 195 159
123 196 160
123 197 160
132 219 166
133 220 167
125 198 162
126 199 163
135 222 169
135 222 169
136 223 170
128 202 165
137 224 171
138 225 172
130 203 167
131 204 168
140 227 174
140 227 174
141 228 175
142 228 176
134 207 171
134 207 171
143 230 177
136 209 172
136 209 173
137 210 173
137 210 174
138 211 174
138 211 175
138 212 175
139 212 176
148 234 182
24 44 25
25 45 25
25 45 26
25 45 26
22 38 24
23 38 24
23 39 25
23 39 25
75 101 86
76 102 86
76 102 86
76 102 86
151 238 185
151 238 186
152 238 186
143 216 180
144 216 180
144 216 180
144 216 180
144 216 180
144 216 180
143 216 180
143 216 180
143 216 180
151 238 185
151 237 185
143 215 180
151 237 185
151 237 185
150 237 184
26 46 27
26 46 27
142 214 178
149 235 184
149 235 183
141 213 178
148 234 183
148 234 182
148 233 182
147 233 181
147 233 181
146 232 181
72 98 83
72 98 83
145 231 180
145 230 179
144 230 179
144 229 178
70 96 81
143 228 177
143 227 177
142 227 176
142 226 176
133 205 170
141 225 175
132 204 169
132 203 168
131 202 168
131 202 167
130 201 167
129 201 166
129 200 166
128 200 165
84 149 88
30 50 32
127 198 164
127 198 164
134 218 168
134 218 168
133 217 167
133 217 167
132 216 166
132 216 166
123 194 160
123 194 160
122 193 159
122 193 159
121 192 158
121 192 158
120 191 157
120 191 157
119 190 156
119 190 156
126 210 161
126 210 160
126 210 160
125 209 160
117 188 154
117 187 153
116 187 153
116 187 153
115 186 152
115 186 152
115 185 152
114 185 151
114 185 151
114 184 151
113 184 150
121 205 155
113 183 150
120 204 155
120 204 154
112 183 149
112 182 149
112 182 148
111 182 148
111 182 148
111 181 148
111 181 148
110 181 147
110 181 147
118 201 152
110 180 147
110 180 146
109 180 146
109 180 146
108 179 145
108 179 145
108 179 145
108 179 145
108 179 145
108 178 145
108 178 144
107 178 144
107 178 144
107 178 144
107 178 144
115 199 149
107 177 144
107 177 144
107 177 144
107 177 143
114 198 149
114 198 148
106 177 143
106 177 142
106 176 142
105 176 142
104 175 141
104 175 141
104 175 141
104 175 141
104 175 141
104 175 141
104 175 141
104 175 141
104 175 141
104 175 141
104 175 141
104 175 141
104 175 141
104 175 141
104 174 141
104 174 140
111 195 146
104 174 140
104 174 140
103 174 140
103 174 140
103 174 140
103 174 140
103 174 140
103 174 140
103 174 140
103 174 140
103 174 140
103 174 140
111 195 145
111 195 145
111 195 145
111 195 145
111 195 145
111 195 145
103 174 140
103 174 140
102 174 139
102 174 139
102 174 139
101 174 138
101 174 138
110 195 144
101 174 138
101 174 138
101 174 138
109 195 144
109 195 144
109 195 144
101 174 138
109 195 144
35 61 46
35 61 45
35 61 45
35 61 45
32 54 44
32 54 44
35 61 45
35 61 45
32 54 44
35 61 45
35 61 45
32 54 44
35 61 45
32 54 44
26 46 27
23 39 25
109 195 143
101 174 138
101 174 138
109 195 143
101 174 138
109 196 143
109 196 143
109 196 143
109 196 143
109 196 143
109 196 143
109 196 143
109 196 143
109 196 143
109 196 143
101 174 138
110 196 144
110 196 144
110 196 144
110 196 144
102 174 138
110 196 144
102 175 138
110 197 144
110 197 144
110 197 144
110 197 144
102 175 139
110 197 144
111 197 145
102 175 139
111 197 145
111 198 145
111 198 145
111 198 145
111 198 145
111 198 145
103 176 140
112 198 146
112 199 146
112 199 146
112 199 146
104 177 141
105 178 141
105 178 142
113 200 147
113 200 147
114 200 148
114 201 148
114 201 148
114 201 149
107 180 143
115 202 149
115 202 149
116 202 150
108 181 145
116 203 150
117 203 151
117 204 151
117 204 151
118 205 152
110 183 147
110 183 147
111 184 148
111 184 148
112 185 148
112 185 149
113 186 149
121 208 155
122 209 156
122 209 156
115 188 151
123 210 157
124 211 158
124 211 158
125 212 159
125 212 159
126 213 160
127 213 161
119 192 156
128 214 162
128 215 162
129 216 163
121 194 158
130 217 164
122 196 159
123 196 160
124 197 160
124 197 161
125 198 162
126 199 162
134 221 168
135 222 169
136 222 170
136 223 170
137 224 171
137 224 171
138 225 172
139 225 173
139 226 173
140 227 174
132 205 169
141 228 175
133 206 170
134 207 171
134 207 171
143 230 177
135 208 172
136 209 173
136 209 173
145 232 179
137 210 174
138 211 175
138 211 175
24 44 25
25 44 25
25 45 26
25 45 26
22 38 24
23 38 24
23 39 25
23 39 25
74 100 85
72 94 83
72 94 84
73 94 84
75 101 86
151 237 185
151 237 185
151 237 185
151 237 185
151 237 185
151 237 185
143 216 180
151 237 185
143 215 180
143 215 180
143 215 179
151 237 185
151 237 185
142 215 179
150 237 184
142 215 179
142 214 179
26 46 27
26 46 27
26 46 27
141 213 178
149 235 183
149 234 183
148 234 182
148 234 182
147 233 182
147 233 181
147 232 181
146 232 180
138 210 175
145 231 180
145 231 179
145 230 179
144 230 179
144 229 178
143 229 178
143 228 177
143 227 177
142 227 176
142 226 176
141 226 175
141 225 175
132 204 169
132 203 169
131 203 168
131 202 168
130 202 167
130 201 167
129 200 166
129 200 165
128 199 165
30 50 32
127 198 164
127 198 164
134 218 169
134 218 168
133 217 168
133 217 167
132 216 167
124 195 161
131 215 166
123 194 160
122 193 159
122 193 159
129 213 164
121 192 158
121 191 157
120 191 157
120 191 157
119 190 156
119 190 156
126 210 161
126 210 160
125 209 160
125 209 159
125 209 159
116 187 153
116 187 153
124 207 158
115 186 152
115 186 152
115 185 152
114 185 151
114 185 151
114 184 151
113 184 150
113 184 150
121 204 155
120 204 155
120 204 154
120 203 154
112 182 149
111 182 148
111 182 148
111 182 148
111 181 148
111 181 147
110 181 147
110 181 147
110 180 147
110 180 147
110 180 146
109 180 146
109 180 146
116 200 151
108 179 145
108 179 145
108 179 145
108 179 145
116 199 150
108 178 144
107 178 144
107 178 144
107 178 144
115 199 149
107 178 144
107 177 144
107 177 144
107 177 143
106 177 143
106 177 143
85 136 92
106 177 143
106 177 142
105 176 142
105 176 142
112 195 147
104 175 141
104 175 141
104 175 141
104 175 141
104 175 141
104 175 141
104 175 141
104 175 141
104 175 141
104 175 141
104 175 141
104 174 141
112 195 146
104 174 140
111 195 146
104 174 140
104 174 140
103 174 140
103 174 140
103 174 140
103 174 140
111 195 146
103 174 140
103 174 140
103 174 140
103 174 140
103 174 140
103 174 140
111 195 145
111 195 145
111 195 145
111 195 145
103 174 140
103 174 140
102 174 139
110 195 144
102 174 139
101 174 138
110 195 144
101 174 138
101 174 138
101 174 138
109 195 144
101 174 138
101 174 138
101 174 138
109 195 144
109 195 144
109 195 144
109 195 144
35 61 45
35 61 45
35 61 45
35 61 45
35 61 45
35 61 45
35 61 45
35 61 45
35 61 45
32 54 44
35 61 45
32 54 44
35 61 45
35 61 45
26 46 28
26 46 27
109 195 143
109 195 143
109 195 143
109 195 143
109 196 143
109 196 143
109 196 143
109 196 143
101 174 138
109 196 143
109 196 143
101 174 138
109 196 143
109 196 143
109 196 143
109 196 143
109 196 144
110 196 144
110 196 144
101 174 138
110 196 144
102 174 138
110 196 144
102 175 138
102 175 139
110 197 144
110 197 144
110 197 144
102 175 139
110 197 145
111 197 145
111 197 145
111 197 145
111 198 145
111 198 145
111 198 145
111 198 145
112 198 146
112 198 146
112 199 146
112 199 146
104 177 141
112 199 146
113 199 147
113 200 147
113 200 147
113 200 147
114 200 148
114 201 148
106 179 143
114 201 148
115 201 149
115 202 149
115 202 149
116 202 150
116 203 150
116 203 150
117 203 151
117 204 151
109 182 146
109 182 146
118 205 152
118 205 152
111 184 147
111 184 148
111 185 148
120 207 154
112 185 149
121 208 155
122 208 156
122 209 156
123 209 157
123 210 157
124 210 158
124 211 158
125 211 159
125 212 159
126 212 160
126 213 160
119 192 155
127 214 161
128 215 162
129 215 163
121 194 158
121 195 158
122 195 159
123 196 159
123 196 160
124 197 161
133 219 167
125 198 162
134 221 168
134 221 169
135 222 169
136 223 170
128 201 165
137 224 171
137 224 172
138 225 172
139 225 173
139 226 173
140 227 174
132 205 169
141 228 175
133 206 170
142 229 176
143 229 177
135 208 172
144 230 178
136 209 173
136 209 173
137 210 173
137 210 174
24 44 25
25 44 25
25 45 26
25 45 26
25 45 26
23 38 24
23 38 25
23 39 25
73 99 84
71 93 82
74 100 84
74 100 85
74 100 85
74 100 85
150 236 184
150 236 184
142 215 179
142 215 179
150 237 184
142 215 179
142 215 179
150 237 184
142 215 179
150 236 184
150 236 184
142 215 179
150 236 184
150 236 184
141 214 178
141 214 178
26 46 27
26 46 27
26 46 27
82 148 85
140 213 177
140 212 177
148 234 182
148 233 182
147 233 181
147 233 181
147 232 181
146 232 180
146 231 180
145 231 179
145 231 179
136 209 173
144 230 178
144 229 178
143 229 178
143 228 177
142 228 177
142 227 176
134 205 171
133 205 170
141 226 175
140 225 174
140 225 174
131 203 168
131 202 168
130 202 167
130 201 167
129 201 166
129 200 166
128 200 165
29 49 32
30 50 32
127 198 164
134 219 169
134 218 168
133 218 168
133 217 167
132 217 167
132 216 166
132 216 166
131 215 165
123 194 160
130 214 164
122 193 159
121 192 158
121 192 158
120 191 157
120 191 157
127 211 162
119 190 156
127 210 161
118 189 155
126 210 160
125 209 160
125 209 159
125 208 159
116 187 153
124 208 158
116 186 152
115 186 152
115 186 152
115 185 151
114 185 151
114 185 151
114 184 150
113 184 150
121 205 155
121 204 155
120 204 155
120 204 154
120 203 154
119 203 154
119 203 154
111 182 148
111 181 148
111 181 148
118 202 153
110 181 147
110 181 147
110 180 147
110 180 147
109 180 146
109 180 146
109 179 145
116 200 151
116 200 150
116 200 150
108 179 145
108 179 145
108 178 145
115 199 150
107 178 144
107 178 144
107 178 144
107 178 144
107 178 144
107 177 144
107 177 144
107 177 143
106 177 143
106 177 143
85 150 89
30 50 33
106 177 142
105 176 142
105 176 142
112 195 147
104 175 141
104 175 141
104 175 141
104 175 141
104 175 141
104 175 141
104 175 141
104 175 141
104 175 141
112 195 146
104 174 141
112 195 146
112 195 146
104 174 140
104 174 140
103 174 140
103 174 140
103 174 140
103 174 140
103 174 140
103 174 140
103 174 140
103 174 140
103 174 140
103 174 140
103 174 140
103 174 140
103 174 140
111 195 145
111 195 145
111 195 145
103 174 140
103 174 139
102 174 139
102 174 139
101 174 138
101 174 138
101 174 138
101 174 138
101 174 138
101 174 138
101 174 138
101 174 138
101 174 138
101 174 138
101 174 138
109 195 144
109 195 144
109 195 144
109 195 144
109 195 144
35 61 45
32 54 44
35 61 45
35 61 45
32 54 44
35 61 45
32 54 44
32 54 44
32 54 44
35 61 45
32 54 44
32 54 44
32 54 44
32 54 44
26 46 27
23 39 25
101 174 138
109 195 143
109 195 143
109 196 143
109 196 143
109 196 143
101 174 138
109 196 143
109 196 143
109 196 143
109 196 143
101 174 138
109 196 143
109 196 143
109 196 143
109 196 143
110 196 144
110 196 144
101 174 138
101 174 138
102 174 138
110 196 144
110 196 144
110 197 144
110 197 144
110 197 144
110 197 144
110 197 144
110 197 144
111 197 145
102 175 139
111 197 145
103 176 139
103 176 140
111 198 145
111 198 145
112 198 146
112 198 146
112 199 146
104 177 141
112 199 146
112 199 146
113 199 147
113 200 147
113 200 147
113 200 147
114 200 148
114 200 148
114 201 148
114 201 148
115 201 149
115 202 149
107 180 144
107 180 144
116 203 150
116 203 150
116 203 150
109 182 145
117 204 151
118 204 152
118 205 152
118 205 152
110 184 147
111 184 148
120 206 154
120 207 154
112 185 149
121 208 155
121 208 155
122 209 156
122 209 156
123 210 157
123 210 157
124 211 158
116 189 153
125 212 159
125 212 159
126 213 160
118 191 155
127 214 161
119 192 156
128 215 162
129 216 163
129 216 163
122 195 158
122 195 159
131 218 165
132 218 166
124 197 161
133 220 167
133 220 167
134 221 168
135 221 169
135 222 169
136 223 170
128 201 165
137 224 171
138 224 172
138 225 172
139 225 173
139 226 173
140 227 174
140 227 174
133 206 169
133 206 170
134 207 170
134 207 171
135 208 171
135 208 172
144 231 178
136 209 173
24 44 25
24 44 25
25 45 26
25 45 26
25 45 26
25 45 26
23 38 24
23 39 25
70 92 81
70 92 81
73 99 83
73 99 84
73 99 84
74 100 84
74 100 84
141 214 178
149 236 183
149 236 183
149 236 184
150 236 184
150 236 184
150 236 184
141 214 178
141 214 178
141 214 178
141 214 178
141 214 178
141 214 178
149 235 183
149 235 183
26 46 27
26 46 27
26 46 27
26 46 27
140 212 177
140 212 177
148 233 182
139 211 176
147 233 181
139 211 175
146 232 180
138 210 175
146 231 180
145 231 179
145 231 179
144 230 178
136 208 173
135 208 172
135 207 172
143 228 177
142 228 177
142 227 176
142 227 176
141 226 175
141 226 175
140 225 175
140 225 174
139 224 174
139 224 173
130 202 167
130 201 167
129 201 166
129 200 166
128 200 165
29 49 31
30 50 32
30 50 32
135 219 169
134 218 168
134 218 168
133 217 167
133 217 167
132 216 166
132 216 166
131 215 166
131 215 165
130 214 165
130 214 164
129 213 164
121 192 158
121 191 157
120 191 157
120 191 157
119 190 156
127 211 161
126 210 161
126 210 160
126 210 160
125 209 159
125 209 159
124 208 159
124 208 158
124 208 158
123 207 158
115 186 152
115 185 152
114 185 151
114 185 151
114 184 151
113 184 150
113 184 150
113 184 150
120 204 155
120 204 154
120 204 154
120 203 154
119 203 154
119 203 153
119 203 153
111 181 148
111 181 148
110 181 147
110 181 147
110 180 147
110 180 147
110 180 146
109 180 146
109 180 146
116 200 151
116 200 150
116 200 150
116 200 150
116 200 150
116 199 150
108 178 144
107 178 144
107 178 144
107 178 144
107 178 144
107 178 144
107 178 144
107 177 144
107 177 144
107 177 143
106 177 143
85 136 92
30 50 33
30 50 33
30 50 33
85 150 89
105 176 142
112 195 147
104 175 141
104 175 141
104 175 141
104 175 141
104 175 141
104 175 141
104 175 141
104 175 141
112 195 146
104 174 141
112 195 146
112 195 146
112 195 146
112 195 146
103 174 140
103 174 140
103 174 140
103 174 140
103 174 140
103 174 140
111 195 146
103 174 140
103 174 140
103 174 140
103 174 140
103 174 140
103 174 140
111 195 145
38 64 50
103 174 140
103 174 139
102 174 139
102 174 139
101 174 138
101 174 138
101 174 138
110 195 144
101 174 138
101 174 138
109 195 144
101 174 138
101 174 138
109 195 144
101 174 138
109 195 144
109 195 144
109 195 144
109 195 144
109 195 144
109 195 144
109 195 144
35 61 45
32 54 44
35 61 45
35 61 45
35 61 45
32 54 44
32 54 44
35 61 45
32 54 44
32 54 44
32 54 44
32 54 44
32 54 44
35 61 45
26 46 28
23 39 25
109 195 143
109 195 143
109 195 143
109 196 143
109 196 143
109 196 143
109 196 143
109 196 143
109 196 143
109 196 143
101 174 138
109 196 143
109 196 143
101 174 138
109 196 143
109 196 143
101 174 138
101 174 138
101 174 138
110 196 144
102 174 138
110 196 144
110 196 144
102 175 139
110 197 144
110 197 144
110 197 144
110 197 144
110 197 144
111 197 145
111 197 145
111 197 145
111 198 145
111 198 145
111 198 145
111 198 145
111 198 145
112 198 146
104 177 140
104 177 141
104 177 141
104 177 141
113 199 147
105 178 141
113 200 147
113 200 147
113 200 147
114 200 148
114 201 148
114 201 148
114 201 148
115 201 149
115 202 149
115 202 149
116 202 150
108 181 144
116 203 150
117 203 151
117 204 151
117 204 151
118 205 152
118 205 152
119 205 153
119 206 153
119 206 153
112 185 148
120 207 154
121 207 155
121 208 155
122 208 156
122 209 156
123 209 157
123 210 157
124 210 158
116 189 153
125 211 159
125 212 159
126 212 160
126 213 160
127 213 161
127 214 161
128 215 162
120 193 157
129 216 163
129 216 163
122 195 159
131 217 165
131 218 165
132 219 166
124 197 161
125 198 161
134 220 168
134 221 168
126 200 163
127 200 164
136 223 170
136 223 170
137 224 171
138 224 172
138 225 172
139 225 173
131 204 168
140 227 174
140 227 174
141 228 175
133 206 170
134 207 170
134 207 171
134 208 171
143 230 177
24 44 25
24 44 25
25 45 25
25 45 26
25 45 26
25 45 26
25 45 26
23 39 25
71 97 82
72 98 82
69 91 81
72 98 83
72 98 83
73 99 83
73 99 83
73 99 83
148 235 182
149 235 183
149 235 183
141 213 177
149 235 183
149 235 183
149 235 183
149 235 183
149 235 183
141 213 177
141 213 177
140 213 177
140 213 177
140 213 177
26 45 27
26 46 27
26 46 27
26 46 27
26 46 28
139 212 176
139 211 176
147 233 181
147 232 181
138 210 175
146 232 180
138 210 174
145 231 179
137 209 174
145 230 179
144 230 178
144 230 178
143 229 178
143 229 177
134 207 171
142 228 176
142 227 176
141 227 176
141 226 175
141 226 175
140 225 174
140 225 174
139 224 174
139 224 173
138 223 173
138 223 172
137 222 172
129 200 166
136 221 171
29 49 31
30 49 32
30 50 32
127 198 164
134 219 169
134 218 168
133 218 168
125 196 162
132 217 167
132 216 166
131 216 166
131 215 165
131 215 165
122 193 159
122 193 159
129 213 163
129 213 163
120 191 157
120 191 157
120 190 156
119 190 156
127 211 161
126 210 160
118 189 155
125 209 160
125 209 159
125 209 159
116 187 153
124 208 158
124 207 158
115 186 152
123 207 157
122 206 157
114 185 151
114 185 151
114 184 151
113 184 150
121 205 155
121 204 155
120 204 155
120 204 154
120 204 154
120 203 154
119 203 154
119 203 153
119 203 153
119 202 153
118 202 153
110 181 147
110 181 147
110 180 147
110 180 147
110 180 146
109 180 146
116 201 151
116 200 151
116 200 150
116 200 150
116 200 150
116 200 150
116 199 150
115 199 150
107 178 144
107 178 144
107 178 144
107 178 144
107 178 144
107 177 144
107 177 144
107 177 143
106 177 143
106 177 143
31 51 33
31 50 33
31 50 33
30 50 33
30 50 33
30 50 33
