P3
320 240
255
95 145 166
95 145 166
95 145 166
95 145 166
95 145 166
95 145 166
95 145 166
95 145 166
95 145 166
95 145 166
95 145 166
95 145 166
95 145 166
95 145 166
95 145 166
95 145 166
95 145 166
95 145 166
95 145 166
95 145 166
95 145 166
95 145 166
95 145 166
95 145 166
95 145 166
95 145 166
95 145 166
95 145 166
95 145 166
95 145 166
95 145 166
95 145 166
95 145 166
95 145 166
95 145 166
95 145 166
95 145 166
95 145 166
95 145 166
95 145 166
95 145 166
95 145 166
95 145 166
95 145 166
95 145 166
95 145 166
95 145 166
95 145 166
95 145 166
95 145 166
95 145 166
95 145 166
95 145 166
95 145 166
95 146 166
95 146 166
95 146 166
95 146 166
95 146 166
95 146 166
95 146 166
95 146 166
95 146 166
95 146 166
95 146 166
95 146 166
95 146 166
95 146 166
95 146 166
95 146 166
95 146 166
95 146 166
95 146 166
95 146 166
95 146 166
95 146 166
95 146 166
95 146 166
95 146 166
95 146 166
95 146 166
95 146 166
95 146 166
95 146 166
95 146 166
95 146 166
95 146 166
95 146 166
95 146 166
95 146 166
95 146 166
95 146 166
95 146 166
95 146 166
95 146 166
95 146 166
95 146 166
95 146 166
95 146 166
95 146 166
95 146 166
95 146 166
95 146 166
95 146 166
95 146 166
95 146 166
95 146 166
95 146 166
95 146 166
95 146 166
95 146 166
95 146 166
95 146 166
95 146 166
95 146 166
95 146 166
95 146 166
95 146 166
95 146 166
95 146 166
95 146 166
95 146 166
95 146 166
95 146 166
95 146 166
95 146 166
95 146 166
95 146 166
95 146 166
95 146 166
95 146 166
95 146 166
95 146 166
95 146 166
95 146 166
95 146 166
95 146 166
95 146 166
95 146 166
95 146 166
95 146 166
95 146 166
95 146 166
95 146 166
95 146 166
95 146 166
95 146 166
95 146 166
95 146 166
95 146 166
95 146 166
95 146 166
95 146 166
95 146 166
95 146 166
95 146 166
95 146 166
95 146 166
95 146 166
95 146 166
95 146 166
95 146 166
95 146 166
95 146 166
95 146 166
95 146 166
95 146 166
95 146 166
95 146 166
95 146 166
95 146 166
95 146 166
95 146 166
95 146 166
95 146 166
95 146 166
95 146 166
95 146 166
95 146 166
95 146 166
95 146 166
95 146 166
95 146 166
95 146 166
95 146 166
95 146 166
95 146 166
95 146 166
95 146 166
95 146 166
95 146 166
95 146 166
95 146 166
95 146 166
95 146 166
95 146 166
95 146 166
95 146 166
95 146 166
95 146 166
95 146 166
95 146 166
95 146 166
95 146 166
95 146 166
95 146 166
95 146 166
95 146 166
95 146 166
95 146 166
95 146 166
95 146 166
95 146 166
95 146 166
95 146 166
95 146 166
95 146 166
95 146 166
95 146 166
95 146 166
95 146 166
95 146 166
95 146 166
95 146 166
95 146 166
95 146 166
95 146 166
95 146 166
95 146 166
95 146 166
95 146 166
95 146 166
95 146 166
95 146 166
95 146 166
95 146 166
95 146 166
95 146 166
95 146 166
95 146 166
95 146 166
95 146 166
95 146 166
95 146 166
95 146 166
95 146 166
95 146 166
95 146 166
95 146 166
95 146 166
95 146 166
95 146 166
95 146 166
95 146 166
95 146 166
95 146 166
95 146 166
95 146 166
95 146 166
95 146 166
95 146 166
95 146 166
95 146 166
95 146 166
95 146 166
95 146 166
95 145 166
95 145 166
95 145 166
95 145 166
95 145 166
95 145 166
95 145 166
95 145 166
95 145 166
95 145 166
95 145 166
95 145 166
95 145 166
95 145 166
95 145 166
95 145 166
95 145 166
95 145 166
95 145 166
95 145 166
95 145 166
95 145 166
95 145 166
95 145 166
95 145 166
95 145 166
95 145 166
95 145 166
95 145 166
95 145 166
95 145 166
95 145 166
95 145 166
95 145 166
95 145 166
95 145 166
95 145 166
95 145 166
95 145 166
95 145 166
95 145 166
95 145 166
95 145 166
95 145 166
95 145 166
95 145 166
95 145 166
95 145 166
95 145 166
95 145 166
95 145 166
95 145 166
95 145 166
95 145 166
95 145 166
95 145 166
95 145 166
95 145 166
95 145 166
95 145 166
95 145 166
95 145 166
95 145 166
95 145 166
95 145 166
95 145 166
95 145 166
95 145 166
95 145 166
95 145 166
95 145 166
95 145 166
95 145 166
95 145 166
95 145 166
95 145 166
95 145 166
95 145 166
95 145 166
95 145 166
95 145 166
95 145 166
95 145 166
95 145 166
95 145 166
95 145 166
95 145 166
95 145 166
95 145 166
95 145 166
95 145 166
95 145 166
95 145 166
95 145 166
95 145 166
95 145 166
95 145 166
95 145 166
95 145 166
95 145 166
95 145 166
95 145 166
95 145 166
95 145 166
95 145 166
95 145 166
95 145 166
95 145 166
95 145 166
95 145 166
95 145 166
95 145 166
95 145 166
95 145 166
95 145 166
95 145 166
95 145 166
95 145 166
95 145 166
95 145 166
95 145 166
95 145 166
95 145 166
95 145 166
95 145 166
95 145 166
95 145 166
95 145 166
95 145 166
95 145 166
95 145 166
95 145 166
95 145 166
95 145 166
95 145 166
95 145 166
95 145 166
95 145 166
95 145 166
95 145 166
95 145 166
95 145 166
95 145 166
95 145 166
95 145 166
95 145 166
95 145 166
95 145 166
95 145 166
95 145 166
95 145 166
95 145 166
95 145 166
95 145 166
95 145 166
95 145 166
95 145 166
95 145 166
95 145 166
95 145 166
95 145 166
95 145 166
95 145 166
95 145 166
95 145 166
95 145 166
95 145 166
95 145 166
95 145 166
95 145 166
95 145 166
95 145 166
95 145 166
95 145 166
95 145 166
95 145 166
95 145 166
95 145 166
95 145 166
95 145 166
95 145 166
95 145 166
95 145 166
95 145 166
95 145 166
95 145 166
95 145 166
95 145 166
95 145 166
95 145 166
95 145 166
95 145 166
95 145 166
95 145 166
95 145 166
95 145 166
95 145 166
95 145 166
95 145 166
95 145 166
95 145 166
95 145 166
95 145 166
95 145 166
95 145 166
95 145 166
95 145 166
95 145 166
95 145 166
95 145 166
95 145 166
95 145 166
95 145 166
95 145 166
95 145 166
95 145 166
95 145 166
95 145 166
95 145 166
95 145 166
95 145 166
95 145 166
95 145 166
95 145 166
95 145 166
95 145 166
95 145 166
95 145 166
95 145 166
95 145 166
95 145 166
95 145 166
95 145 166
95 145 166
95 145 166
95 145 166
95 145 166
95 145 166
95 145 166
95 145 166
95 145 166
95 145 166
95 145 166
95 145 166
95 145 166
95 145 166
95 145 166
95 145 166
95 145 166
95 145 166
95 145 166
95 145 166
95 145 166
95 145 166
95 145 166
95 145 166
95 145 166
95 145 166
95 145 166
95 145 166
95 145 166
95 145 166
95 145 166
95 145 166
95 145 166
95 145 166
95 145 166
95 145 166
95 145 166
95 145 166
95 145 166
95 145 166
95 145 166
95 145 166
95 145 166
95 145 166
95 145 166
95 145 166
95 145 166
95 145 166
95 145 166
95 145 166
95 145 166
95 145 166
95 145 166
95 145 166
95 145 166
95 145 166
95 145 166
95 145 166
95 145 166
95 145 166
95 145 166
95 145 166
95 145 166
95 145 166
95 145 166
95 145 166
95 145 166
95 145 166
95 145 166
95 145 166
95 145 166
95 145 166
95 145 166
95 145 166
95 145 166
95 145 166
95 145 166
95 145 166
95 145 166
95 145 166
95 145 166
95 145 166
95 145 166
95 145 166
95 145 166
95 145 166
95 145 166
95 145 166
95 145 166
95 145 166
95 145 166
95 145 166
95 145 166
95 145 166
95 145 166
95 145 166
95 145 166
95 145 166
95 145 166
95 145 166
95 145 166
95 145 166
95 145 166
95 145 166
95 145 166
95 145 166
95 145 166
95 145 166
95 145 166
95 145 166
95 145 166
95 145 166
95 145 166
95 145 166
95 145 166
95 145 166
95 145 166
95 145 166
95 145 166
95 145 166
95 145 166
95 145 166
95 145 166
95 145 166
95 145 166
95 145 166
95 145 166
95 145 166
95 145 166
95 145 166
95 145 166
95 145 166
95 145 166
95 145 166
95 145 166
95 145 166
95 145 166
95 145 166
95 145 166
95 145 166
95 145 166
95 145 166
95 145 165
95 145 165
95 145 165
95 145 165
95 145 165
95 145 165
95 145 165
95 145 165
95 145 165
95 145 165
95 145 165
95 145 165
95 145 165
95 145 165
95 145 165
95 145 165
95 145 165
95 145 165
95 145 165
95 145 165
95 145 165
95 145 165
95 145 166
95 145 166
95 145 166
95 145 166
95 145 166
95 145 166
95 145 166
95 145 166
95 145 166
95 145 166
95 145 166
95 145 166
95 145 166
95 145 166
95 145 166
95 145 166
95 145 166
95 145 166
95 145 166
95 145 166
95 145 166
95 145 166
95 145 166
95 145 166
95 145 166
95 145 166
95 145 166
95 145 166
95 145 166
95 145 166
95 145 166
95 145 166
95 145 166
95 145 166
95 145 166
95 145 166
95 145 166
95 145 166
95 145 166
95 145 166
95 145 166
95 145 166
95 145 166
95 145 166
95 145 166
95 145 166
95 145 166
95 145 166
95 145 166
95 145 166
95 145 166
95 145 166
95 145 166
95 145 166
95 145 166
95 145 166
95 145 166
95 145 166
95 145 166
95 145 166
95 145 166
95 145 166
95 145 166
95 145 166
95 145 166
95 145 166
95 145 166
95 145 166
95 145 166
95 145 166
95 145 166
95 145 166
95 145 166
95 145 166
95 145 166
95 145 166
95 145 166
95 145 166
95 145 166
95 145 166
95 145 166
95 145 166
95 145 166
95 145 166
95 145 166
95 145 166
95 145 166
95 145 166
95 145 166
95 145 166
95 145 166
95 145 166
95 145 166
95 145 166
95 145 166
95 145 166
95 145 166
95 145 166
95 145 166
95 145 166
95 145 166
95 145 166
95 145 166
95 145 166
95 145 166
95 145 166
95 145 166
95 145 166
95 145 166
95 145 166
95 145 166
95 145 166
95 145 166
95 145 166
95 145 166
95 145 166
95 145 166
95 145 166
95 145 166
95 145 166
95 145 166
95 145 166
95 145 166
95 145 166
95 145 166
95 145 166
95 145 166
95 145 166
95 145 166
95 145 166
95 145 166
95 145 166
95 145 166
95 145 166
95 145 166
95 145 166
95 145 166
95 145 166
95 145 166
95 145 166
95 145 166
95 145 166
95 145 166
95 145 166
95 145 166
95 145 166
95 145 166
95 145 166
95 145 166
95 145 166
95 145 166
95 145 166
95 145 166
95 145 166
95 145 166
95 145 166
95 145 166
95 145 166
95 145 166
95 145 166
95 145 166
95 145 166
95 145 166
95 145 166
95 145 166
95 145 166
95 145 166
95 145 166
95 145 166
95 145 166
95 145 166
95 145 166
95 145 166
95 145 166
95 145 166
95 145 166
95 145 166
95 145 166
95 145 166
95 145 166
95 145 166
95 145 166
95 145 166
95 145 166
95 145 166
95 145 166
95 145 166
95 145 166
95 145 166
95 145 166
95 145 166
95 145 166
95 145 166
95 145 166
95 145 166
95 145 166
95 145 166
95 145 166
95 145 166
95 145 166
95 145 166
95 145 166
95 145 166
95 145 166
95 145 166
95 145 166
95 145 166
95 145 166
95 145 166
95 145 166
95 145 166
95 145 166
95 145 166
95 145 166
95 145 166
95 145 166
95 145 166
95 145 166
95 145 166
95 145 166
95 145 166
95 145 166
95 145 166
95 145 166
95 145 166
95 145 166
95 145 166
95 145 166
95 145 166
95 145 166
95 145 166
95 145 166
95 145 166
95 145 166
95 145 166
95 145 166
95 145 166
95 145 166
95 145 166
95 145 166
95 145 166
95 145 166
95 145 166
95 145 166
95 145 166
95 145 166
95 145 166
95 145 166
95 145 166
95 145 166
95 145 166
95 145 166
95 145 166
95 145 166
95 145 166
95 145 166
95 145 166
95 145 166
95 145 166
95 145 166
95 145 166
95 145 166
95 145 166
95 145 166
95 145 166
95 145 166
95 145 166
95 145 166
95 145 166
95 145 166
95 145 166
95 145 166
95 145 166
95 145 166
95 145 166
95 145 166
95 145 165
95 145 165
95 145 165
95 145 165
95 145 165
95 145 165
95 145 165
95 145 165
95 145 165
95 145 165
95 145 165
95 145 165
95 145 165
95 145 165
95 145 165
95 145 165
95 145 165
95 145 165
95 145 165
95 145 165
95 145 165
95 145 165
95 145 165
95 145 165
95 145 165
95 145 165
95 145 165
95 145 165
95 145 165
95 145 165
95 145 165
95 145 165
95 145 165
95 145 165
95 145 165
95 145 165
95 145 165
95 145 165
95 145 165
95 145 165
95 145 165
95 145 165
95 145 165
95 145 165
95 145 165
95 145 165
95 145 165
95 145 165
95 145 165
95 145 165
95 145 165
95 145 165
95 145 165
95 145 165
95 145 165
95 145 165
95 145 165
95 145 165
95 145 165
95 145 165
95 145 165
95 145 165
95 145 165
95 145 165
95 145 165
95 145 165
95 145 165
95 145 165
95 145 165
95 145 165
95 145 165
95 145 165
95 145 165
95 145 165
95 145 165
95 145 165
95 145 165
95 145 165
95 145 165
95 145 165
95 145 165
95 145 165
95 145 165
95 145 165
95 145 165
95 145 165
95 145 165
95 145 165
95 145 165
95 145 165
95 145 165
95 145 165
95 145 165
95 145 165
95 145 165
95 145 165
95 145 165
95 145 165
95 145 165
95 145 165
95 145 165
95 145 165
95 145 165
95 145 165
95 145 165
95 145 165
95 145 165
95 145 165
95 145 165
95 145 165
95 145 165
95 145 165
95 145 165
95 145 165
95 145 165
95 145 165
95 145 165
95 145 165
95 145 165
95 145 165
95 145 165
95 145 165
95 145 165
95 145 165
95 145 165
95 145 165
95 145 165
95 145 165
95 145 165
95 145 165
95 145 165
95 145 165
95 145 165
95 145 165
95 145 165
95 145 165
95 145 165
95 145 165
95 145 165
95 145 165
95 145 165
95 145 165
95 145 165
95 145 165
95 145 165
95 145 165
95 145 165
95 145 165
95 145 165
95 145 165
95 145 165
95 145 165
95 145 165
95 145 165
95 145 165
95 145 165
95 145 165
95 145 165
95 145 165
95 145 165
95 145 165
95 145 165
95 145 165
95 145 165
95 145 165
95 145 165
95 145 165
95 145 165
95 145 165
95 145 165
95 145 165
95 145 165
95 145 165
95 145 165
95 145 165
95 145 165
95 145 165
95 145 165
95 145 165
95 145 165
95 145 165
95 145 165
95 145 165
95 145 165
95 145 165
95 145 165
95 145 165
95 145 165
95 145 165
95 145 165
95 145 165
95 145 165
95 145 165
95 145 165
95 145 165
95 145 165
95 145 165
95 145 165
95 145 165
95 145 165
95 145 165
95 145 165
95 145 165
95 145 165
95 145 165
95 145 165
95 145 165
95 145 165
95 145 165
95 145 165
95 145 165
95 145 165
95 145 165
95 145 165
95 145 165
95 145 165
95 145 165
95 145 165
95 145 165
95 145 165
95 145 165
95 145 165
95 145 165
95 145 165
95 145 165
95 145 165
95 145 165
95 145 165
95 145 165
95 145 165
95 145 165
95 145 165
95 145 165
95 145 165
95 145 165
95 145 165
95 145 165
95 145 165
95 145 165
95 145 165
95 145 165
95 145 165
95 145 165
95 145 165
95 145 165
95 145 165
95 145 165
95 145 165
95 145 165
95 145 165
95 145 165
95 145 165
95 145 165
95 145 165
95 145 165
95 145 165
95 145 165
95 145 165
95 145 165
95 145 165
95 145 165
95 145 165
95 145 165
95 145 165
95 145 165
95 145 165
95 145 165
95 145 165
95 145 165
95 145 165
95 145 165
95 145 165
95 145 165
95 145 165
95 145 165
95 145 165
95 145 165
95 145 165
95 145 165
95 145 165
95 145 165
95 145 165
95 145 165
95 145 165
95 145 165
95 145 165
95 145 165
95 145 165
95 145 165
95 145 165
95 145 165
95 145 165
95 145 165
95 145 165
95 145 165
95 145 165
95 145 165
95 145 165
95 145 165
95 145 165
95 145 165
95 145 165
95 145 165
95 145 165
95 145 165
95 145 165
95 145 165
95 145 165
95 145 165
95 145 165
95 145 165
95 145 165
95 145 165
95 145 165
95 145 165
95 145 165
95 145 165
95 145 165
95 145 165
95 145 165
95 145 165
95 145 165
95 145 165
95 145 165
95 145 165
95 145 165
95 145 165
95 145 165
95 145 165
95 145 165
95 145 165
95 145 165
95 145 165
95 145 165
95 145 165
95 145 165
95 145 165
95 145 165
95 145 165
95 145 165
95 145 165
95 145 165
95 145 165
95 145 165
95 145 165
95 145 165
95 145 165
95 145 165
95 145 165
95 145 165
95 145 165
95 145 165
95 145 165
95 145 165
95 145 165
95 145 165
95 145 165
95 145 165
95 145 165
95 145 165
95 145 165
95 145 165
95 145 165
95 145 165
95 145 165
95 145 165
95 145 165
95 145 165
95 145 165
95 145 165
95 145 165
95 145 165
95 145 165
95 145 165
95 145 165
95 145 165
95 145 165
95 145 165
95 145 165
95 145 165
95 145 165
95 145 165
95 145 165
95 145 165
95 145 165
95 145 165
95 145 165
95 145 165
95 145 165
95 145 165
95 145 165
95 145 165
95 145 165
95 145 165
95 145 165
95 145 165
95 145 165
95 145 165
95 145 165
95 145 165
95 145 165
95 145 165
95 145 165
95 145 165
95 145 165
95 145 165
95 145 165
95 145 165
95 145 165
95 145 165
95 145 165
95 145 165
95 145 165
95 145 165
95 145 165
95 145 165
95 145 165
95 145 165
95 145 165
95 145 165
95 145 165
95 145 165
95 145 165
95 145 165
95 145 165
95 145 165
95 145 165
95 145 165
95 145 165
95 145 165
95 145 165
95 145 165
95 145 165
95 145 165
95 145 165
95 145 165
95 145 165
95 145 165
95 145 165
95 145 165
95 145 165
95 145 165
95 145 165
95 145 165
95 145 165
95 145 165
95 145 165
95 145 165
95 145 165
95 145 165
95 145 165
95 145 165
95 145 165
95 145 165
95 145 165
95 145 165
95 145 165
95 145 165
95 145 165
95 145 165
95 145 165
95 145 165
95 145 165
95 145 165
95 145 165
95 145 165
95 145 165
95 145 165
95 145 165
95 145 165
95 145 165
95 145 165
95 145 165
95 145 165
95 145 165
95 145 165
95 145 165
95 145 165
95 145 165
95 145 165
95 145 165
95 145 165
95 145 165
95 145 165
95 145 165
95 145 165
95 145 165
95 145 165
95 145 165
95 145 165
95 145 165
95 145 165
95 145 165
95 145 165
95 145 165
95 145 165
95 145 165
95 145 165
95 145 165
95 145 165
95 145 165
95 145 165
95 145 165
95 145 165
95 145 165
95 145 165
95 145 165
95 145 165
95 145 165
95 145 165
95 145 165
95 145 165
95 145 165
95 145 165
95 145 165
95 145 165
95 145 165
95 145 165
95 145 165
95 145 165
95 145 165
95 145 165
95 145 165
95 145 165
95 145 165
95 145 165
95 145 165
95 145 165
95 145 165
95 145 165
95 145 165
95 145 165
95 145 165
95 145 165
95 145 165
95 145 165
95 145 165
95 145 165
95 145 165
95 145 165
95 145 165
95 145 165
95 145 165
95 145 165
95 145 165
95 145 165
95 145 165
95 145 165
95 145 165
95 145 165
95 145 165
95 145 165
95 145 165
95 145 165
95 145 165
95 145 165
95 145 165
95 145 165
95 145 165
95 145 165
95 145 165
95 145 165
95 145 165
95 145 165
95 145 165
95 145 165
95 145 165
95 145 165
95 145 165
95 145 165
95 145 165
95 145 165
95 145 165
95 145 165
95 145 165
95 145 165
95 145 165
95 145 165
95 145 165
95 145 165
95 145 165
95 145 165
95 145 165
95 145 165
95 145 165
95 145 165
95 145 165
95 145 165
95 145 165
95 145 165
95 145 165
95 145 165
95 145 165
95 145 165
95 145 165
95 145 165
95 145 165
95 145 165
95 145 165
95 145 165
95 145 165
95 145 165
95 145 165
95 145 165
95 145 165
95 145 165
95 145 165
95 145 165
95 145 165
95 145 165
95 145 165
95 145 165
95 145 165
95 145 165
95 145 165
95 145 165
95 145 165
95 145 165
95 145 165
95 145 165
95 145 165
95 145 165
95 145 165
95 145 165
95 145 165
95 145 165
95 145 165
95 145 165
95 145 165
95 145 165
95 145 165
95 145 165
95 145 165
95 145 165
95 145 165
95 145 165
95 145 165
95 145 165
95 145 165
95 145 165
95 145 165
95 145 165
95 145 165
95 145 165
95 145 165
95 145 165
95 145 165
95 145 165
95 145 165
95 145 165
95 145 165
95 145 165
95 145 165
95 145 165
95 145 165
95 145 165
95 145 165
95 145 165
95 145 165
95 145 165
95 145 165
95 145 165
94 144 165
94 144 165
94 144 165
94 144 165
94 144 165
94 144 165
94 144 165
94 144 165
94 144 165
94 144 165
94 144 165
94 144 165
94 144 165
94 144 165
94 144 165
94 144 165
94 144 165
94 144 165
94 144 165
94 144 165
94 144 165
94 144 165
94 144 165
94 144 165
94 144 165
94 144 165
94 144 165
94 144 165
94 144 165
94 144 165
94 144 165
94 144 165
94 144 165
94 144 165
94 144 165
94 144 165
94 144 165
94 144 165
94 144 165
94 144 165
94 144 165
94 144 165
94 144 165
94 144 165
94 144 165
94 144 165
94 144 165
94 144 165
94 144 165
94 144 165
94 144 165
94 144 165
95 144 165
95 144 165
95 144 165
95 144 165
95 144 165
95 144 165
95 144 165
95 144 165
95 144 165
95 144 165
95 144 165
95 144 165
95 144 165
95 144 165
95 144 165
95 144 165
95 144 165
95 144 165
95 144 165
95 144 165
95 144 165
95 144 165
95 144 165
95 144 165
95 144 165
95 144 165
95 144 165
95 144 165
95 144 165
95 144 165
95 144 165
95 144 165
95 144 165
95 144 165
95 145 165
95 145 165
95 145 165
95 145 165
95 145 165
95 145 165
95 145 165
95 145 165
95 145 165
95 145 165
95 145 165
95 145 165
95 145 165
95 145 165
95 145 165
95 145 165
95 145 165
95 145 165
95 145 165
95 145 165
95 145 165
95 145 165
95 145 165
95 145 165
95 145 165
95 145 165
95 145 165
95 145 165
95 145 165
95 145 165
95 145 165
95 145 165
95 145 165
95 145 165
95 145 165
95 145 165
95 145 165
95 145 165
95 145 165
95 145 165
95 145 165
95 145 165
95 145 165
95 145 165
95 145 165
95 145 165
95 145 165
95 145 165
95 145 165
95 145 165
95 145 165
95 145 165
95 145 165
95 145 165
95 145 165
95 145 165
95 145 165
95 145 165
95 145 165
95 145 165
95 145 165
95 145 165
95 145 165
95 145 165
95 145 165
95 145 165
95 145 165
95 145 165
95 145 165
95 145 165
95 145 165
95 145 165
95 145 165
95 145 165
95 145 165
95 145 165
95 145 165
95 145 165
95 145 165
95 145 165
95 145 165
95 145 165
95 145 165
95 145 165
95 145 165
95 145 165
95 145 165
95 145 165
95 145 165
95 145 165
95 145 165
95 145 165
95 145 165
95 145 165
95 145 165
95 145 165
95 145 165
95 145 165
95 145 165
95 145 165
95 145 165
95 145 165
95 145 165
95 145 165
95 145 165
95 145 165
95 145 165
95 145 165
95 145 165
95 145 165
95 145 165
95 145 165
95 145 165
95 145 165
95 145 165
95 145 165
95 145 165
95 145 165
95 145 165
95 145 165
95 145 165
95 145 165
95 145 165
95 145 165
95 145 165
95 145 165
95 145 165
95 145 165
95 145 165
95 145 165
95 145 165
95 145 165
95 145 165
95 145 165
95 145 165
95 145 165
95 145 165
95 145 165
95 145 165
95 145 165
95 145 165
95 145 165
95 145 165
95 145 165
95 145 165
95 145 165
95 145 165
95 145 165
95 144 165
95 144 165
95 144 165
95 144 165
95 144 165
95 144 165
95 144 165
95 144 165
95 144 165
95 144 165
95 144 165
95 144 165
95 144 165
95 144 165
95 144 165
95 144 165
95 144 165
95 144 165
95 144 165
95 144 165
95 144 165
95 144 165
95 144 165
95 144 165
95 144 165
95 144 165
95 144 165
95 144 165
95 144 165
95 144 165
95 144 165
95 144 165
95 144 165
95 144 165
94 144 165
94 144 165
94 144 165
94 144 165
94 144 165
94 144 165
94 144 165
94 144 165
94 144 165
94 144 165
94 144 165
94 144 165
94 144 165
94 144 165
94 144 165
94 144 165
94 144 165
94 144 165
94 144 165
94 144 165
94 144 165
94 144 165
94 144 165
94 144 165
94 144 165
94 144 165
94 144 165
94 144 165
94 144 165
94 144 165
94 144 165
94 144 165
94 144 165
94 144 165
94 144 165
94 144 165
94 144 165
94 144 165
94 144 165
94 144 165
94 144 165
94 144 165
94 144 165
94 144 165
94 144 165
94 144 165
94 144 165
94 144 165
94 144 165
94 144 165
94 144 165
94 144 165
94 144 165
94 144 165
94 144 165
94 144 165
94 144 165
94 144 165
94 144 165
94 144 165
94 144 165
94 144 165
94 144 165
94 144 165
94 144 165
94 144 165
94 144 165
94 144 165
94 144 165
94 144 165
94 144 165
94 144 165
94 144 165
94 144 165
94 144 165
94 144 165
94 144 165
94 144 165
94 144 165
94 144 165
94 144 165
94 144 165
94 144 165
94 144 165
94 144 165
94 144 165
94 144 165
94 144 165
94 144 165
94 144 165
94 144 165
94 144 165
94 144 165
94 144 165
94 144 165
94 144 165
94 144 165
94 144 165
94 144 165
94 144 165
94 144 165
94 144 165
94 144 165
94 144 165
94 144 165
94 144 165
94 144 165
94 144 165
94 144 165
94 144 165
94 144 165
94 144 165
94 144 165
94 144 165
94 144 165
94 144 165
94 144 165
94 144 165
94 144 165
94 144 165
94 144 165
94 144 165
94 144 165
94 144 165
94 144 165
94 144 165
94 144 165
94 144 165
94 144 165
94 144 165
94 144 165
94 144 165
94 144 165
94 144 165
94 144 165
94 144 165
94 144 165
94 144 165
94 144 165
94 144 165
94 144 165
94 144 165
94 144 165
94 144 165
94 144 165
94 144 165
94 144 165
94 144 165
94 144 165
94 144 165
94 144 165
94 144 165
94 144 165
94 144 165
94 144 165
94 144 165
94 144 165
94 144 165
94 144 165
94 144 165
94 144 165
94 144 165
94 144 165
94 144 165
94 144 165
94 144 165
94 144 165
94 144 165
94 144 165
94 144 165
94 144 165
94 144 165
94 144 165
94 144 165
94 144 165
94 144 165
94 144 165
94 144 165
94 144 165
94 144 165
94 144 165
94 144 165
94 144 165
94 144 165
94 144 165
94 144 165
94 144 165
94 144 165
94 144 165
94 144 165
94 144 165
94 144 165
94 144 165
94 144 165
94 144 165
94 144 165
94 144 165
94 144 165
94 144 165
94 144 165
94 144 165
94 144 165
94 144 165
94 144 165
94 144 165
94 144 165
94 144 165
94 144 165
94 144 165
94 144 165
94 144 165
94 144 165
94 144 165
94 144 165
94 144 165
94 144 165
94 144 165
94 144 165
94 144 165
94 144 165
94 144 165
94 144 165
94 144 165
94 144 165
94 144 165
94 144 165
94 144 165
94 144 165
94 144 165
94 144 165
94 144 165
94 144 165
94 144 165
94 144 165
94 144 165
94 144 165
94 144 165
94 144 165
94 144 165
94 144 165
94 144 165
94 144 165
94 144 165
94 144 165
94 144 165
94 144 165
94 144 165
94 144 165
94 144 165
94 144 165
94 144 165
94 144 165
94 144 165
94 144 165
94 144 165
94 144 165
94 144 165
94 144 165
94 144 165
94 144 165
94 144 165
94 144 165
94 144 165
94 144 165
94 144 165
94 144 165
94 144 165
94 144 165
94 144 165
94 144 165
94 144 165
94 144 165
94 144 165
94 144 165
94 144 165
94 144 165
94 144 165
94 144 165
94 144 165
94 144 165
94 144 165
94 144 165
94 144 165
94 144 165
94 144 165
94 144 165
94 144 165
94 144 165
94 144 165
94 144 165
94 144 165
94 144 165
94 144 165
94 144 165
94 144 165
94 144 165
94 144 165
94 144 165
94 144 165
94 144 165
94 144 165
94 144 165
94 144 165
94 144 165
94 144 165
94 144 165
94 144 165
94 144 165
94 144 165
94 144 165
94 144 165
94 144 165
94 144 165
94 144 165
94 144 165
94 144 165
94 144 165
94 144 165
94 144 165
94 144 165
94 144 165
94 144 165
94 144 165
94 144 165
94 144 165
94 144 165
94 144 165
94 144 165
94 144 165
94 144 165
94 144 165
94 144 165
94 144 165
94 144 165
94 144 165
94 144 165
94 144 165
94 144 165
94 144 165
94 144 165
94 144 165
94 144 165
94 144 165
94 144 165
94 144 165
94 144 165
94 144 165
94 144 165
94 144 165
94 144 165
94 144 165
94 144 165
94 144 165
94 144 165
94 144 165
94 144 165
94 144 165
94 144 165
94 144 165
94 144 165
94 144 165
94 144 165
94 144 165
94 144 165
94 144 165
94 144 165
94 144 165
94 144 165
94 144 165
94 144 165
94 144 165
94 144 165
94 144 164
94 144 164
94 144 164
94 144 164
94 144 164
94 144 164
94 144 164
94 144 164
94 144 164
94 144 164
94 144 164
94 144 164
94 144 164
94 144 164
94 144 164
94 144 164
94 144 164
94 144 164
94 144 164
94 144 164
94 144 164
94 144 164
94 144 164
94 144 164
94 144 164
94 144 164
94 144 164
94 144 164
94 144 164
94 144 164
94 144 164
94 144 164
94 144 164
94 144 164
94 144 164
94 144 164
94 144 164
94 144 164
94 144 164
94 144 164
94 144 164
94 144 164
94 144 164
94 144 164
94 144 164
94 144 164
94 144 164
94 144 164
94 144 164
94 144 164
94 144 164
94 144 164
94 144 164
94 144 164
94 144 164
94 144 164
94 144 164
94 144 164
94 144 164
94 144 164
94 144 164
94 144 164
94 144 164
94 144 164
94 144 164
94 144 164
94 144 164
94 144 164
94 144 164
94 144 164
94 144 164
94 144 164
94 144 164
94 144 164
94 144 164
94 144 164
94 144 164
94 144 164
94 144 164
94 144 164
94 144 164
94 144 164
94 144 164
94 144 164
94 144 164
94 144 164
94 144 164
94 144 164
94 144 164
94 144 164
94 144 164
94 144 164
94 144 164
94 144 164
94 144 164
94 144 164
94 144 164
94 144 164
94 144 164
94 144 164
94 144 164
94 144 164
94 144 164
94 144 164
94 144 164
94 144 164
94 144 164
94 144 164
94 144 164
94 144 164
94 144 164
94 144 164
94 144 164
94 144 164
94 144 164
94 144 164
94 144 164
94 144 164
94 144 164
94 144 164
94 144 164
94 144 164
94 144 164
94 144 164
94 144 164
94 144 164
94 144 164
94 144 164
94 144 164
94 144 164
94 144 164
94 144 164
94 144 164
94 144 164
94 144 164
94 144 164
94 144 164
94 144 164
94 144 164
94 144 164
94 144 164
94 144 164
94 144 164
94 144 164
94 144 164
94 144 164
94 144 164
94 144 164
94 144 164
94 144 164
94 144 164
94 144 164
94 144 164
94 144 164
94 144 164
94 144 164
94 144 164
94 144 164
94 144 164
94 144 164
94 144 164
94 144 164
94 144 164
94 144 164
94 144 164
94 144 164
94 144 164
94 144 164
94 144 164
94 144 164
94 144 164
94 144 164
94 144 164
94 144 164
94 144 164
94 144 164
94 144 164
94 144 164
94 144 164
94 144 164
94 144 164
94 144 164
94 144 164
94 144 164
94 144 164
94 144 164
94 144 164
94 144 164
94 144 164
94 144 164
94 144 164
94 144 164
94 144 164
94 144 164
94 144 164
94 144 164
94 144 164
94 144 164
94 144 164
94 144 164
94 144 164
94 144 164
94 144 164
94 144 164
94 144 164
94 144 164
94 144 164
94 144 164
94 144 164
94 144 164
94 144 164
94 144 164
94 144 164
94 144 164
94 144 164
94 144 164
94 144 164
94 144 164
94 144 164
94 144 164
94 144 164
94 144 164
94 144 164
94 144 164
94 144 164
94 144 164
94 144 164
94 144 164
94 144 164
94 144 164
94 144 164
94 144 164
94 144 164
94 144 164
94 144 164
94 144 164
94 144 164
94 144 164
94 144 164
94 144 164
94 144 164
94 144 164
94 144 164
94 144 164
94 144 164
94 144 164
94 144 164
94 144 164
94 144 164
94 144 164
94 144 164
94 144 164
94 144 164
94 144 164
94 144 164
94 144 164
94 144 164
94 144 164
94 144 164
94 144 164
94 144 164
94 144 164
94 144 164
94 144 164
94 144 164
94 144 164
94 144 164
94 144 164
94 144 164
94 144 164
94 144 164
94 144 164
94 144 164
94 144 164
94 144 164
94 144 164
94 144 164
94 144 164
94 144 164
94 144 164
94 144 164
94 144 164
94 144 164
94 144 164
94 144 164
94 144 164
94 144 164
94 144 164
94 144 164
94 144 164
94 144 164
94 144 164
94 144 164
94 144 164
94 144 164
94 144 164
94 144 164
94 144 164
94 144 164
94 144 164
94 144 164
94 144 164
94 144 164
94 144 164
94 144 164
94 144 164
94 144 164
94 144 164
94 144 164
94 144 164
94 144 164
94 144 164
94 144 164
94 144 164
94 144 164
94 144 164
94 144 164
94 144 164
94 144 164
94 144 164
94 144 164
94 144 164
94 144 164
94 144 164
94 144 164
94 144 164
94 144 164
94 144 164
94 144 164
94 144 164
94 144 164
94 144 164
94 144 164
94 144 164
94 144 164
94 144 164
94 144 164
94 144 164
94 144 164
94 144 164
94 144 164
94 144 164
94 144 164
94 144 164
94 144 164
94 144 164
94 144 164
94 144 164
94 144 164
94 144 164
94 144 164
94 144 164
94 144 164
94 144 164
94 144 164
94 144 164
94 144 164
94 144 164
94 144 164
94 144 164
94 144 164
94 144 164
94 144 164
94 144 164
94 144 164
94 144 164
94 144 164
94 144 164
94 144 164
94 144 164
94 144 164
94 144 164
94 144 164
94 144 164
94 144 164
94 144 164
94 144 164
94 144 164
94 144 164
94 144 164
94 144 164
94 144 164
94 144 164
94 144 164
94 144 164
94 144 164
94 144 164
94 144 164
94 144 164
94 144 164
94 144 164
94 144 164
94 144 164
94 144 164
94 144 164
94 144 164
94 144 164
94 144 164
94 144 164
94 144 164
94 144 164
94 144 164
94 144 164
94 144 164
94 144 164
94 144 164
94 144 164
94 144 164
94 144 164
94 144 164
94 144 164
94 144 164
94 144 164
94 144 164
94 144 164
94 144 164
94 144 164
94 144 164
94 144 164
94 144 164
94 144 164
94 144 164
94 144 164
94 144 164
94 144 164
94 144 164
94 144 164
94 144 164
94 144 164
94 144 164
94 144 164
94 144 164
94 144 164
94 144 164
94 144 164
94 144 164
94 144 164
94 144 164
94 144 164
94 144 164
94 144 164
94 144 164
94 144 164
94 144 164
94 144 164
94 144 164
94 144 164
94 144 164
94 144 164
94 144 164
94 144 164
94 144 164
94 144 164
94 144 164
94 144 164
94 144 164
94 144 164
94 144 164
94 144 164
94 144 164
94 144 164
94 144 164
94 144 164
94 144 164
94 144 164
94 144 164
94 144 164
94 144 164
94 144 164
94 144 164
94 144 164
94 144 164
94 144 164
94 144 164
94 144 164
94 144 164
94 144 164
94 144 164
94 144 164
94 144 164
94 144 164
94 144 164
94 144 164
94 144 164
94 144 164
94 144 164
94 144 164
94 144 164
94 144 164
94 144 164
94 144 164
94 144 164
94 144 164
94 144 164
94 144 164
94 144 164
94 144 164
94 144 164
94 144 164
94 144 164
94 144 164
94 144 164
94 144 164
94 144 164
94 144 164
94 144 164
94 144 164
94 144 164
94 144 164
94 144 164
94 144 164
94 144 164
94 144 164
94 144 164
94 144 164
94 144 164
94 144 164
94 144 164
94 144 164
94 144 164
94 144 164
94 144 164
94 144 164
94 144 164
94 144 164
94 144 164
94 144 164
94 144 164
94 144 164
94 144 164
94 144 164
94 144 164
94 144 164
94 144 164
94 144 164
94 144 164
94 144 164
94 144 164
94 144 164
94 144 164
94 144 164
94 144 164
94 144 164
94 144 164
94 144 164
94 144 164
94 144 164
94 144 164
94 144 164
94 144 164
94 144 164
94 144 164
94 144 164
94 144 164
94 144 164
94 144 164
94 144 164
94 144 164
94 144 164
94 144 164
94 144 164
94 144 164
94 144 164
94 144 164
94 144 164
94 144 164
94 144 164
94 144 164
94 144 164
94 144 164
94 144 164
94 144 164
94 144 164
94 144 164
94 144 164
94 144 164
94 144 164
94 144 164
94 144 164
94 144 164
94 144 164
94 144 164
94 144 164
94 144 164
94 144 164
94 144 164
94 144 164
94 144 164
94 144 164
94 144 164
94 144 164
94 144 164
94 144 164
94 144 164
94 144 164
94 144 164
94 144 164
94 144 164
94 144 164
94 144 164
94 144 164
94 144 164
94 144 164
94 144 164
94 144 164
94 144 164
94 144 164
94 144 164
94 144 164
94 144 164
94 144 164
94 144 164
94 144 164
94 144 164
94 144 164
94 144 164
94 144 164
94 144 164
94 144 164
94 144 164
94 144 164
94 144 164
94 144 164
94 144 164
94 144 164
94 144 164
94 144 164
94 144 164
94 144 164
94 144 164
94 144 164
94 144 164
94 144 164
94 144 164
94 144 164
94 144 164
94 144 164
94 144 164
94 144 164
94 144 164
94 144 164
94 144 164
94 144 164
94 144 164
94 144 164
94 144 164
94 144 164
94 144 164
94 144 164
94 144 164
94 144 164
94 144 164
94 144 164
94 144 164
94 144 164
94 144 164
94 144 164
94 144 164
94 144 164
94 144 164
94 144 164
94 144 164
94 144 164
94 144 164
94 144 164
94 144 164
94 144 164
94 144 164
94 144 164
94 144 164
94 144 164
94 144 164
94 144 164
94 144 164
94 144 164
94 144 164
94 144 164
94 144 164
94 144 164
94 144 164
94 144 164
94 144 164
94 144 164
94 144 164
94 144 164
94 144 164
94 144 164
94 144 164
94 144 164
94 144 164
94 144 164
94 144 164
94 144 164
94 144 164
94 144 164
94 144 164
94 144 164
94 144 164
94 144 164
94 144 164
94 144 164
94 144 164
94 144 164
94 144 164
94 144 164
94 144 164
94 144 164
94 144 164
94 144 164
94 144 164
94 144 164
94 144 164
94 144 164
94 144 164
94 144 164
94 144 164
94 144 164
94 144 164
94 144 164
94 144 164
94 144 164
94 144 164
94 144 164
94 144 164
94 144 164
94 144 164
94 144 164
94 144 164
94 144 164
94 144 164
94 144 164
94 144 164
94 144 164
94 144 164
94 144 164
94 144 164
94 144 164
94 144 164
94 144 164
94 144 164
94 144 164
94 144 164
94 144 164
94 144 164
94 144 164
94 144 164
94 144 164
94 144 164
94 144 164
94 144 164
94 144 164
94 144 164
94 144 164
94 144 164
94 144 164
94 144 164
94 144 164
94 144 164
94 144 164
94 144 164
94 144 164
94 144 164
94 144 164
94 144 164
94 144 164
94 144 164
94 144 164
94 144 164
94 144 164
94 144 164
94 144 164
94 144 164
94 144 164
94 144 164
94 144 164
94 144 164
94 144 164
94 144 164
94 144 164
94 144 164
94 144 164
94 144 164
94 144 164
94 144 164
94 144 164
94 144 164
94 144 164
94 144 164
94 144 164
94 144 164
94 144 164
94 144 164
94 144 164
94 144 164
94 144 164
94 144 164
94 144 164
94 144 164
94 144 164
94 144 164
94 144 164
94 144 164
94 144 164
94 144 164
94 144 164
94 144 164
94 144 164
94 144 164
94 144 164
94 144 164
94 144 164
94 144 164
94 144 164
94 144 164
94 144 164
94 144 164
94 144 164
94 144 164
94 144 164
94 144 164
94 144 164
94 144 164
94 144 164
94 144 164
94 144 164
94 144 164
94 144 164
94 144 164
94 144 164
94 144 164
94 144 164
94 144 164
94 144 164
94 144 164
94 144 164
94 144 164
94 144 164
94 144 164
94 144 164
94 144 164
94 144 164
94 144 164
94 144 164
94 144 164
94 144 164
94 144 164
94 144 164
94 144 164
94 144 164
94 144 164
94 144 164
94 144 164
94 144 164
94 144 164
94 144 164
94 144 164
94 144 164
94 144 164
94 144 164
94 144 164
94 144 164
94 144 164
94 144 164
94 144 164
94 144 164
94 144 164
94 144 164
94 144 164
94 144 164
94 144 164
94 144 164
94 144 164
94 144 164
94 144 164
94 144 164
94 144 164
94 144 164
94 144 164
94 144 164
94 144 164
94 144 164
94 144 164
94 144 164
94 144 164
94 144 164
94 144 164
94 144 164
94 144 164
94 144 164
94 144 164
94 144 164
94 144 164
94 144 164
94 144 164
94 144 164
94 144 164
94 144 164
94 144 164
94 144 164
94 144 164
94 144 164
94 144 164
94 144 164
94 144 164
94 144 164
94 144 164
94 144 164
94 144 164
94 144 164
94 144 164
94 144 164
94 144 164
94 144 164
94 144 164
94 144 164
94 144 164
94 144 164
94 144 164
94 144 164
94 144 164
94 144 164
94 144 164
94 144 164
94 144 164
94 144 164
94 144 164
94 144 164
94 144 164
94 144 164
94 144 164
94 144 164
94 144 164
94 144 164
94 144 164
94 144 164
94 144 164
94 144 164
94 144 164
94 144 164
94 144 164
94 144 164
94 144 164
94 144 164
94 144 164
94 144 164
94 144 164
94 144 164
94 144 164
94 144 164
94 144 164
94 144 164
94 144 164
94 144 164
94 144 164
94 144 164
94 144 164
94 144 164
94 144 164
94 144 164
94 144 164
94 144 164
94 144 164
94 144 164
94 144 164
94 144 164
94 144 164
94 144 164
94 144 164
94 144 164
94 144 164
94 144 164
94 144 164
94 144 164
94 144 164
94 144 164
94 144 164
94 144 164
94 144 164
94 144 164
94 144 164
94 144 164
94 144 164
94 144 164
94 144 164
94 144 164
94 144 164
94 144 164
94 144 164
94 144 164
94 144 164
94 144 164
94 144 164
94 144 164
94 144 164
94 144 164
94 144 164
94 144 164
94 144 164
94 144 164
94 144 164
94 144 164
94 144 164
94 144 164
94 144 164
94 144 164
94 144 164
94 144 164
94 144 164
94 144 164
94 144 164
94 144 164
94 144 164
94 144 164
94 144 164
94 144 164
94 144 164
94 144 164
94 144 164
94 144 164
94 144 164
94 144 164
94 144 164
94 144 164
94 144 164
94 144 164
94 144 164
94 144 164
94 144 164
94 144 164
94 144 164
94 144 164
94 144 164
94 144 164
94 144 164
94 144 164
94 144 164
94 144 164
94 144 164
94 144 164
94 144 164
94 144 164
94 144 164
94 144 164
94 144 164
94 144 164
94 144 164
94 144 164
94 144 164
94 144 164
94 144 164
94 144 164
94 144 164
94 144 164
94 144 164
94 144 164
94 144 164
94 144 164
94 144 164
94 144 164
94 144 164
94 144 164
94 144 164
94 144 164
94 144 164
94 144 164
94 144 164
94 144 164
94 144 164
94 144 164
94 144 164
94 144 164
94 144 164
94 144 164
94 144 164
94 144 164
94 144 164
94 144 164
94 144 164
94 144 164
94 144 164
94 144 164
94 144 164
94 144 164
94 144 164
94 144 164
94 144 164
94 144 164
94 144 164
94 144 164
94 144 164
94 144 164
94 144 164
94 144 164
94 144 164
94 144 164
94 144 164
94 144 164
94 144 164
94 144 164
94 144 164
94 144 164
94 144 164
94 144 164
94 144 164
94 144 164
94 144 164
94 144 164
94 144 164
94 144 164
94 144 164
94 144 164
94 144 164
94 144 164
94 144 164
94 144 164
94 144 164
94 144 164
94 144 164
94 144 164
94 144 164
94 144 164
94 144 164
94 144 164
94 144 164
94 144 164
94 144 164
94 144 164
94 144 164
94 144 164
94 144 164
94 144 164
94 144 164
94 144 164
94 144 164
94 144 164
94 144 164
94 144 164
94 144 164
94 144 164
94 144 164
94 144 164
94 144 164
94 144 164
94 144 164
94 144 164
94 144 164
94 144 164
94 144 164
94 144 164
94 144 164
94 144 164
94 144 164
94 144 164
94 144 164
94 144 164
94 144 164
94 144 164
94 144 164
94 144 164
94 144 164
94 144 164
94 144 164
94 144 164
94 144 164
94 144 164
94 144 164
94 144 164
94 144 164
94 144 164
94 144 164
94 144 164
94 144 164
94 144 164
94 144 164
94 144 164
94 144 164
94 144 164
94 144 164
94 144 164
94 144 164
94 144 164
94 144 164
94 144 164
94 144 164
94 144 164
94 144 164
94 144 164
94 144 164
94 144 164
94 144 164
94 144 164
94 144 164
94 144 164
94 144 164
94 144 164
94 144 164
94 144 164
94 144 164
94 144 164
94 144 164
94 144 164
94 144 164
94 144 164
94 144 164
94 144 164
94 144 164
94 144 164
94 144 164
94 144 164
94 144 164
94 144 164
94 144 164
94 144 164
94 144 164
94 144 164
94 144 164
94 144 164
94 144 164
94 144 164
94 144 164
94 144 164
94 144 164
94 144 164
94 144 164
94 144 164
94 144 164
94 144 164
94 144 164
94 144 164
94 144 164
94 144 164
94 144 164
94 144 164
94 144 164
94 144 164
94 144 164
94 144 164
94 144 164
94 144 164
94 144 164
94 144 164
94 144 164
94 144 164
94 144 164
94 144 164
94 144 164
94 144 164
94 144 164
94 144 164
94 144 164
94 144 164
94 144 164
94 144 164
94 144 164
94 144 164
94 144 164
94 144 164
94 144 164
94 144 164
94 144 164
94 144 164
94 144 164
94 144 164
94 144 164
94 144 164
94 144 164
94 144 164
94 144 164
94 144 164
94 144 164
94 144 164
94 144 164
94 144 164
94 144 164
94 144 164
94 144 164
94 144 164
94 144 164
94 144 164
94 144 164
94 144 164
94 144 164
94 144 164
94 144 164
94 144 164
94 144 164
94 144 164
94 144 164
94 144 164
94 144 164
94 144 164
94 144 164
94 144 164
94 144 164
94 144 164
94 144 164
94 144 164
94 144 164
94 144 164
94 144 164
94 144 164
94 144 164
94 144 164
94 144 164
94 144 164
94 144 164
94 144 164
94 144 164
94 144 164
94 144 164
94 144 164
94 144 164
94 144 164
94 144 164
94 144 164
94 144 164
94 144 164
94 144 164
94 144 164
94 144 164
94 144 164
94 144 164
94 144 164
94 144 164
94 144 164
94 144 164
94 144 164
94 144 164
94 144 164
94 144 164
94 144 164
94 144 164
94 144 164
94 144 164
94 144 164
94 144 164
94 144 164
94 144 164
94 144 164
94 144 164
94 144 164
94 144 164
94 144 164
94 144 164
94 144 164
94 144 164
94 144 164
94 144 164
94 144 164
94 144 164
94 144 164
94 144 164
94 144 164
94 144 164
94 144 164
94 144 164
94 144 164
94 144 164
94 144 164
94 144 164
94 144 164
94 144 164
94 144 164
94 144 164
94 144 164
94 144 164
94 144 164
94 144 164
94 144 164
94 144 164
94 144 164
94 144 164
94 144 164
94 144 164
94 144 164
94 144 164
94 144 164
94 144 164
94 144 164
94 144 164
94 144 164
94 144 164
94 144 164
94 144 164
94 144 164
94 144 164
94 144 164
94 144 164
94 144 164
94 144 164
94 144 164
94 144 164
94 144 164
94 144 164
94 144 164
94 144 164
94 144 164
94 144 164
94 144 164
94 144 164
94 144 164
94 144 164
94 144 164
94 144 164
94 144 164
94 144 164
94 144 164
94 144 164
94 144 164
94 144 164
94 144 164
94 144 164
94 144 164
94 144 164
94 144 164
94 144 164
94 144 164
94 144 164
94 144 164
94 144 164
94 144 164
94 144 164
94 144 164
94 144 164
94 144 164
94 144 164
94 144 164
94 144 164
94 144 164
94 144 164
94 144 164
94 144 164
94 144 164
94 144 164
94 144 164
94 144 164
94 144 164
94 144 164
94 144 164
94 144 164
94 144 164
94 144 164
94 144 164
94 144 164
94 144 164
94 144 164
94 144 164
94 144 164
94 144 164
94 144 164
94 144 164
94 144 164
94 144 164
94 144 164
94 144 164
94 144 164
94 144 164
94 144 164
94 144 164
94 144 164
94 144 164
94 144 164
94 144 164
94 144 164
94 144 164
94 144 164
94 144 164
94 144 164
94 144 164
94 144 164
94 144 164
94 144 164
94 144 164
94 144 164
94 144 164
94 144 164
94 144 164
94 144 164
94 144 164
94 144 164
94 144 164
94 144 164
94 144 164
94 144 164
94 144 164
94 144 164
94 144 164
94 144 164
94 144 164
94 144 164
94 144 164
94 144 164
94 144 164
94 144 164
94 144 164
94 144 164
94 144 164
94 144 164
94 144 164
94 144 164
94 144 164
94 144 164
94 144 164
94 144 164
94 144 164
94 144 164
94 144 164
94 144 164
94 144 164
94 144 164
94 144 164
94 144 164
94 144 164
94 144 164
94 144 164
94 144 164
94 144 164
94 144 164
94 144 164
94 144 164
94 144 164
94 144 164
94 144 164
94 144 164
94 144 164
94 144 164
94 144 164
94 144 164
94 144 164
94 144 164
94 144 164
94 144 164
94 144 164
94 144 164
94 144 164
94 144 164
94 144 164
94 144 164
94 144 164
94 144 164
94 144 164
94 144 164
94 144 164
94 144 164
94 144 164
94 144 164
94 144 164
94 144 164
94 144 164
94 144 164
94 144 164
94 144 164
94 144 164
94 144 164
94 144 164
94 144 164
94 144 164
94 144 164
94 144 164
94 144 164
94 144 164
94 144 164
94 144 164
94 144 164
94 144 164
94 144 164
94 144 164
94 144 164
94 144 164
94 144 164
94 144 164
94 144 164
94 144 164
94 144 164
94 144 164
94 144 164
94 144 164
94 144 164
94 144 164
94 144 164
94 144 164
94 144 164
94 144 164
94 144 164
94 144 164
94 144 164
94 144 164
94 144 164
94 144 164
94 144 164
94 144 164
94 144 164
94 144 164
94 144 164
94 144 164
94 144 164
94 144 164
94 144 164
94 144 164
94 144 164
94 144 164
94 144 164
94 144 164
94 144 164
94 144 164
94 144 164
94 144 164
94 144 164
94 144 164
94 144 164
94 144 164
94 144 164
94 144 164
94 144 164
94 144 164
94 144 164
94 144 164
94 144 164
94 144 164
94 144 164
94 144 164
94 144 164
94 144 164
94 144 164
94 144 164
94 144 164
94 144 164
94 144 164
94 144 164
94 144 164
94 144 164
94 144 164
94 144 164
94 144 164
94 144 164
94 144 164
94 144 164
94 144 164
94 144 164
94 144 164
94 144 164
94 144 164
94 144 164
94 144 164
94 144 164
94 144 164
94 144 164
94 144 164
94 144 164
94 144 164
94 144 164
94 144 164
94 144 164
94 144 164
94 144 164
94 144 164
94 144 164
94 144 164
94 144 164
94 144 164
94 144 164
94 144 164
94 144 164
94 144 164
94 144 164
94 144 164
94 144 164
94 144 164
94 144 164
94 144 164
94 144 164
94 144 164
94 144 164
94 144 164
94 144 164
94 144 164
94 144 164
94 144 164
94 144 164
94 144 164
94 144 164
94 144 164
94 144 164
94 144 164
94 144 164
94 144 164
94 144 164
94 144 164
94 144 164
94 144 164
94 144 164
94 144 164
94 144 164
94 144 164
94 144 164
94 144 164
94 144 164
94 144 164
94 144 164
94 144 164
94 144 164
94 144 164
94 144 164
94 144 164
94 144 164
94 144 164
94 144 164
94 144 164
94 144 164
94 144 164
94 144 164
94 144 164
94 144 164
94 144 164
94 144 164
94 144 164
94 144 164
94 144 164
94 144 164
94 144 164
94 144 164
94 144 164
94 144 164
94 144 164
94 144 164
94 144 164
94 144 164
94 144 164
94 144 164
94 144 164
94 144 164
94 144 164
94 144 164
94 144 164
94 144 164
94 144 164
94 144 164
94 144 164
94 144 164
94 144 164
94 144 164
94 144 164
94 144 164
94 144 164
94 144 164
94 144 164
94 144 164
94 144 164
94 144 164
94 144 164
94 144 164
94 144 164
94 144 164
94 144 164
94 144 164
94 144 164
94 144 164
94 144 164
94 144 164
94 144 164
94 144 164
94 144 164
94 144 164
94 144 164
94 144 164
94 144 164
94 144 164
94 144 164
94 144 164
94 144 164
94 144 164
94 144 164
94 144 164
94 144 164
94 144 164
94 144 164
94 144 164
94 144 164
94 144 164
94 144 164
94 144 164
94 144 164
94 144 164
94 144 164
94 144 164
94 144 164
94 144 164
94 144 164
94 144 164
94 144 164
94 144 164
94 144 164
94 144 164
94 144 164
94 144 164
94 144 164
94 144 164
94 144 164
94 144 164
94 144 164
94 144 164
94 144 164
94 144 164
94 144 164
94 144 164
94 144 164
94 144 164
94 144 164
94 144 164
94 144 164
94 144 164
94 144 164
94 144 164
94 144 164
94 144 164
94 144 164
94 144 164
94 144 164
94 144 164
94 144 164
94 144 164
94 144 164
94 144 164
94 144 164
94 144 164
94 144 164
94 144 164
94 144 164
94 144 164
94 144 164
94 144 164
94 144 164
94 144 164
94 144 164
94 144 164
94 144 164
94 144 164
94 144 164
94 144 164
94 144 164
94 144 164
94 144 164
94 144 164
94 144 164
94 144 164
94 144 164
94 144 164
94 144 164
94 144 164
94 144 164
94 144 164
94 144 164
94 144 164
94 144 164
94 144 164
94 144 164
94 144 164
94 144 164
94 144 164
94 144 164
94 144 164
94 144 164
94 144 164
94 144 164
94 144 164
94 144 164
94 144 164
94 144 164
94 144 164
94 144 164
94 144 164
94 144 164
94 144 164
94 144 164
94 144 164
94 144 164
94 144 164
94 144 164
94 144 164
94 144 164
94 144 164
94 144 164
94 144 164
94 144 164
94 144 164
94 144 164
94 144 164
94 144 164
94 144 164
94 144 164
94 144 164
94 144 164
94 144 164
94 144 164
94 144 164
94 144 164
94 144 164
94 144 164
94 144 164
94 144 164
94 144 164
94 144 164
94 144 164
94 144 164
94 144 164
94 144 164
94 144 164
94 144 164
94 144 164
94 144 164
94 144 164
94 144 164
94 144 164
94 144 164
94 144 164
94 144 164
94 144 164
94 144 164
94 144 164
94 144 164
94 144 164
94 144 164
94 144 164
94 144 164
94 144 164
94 144 164
94 144 164
94 144 164
94 144 164
94 144 164
94 144 164
94 144 164
94 144 164
94 144 164
94 144 164
94 144 164
94 144 164
94 144 164
94 144 164
94 144 164
94 144 164
94 144 164
94 144 164
94 144 164
94 144 164
94 144 164
94 144 164
94 144 164
94 144 164
94 144 164
94 144 164
94 144 164
94 144 164
94 144 164
94 144 164
94 144 164
94 144 164
94 144 164
94 144 164
94 144 164
94 144 164
94 144 164
94 144 164
94 144 164
94 144 164
94 144 164
94 144 164
94 144 164
94 144 164
94 144 164
94 144 164
94 144 164
94 144 164
94 144 164
94 144 164
94 144 164
94 144 164
94 144 164
94 144 164
94 144 164
94 144 164
94 144 164
94 144 164
94 144 164
94 144 164
94 144 164
94 144 164
94 144 164
94 144 164
94 144 164
94 144 164
94 144 164
94 144 164
94 144 164
94 144 164
94 144 164
94 144 164
94 144 164
94 144 164
94 144 164
94 144 164
94 144 164
94 144 164
94 144 164
94 144 164
94 144 164
94 144 164
94 144 164
94 144 164
94 144 164
94 144 164
94 144 164
94 144 164
94 144 164
94 144 164
94 144 164
94 144 164
94 144 164
94 144 164
94 144 164
94 144 164
94 144 164
94 144 164
94 144 164
94 144 164
94 144 164
94 144 164
94 144 164
94 144 164
94 144 164
94 144 164
94 144 164
94 144 164
94 144 164
94 144 164
94 144 164
94 144 164
94 144 164
94 144 164
94 144 164
94 144 164
94 144 164
94 144 164
94 144 164
94 144 164
94 144 164
94 144 164
94 144 164
94 144 164
94 144 164
94 144 164
94 144 164
94 144 164
94 144 164
94 144 164
94 144 164
94 144 164
94 144 164
94 144 164
94 144 164
94 144 164
94 144 164
94 144 164
94 144 164
94 144 164
94 144 164
94 144 164
94 144 164
94 144 164
94 144 164
94 144 164
94 144 164
94 144 164
94 144 164
94 144 164
94 144 164
94 144 164
94 144 164
94 144 164
94 144 164
94 144 164
94 144 164
94 144 164
94 144 164
94 144 164
94 144 164
94 144 164
94 144 164
94 144 164
94 144 164
94 144 164
94 144 164
94 144 164
94 144 164
94 144 164
94 144 164
94 144 164
94 144 164
94 144 164
94 144 164
94 144 164
94 144 164
94 144 164
94 144 164
94 144 164
94 144 164
94 144 164
94 144 164
94 144 164
94 144 164
94 144 164
94 144 164
94 144 164
94 144 164
94 144 164
94 144 164
94 144 164
94 144 164
94 144 164
94 144 164
94 144 164
94 144 164
94 144 164
94 144 164
94 144 164
94 144 164
94 144 164
94 144 164
94 144 164
94 144 164
94 144 164
94 144 164
94 144 164
94 144 164
94 144 164
94 144 164
94 144 164
94 144 164
94 144 164
94 144 164
94 144 164
94 144 164
94 144 164
94 144 164
94 144 164
94 144 164
94 144 164
94 144 164
94 144 164
94 144 164
94 144 164
94 144 164
94 144 164
94 144 164
94 144 164
94 144 164
94 144 164
94 144 164
94 144 164
94 144 164
94 144 164
94 144 164
94 144 164
94 144 164
94 144 164
94 144 164
94 144 164
94 144 164
94 144 164
94 144 164
94 144 164
94 144 164
94 144 164
94 144 164
94 144 164
94 144 164
94 144 164
94 144 164
94 144 164
94 144 164
94 144 164
94 144 164
94 144 164
94 144 164
94 144 164
94 144 164
94 144 164
94 144 164
94 144 164
94 144 164
94 144 164
94 144 164
94 144 164
94 144 164
94 144 164
94 144 164
94 144 164
94 144 164
94 144 164
94 144 164
94 144 164
94 144 164
94 144 164
94 144 164
94 144 164
94 144 164
94 144 164
94 144 164
94 144 164
94 144 164
94 144 164
94 144 164
94 144 164
94 144 164
94 144 164
94 144 164
94 144 164
94 144 164
94 144 164
94 144 164
94 144 164
94 144 164
94 144 164
94 144 164
94 144 164
94 144 164
94 144 164
94 144 164
94 144 164
94 144 164
94 144 164
94 144 164
94 144 164
94 144 164
94 144 164
94 144 164
94 144 164
94 144 164
94 144 164
94 144 164
94 144 164
94 144 164
94 144 164
94 144 164
94 144 164
94 144 164
94 144 164
94 144 164
94 144 164
94 144 164
94 144 164
94 144 164
94 144 164
94 144 164
94 144 164
94 144 164
94 144 164
94 144 164
94 144 164
94 144 164
94 144 164
94 144 164
94 144 164
94 144 164
94 144 164
94 144 164
94 144 164
94 144 164
94 144 164
94 144 164
94 144 164
94 144 164
94 144 164
94 144 164
94 144 164
94 144 164
94 144 164
94 144 164
94 144 164
94 144 164
94 144 164
94 144 164
94 144 164
94 144 164
94 144 164
94 144 164
94 144 164
94 144 164
94 144 164
94 144 164
94 144 164
94 144 164
94 144 164
94 144 164
94 144 164
94 144 164
94 144 164
94 144 164
94 144 164
94 144 164
94 144 164
94 144 164
94 144 164
94 144 164
94 144 164
94 144 164
94 144 164
94 144 164
94 144 164
94 144 164
94 144 164
94 144 164
94 144 164
94 144 164
94 144 164
94 144 164
94 144 164
94 144 164
94 144 164
94 144 164
94 144 164
94 144 164
94 144 164
94 144 164
94 144 164
94 144 164
94 144 164
94 144 164
94 144 164
94 144 164
94 144 164
94 144 164
94 144 164
94 144 164
94 144 164
94 144 164
94 144 164
94 144 164
94 144 164
94 144 164
94 144 164
94 144 164
94 144 164
94 144 164
94 144 164
94 144 164
94 144 164
94 144 164
94 144 164
94 144 164
94 144 164
94 144 164
94 144 164
94 144 164
94 144 164
94 144 164
94 144 164
94 144 164
94 144 164
94 144 164
94 144 164
94 144 164
94 144 164
94 144 164
94 144 164
94 144 164
94 144 164
94 144 164
94 144 164
94 144 164
94 144 164
94 144 164
94 144 164
94 144 164
94 144 164
94 144 164
94 144 164
94 144 164
94 144 164
94 144 164
94 144 164
94 144 164
94 144 164
94 144 164
94 144 164
94 144 164
94 144 164
94 144 164
94 144 164
94 144 164
94 144 164
94 144 164
94 144 164
94 144 164
94 144 164
94 144 164
94 144 164
94 144 164
94 144 164
94 144 164
94 144 164
94 144 164
94 144 164
94 144 164
94 144 164
94 144 164
94 144 164
94 144 164
94 144 164
94 144 164
94 144 164
94 144 164
94 144 164
94 144 164
94 144 164
94 144 164
94 144 164
94 144 164
94 144 164
94 144 164
94 144 164
94 144 164
94 144 164
94 144 164
94 144 164
94 144 164
94 144 164
94 144 164
94 144 164
94 144 164
94 144 164
94 144 164
94 144 164
94 144 164
94 144 164
94 144 164
94 144 164
94 144 164
94 144 164
94 144 164
94 144 164
94 144 164
94 144 164
94 144 164
94 144 164
94 144 164
94 144 164
94 144 164
94 144 164
94 144 164
94 144 164
94 144 164
94 144 164
94 144 164
94 144 164
94 144 164
94 144 164
94 144 164
94 144 164
94 144 164
94 144 164
94 144 164
94 144 164
94 144 164
94 144 164
94 144 164
94 144 164
94 144 164
94 144 164
94 144 164
94 144 164
94 144 164
94 144 164
94 144 164
94 144 164
94 144 164
94 144 164
94 144 164
94 144 164
94 144 164
94 144 164
94 144 164
94 144 164
94 144 164
94 144 164
94 144 164
94 144 164
94 144 164
94 144 164
94 144 164
94 144 164
94 144 164
94 144 164
94 144 164
94 144 164
94 144 164
94 144 164
94 144 164
94 144 164
94 144 164
94 144 164
94 144 164
94 144 164
94 144 164
94 144 164
94 144 164
94 144 164
94 144 164
94 144 164
94 144 164
94 144 164
94 144 164
94 144 164
94 144 164
94 144 164
94 144 164
94 144 164
94 144 164
94 144 164
94 144 164
94 144 164
94 144 164
94 144 164
94 144 164
94 144 164
94 144 164
94 144 164
94 144 164
94 144 164
94 144 164
94 144 164
94 144 164
94 144 164
94 144 164
94 144 164
94 144 164
94 144 164
94 144 164
94 144 164
94 144 164
94 144 164
94 144 164
94 144 164
94 144 164
94 144 164
94 144 164
94 144 164
94 144 164
94 144 164
94 144 164
94 144 164
94 144 164
94 144 164
94 144 164
94 144 164
94 144 164
94 144 164
94 144 164
94 144 164
94 144 164
94 144 164
94 144 164
94 144 164
94 144 164
94 144 164
94 144 164
94 144 164
94 144 164
94 144 164
94 144 164
94 144 164
94 144 164
94 144 164
94 144 164
94 144 164
94 144 164
94 144 164
94 144 164
94 144 164
94 144 164
94 144 164
94 144 164
94 144 164
94 144 164
94 144 164
94 144 164
94 144 164
94 144 164
94 144 164
94 144 164
94 144 164
94 144 164
94 144 164
94 144 164
94 144 164
94 144 164
94 144 164
94 144 164
94 144 164
94 144 164
94 144 164
94 144 164
94 144 164
94 144 164
94 144 164
94 144 164
94 144 164
94 144 164
94 144 164
94 144 164
94 144 164
94 144 164
94 144 164
94 144 164
94 144 164
94 144 164
94 144 164
94 144 164
94 144 164
94 144 164
94 144 164
94 144 164
94 144 164
94 144 164
94 144 164
94 144 164
94 144 164
94 144 164
94 144 164
94 144 164
94 144 164
94 144 164
94 144 164
94 144 164
94 144 164
94 144 164
94 144 164
94 144 164
94 144 164
94 144 164
94 144 164
94 144 164
94 144 164
94 144 164
94 144 164
94 144 164
94 144 164
94 144 164
94 144 164
94 144 164
94 144 164
94 144 164
94 144 164
94 144 164
94 144 164
94 144 164
94 144 164
94 144 164
94 144 164
94 144 164
94 144 164
94 144 164
94 144 164
94 144 164
94 144 164
94 144 164
94 144 164
94 144 164
94 144 164
94 144 164
94 144 164
94 144 164
94 144 164
94 144 164
94 144 164
94 144 164
94 144 164
94 144 164
94 144 164
94 144 164
94 144 164
94 144 164
94 144 164
94 144 164
94 144 164
94 144 164
94 144 164
94 144 164
94 144 164
94 144 164
94 144 164
94 144 164
94 144 164
94 144 164
94 144 164
94 144 164
94 144 164
94 144 164
94 144 164
94 144 164
94 144 164
94 144 164
94 144 164
94 144 164
94 144 164
94 144 164
94 144 164
94 144 164
94 144 164
94 144 164
94 144 164
94 144 164
94 144 164
94 144 164
94 144 164
94 144 164
94 144 164
94 144 164
94 144 164
94 144 164
94 144 164
94 144 164
94 144 164
94 144 164
94 144 164
94 144 164
94 144 164
94 144 164
94 144 164
94 144 164
94 144 164
94 144 164
94 144 164
94 144 164
94 144 164
94 144 164
94 144 164
94 144 164
94 144 164
94 144 164
94 144 164
94 144 164
94 144 164
94 144 164
94 144 164
94 144 164
94 144 164
94 144 164
94 144 164
94 144 164
94 144 164
94 144 164
94 144 164
94 144 164
94 144 164
94 144 164
94 144 164
94 144 164
94 144 164
94 144 164
94 144 164
94 144 164
94 144 164
94 144 164
94 144 164
94 144 164
94 144 164
94 144 164
94 144 164
94 144 164
94 144 164
94 144 164
94 144 164
94 144 164
94 144 164
94 144 164
94 144 164
94 144 164
94 144 164
94 144 164
94 144 164
94 144 164
94 144 164
94 144 164
94 144 164
94 144 164
94 144 164
94 144 164
94 144 164
94 144 164
94 144 164
94 144 164
94 144 164
94 144 164
94 144 164
94 144 164
94 144 164
94 144 164
94 144 164
94 144 164
94 144 164
94 144 164
94 144 164
94 144 164
94 144 164
94 144 164
94 144 164
94 144 164
94 144 164
94 144 164
94 144 164
94 144 164
94 144 164
94 144 164
94 144 164
94 144 164
94 144 164
94 144 164
94 144 164
94 144 164
94 144 164
94 144 164
94 144 164
94 144 164
94 144 164
94 144 164
94 144 164
94 144 164
94 144 164
94 144 164
94 144 164
94 144 164
94 144 164
94 144 164
94 144 164
94 144 164
94 144 164
94 144 164
94 144 164
94 144 164
94 144 164
94 144 164
94 144 164
94 144 164
94 144 164
94 144 164
94 144 164
94 144 164
94 144 164
94 144 164
94 144 164
94 144 164
94 144 164
94 144 164
94 144 164
94 144 164
94 144 164
94 144 164
94 144 164
94 144 164
94 144 164
94 144 164
94 144 164
94 144 164
94 144 164
94 144 164
94 144 164
94 144 164
94 144 164
94 144 164
94 144 164
94 144 164
94 144 164
94 144 164
94 144 164
94 144 164
94 144 164
94 144 164
94 144 164
94 144 164
94 144 164
94 144 164
94 144 164
94 144 164
94 144 164
94 144 164
94 144 164
94 144 164
94 144 164
94 144 164
94 144 164
94 144 164
94 144 164
94 144 164
94 144 164
94 144 164
94 144 164
94 144 164
94 144 164
94 144 164
94 144 164
94 144 164
94 144 164
94 144 164
94 144 164
94 144 164
94 144 164
94 144 164
94 144 164
94 144 164
94 144 164
94 144 164
94 144 164
94 144 164
94 144 164
94 144 164
94 144 164
94 144 164
94 144 164
94 144 164
94 144 164
94 144 164
94 144 164
94 144 164
94 144 164
94 144 164
94 144 164
94 144 164
94 144 164
94 144 164
94 144 164
94 144 164
94 144 164
94 144 164
94 144 164
94 144 164
94 144 164
94 144 164
94 144 164
94 144 164
94 144 164
94 144 164
94 144 164
94 144 164
94 144 164
94 144 164
94 144 164
94 144 164
94 144 164
94 144 164
94 144 164
94 144 164
94 144 164
94 144 164
94 144 164
94 144 164
94 144 164
94 144 164
94 144 164
94 144 164
94 144 164
94 144 164
94 144 164
94 144 164
94 144 164
94 144 164
94 144 164
94 144 164
94 144 164
94 144 164
94 144 164
94 144 164
94 144 164
94 144 164
94 144 164
94 144 164
94 144 164
94 144 164
94 144 164
94 144 164
94 144 164
94 144 164
94 144 164
94 144 164
94 144 164
94 144 164
94 144 164
94 144 164
94 144 164
94 144 164
94 144 164
94 144 164
94 144 164
94 144 164
94 144 164
94 144 164
94 144 164
94 144 164
94 144 164
94 144 164
94 144 164
94 144 164
94 144 164
94 144 164
94 144 164
94 144 164
94 144 164
94 144 164
94 144 164
94 144 164
94 144 164
94 144 164
94 144 164
94 144 164
94 144 164
94 144 164
94 144 164
94 144 164
94 144 164
94 144 164
94 144 164
94 144 164
94 144 164
94 144 164
94 144 164
94 144 164
94 144 164
94 144 164
94 144 164
94 144 164
94 144 164
94 144 164
94 144 164
94 144 164
94 144 164
94 144 164
94 144 164
94 144 164
94 144 164
94 144 164
94 144 164
94 144 164
94 144 164
94 144 164
94 144 164
94 144 164
94 144 164
94 144 164
94 144 164
94 144 164
94 144 164
94 144 164
94 144 164
94 144 164
94 144 164
94 144 164
94 144 164
94 144 164
94 144 164
94 144 164
94 144 164
94 144 164
94 144 164
94 144 164
94 144 164
94 144 164
94 144 164
94 144 164
94 144 164
94 144 164
94 144 164
94 144 164
94 144 164
94 144 164
94 144 164
94 144 164
94 144 164
94 144 164
94 144 164
94 144 164
94 144 164
94 144 164
94 144 164
94 144 164
94 144 164
94 144 164
94 144 164
94 144 164
94 144 164
94 144 164
94 144 164
94 144 164
94 144 164
94 144 164
94 144 164
94 144 164
94 144 164
94 144 164
94 144 164
94 144 164
94 144 164
94 144 164
94 144 164
94 144 164
94 144 164
94 144 164
94 144 164
94 144 164
94 144 164
94 144 164
94 144 164
94 144 164
94 144 164
94 144 164
94 144 164
94 144 164
94 144 164
94 144 164
94 144 164
94 144 164
94 144 164
94 144 164
94 144 164
94 144 164
94 144 164
94 144 164
94 144 164
94 144 164
94 144 164
94 144 164
94 144 164
94 144 164
94 144 164
94 144 164
94 144 164
94 144 164
94 144 164
94 144 164
94 144 164
94 144 164
94 144 164
94 144 164
94 144 164
94 144 164
94 144 164
94 144 164
94 144 164
94 144 164
94 144 164
94 144 164
94 144 164
94 144 164
94 144 164
94 144 164
94 144 164
94 144 164
94 144 164
94 144 164
94 144 164
94 144 164
94 144 164
94 144 164
94 144 164
94 144 164
94 144 164
94 144 164
94 144 164
94 144 164
94 144 164
94 144 164
94 144 164
94 144 164
94 144 164
94 144 164
94 144 164
94 144 164
94 144 164
94 144 164
94 144 164
94 144 164
94 144 164
94 144 164
94 144 164
94 144 164
94 144 164
94 144 164
94 144 164
94 144 164
94 144 164
94 144 164
94 144 164
94 144 164
94 144 164
94 144 164
94 144 164
94 144 164
94 144 164
94 144 164
94 144 164
94 144 164
94 144 164
94 144 164
94 144 164
94 144 164
94 144 164
94 144 164
94 144 164
94 144 164
94 144 164
94 144 164
94 144 164
94 144 164
94 144 164
94 144 164
94 144 164
94 144 164
94 144 164
94 144 164
94 144 164
94 144 164
94 144 164
94 144 164
94 144 164
94 144 164
94 144 164
94 144 164
94 144 164
94 144 164
94 144 164
94 144 164
94 144 164
94 144 164
94 144 164
94 144 164
94 144 164
94 144 164
94 144 164
94 144 164
94 144 164
94 144 164
94 144 164
94 144 164
94 144 164
94 144 164
94 144 164
94 144 164
94 144 164
94 144 164
94 144 164
94 144 164
94 144 164
94 144 164
94 144 164
94 144 164
94 144 164
94 144 164
94 144 164
94 144 164
94 144 164
94 144 164
94 144 164
94 144 164
94 144 164
94 144 164
94 144 164
94 144 164
94 144 164
94 144 164
94 144 164
94 144 164
94 144 164
94 144 164
94 144 164
94 144 164
94 144 164
94 144 164
94 144 164
94 144 164
94 144 164
94 144 164
94 144 164
94 144 164
94 144 164
94 144 164
94 144 164
94 144 164
94 144 164
94 144 164
94 144 164
94 144 164
94 144 164
94 144 164
94 144 164
94 144 164
94 144 164
94 144 164
94 144 164
94 144 164
94 144 164
94 144 164
94 144 164
94 144 164
94 144 164
94 144 164
94 144 164
94 144 164
94 144 164
94 144 164
94 144 164
94 144 164
94 144 164
94 144 164
94 144 164
94 144 164
94 144 164
94 144 164
94 144 164
94 144 164
94 144 164
94 144 164
94 144 164
94 144 164
94 144 164
94 144 164
94 144 164
94 144 164
94 144 164
94 144 164
94 144 164
94 144 164
94 144 164
94 144 164
94 144 164
94 144 164
94 144 164
94 144 164
94 144 164
94 144 164
94 144 164
94 144 164
94 144 164
94 144 164
94 144 164
94 144 164
94 144 164
94 144 164
94 144 164
94 144 164
94 144 164
94 144 164
94 144 164
94 144 164
94 144 164
94 144 164
94 144 164
94 144 164
94 144 164
94 144 164
94 144 164
94 144 164
94 144 164
94 144 164
94 144 164
94 144 164
94 144 164
94 144 164
94 144 164
94 144 164
94 144 164
94 144 164
94 144 164
94 144 164
94 144 164
94 144 164
94 144 164
94 144 164
94 144 164
94 144 164
94 144 164
94 144 164
94 144 164
94 144 164
94 144 164
94 144 164
94 144 164
94 144 164
94 144 164
94 144 164
94 144 164
94 144 164
94 144 164
94 144 164
94 144 164
94 144 164
94 144 164
94 144 164
94 144 164
94 144 164
94 144 164
94 144 164
94 144 164
94 144 164
94 144 164
94 144 164
94 144 164
94 144 164
94 144 164
94 144 164
94 144 164
94 144 164
94 144 164
94 144 164
94 144 164
94 144 164
94 144 164
94 144 164
94 144 164
94 144 164
94 144 164
94 144 164
94 144 164
94 144 164
94 144 164
94 144 164
94 144 164
94 144 164
94 144 164
94 144 164
94 144 164
94 144 164
94 144 164
94 144 164
94 144 164
94 144 164
94 144 164
94 144 164
94 144 164
94 144 164
94 144 164
94 144 164
94 144 164
94 144 164
94 144 164
94 144 164
94 144 164
94 144 164
94 144 164
94 144 164
94 144 164
94 144 164
94 144 164
94 144 164
94 144 164
94 144 164
94 144 164
94 144 164
94 144 164
94 144 164
94 144 164
94 144 164
94 144 164
94 144 164
94 144 164
94 144 164
94 144 164
94 144 164
94 144 164
94 144 164
94 144 164
94 144 164
94 144 164
94 144 164
94 144 164
94 144 164
94 144 164
94 144 164
94 144 164
94 144 164
94 144 164
94 144 164
94 144 164
94 144 164
94 144 164
94 144 164
94 144 164
94 144 164
94 144 164
94 144 164
94 144 164
94 144 164
94 144 164
94 144 164
94 144 164
94 144 164
94 144 164
94 144 164
94 144 164
94 144 164
94 144 164
94 144 164
94 144 164
94 144 164
94 144 164
94 144 164
94 144 164
94 144 164
94 144 164
94 144 164
94 144 164
94 144 164
94 144 164
94 144 164
94 144 164
94 144 164
94 144 164
94 144 164
94 144 164
94 144 164
94 144 164
94 144 164
94 144 164
94 144 164
94 144 164
94 144 164
94 144 164
94 144 164
94 144 164
94 144 164
94 144 164
94 144 164
94 144 164
94 144 164
94 144 164
94 144 164
94 144 164
94 144 164
94 144 164
94 144 164
94 144 164
94 144 164
94 144 164
94 144 164
94 144 164
94 144 164
94 144 164
94 144 164
94 144 164
94 144 164
94 144 164
94 144 164
94 144 164
94 144 164
94 144 164
94 144 164
94 144 164
94 144 164
94 144 164
94 144 164
94 144 164
94 144 164
94 144 164
94 144 164
94 144 164
94 144 164
94 144 164
94 144 164
94 144 164
94 144 164
94 144 164
94 144 164
94 144 164
94 144 164
94 144 164
94 144 164
94 144 164
94 144 164
94 144 164
94 144 164
94 144 164
94 144 164
94 144 164
94 144 164
94 144 164
94 144 164
94 144 164
94 144 164
94 144 164
94 144 164
94 144 164
94 144 164
94 144 164
94 144 164
94 144 164
94 144 164
94 144 164
94 144 164
94 144 164
94 144 164
94 144 164
94 144 164
94 144 164
94 144 164
94 144 164
94 144 164
94 144 164
94 144 164
94 144 164
94 144 164
94 144 164
94 144 164
94 144 164
94 144 164
94 144 164
94 144 164
94 144 164
94 144 164
94 144 164
94 144 164
94 144 164
94 144 164
94 144 164
94 144 164
94 144 164
94 144 164
94 144 164
94 144 164
94 144 164
94 144 164
94 144 164
94 144 164
94 144 164
94 144 164
94 144 164
94 144 164
94 144 164
94 144 164
94 144 164
94 144 164
94 144 164
94 144 164
94 144 164
94 144 164
94 144 164
94 144 164
94 144 164
94 144 164
94 144 164
94 144 164
94 144 164
94 144 164
94 144 164
94 144 164
94 144 164
94 144 164
94 144 164
94 144 164
94 144 164
94 144 164
94 144 164
94 144 164
94 144 164
94 144 164
94 144 164
94 144 164
94 144 164
94 144 164
94 144 164
94 144 164
94 144 164
94 144 164
94 144 164
94 144 164
94 144 164
94 144 164
94 144 164
94 144 164
94 144 164
94 144 164
94 144 164
94 144 164
94 144 164
94 144 164
94 144 164
94 144 164
94 144 164
94 144 164
94 144 164
94 144 164
94 144 164
94 144 164
94 144 164
94 144 164
94 144 164
94 144 164
94 144 164
94 144 164
94 144 164
94 144 164
94 144 164
94 144 164
94 144 164
94 144 164
94 144 164
94 144 164
94 144 164
94 144 164
94 144 164
94 144 164
94 144 164
94 144 164
94 144 164
94 144 164
94 144 164
94 144 164
94 144 164
94 144 164
94 144 164
94 144 164
94 144 164
94 144 164
94 144 164
94 144 164
94 144 164
94 144 164
94 144 164
94 144 164
94 144 164
94 144 164
94 144 164
94 144 164
94 144 164
94 144 164
94 144 164
94 144 164
94 144 164
94 144 164
94 144 164
94 144 164
94 144 164
94 144 164
94 144 164
94 144 164
94 144 164
94 144 164
94 144 164
94 144 164
94 144 164
94 144 164
94 144 164
94 144 164
94 144 164
94 144 164
94 144 164
94 144 164
94 144 164
94 144 164
94 144 164
94 144 164
94 144 164
94 144 164
94 144 164
94 144 164
94 144 164
94 144 164
94 144 164
94 144 164
94 144 164
94 144 164
94 144 164
94 144 164
94 144 164
94 144 164
94 144 164
94 144 164
94 144 164
94 144 164
94 144 164
94 144 164
94 144 164
94 144 164
94 144 164
94 144 164
94 144 164
94 144 164
94 144 164
94 144 164
94 144 164
94 144 164
94 144 164
94 144 164
94 144 164
94 144 164
94 144 164
94 144 164
94 144 164
94 144 164
94 144 164
94 144 164
94 144 164
94 144 164
94 144 164
94 144 164
94 144 164
94 144 164
94 144 164
94 144 164
94 144 164
94 144 164
94 144 164
94 144 164
94 144 164
94 144 164
94 144 164
94 144 164
94 144 164
94 144 164
94 144 164
94 144 164
94 144 164
94 144 164
94 144 164
94 144 164
94 144 164
94 144 164
94 144 164
94 144 164
94 144 164
94 144 164
94 144 164
94 144 164
94 144 164
94 144 164
94 144 164
94 144 164
94 144 164
94 144 164
94 144 164
94 144 164
94 144 164
94 144 164
94 144 164
94 144 164
94 144 164
94 144 164
94 144 164
94 144 164
94 144 164
94 144 164
94 144 164
94 144 164
94 144 164
94 144 164
94 144 164
94 144 164
94 144 164
94 144 164
94 144 164
94 144 164
94 144 164
94 144 164
94 144 164
94 144 164
94 144 164
94 144 164
94 144 164
94 144 164
94 144 164
94 144 164
94 144 164
94 144 164
94 144 164
94 144 164
94 144 164
94 144 164
94 144 164
94 144 164
94 144 164
94 144 164
94 144 164
94 144 164
94 144 164
94 144 164
94 144 164
94 144 164
94 144 164
94 144 164
94 144 164
94 144 164
94 144 164
94 144 164
94 144 164
94 144 164
94 144 164
94 144 164
94 144 164
94 144 164
94 144 164
94 144 164
94 144 164
94 144 164
94 144 164
94 144 164
94 144 164
94 144 164
94 144 164
94 144 164
94 144 164
94 144 164
94 144 164
94 144 164
94 144 164
94 144 164
94 144 164
94 144 164
94 144 164
94 144 164
94 144 164
94 144 164
94 144 164
94 144 164
94 144 164
94 144 164
94 144 164
94 144 164
94 144 164
94 144 164
94 144 164
94 144 164
94 144 164
94 144 164
94 144 164
94 144 164
94 144 164
94 144 164
94 144 164
94 144 164
94 144 164
94 144 164
94 144 164
94 144 164
94 144 164
94 144 164
94 144 164
94 144 164
94 144 164
94 144 164
94 144 164
94 144 164
94 144 164
94 144 164
94 144 164
94 144 164
94 144 164
94 144 164
94 144 164
94 144 164
94 144 164
94 144 164
94 144 164
94 144 164
94 144 164
94 144 164
94 144 164
94 144 164
94 144 164
94 144 164
94 144 164
94 144 164
94 144 164
94 144 164
94 144 164
94 144 164
94 144 164
94 144 164
94 144 164
94 144 164
94 144 164
94 144 164
94 144 164
94 144 164
94 144 164
94 144 164
94 144 164
94 144 164
94 144 164
94 144 164
94 144 164
94 144 164
94 144 164
94 144 164
94 144 164
94 144 164
94 144 164
94 144 164
94 144 164
94 144 164
94 144 164
94 144 164
94 144 164
94 144 164
94 144 164
94 144 164
94 144 164
94 144 164
94 144 164
94 144 164
94 144 164
94 144 164
94 144 164
94 144 164
94 144 164
94 144 164
94 144 164
94 144 164
94 144 164
94 144 164
94 144 164
94 144 164
94 144 164
94 144 164
94 144 164
94 144 164
94 144 164
94 144 164
94 144 164
94 144 164
94 144 164
94 144 164
94 144 164
94 144 164
94 144 164
94 144 164
94 144 164
94 144 164
94 144 164
94 144 164
94 144 164
94 144 164
94 144 164
94 144 164
94 144 164
94 144 164
94 144 164
94 144 164
94 144 164
94 144 164
94 144 164
94 144 164
94 144 164
94 144 164
94 144 164
94 144 164
94 144 164
94 144 164
94 144 164
94 144 164
94 144 164
94 144 164
94 144 164
94 144 164
94 144 164
94 144 164
94 144 164
94 144 164
94 144 164
94 144 164
94 144 164
94 144 164
94 144 164
94 144 164
94 144 164
94 144 164
94 144 164
94 144 164
94 144 164
94 144 164
94 144 164
94 144 164
94 144 164
94 144 164
94 144 164
94 144 164
94 144 164
94 144 164
94 144 164
94 144 164
94 144 164
94 144 164
94 144 164
94 144 164
94 144 164
94 144 164
94 144 164
94 144 164
94 144 164
94 144 164
94 144 164
94 144 164
94 144 164
94 144 164
94 144 164
94 144 164
94 144 164
94 144 164
94 144 164
94 144 164
94 144 164
94 144 164
94 144 164
94 144 164
94 144 164
94 144 164
94 144 164
94 144 164
94 144 164
94 144 164
94 144 164
94 144 164
94 144 164
94 144 164
94 144 164
94 144 164
94 144 164
94 144 164
94 144 164
94 144 164
94 144 164
94 144 164
94 144 164
94 144 164
94 144 164
94 144 164
94 144 164
94 144 164
94 144 164
94 144 164
94 144 164
94 144 164
94 144 164
94 144 164
94 144 164
94 144 164
94 144 164
94 144 164
94 144 164
94 144 164
94 144 164
94 144 164
94 144 164
94 144 164
94 144 164
94 144 164
94 144 164
94 144 164
94 144 164
94 144 164
94 144 164
94 144 164
94 144 164
94 144 164
94 144 164
94 144 164
94 144 164
94 144 164
94 144 164
94 144 164
94 144 164
94 144 164
94 144 164
94 144 164
94 144 164
94 144 164
94 144 164
94 144 164
94 144 164
94 144 164
94 144 164
94 144 164
94 144 164
94 144 164
94 144 164
94 144 164
94 144 164
94 144 164
94 144 164
94 144 164
94 144 164
94 144 164
94 144 164
94 144 164
94 144 164
94 144 164
94 144 164
94 144 164
94 144 164
94 144 164
94 144 164
94 144 164
94 144 164
94 144 164
94 144 164
94 144 164
94 144 164
94 144 164
94 144 164
94 144 164
94 144 164
94 144 164
94 144 164
94 144 164
94 144 164
94 144 164
94 144 164
94 144 164
94 144 164
94 144 164
94 144 164
94 144 164
94 144 164
94 144 164
94 144 164
94 144 164
94 144 164
94 144 164
94 144 164
94 144 164
94 144 164
94 144 164
94 144 164
94 144 164
94 144 164
94 144 164
94 144 164
94 144 164
94 144 164
94 144 164
94 144 164
94 144 164
94 144 164
94 144 164
94 144 164
94 144 164
94 144 164
94 144 164
94 144 164
94 144 164
94 144 164
94 144 164
94 144 164
94 144 164
94 144 164
94 144 164
94 144 164
94 144 164
94 144 164
94 144 164
94 144 164
94 144 164
94 144 164
94 144 164
94 144 164
94 144 164
94 144 164
94 144 164
94 144 164
94 144 164
94 144 164
94 144 164
94 144 164
94 144 164
94 144 164
94 144 164
94 144 164
94 144 164
94 144 164
94 144 164
94 144 164
94 144 164
94 144 164
94 144 164
94 144 164
94 144 164
94 144 164
94 144 164
94 144 164
94 144 164
94 144 164
94 144 164
94 144 164
94 144 164
94 144 164
94 144 164
94 144 164
94 144 164
94 144 164
94 144 164
94 144 164
94 144 164
94 144 164
94 144 164
94 144 164
94 144 164
94 144 164
94 144 164
94 144 164
94 144 164
94 144 164
94 144 164
94 144 164
94 144 164
94 144 164
94 144 164
94 144 164
94 144 164
94 144 164
94 144 164
94 144 164
94 144 164
94 144 164
94 144 164
94 144 164
94 144 164
94 144 164
94 144 164
94 144 164
94 144 164
94 144 164
94 144 164
94 144 164
94 144 164
94 144 164
94 144 164
94 144 164
94 144 164
94 144 164
94 144 164
94 144 164
94 144 164
94 144 164
94 144 164
94 144 164
94 144 164
94 144 164
94 144 164
94 144 164
94 144 164
94 144 164
94 144 164
94 144 164
94 144 164
94 144 164
94 144 164
94 144 164
94 144 164
94 144 164
94 144 164
94 144 164
94 144 164
94 144 164
94 144 164
94 144 164
94 144 164
94 144 164
94 144 164
94 144 164
94 144 164
94 144 164
94 144 164
94 144 164
94 144 164
94 144 164
94 144 164
94 144 164
94 144 164
94 144 164
94 144 164
94 144 164
94 144 164
94 144 164
94 144 164
94 144 164
94 144 164
94 144 164
94 144 164
94 144 164
94 144 164
94 144 164
94 144 164
94 144 164
94 144 164
94 144 164
94 144 164
94 144 164
94 144 164
94 144 164
94 144 164
94 144 164
94 144 164
94 144 164
94 144 164
94 144 164
94 144 164
94 144 164
94 144 164
94 144 164
94 144 164
94 144 164
94 144 164
94 144 164
94 144 164
94 144 164
94 144 164
94 144 164
94 144 164
94 144 164
94 144 164
94 144 164
94 144 164
94 144 164
94 144 164
94 144 164
94 144 164
94 144 164
94 144 164
94 144 164
94 144 164
94 144 164
94 144 164
94 144 164
94 144 164
94 144 164
94 144 164
94 144 164
94 144 164
94 144 164
94 144 164
94 144 164
94 144 164
94 144 164
94 144 164
94 144 164
94 144 164
94 144 164
94 144 164
94 144 164
94 144 164
94 144 164
94 144 164
94 144 164
94 144 164
94 144 164
94 144 164
94 144 164
94 144 164
94 144 164
94 144 164
94 144 164
94 144 164
94 144 164
94 144 164
94 144 164
94 144 164
94 144 164
94 144 164
94 144 164
94 144 164
94 144 164
94 144 164
94 144 164
94 144 164
94 144 164
94 144 164
94 144 164
94 144 164
94 144 164
94 144 164
94 144 164
94 144 164
94 144 164
94 144 164
94 144 164
94 144 164
94 144 164
94 144 164
94 144 164
94 144 164
94 144 164
94 144 164
94 144 164
94 144 164
94 144 164
94 144 164
94 144 164
94 144 164
94 144 164
94 144 164
94 144 164
94 144 164
94 144 164
94 144 164
94 144 164
94 144 164
94 144 164
94 144 164
94 144 164
94 144 164
94 144 164
94 144 164
94 144 164
94 144 164
94 144 164
94 144 164
94 144 164
94 144 164
94 144 164
94 144 164
94 144 164
94 144 164
94 144 164
94 144 164
94 144 164
94 144 164
94 144 164
94 144 164
94 144 164
94 144 164
94 144 164
94 144 164
94 144 164
94 144 164
94 144 164
94 144 164
94 144 164
94 144 164
94 144 164
94 144 164
94 144 164
94 144 164
94 144 164
94 144 164
94 144 164
94 144 164
94 144 164
94 144 164
94 144 164
94 144 164
94 144 164
94 144 164
94 144 164
94 144 164
94 144 164
94 144 164
94 144 164
94 144 164
94 144 164
94 144 164
94 144 164
94 144 164
94 144 164
94 144 164
94 144 164
94 144 164
94 144 164
94 144 164
94 144 164
94 144 164
94 144 164
94 144 164
94 144 164
94 144 164
94 144 164
94 144 164
94 144 164
94 144 164
94 144 164
94 144 164
94 144 164
94 144 164
94 144 164
94 144 164
94 144 164
94 144 164
94 144 164
94 144 164
94 144 164
94 144 164
94 144 164
94 144 164
94 144 164
94 144 164
94 144 164
94 144 164
94 144 164
94 144 164
94 144 164
94 144 164
94 144 164
94 144 164
94 144 164
94 144 164
94 144 164
94 144 164
94 144 164
94 144 164
94 144 164
94 144 164
94 144 164
94 144 164
94 144 164
94 144 164
94 144 164
94 144 164
94 144 164
94 144 164
94 144 164
94 144 164
94 144 164
94 144 164
94 144 164
94 144 164
94 144 164
94 144 164
94 144 164
94 144 164
94 144 164
94 144 164
94 144 164
94 144 164
94 144 164
94 144 164
94 144 164
94 144 164
94 144 164
94 144 164
94 144 164
94 144 164
94 144 164
94 144 164
94 144 164
94 144 164
94 144 164
94 144 164
94 144 164
94 144 164
94 144 164
94 144 164
94 144 164
94 144 164
94 144 164
94 144 164
94 144 164
94 144 164
94 144 164
94 144 164
94 144 164
94 144 164
94 144 164
94 144 164
94 144 164
94 144 164
94 144 164
94 144 164
94 144 164
94 144 164
94 144 164
94 144 164
94 144 164
94 144 164
94 144 164
94 144 164
94 144 164
94 144 164
94 144 164
94 144 164
94 144 164
94 144 164
94 144 164
94 144 164
94 144 164
94 144 164
94 144 164
94 144 164
94 144 164
94 144 164
94 144 164
94 144 164
94 144 164
94 144 164
94 144 164
94 144 164
94 144 164
94 144 164
94 144 164
94 144 164
94 144 164
94 144 164
94 144 164
94 144 164
94 144 164
94 144 164
94 144 164
94 144 164
94 144 164
94 144 164
94 144 164
94 144 164
94 144 164
94 144 164
94 144 164
94 144 164
94 144 164
94 144 164
94 144 164
94 144 164
94 144 164
94 144 164
94 144 164
94 144 164
94 144 164
94 144 164
94 144 164
94 144 164
94 144 164
94 144 164
94 144 164
94 144 164
94 144 164
94 144 164
94 144 164
94 144 164
94 144 164
94 144 164
94 144 164
94 144 164
94 144 164
94 144 164
94 144 164
94 144 164
94 144 164
94 144 164
94 144 164
94 144 164
94 144 164
94 144 164
94 144 164
94 144 164
94 144 164
94 144 164
94 144 164
94 144 164
94 144 164
94 144 164
94 144 164
94 144 164
94 144 164
94 144 164
94 144 164
94 144 164
94 144 164
94 144 164
94 144 164
94 144 164
94 144 164
94 144 164
94 144 164
94 144 164
94 144 164
94 144 164
94 144 164
94 144 164
94 144 164
94 144 164
94 144 164
94 144 164
94 144 164
94 144 164
94 144 164
94 144 164
94 144 164
94 144 164
94 144 164
94 144 164
94 144 164
94 144 164
94 144 164
94 144 164
94 144 164
94 144 164
94 144 164
94 144 164
94 144 164
94 144 164
94 144 164
94 144 164
94 144 164
94 144 164
94 144 164
94 144 164
94 144 164
94 144 164
94 144 164
94 144 164
94 144 164
94 144 164
94 144 164
94 144 164
94 144 164
94 144 164
94 144 164
94 144 164
94 144 164
94 144 164
94 144 164
94 144 164
94 144 164
94 144 164
94 144 164
94 144 164
94 144 164
94 144 164
94 144 164
94 144 164
94 144 164
94 144 164
94 144 164
94 144 164
94 144 164
94 144 164
94 144 164
94 144 164
94 144 164
94 144 164
94 144 164
94 144 164
94 144 164
94 144 164
94 144 164
94 144 164
94 144 164
94 144 164
94 144 164
94 144 164
94 144 164
94 144 164
94 144 164
94 144 164
94 144 164
94 144 164
94 144 164
94 144 164
94 144 164
94 144 164
94 144 164
94 144 164
94 144 164
94 144 164
94 144 164
94 144 164
94 144 164
94 144 164
94 144 164
94 144 164
94 144 164
94 144 164
94 144 164
94 144 164
94 144 164
94 144 164
94 144 164
94 144 164
94 144 164
94 144 164
94 144 164
94 144 164
94 144 164
94 144 164
94 144 164
94 144 164
94 144 164
94 144 164
94 144 164
94 144 164
94 144 164
94 144 164
94 144 164
94 144 164
94 144 164
94 144 164
94 144 164
94 144 164
94 144 164
94 144 164
94 144 164
94 144 164
94 144 164
94 144 164
94 144 164
94 144 164
94 144 164
94 144 164
94 144 164
94 144 164
94 144 164
94 144 164
94 144 164
94 144 164
94 144 164
94 144 164
94 144 164
94 144 164
94 144 164
94 144 164
94 144 164
94 144 164
94 144 164
94 144 164
94 144 164
94 144 164
94 144 164
94 144 164
94 144 164
94 144 164
94 144 164
94 144 164
94 144 164
94 144 164
94 144 164
94 144 164
94 144 164
94 144 164
94 144 164
94 144 164
94 144 164
94 144 164
94 144 164
94 144 164
94 144 164
94 144 164
94 144 164
94 144 164
94 144 164
94 144 164
94 144 164
94 144 164
94 144 164
94 144 164
94 144 164
94 144 164
94 144 164
94 144 164
94 144 164
94 144 164
94 144 164
94 144 164
94 144 164
94 144 164
94 144 164
94 144 164
94 144 164
94 144 164
94 144 164
94 144 164
94 144 164
94 144 164
94 144 164
94 144 164
94 144 164
94 144 164
94 144 164
94 144 164
94 144 164
94 144 164
94 144 164
94 144 164
94 144 164
94 144 164
94 144 164
94 144 164
94 144 164
94 144 164
94 144 164
94 144 164
94 144 164
94 144 164
94 144 164
94 144 164
94 144 164
94 144 164
94 144 164
94 144 164
94 144 164
94 144 164
94 144 164
94 144 164
94 144 164
94 144 164
94 144 164
94 144 164
94 144 164
94 144 164
94 144 164
94 144 164
94 144 164
94 144 164
94 144 164
94 144 164
94 144 164
94 144 164
94 144 164
94 144 164
94 144 164
94 144 164
94 144 164
94 144 164
94 144 164
94 144 164
94 144 164
94 144 164
94 144 164
94 144 164
94 144 164
94 144 164
94 144 164
94 144 164
94 144 164
94 144 164
94 144 164
94 144 164
94 144 164
94 144 164
94 144 164
94 144 164
94 144 164
94 144 164
94 144 164
94 144 164
94 144 164
94 144 164
94 144 164
94 144 164
94 144 164
94 144 164
94 144 164
94 144 164
94 144 164
94 144 164
94 144 164
94 144 164
94 144 164
94 144 164
94 144 164
94 144 164
94 144 164
94 144 164
94 144 164
94 144 164
94 144 164
94 144 164
94 144 164
94 144 164
94 144 164
94 144 164
94 144 164
94 144 164
94 144 164
94 144 164
94 144 164
94 144 164
94 144 164
94 144 164
94 144 164
94 144 164
94 144 164
94 144 164
94 144 164
94 144 164
94 144 164
94 144 164
94 144 164
94 144 164
94 144 164
94 144 164
94 144 164
94 144 164
94 144 164
94 144 164
94 144 164
94 144 164
94 144 164
94 144 164
94 144 164
94 144 164
94 144 164
94 144 164
94 144 164
94 144 164
94 144 164
94 144 164
94 144 164
94 144 164
94 144 164
94 144 164
94 144 164
94 144 164
94 144 164
94 144 164
94 144 164
94 144 164
94 144 164
94 144 164
94 144 164
94 144 164
94 144 164
94 144 164
94 144 164
94 144 164
94 144 164
94 144 164
94 144 164
94 144 164
94 144 164
94 144 164
94 144 164
94 144 164
94 144 164
94 144 164
94 144 164
94 144 164
94 144 164
94 144 164
94 144 164
94 144 164
94 144 164
94 144 164
94 144 164
94 144 164
94 144 164
94 144 164
94 144 164
94 144 164
94 144 164
94 144 164
94 144 164
94 144 164
94 144 164
94 144 164
94 144 164
94 144 164
94 144 164
94 144 164
94 144 164
94 144 164
94 144 164
94 144 164
94 144 164
94 144 164
94 144 164
94 144 164
94 144 164
94 144 164
94 144 164
94 144 164
94 144 164
94 144 164
94 144 164
94 144 164
94 144 164
94 144 164
94 144 164
94 144 164
94 144 164
94 144 164
94 144 164
94 144 164
94 144 164
94 144 164
94 144 164
94 144 164
94 144 164
94 144 164
94 144 164
94 144 164
94 144 164
94 144 164
94 144 164
94 144 164
94 144 164
94 144 164
94 144 164
94 144 164
94 144 164
94 144 164
94 144 164
94 144 164
94 144 164
94 144 164
94 144 164
94 144 164
94 144 164
94 144 164
94 144 164
94 144 164
94 144 164
94 144 164
94 144 164
94 144 164
94 144 164
94 144 164
94 144 164
94 144 164
94 144 164
94 144 164
94 144 164
94 144 164
94 144 164
94 144 164
94 144 164
94 144 164
94 144 164
94 144 164
94 144 164
94 144 164
94 144 164
94 144 164
94 144 164
94 144 164
94 144 164
94 144 164
94 144 164
94 144 164
94 144 164
94 144 164
94 144 164
94 144 164
94 144 164
94 144 164
94 144 164
94 144 164
94 144 164
94 144 164
94 144 164
94 144 164
94 144 164
94 144 164
94 144 164
94 144 164
94 144 164
94 144 164
94 144 164
94 144 164
94 144 164
94 144 164
94 144 164
94 144 164
94 144 164
94 144 164
94 144 164
94 144 164
94 144 164
94 144 164
94 144 164
94 144 164
94 144 164
94 144 164
94 144 164
94 144 164
94 144 164
94 144 164
94 144 164
94 144 164
94 144 164
94 144 164
94 144 164
94 144 164
94 144 164
94 144 164
94 144 164
94 144 164
94 144 164
94 144 164
94 144 164
94 144 164
94 144 164
94 144 164
94 144 164
94 144 164
94 144 164
94 144 164
94 144 164
94 144 164
94 144 164
94 144 164
94 144 164
94 144 164
94 144 164
94 144 164
94 144 164
94 144 164
94 144 164
94 144 164
94 144 164
94 144 164
94 144 164
94 144 164
94 144 164
94 144 164
94 144 164
94 144 164
94 144 164
94 144 164
94 144 164
94 144 164
94 144 164
94 144 164
94 144 164
94 144 164
94 144 164
94 144 164
94 144 164
94 144 164
94 144 164
94 144 164
94 144 164
94 144 164
94 144 164
94 144 164
94 144 164
94 144 164
94 144 164
94 144 164
94 144 164
94 144 164
94 144 164
94 144 164
94 144 164
94 144 164
94 144 164
94 144 164
94 144 164
94 144 164
94 144 164
94 144 164
94 144 164
94 144 164
94 144 164
94 144 164
94 144 164
94 144 164
94 144 164
94 144 164
94 144 164
94 144 164
94 144 164
94 144 164
94 144 164
94 144 164
94 144 164
94 144 164
94 144 164
94 144 164
94 144 164
94 144 164
94 144 164
94 144 164
94 144 164
94 144 164
94 144 164
94 144 164
94 144 164
94 144 164
94 144 164
94 144 164
94 144 164
94 144 164
94 144 164
94 144 164
94 144 164
94 144 164
94 144 164
94 144 164
94 144 164
94 144 164
94 144 164
94 144 164
94 144 164
94 144 164
94 144 164
94 144 164
94 144 164
94 144 164
94 144 164
94 144 164
94 144 164
94 144 164
94 144 164
94 144 164
94 144 164
94 144 164
94 144 164
94 144 164
94 144 164
94 144 164
94 144 164
94 144 164
94 144 164
94 144 164
94 144 164
94 144 164
94 144 164
94 144 164
94 144 164
94 144 164
94 144 164
94 144 164
94 144 164
94 144 164
94 144 164
94 144 164
94 144 164
94 144 164
94 144 164
94 144 164
94 144 164
94 144 164
94 144 164
94 144 164
94 144 164
94 144 164
94 144 164
94 144 164
94 144 164
94 144 164
94 144 164
94 144 164
94 144 164
94 144 164
94 144 164
94 144 164
94 144 164
94 144 164
94 144 164
94 144 164
94 144 164
94 144 164
94 144 164
94 144 164
94 144 164
94 144 164
94 144 164
94 144 164
94 144 164
94 144 164
94 144 164
94 144 164
94 144 164
94 144 164
94 144 164
94 144 164
94 144 164
94 144 164
94 144 164
94 144 164
94 144 164
94 144 164
94 144 164
94 144 164
94 144 164
94 144 164
94 144 164
94 144 164
94 144 164
94 144 164
94 144 164
94 144 164
94 144 164
94 144 164
94 144 164
94 144 164
94 144 164
94 144 164
94 144 164
94 144 164
94 144 164
94 144 164
94 144 164
94 144 164
94 144 164
94 144 164
94 144 164
94 144 164
94 144 164
94 144 164
94 144 164
94 144 164
94 144 164
94 144 164
94 144 164
94 144 164
94 144 164
94 144 164
94 144 164
94 144 164
94 144 164
94 144 164
94 144 164
94 144 164
94 144 164
94 144 164
94 144 164
94 144 164
94 144 164
94 144 164
94 144 164
94 144 164
94 144 164
94 144 164
94 144 164
94 144 164
94 144 164
94 144 164
94 144 164
94 144 164
94 144 164
94 144 164
94 144 164
94 144 164
94 144 164
94 144 164
94 144 164
94 144 164
94 144 164
94 144 164
94 144 164
94 144 164
94 144 164
94 144 164
94 144 164
94 144 164
94 144 164
94 144 164
94 144 164
94 144 164
94 144 164
94 144 164
94 144 164
94 144 164
94 144 164
94 144 164
94 144 164
94 144 164
94 144 164
94 144 164
94 144 164
94 144 164
94 144 164
94 144 164
94 144 164
94 144 164
94 144 164
94 144 164
94 144 164
94 144 164
94 144 164
94 144 164
94 144 164
94 144 164
94 144 164
94 144 164
94 144 164
94 144 164
94 144 164
94 144 164
94 144 164
94 144 164
94 144 164
94 144 164
94 144 164
94 144 164
94 144 164
94 144 164
94 144 164
94 144 164
94 144 164
94 144 164
94 144 164
94 144 164
94 144 164
94 144 164
94 144 164
94 144 164
94 144 164
94 144 164
94 144 164
94 144 164
94 144 164
94 144 164
94 144 164
94 144 164
94 144 164
94 144 164
94 144 164
94 144 164
94 144 164
94 144 164
94 144 164
94 144 164
94 144 164
94 144 164
94 144 164
94 144 164
94 144 164
94 144 164
94 144 164
94 144 164
94 144 164
94 144 164
94 144 164
94 144 164
94 144 164
94 144 164
94 144 164
94 144 164
94 144 164
94 144 164
94 144 164
94 144 164
94 144 164
94 144 164
94 144 164
94 144 164
94 144 164
94 144 164
94 144 164
94 144 164
94 144 164
94 144 164
94 144 164
94 144 164
94 144 164
94 144 164
94 144 164
94 144 164
94 144 164
94 144 164
94 144 164
94 144 164
94 144 164
94 144 164
94 144 164
94 144 164
94 144 164
94 144 164
94 144 164
94 144 164
94 144 164
94 144 164
94 144 164
94 144 164
94 144 164
94 144 164
94 144 164
94 144 164
94 144 164
94 144 164
94 144 164
94 144 164
94 144 164
94 144 164
94 144 164
94 144 164
94 144 164
94 144 164
94 144 164
94 144 164
94 144 164
94 144 164
94 144 164
94 144 164
94 144 164
94 144 164
94 144 164
94 144 164
94 144 164
94 144 164
94 144 164
94 144 164
94 144 164
94 144 164
94 144 164
94 144 164
94 144 164
94 144 164
94 144 164
94 144 164
94 144 164
94 144 164
94 144 164
94 144 164
94 144 164
94 144 164
94 144 164
94 144 164
94 144 164
94 144 164
94 144 164
94 144 164
94 144 164
94 144 164
94 144 164
94 144 164
94 144 164
94 144 164
94 144 164
94 144 164
94 144 164
94 144 164
94 144 164
94 144 164
94 144 164
94 144 164
94 144 164
94 144 164
94 144 164
94 144 164
94 144 164
94 144 164
94 144 164
94 144 164
94 144 164
94 144 164
94 144 164
94 144 164
94 144 164
94 144 164
94 144 164
94 144 164
94 144 164
94 144 164
94 144 164
94 144 164
94 144 164
94 144 164
94 144 164
94 144 164
94 144 164
94 144 164
94 144 164
94 144 164
94 144 164
94 144 164
94 144 164
94 144 164
94 144 164
94 144 164
94 144 164
94 144 164
94 144 164
94 144 164
94 144 164
94 144 164
94 144 164
94 144 164
94 144 164
94 144 164
94 144 164
94 144 164
94 144 164
94 144 164
94 144 164
94 144 164
94 144 164
94 144 164
94 144 164
94 144 164
94 144 164
94 144 164
94 144 164
94 144 164
94 144 164
94 144 164
94 144 164
94 144 164
94 144 164
94 144 164
94 144 164
94 144 164
94 144 164
94 144 164
94 144 164
94 144 164
94 144 164
94 144 164
94 144 164
94 144 164
94 144 164
94 144 164
94 144 164
94 144 164
94 144 164
94 144 164
94 144 164
94 144 164
94 144 164
94 144 164
94 144 164
94 144 164
94 144 164
94 144 164
94 144 164
94 144 164
94 144 164
94 144 164
94 144 164
94 144 164
94 144 164
94 144 164
94 144 164
94 144 164
94 144 164
94 144 164
94 144 164
94 144 164
94 144 164
94 144 164
94 144 164
94 144 164
94 144 164
94 144 164
94 144 164
94 144 164
94 144 164
94 144 164
94 144 164
94 144 164
94 144 164
94 144 164
94 144 164
94 144 164
94 144 164
94 144 164
94 144 164
94 144 164
94 144 164
94 144 164
94 144 164
94 144 164
94 144 164
94 144 164
94 144 164
94 144 164
94 144 164
94 144 164
94 144 164
94 144 164
94 144 164
94 144 164
94 144 164
94 144 164
94 144 164
94 144 164
94 144 164
94 144 164
94 144 164
94 144 164
94 144 164
94 144 164
94 144 164
94 144 164
94 144 164
94 144 164
94 144 164
94 144 164
94 144 164
94 144 164
94 144 164
94 144 164
94 144 164
94 144 164
94 144 164
94 144 164
94 144 164
94 144 164
94 144 164
94 144 164
94 144 164
94 144 164
94 144 164
94 144 164
94 144 164
94 144 164
94 144 164
94 144 164
94 144 164
94 144 164
94 144 164
94 144 164
94 144 164
94 144 164
94 144 164
94 144 164
94 144 164
94 144 164
94 144 164
94 144 164
94 144 164
94 144 164
94 144 164
94 144 164
94 144 164
94 144 164
94 144 164
94 144 164
94 144 164
94 144 164
94 144 164
94 144 164
94 144 164
94 144 164
94 144 164
94 144 164
94 144 164
94 144 164
94 144 164
94 144 164
94 144 164
94 144 164
94 144 164
94 144 164
94 144 164
94 144 164
94 144 164
94 144 164
94 144 164
94 144 164
94 144 164
94 144 164
94 144 164
94 144 164
94 144 164
94 144 164
94 144 164
94 144 164
94 144 164
94 144 164
94 144 164
94 144 164
94 144 164
94 144 164
94 144 164
94 144 164
94 144 164
94 144 164
94 144 164
94 144 164
94 144 164
94 144 164
94 144 164
94 144 164
94 144 164
94 144 164
94 144 164
94 144 164
94 144 164
94 144 164
94 144 164
94 144 164
94 144 164
94 144 164
94 144 164
94 144 164
94 144 164
94 144 164
94 144 164
94 144 164
94 144 164
94 144 164
94 144 164
94 144 164
94 144 164
94 144 164
94 144 164
94 144 164
94 144 164
94 144 164
94 144 164
94 144 164
94 144 164
94 144 164
94 144 164
94 144 164
94 144 164
94 144 164
94 144 164
94 144 164
94 144 164
94 144 164
94 144 164
94 144 164
94 144 164
94 144 164
94 144 164
94 144 164
94 144 164
94 144 164
94 144 164
94 144 164
94 144 164
94 144 164
94 144 164
94 144 164
94 144 164
94 144 164
94 144 164
94 144 164
94 144 164
94 144 164
94 144 164
94 144 164
94 144 164
94 144 164
94 144 164
94 144 164
94 144 164
94 144 164
94 144 164
94 144 164
94 144 164
94 144 164
94 144 164
94 144 164
94 144 164
94 144 164
94 144 164
94 144 164
94 144 164
94 144 164
94 144 164
94 144 164
94 144 164
94 144 164
94 144 164
94 144 164
94 144 164
94 144 164
94 144 164
94 144 164
94 144 164
94 144 164
94 144 164
94 144 164
94 144 164
94 144 164
94 144 164
94 144 164
94 144 164
94 144 164
94 144 164
94 144 164
94 144 164
94 144 164
94 144 164
94 144 164
94 144 164
94 144 164
94 144 164
94 144 164
94 144 164
94 144 164
94 144 164
94 144 164
94 144 164
94 144 164
94 144 164
94 144 164
94 144 164
94 144 164
94 144 164
94 144 164
94 144 164
94 144 164
94 144 164
94 144 164
94 144 164
94 144 164
94 144 164
94 144 164
94 144 164
94 144 164
94 144 164
94 144 164
94 144 164
94 144 164
94 144 164
94 144 164
94 144 164
94 144 164
94 144 164
94 144 164
94 144 164
94 144 164
94 144 164
94 144 164
94 144 164
94 144 164
94 144 164
94 144 164
94 144 164
94 144 164
94 144 164
94 144 164
94 144 164
94 144 164
94 144 164
94 144 164
94 144 164
94 144 164
94 144 164
94 144 164
94 144 164
94 144 164
94 144 164
94 144 164
94 144 164
94 144 164
94 144 164
94 144 164
94 144 164
94 144 164
94 144 164
94 144 164
94 144 164
94 144 164
94 144 164
94 144 164
94 144 164
94 144 164
94 144 164
94 144 164
94 144 164
94 144 164
94 144 164
94 144 164
94 144 164
94 144 164
94 144 164
94 144 164
94 144 164
94 144 164
94 144 164
94 144 164
94 144 164
94 144 164
94 144 164
94 144 164
94 144 164
94 144 164
94 144 164
94 144 164
94 144 164
94 144 164
94 144 164
94 144 164
94 144 164
94 144 164
94 144 164
94 144 164
94 144 164
94 144 164
94 144 164
94 144 164
94 144 164
94 144 164
94 144 164
94 144 164
94 144 164
94 144 164
94 144 164
94 144 164
94 144 164
94 144 164
94 144 164
94 144 164
94 144 164
94 144 164
94 144 164
94 144 164
94 144 164
94 144 164
94 144 164
94 144 164
94 144 164
94 144 164
94 144 164
94 144 164
94 144 164
94 144 164
94 144 164
94 144 164
94 144 164
94 144 164
94 144 164
94 144 164
94 144 164
94 144 164
94 144 164
94 144 164
94 144 164
94 144 164
94 144 164
94 144 164
94 144 164
94 144 164
94 144 164
94 144 164
94 144 164
94 144 164
94 144 164
94 144 164
94 144 164
94 144 164
94 144 164
94 144 164
94 144 164
94 144 164
94 144 164
94 144 164
94 144 164
94 144 164
94 144 164
94 144 164
94 144 164
94 144 164
94 144 164
94 144 164
94 144 164
94 144 164
94 144 164
94 144 164
94 144 164
94 144 164
94 144 164
94 144 164
94 144 164
94 144 164
94 144 164
94 144 164
94 144 164
94 144 164
94 144 164
94 144 164
94 144 164
94 144 164
94 144 164
94 144 164
94 144 164
94 144 164
94 144 164
94 144 164
94 144 164
94 144 164
94 144 164
94 144 164
94 144 164
94 144 164
94 144 164
94 144 164
94 144 164
94 144 164
94 144 164
94 144 164
94 144 164
94 144 164
94 144 164
94 144 164
94 144 164
94 144 164
94 144 164
94 144 164
94 144 164
94 144 164
94 144 164
94 144 164
94 144 164
94 144 164
94 144 164
94 144 164
94 144 164
94 144 164
94 144 164
94 144 164
94 144 164
94 144 164
94 144 164
94 144 164
94 144 164
94 144 164
94 144 164
94 144 164
94 144 164
94 144 164
94 144 164
94 144 164
94 144 164
94 144 164
94 144 164
94 144 164
94 144 164
94 144 164
94 144 164
94 144 164
94 144 164
94 144 164
94 144 164
94 144 164
94 144 164
94 144 164
94 144 164
94 144 164
94 144 164
94 144 164
94 144 164
94 144 164
94 144 164
94 144 164
94 144 164
94 144 164
94 144 164
94 144 164
94 144 164
94 144 164
94 144 164
94 144 164
94 144 164
94 144 164
94 144 164
94 144 164
94 144 164
94 144 164
94 144 164
94 144 164
94 144 164
94 144 164
94 144 164
94 144 164
94 144 164
94 144 164
94 144 164
94 144 164
94 144 164
94 144 164
94 144 164
94 144 164
94 144 164
94 144 164
94 144 164
94 144 164
94 144 164
94 144 164
94 144 164
94 144 164
94 144 164
94 144 164
94 144 164
94 144 164
94 144 164
94 144 164
94 144 164
94 144 164
94 144 164
94 144 164
94 144 164
94 144 164
94 144 164
94 144 164
94 144 164
94 144 164
94 144 164
94 144 164
94 144 164
94 144 164
94 144 164
94 144 164
94 144 164
94 144 164
94 144 164
94 144 164
94 144 164
94 144 164
94 144 164
94 144 164
94 144 164
94 144 164
94 144 164
94 144 164
94 144 164
94 144 164
94 144 164
94 144 164
94 144 164
94 144 164
94 144 164
94 144 164
94 144 164
94 144 164
94 144 164
94 144 164
94 144 164
94 144 164
94 144 164
94 144 164
94 144 164
94 144 164
94 144 164
94 144 164
94 144 164
94 144 164
94 144 164
94 144 164
94 144 164
94 144 164
94 144 164
94 144 164
94 144 164
94 144 164
94 144 164
94 144 164
94 144 164
94 144 164
94 144 164
94 144 164
94 144 164
94 144 164
94 144 164
94 144 164
94 144 164
94 144 164
94 144 164
94 144 164
94 144 164
94 144 164
94 144 164
94 144 164
94 144 164
94 144 164
94 144 164
94 144 164
94 144 164
94 144 164
94 144 164
94 144 164
94 144 164
94 144 164
94 144 164
94 144 164
94 144 164
94 144 164
94 144 164
94 144 164
94 144 164
94 144 164
94 144 164
94 144 164
94 144 164
94 144 164
94 144 164
94 144 164
94 144 164
94 144 164
94 144 164
94 144 164
94 144 164
94 144 164
94 144 164
94 144 164
94 144 164
94 144 164
94 144 164
94 144 164
94 144 164
94 144 164
94 144 164
94 144 164
94 144 164
94 144 164
94 144 164
94 144 164
94 144 164
94 144 164
94 144 164
94 144 164
94 144 164
94 144 164
94 144 164
94 144 164
94 144 164
94 144 164
94 144 164
94 144 164
94 144 164
94 144 164
94 144 164
94 144 164
94 144 164
94 144 164
94 144 164
94 144 164
94 144 164
94 144 164
94 144 164
94 144 164
94 144 164
94 144 164
94 144 164
94 144 164
94 144 164
94 144 164
94 144 164
94 144 164
94 144 164
94 144 164
94 144 164
94 144 164
94 144 164
94 144 164
94 144 164
94 144 164
94 144 164
94 144 164
94 144 164
94 144 164
94 144 164
94 144 164
94 144 164
94 144 164
94 144 164
94 144 164
94 144 164
94 144 164
94 144 164
94 144 164
94 144 164
94 144 164
94 144 164
94 144 164
94 144 164
94 144 164
94 144 164
94 144 164
94 144 164
94 144 164
94 144 164
94 144 164
94 144 164
94 144 164
94 144 164
94 144 164
94 144 164
94 144 164
94 144 164
94 144 164
94 144 164
94 144 164
94 144 164
94 144 164
94 144 164
94 144 164
94 144 164
94 144 164
94 144 164
94 144 164
94 144 164
94 144 164
94 144 164
94 144 164
94 144 164
94 144 164
94 144 164
94 144 164
94 144 164
94 144 164
94 144 164
94 144 164
94 144 164
94 144 164
94 144 164
94 144 164
94 144 164
94 144 164
94 144 164
94 144 164
94 144 164
94 144 164
94 144 164
94 144 164
94 144 164
94 144 164
94 144 164
94 144 164
94 144 164
94 144 164
94 144 164
94 144 164
94 144 164
94 144 164
94 144 164
94 144 164
94 144 164
94 144 164
94 144 164
94 144 164
94 144 164
94 144 164
94 144 164
94 144 164
94 144 164
94 144 164
94 144 164
94 144 164
94 144 164
94 144 164
94 144 164
94 144 164
94 144 164
94 144 164
94 144 164
94 144 164
94 144 164
94 144 164
94 144 164
94 144 164
94 144 164
94 144 164
94 144 164
94 144 164
94 144 164
94 144 164
94 144 164
94 144 164
94 144 164
94 144 164
94 144 164
94 144 164
94 144 164
94 144 164
94 144 164
94 144 164
94 144 164
94 144 164
94 144 164
94 144 164
94 144 164
94 144 164
94 144 164
94 144 164
94 144 164
94 144 164
94 144 164
94 144 164
94 144 164
94 144 164
94 144 164
94 144 164
94 144 164
94 144 164
94 144 164
94 144 164
94 144 164
94 144 164
94 144 164
94 144 164
94 144 164
94 144 164
94 144 164
94 144 164
94 144 164
94 144 164
94 144 164
94 144 164
94 144 164
94 144 164
94 144 164
94 144 164
94 144 164
94 144 164
94 144 164
94 144 164
94 144 164
94 144 164
94 144 164
94 144 164
94 144 164
94 144 164
94 144 164
94 144 164
94 144 164
94 144 164
94 144 164
94 144 164
94 144 164
94 144 164
94 144 164
94 144 164
94 144 164
94 144 164
94 144 164
94 144 164
94 144 164
94 144 164
94 144 164
94 144 164
94 144 164
94 144 164
94 144 164
94 144 164
94 144 164
94 144 164
94 144 164
94 144 164
94 144 164
94 144 164
94 144 164
94 144 164
94 144 164
94 144 164
94 144 164
94 144 164
94 144 164
94 144 164
94 144 164
94 144 164
94 144 164
94 144 164
94 144 164
94 144 164
94 144 164
94 144 164
94 144 164
94 144 164
94 144 164
94 144 164
94 144 164
94 144 164
94 144 164
94 144 164
94 144 164
94 144 164
94 144 164
94 144 164
94 144 164
94 144 164
94 144 164
94 144 164
94 144 164
94 144 164
94 144 164
94 144 164
94 144 164
94 144 164
94 144 164
94 144 164
94 144 164
94 144 164
94 144 164
94 144 164
94 144 164
94 144 164
94 144 164
94 144 164
94 144 164
94 144 164
94 144 164
94 144 164
94 144 164
94 144 164
94 144 164
94 144 164
94 144 164
94 144 164
94 144 164
94 144 164
94 144 164
94 144 164
94 144 164
94 144 164
94 144 164
94 144 164
94 144 164
94 144 164
94 144 164
94 144 164
94 144 164
94 144 164
94 144 164
94 144 164
94 144 164
94 144 164
94 144 164
94 144 164
94 144 164
94 144 164
94 144 164
94 144 164
94 144 164
94 144 164
94 144 164
94 144 164
94 144 164
94 144 164
94 144 164
94 144 164
94 144 164
94 144 164
94 144 164
94 144 164
94 144 164
94 144 164
94 144 164
94 144 164
94 144 164
94 144 164
94 144 164
94 144 164
94 144 164
94 144 164
94 144 164
94 144 164
94 144 164
94 144 164
94 144 164
94 144 164
94 144 164
94 144 164
94 144 164
94 144 164
94 144 164
94 144 164
94 144 164
94 144 164
94 144 164
94 144 164
94 144 164
94 144 164
94 144 164
94 144 164
94 144 164
94 144 164
94 144 164
94 144 164
94 144 164
94 144 164
94 144 164
94 144 164
94 144 164
94 144 164
94 144 164
94 144 164
94 144 164
94 144 164
94 144 164
94 144 164
94 144 164
94 144 164
94 144 164
94 144 164
94 144 164
94 144 164
94 144 164
94 144 164
94 144 164
94 144 164
94 144 164
94 144 164
94 144 164
94 144 164
94 144 164
94 144 164
94 144 164
94 144 164
94 144 164
94 144 164
94 144 164
94 144 164
94 144 164
94 144 164
94 144 164
94 144 164
94 144 164
94 144 164
94 144 164
94 144 164
94 144 164
94 144 164
94 144 164
94 144 164
94 144 164
94 144 164
94 144 164
94 144 164
94 144 164
94 144 164
94 144 164
94 144 164
94 144 164
94 144 164
94 144 164
94 144 164
94 144 164
94 144 164
94 144 164
94 144 164
94 144 164
94 144 164
94 144 164
94 144 164
94 144 164
94 144 164
94 144 164
94 144 164
94 144 164
94 144 164
94 144 164
94 144 164
94 144 164
94 144 164
94 144 164
94 144 164
94 144 164
94 144 164
94 144 164
94 144 164
94 144 164
94 144 164
94 144 164
94 144 164
94 144 164
94 144 164
94 144 164
94 144 164
94 144 164
94 144 164
94 144 164
94 144 164
94 144 164
94 144 164
94 144 164
94 144 164
94 144 164
94 144 164
94 144 164
94 144 164
94 144 164
94 144 164
94 144 164
94 144 164
94 144 164
94 144 164
94 144 164
94 144 164
94 144 164
94 144 164
94 144 164
94 144 164
94 144 164
94 144 164
94 144 164
94 144 164
94 144 164
94 144 164
94 144 164
94 144 164
94 144 164
94 144 164
94 144 164
94 144 164
94 144 164
94 144 164
94 144 164
94 144 164
94 144 164
94 144 164
94 144 164
94 144 164
94 144 164
94 144 164
94 144 164
94 144 164
94 144 164
94 144 164
94 144 164
94 144 164
94 144 164
94 144 164
94 144 164
94 144 164
94 144 164
94 144 164
94 144 164
94 144 164
94 144 164
94 144 164
94 144 164
94 144 164
94 144 164
94 144 164
94 144 164
94 144 164
94 144 164
94 144 164
94 144 164
94 144 164
94 144 164
94 144 164
94 144 164
94 144 164
94 144 164
94 144 164
94 144 164
94 144 164
94 144 164
94 144 164
94 144 164
94 144 164
94 144 164
94 144 164
94 144 164
94 144 164
94 144 164
94 144 164
94 144 164
94 144 164
94 144 164
94 144 164
94 144 164
94 144 164
94 144 164
94 144 164
94 144 164
94 144 164
94 144 164
94 144 164
94 144 164
94 144 164
94 144 164
94 144 164
94 144 164
94 144 164
94 144 164
94 144 164
94 144 164
94 144 164
94 144 164
94 144 164
94 144 164
94 144 164
94 144 164
94 144 164
94 144 164
94 144 164
94 144 164
94 144 164
94 144 164
94 144 164
94 144 164
94 144 164
94 144 164
94 144 164
94 144 164
94 144 164
94 144 164
94 144 164
94 144 164
94 144 164
94 144 164
94 144 164
94 144 164
94 144 164
94 144 164
94 144 164
94 144 164
94 144 164
94 144 164
94 144 164
94 144 164
94 144 164
94 144 164
94 144 164
94 144 164
94 144 164
94 144 164
94 144 164
94 144 164
94 144 164
94 144 164
94 144 164
94 144 164
94 144 164
94 144 164
94 144 164
94 144 164
94 144 164
94 144 164
94 144 164
94 144 164
94 144 164
94 144 164
94 144 164
94 144 164
94 144 164
94 144 164
94 144 164
94 144 164
94 144 164
94 144 164
94 144 164
94 144 164
94 144 164
94 144 164
94 144 164
94 144 164
94 144 164
94 144 164
94 144 164
94 144 164
94 144 164
94 144 164
94 144 164
94 144 164
94 144 164
94 144 164
94 144 164
94 144 164
94 144 164
94 144 164
94 144 164
94 144 164
94 144 164
94 144 164
94 144 164
94 144 164
94 144 164
94 144 164
94 144 164
94 144 164
94 144 164
94 144 164
94 144 164
94 144 164
94 144 164
94 144 164
94 144 164
94 144 164
94 144 164
94 144 164
94 144 164
94 144 164
94 144 164
94 144 164
94 144 164
94 144 164
94 144 164
94 144 164
94 144 164
94 144 164
94 144 164
94 144 164
94 144 164
94 144 164
94 144 164
94 144 164
94 144 164
94 144 164
94 144 164
94 144 164
94 144 164
94 144 164
94 144 164
94 144 164
94 144 164
94 144 164
94 144 164
94 144 164
94 144 164
94 144 164
94 144 164
94 144 164
94 144 164
94 144 164
94 144 164
94 144 164
94 144 164
94 144 164
94 144 164
94 144 164
94 144 164
94 144 164
94 144 164
94 144 164
94 144 164
94 144 164
94 144 164
94 144 164
94 144 164
94 144 164
94 144 164
94 144 164
94 144 164
94 144 164
94 144 164
94 144 164
94 144 164
94 144 164
94 144 164
94 144 164
94 144 164
94 144 164
94 144 164
94 144 164
94 144 164
94 144 164
94 144 164
94 144 164
94 144 164
94 144 164
94 144 164
94 144 164
94 144 164
94 144 164
94 144 164
94 144 164
94 144 164
94 144 164
94 144 164
94 144 164
94 144 164
94 144 164
94 144 164
94 144 164
94 144 164
94 144 164
94 144 164
94 144 164
94 144 164
94 144 164
94 144 164
94 144 164
94 144 164
94 144 164
94 144 164
94 144 164
94 144 164
94 144 164
94 144 164
94 144 164
94 144 164
94 144 164
94 144 164
94 144 164
94 144 164
94 144 164
94 144 164
94 144 164
94 144 164
94 144 164
94 144 164
94 144 164
94 144 164
94 144 164
94 144 164
94 144 164
94 144 164
94 144 164
94 144 164
94 144 164
94 144 164
94 144 164
94 144 164
94 144 164
94 144 164
94 144 164
94 144 164
94 144 164
94 144 164
94 144 164
94 144 164
94 144 164
94 144 164
94 144 164
94 144 164
94 144 164
94 144 164
94 144 164
94 144 164
94 144 164
94 144 164
94 144 164
94 144 164
94 144 164
94 144 164
94 144 164
94 144 164
94 144 164
94 144 164
94 144 164
94 144 164
94 144 164
94 144 164
94 144 164
94 144 164
94 144 164
94 144 164
94 144 164
94 144 164
94 144 164
94 144 164
94 144 164
94 144 164
94 144 164
94 144 164
94 144 164
94 144 164
94 144 164
94 144 164
94 144 164
94 144 164
94 144 164
94 144 164
94 144 164
94 144 164
94 144 164
94 144 164
94 144 164
94 144 164
94 144 164
94 144 164
94 144 164
94 144 164
94 144 164
94 144 164
94 144 164
94 144 164
94 144 164
94 144 164
94 144 164
94 144 164
94 144 164
94 144 164
94 144 164
94 144 164
94 144 164
94 144 164
94 144 164
94 144 164
94 144 164
94 144 164
94 144 164
94 144 164
94 144 164
94 144 164
94 144 164
94 144 164
94 144 164
94 144 164
94 144 164
94 144 164
94 144 164
94 144 164
94 144 164
94 144 164
94 144 164
94 144 164
94 144 164
94 144 164
94 144 164
94 144 164
94 144 164
94 144 164
94 144 164
94 144 164
94 144 164
94 144 164
94 144 164
94 144 164
94 144 164
94 144 164
94 144 164
94 144 164
94 144 164
94 144 164
94 144 164
94 144 164
94 144 164
94 144 164
94 144 164
94 144 164
94 144 164
94 144 164
94 144 164
94 144 164
94 144 164
94 144 164
94 144 164
94 144 164
94 144 164
94 144 164
94 144 164
94 144 164
94 144 164
94 144 164
94 144 164
94 144 164
94 144 164
94 144 164
94 144 164
94 144 164
94 144 164
94 144 164
94 144 164
94 144 164
94 144 164
94 144 164
94 144 164
94 144 164
94 144 164
94 144 164
94 144 164
94 144 164
94 144 164
94 144 164
94 144 164
94 144 164
94 144 164
94 144 164
94 144 164
94 144 164
94 144 164
94 144 164
94 144 164
94 144 164
94 144 164
94 144 164
94 144 164
94 144 164
94 144 164
94 144 164
94 144 164
94 144 164
94 144 164
94 144 164
94 144 164
94 144 164
94 144 164
94 144 164
94 144 164
94 144 164
94 144 164
94 144 164
94 144 164
94 144 164
94 144 164
94 144 164
94 144 164
94 144 164
94 144 164
94 144 164
94 144 164
94 144 164
94 144 164
94 144 164
94 144 164
94 144 164
94 144 164
94 144 164
94 144 164
94 144 164
94 144 164
94 144 164
94 144 164
94 144 164
94 144 164
94 144 164
94 144 164
94 144 164
94 144 164
94 144 164
94 144 164
94 144 164
94 144 164
94 144 164
94 144 164
94 144 164
94 144 164
94 144 164
94 144 164
94 144 164
94 144 164
94 144 164
94 144 164
94 144 164
94 144 164
94 144 164
94 144 164
94 144 164
94 144 164
94 144 164
94 144 164
94 144 164
94 144 164
94 144 164
94 144 164
94 144 164
94 144 164
94 144 164
94 144 164
94 144 164
94 144 164
94 144 164
94 144 164
94 144 164
94 144 164
94 144 164
94 144 164
94 144 164
94 144 164
94 144 164
94 144 164
94 144 164
94 144 164
94 144 164
94 144 164
94 144 164
94 144 164
94 144 164
94 144 164
94 144 164
94 144 164
94 144 164
94 144 164
94 144 164
94 144 164
94 144 164
94 144 164
94 144 164
94 144 164
94 144 164
94 144 164
94 144 164
94 144 164
94 144 164
94 144 164
94 144 164
94 144 164
94 144 164
94 144 164
94 144 164
94 144 164
94 144 164
94 144 164
94 144 164
94 144 164
94 144 164
94 144 164
94 144 164
94 144 164
94 144 164
94 144 164
94 144 164
94 144 164
94 144 164
94 144 164
94 144 164
94 144 164
94 144 164
94 144 164
94 144 164
94 144 164
94 144 164
94 144 164
94 144 164
94 144 164
94 144 164
94 144 164
94 144 164
94 144 164
94 144 164
94 144 164
94 144 164
94 144 164
94 144 164
94 144 164
94 144 164
94 144 164
94 144 164
94 144 164
94 144 164
94 144 164
94 144 164
94 144 164
94 144 164
94 144 164
94 144 164
94 144 164
94 144 164
94 144 164
94 144 164
94 144 164
94 144 164
94 144 164
94 144 164
94 144 164
94 144 164
94 144 164
94 144 164
94 144 164
94 144 164
94 144 164
94 144 164
94 144 164
94 144 164
94 144 164
94 144 164
94 144 164
94 144 164
94 144 164
94 144 164
94 144 164
94 144 164
94 144 164
94 144 164
94 144 164
94 144 164
94 144 164
94 144 164
94 144 164
94 144 164
94 144 164
94 144 164
94 144 164
94 144 164
94 144 164
94 144 164
94 144 164
94 144 164
94 144 164
94 144 164
94 144 164
94 144 164
94 144 164
94 144 164
94 144 164
94 144 164
94 144 164
94 144 164
94 144 164
94 144 164
94 144 164
94 144 164
94 144 164
94 144 164
94 144 164
94 144 164
94 144 164
94 144 164
94 144 164
94 144 164
94 144 164
94 144 164
94 144 164
94 144 164
94 144 164
94 144 164
94 144 164
94 144 164
94 144 164
94 144 164
94 144 164
94 144 164
94 144 164
94 144 164
94 144 164
94 144 164
94 144 164
94 144 164
94 144 164
94 144 164
94 144 164
94 144 164
94 144 164
94 144 164
94 144 164
94 144 164
94 144 164
94 144 164
94 144 164
94 144 164
94 144 164
94 144 164
94 144 164
94 144 164
94 144 164
94 144 164
94 144 164
94 144 164
94 144 164
94 144 164
94 144 164
94 144 164
94 144 164
94 144 164
94 144 164
94 144 164
94 144 164
94 144 164
94 144 164
94 144 164
94 144 164
94 144 164
94 144 164
94 144 164
94 144 164
94 144 164
94 144 164
94 144 164
94 144 164
94 144 164
94 144 164
94 144 164
94 144 164
94 144 164
94 144 164
94 144 164
94 144 164
94 144 164
94 144 164
94 144 164
94 144 164
94 144 164
94 144 164
94 144 164
94 144 164
94 144 164
94 144 164
94 144 164
94 144 164
94 144 164
94 144 164
94 144 164
94 144 164
94 144 164
94 144 164
94 144 164
94 144 164
94 144 164
94 144 164
94 144 164
94 144 164
94 144 164
94 144 164
94 144 164
94 144 164
94 144 164
94 144 164
94 144 164
94 144 164
94 144 164
94 144 164
94 144 164
94 144 164
94 144 164
94 144 164
94 144 164
94 144 164
94 144 164
94 144 164
94 144 164
94 144 164
94 144 164
94 144 164
94 144 164
94 144 164
94 144 164
94 144 164
94 144 164
94 144 164
94 144 164
94 144 164
94 144 164
94 144 164
94 144 164
94 144 164
94 144 164
94 144 164
94 144 164
94 144 164
94 144 164
94 144 164
94 144 164
94 144 164
94 144 164
94 144 164
94 144 164
94 144 164
94 144 164
94 144 164
94 144 164
94 144 164
94 144 164
94 144 164
94 144 164
94 144 164
94 144 164
94 144 164
94 144 164
94 144 164
94 144 164
94 144 164
94 144 164
94 144 164
94 144 164
94 144 164
94 144 164
94 144 164
94 144 164
94 144 164
94 144 164
94 144 164
94 144 164
94 144 164
94 144 164
94 144 164
94 144 164
94 144 164
94 144 164
94 144 164
94 144 164
94 144 164
94 144 164
94 144 164
94 144 164
94 144 164
94 144 164
94 144 164
94 144 164
94 144 164
94 144 164
94 144 164
94 144 164
94 144 164
94 144 164
94 144 164
94 144 164
94 144 164
94 144 164
94 144 164
94 144 164
94 144 164
94 144 164
94 144 164
94 144 164
94 144 164
94 144 164
94 144 164
94 144 164
94 144 164
94 144 164
94 144 164
94 144 164
94 144 164
94 144 164
94 144 164
94 144 164
94 144 164
94 144 164
94 144 164
94 144 164
94 144 164
94 144 164
94 144 164
94 144 164
94 144 164
94 144 164
94 144 164
94 144 164
94 144 164
94 144 164
94 144 164
94 144 164
94 144 164
94 144 164
94 144 164
94 144 164
94 144 164
94 144 164
94 144 164
94 144 164
94 144 164
94 144 164
94 144 164
94 144 164
94 144 164
94 144 164
94 144 164
94 144 164
94 144 164
94 144 164
94 144 164
94 144 164
94 144 164
94 144 164
94 144 164
94 144 164
94 144 164
94 144 164
94 144 164
94 144 164
94 144 164
94 144 164
94 144 164
94 144 164
94 144 164
94 144 164
94 144 164
94 144 164
94 144 164
94 144 164
94 144 164
94 144 164
94 144 164
94 144 164
94 144 164
94 144 164
94 144 164
94 144 164
94 144 164
94 144 164
94 144 164
94 144 164
94 144 164
94 144 164
94 144 164
94 144 164
94 144 164
94 144 164
94 144 164
94 144 164
94 144 164
94 144 164
94 144 164
94 144 164
94 144 164
94 144 164
94 144 164
94 144 164
94 144 164
94 144 164
94 144 164
94 144 164
94 144 164
94 144 164
94 144 164
94 144 164
94 144 164
94 144 164
94 144 164
94 144 164
94 144 164
94 144 164
94 144 164
94 144 164
94 144 164
94 144 164
94 144 164
94 144 164
94 144 164
94 144 164
94 144 164
94 144 164
94 144 164
94 144 164
94 144 164
94 144 164
94 144 164
94 144 164
94 144 164
94 144 164
94 144 164
94 144 164
94 144 164
94 144 164
94 144 164
94 144 164
94 144 164
94 144 164
94 144 164
94 144 164
94 144 164
94 144 164
94 144 164
94 144 164
94 144 164
94 144 164
94 144 164
94 144 164
94 144 164
94 144 164
94 144 164
94 144 164
94 144 164
94 144 164
94 144 164
94 144 164
94 144 164
94 144 164
94 144 164
94 144 164
94 144 164
94 144 164
94 144 164
94 144 164
94 144 164
94 144 164
94 144 164
94 144 164
94 144 164
94 144 164
94 144 164
94 144 164
94 144 164
94 144 164
94 144 164
94 144 164
94 144 164
94 144 164
94 144 164
94 144 164
94 144 164
94 144 164
94 144 164
94 144 164
94 144 164
94 144 164
94 144 164
94 144 164
94 144 164
94 144 164
94 144 164
94 144 164
94 144 164
94 144 164
94 144 164
94 144 164
94 144 164
94 144 164
94 144 164
94 144 164
94 144 164
94 144 164
94 144 164
94 144 164
94 144 164
94 144 164
94 144 164
94 144 164
94 144 164
94 144 164
94 144 164
94 144 164
94 144 164
94 144 164
94 144 164
94 144 164
94 144 164
94 144 164
94 144 164
94 144 164
94 144 164
94 144 164
94 144 164
94 144 164
94 144 164
94 144 164
94 144 164
94 144 164
94 144 164
94 144 164
94 144 164
94 144 164
94 144 164
94 144 164
94 144 164
94 144 164
94 144 164
94 144 164
94 144 164
94 144 164
94 144 164
94 144 164
94 144 164
94 144 164
94 144 164
94 144 164
94 144 164
94 144 164
94 144 164
94 144 164
94 144 164
94 144 164
94 144 164
94 144 164
94 144 164
94 144 164
94 144 164
94 144 164
94 144 164
94 144 164
94 144 164
94 144 164
94 144 164
94 144 164
94 144 164
94 144 164
94 144 164
94 144 164
94 144 164
94 144 164
94 144 164
94 144 164
94 144 164
94 144 164
94 144 164
94 144 164
94 144 164
94 144 164
94 144 164
94 144 164
94 144 164
94 144 164
94 144 164
94 144 164
94 144 164
94 144 164
94 144 164
94 144 164
94 144 164
94 144 164
94 144 164
94 144 164
94 144 164
94 144 164
94 144 164
94 144 164
94 144 164
94 144 164
94 144 164
94 144 164
94 144 164
94 144 164
94 144 164
94 144 164
94 144 164
94 144 164
94 144 164
94 144 164
94 144 164
94 144 164
94 144 164
94 144 164
94 144 164
94 144 164
94 144 164
94 144 164
94 144 164
94 144 164
94 144 164
94 144 164
94 144 164
94 144 164
94 144 164
94 144 164
94 144 164
94 144 164
94 144 164
94 144 164
94 144 164
94 144 164
94 144 164
94 144 164
94 144 164
94 144 164
94 144 164
94 144 164
94 144 164
94 144 164
94 144 164
94 144 164
94 144 164
94 144 164
94 144 164
94 144 164
94 144 164
94 144 164
94 144 164
94 144 164
94 144 164
94 144 164
94 144 164
94 144 164
94 144 164
94 144 164
94 144 164
94 144 164
94 144 164
94 144 164
94 144 164
94 144 164
94 144 164
94 144 164
94 144 164
94 144 164
94 144 164
94 144 164
94 144 164
94 144 164
94 144 164
94 144 164
94 144 164
94 144 164
94 144 164
94 144 164
94 144 164
94 144 164
94 144 164
94 144 164
94 144 164
94 144 164
94 144 164
94 144 164
94 144 164
94 144 164
94 144 164
94 144 164
94 144 164
94 144 164
94 144 164
94 144 164
94 144 164
94 144 164
94 144 164
94 144 164
94 144 164
94 144 164
94 144 164
94 144 164
94 144 164
94 144 164
94 144 164
94 144 164
94 144 164
94 144 164
94 144 164
94 144 164
94 144 164
94 144 164
94 144 164
94 144 164
94 144 164
94 144 164
94 144 164
94 144 164
94 144 164
94 144 164
94 144 164
94 144 164
94 144 164
94 144 164
94 144 164
94 144 164
94 144 164
94 144 164
94 144 164
94 144 164
94 144 164
94 144 164
94 144 164
94 144 164
94 144 164
94 144 164
94 144 164
94 144 164
94 144 164
94 144 164
94 144 164
94 144 164
94 144 164
94 144 164
94 144 164
94 144 164
94 144 164
94 144 164
94 144 164
94 144 164
94 144 164
94 144 164
94 144 164
94 144 164
94 144 164
94 144 164
94 144 164
94 144 164
94 144 164
94 144 164
94 144 164
94 144 164
94 144 164
94 144 164
94 144 164
94 144 164
94 144 164
94 144 164
94 144 164
94 144 164
94 144 164
94 144 164
94 144 164
94 144 164
94 144 164
94 144 164
94 144 164
94 144 164
94 144 164
94 144 164
94 144 164
94 144 164
94 144 164
94 144 164
94 144 164
94 144 164
94 144 164
94 144 164
94 144 164
94 144 164
94 144 164
94 144 164
94 144 164
94 144 164
94 144 164
94 144 164
94 144 164
94 144 164
94 144 164
94 144 164
94 144 164
94 144 164
94 144 164
94 144 164
94 144 164
94 144 164
94 144 164
94 144 164
94 144 164
94 144 164
94 144 164
94 144 164
94 144 164
94 144 164
94 144 164
94 144 164
94 144 164
94 144 164
94 144 164
94 144 164
94 144 164
94 144 164
94 144 164
94 144 164
94 144 164
94 144 164
94 144 164
94 144 164
94 144 164
94 144 164
94 144 164
94 144 164
94 144 164
94 144 164
94 144 164
94 144 164
94 144 164
94 144 164
94 144 164
94 144 164
94 144 164
94 144 164
94 144 164
94 144 164
94 144 164
94 144 164
94 144 164
94 144 164
94 144 164
94 144 164
94 144 164
94 144 164
94 144 164
94 144 164
94 144 164
94 144 164
94 144 164
94 144 164
94 144 164
94 144 164
94 144 164
94 144 164
94 144 164
94 144 164
94 144 164
94 144 164
94 144 164
94 144 164
94 144 164
94 144 164
94 144 164
94 144 164
94 144 164
94 144 164
94 144 164
94 144 164
94 144 164
94 144 164
94 144 164
94 144 164
94 144 164
94 144 164
94 144 164
94 144 164
94 144 164
94 144 164
94 144 164
94 144 164
94 144 164
94 144 164
94 144 164
94 144 164
94 144 164
94 144 164
94 144 164
94 144 164
94 144 164
94 144 164
94 144 164
94 144 164
94 144 164
94 144 164
94 144 164
94 144 164
94 144 164
94 144 164
94 144 164
94 144 164
94 144 164
94 144 164
94 144 164
94 144 164
94 144 164
94 144 164
94 144 164
94 144 164
94 144 164
94 144 164
94 144 164
94 144 164
94 144 164
94 144 164
94 144 164
94 144 164
94 144 164
94 144 164
94 144 164
94 144 164
94 144 164
94 144 164
94 144 164
94 144 164
94 144 164
94 144 164
94 144 164
94 144 164
94 144 164
94 144 164
94 144 164
94 144 164
94 144 164
94 144 164
94 144 164
94 144 164
94 144 164
94 144 164
94 144 164
94 144 164
94 144 164
94 144 164
94 144 164
94 144 164
94 144 164
94 144 164
94 144 164
94 144 164
94 144 164
94 144 164
94 144 164
94 144 164
94 144 164
94 144 164
94 144 164
94 144 164
94 144 164
94 144 164
94 144 164
94 144 164
94 144 164
94 144 164
94 144 164
94 144 164
94 144 164
94 144 164
94 144 164
94 144 164
94 144 164
94 144 164
94 144 164
94 144 164
94 144 164
94 144 164
94 144 164
94 144 164
94 144 164
94 144 164
94 144 164
94 144 164
94 144 164
94 144 164
94 144 164
94 144 164
94 144 164
94 144 164
94 144 164
94 144 164
94 144 164
94 144 164
94 144 164
94 144 164
94 144 164
94 144 164
94 144 164
94 144 164
94 144 164
94 144 164
94 144 164
94 144 164
94 144 164
94 144 164
94 144 164
94 144 164
94 144 164
94 144 164
94 144 164
94 144 164
94 144 164
94 144 164
94 144 164
94 144 164
94 144 164
94 144 164
94 144 164
94 144 164
94 144 164
94 144 164
94 144 164
94 144 164
94 144 164
94 144 164
94 144 164
94 144 164
94 144 164
94 144 164
94 144 164
94 144 164
94 144 164
94 144 164
94 144 164
94 144 164
94 144 164
94 144 164
94 144 164
94 144 164
94 144 164
94 144 164
94 144 164
94 144 164
94 144 164
94 144 164
94 144 164
94 144 164
94 144 164
94 144 164
94 144 164
94 144 164
94 144 164
94 144 164
94 144 164
94 144 164
94 144 164
94 144 164
94 144 164
94 144 164
94 144 164
94 144 164
94 144 164
94 144 164
94 144 164
94 144 164
94 144 164
94 144 164
94 144 164
94 144 164
94 144 164
94 144 164
94 144 164
94 144 164
94 144 164
94 144 164
94 144 164
94 144 164
94 144 164
94 144 164
94 144 164
94 144 164
94 144 164
94 144 164
94 144 164
94 144 164
94 144 164
94 144 164
94 144 164
94 144 164
94 144 164
94 144 164
94 144 164
94 144 164
94 144 164
94 144 164
94 144 164
94 144 164
94 144 164
94 144 164
94 144 164
94 144 164
94 144 164
94 144 164
94 144 164
94 144 164
94 144 164
94 144 164
94 144 164
94 144 164
94 144 164
94 144 164
94 144 164
94 144 164
94 144 164
94 144 164
94 144 164
94 144 164
94 144 164
94 144 164
94 144 164
94 144 164
94 144 164
94 144 164
94 144 164
94 144 164
94 144 164
94 144 164
94 144 164
94 144 164
94 144 164
94 144 164
94 144 164
94 144 164
94 144 164
94 144 164
94 144 164
94 144 164
94 144 164
94 144 164
94 144 164
94 144 164
94 144 164
94 144 164
94 144 164
94 144 164
94 144 164
94 144 164
94 144 164
94 144 164
94 144 164
94 144 164
94 144 164
94 144 164
94 144 164
94 144 164
94 144 164
94 144 164
94 144 164
94 144 164
94 144 164
94 144 164
94 144 164
94 144 164
94 144 164
94 144 164
94 144 164
94 144 164
94 144 164
94 144 164
94 144 164
94 144 164
94 144 164
94 144 164
94 144 164
94 144 164
94 144 164
94 144 164
94 144 164
94 144 164
94 144 164
94 144 164
94 144 164
94 144 164
94 144 164
94 144 164
94 144 164
94 144 164
94 144 164
94 144 164
94 144 164
94 144 164
94 144 164
94 144 164
94 144 164
94 144 164
94 144 164
94 144 164
94 144 164
94 144 164
94 144 164
94 144 164
94 144 164
94 144 164
94 144 164
94 144 164
94 144 164
94 144 164
94 144 164
94 144 164
94 144 164
94 144 164
94 144 164
94 144 164
94 144 164
94 144 164
94 144 164
94 144 164
94 144 164
94 144 164
94 144 164
94 144 164
94 144 164
94 144 164
94 144 164
94 144 164
94 144 164
94 144 164
94 144 164
94 144 164
94 144 164
94 144 164
94 144 164
94 144 164
94 144 164
94 144 164
94 144 164
94 144 164
94 144 164
94 144 164
94 144 164
94 144 164
94 144 164
94 144 164
94 144 164
94 144 164
94 144 164
94 144 164
94 144 164
94 144 164
94 144 164
94 144 164
94 144 164
94 144 164
94 144 164
94 144 164
94 144 164
94 144 164
94 144 164
94 144 164
94 144 164
94 144 164
94 144 164
94 144 164
94 144 164
94 144 164
94 144 164
94 144 164
94 144 164
94 144 164
94 144 164
94 144 164
94 144 164
94 144 164
94 144 164
94 144 164
94 144 164
94 144 164
94 144 164
94 144 164
94 144 164
94 144 164
94 144 164
94 144 164
94 144 164
94 144 164
94 144 164
94 144 164
94 144 164
94 144 164
94 144 164
94 144 164
94 144 164
94 144 164
94 144 164
94 144 164
94 144 164
94 144 164
94 144 164
94 144 164
94 144 164
94 144 164
94 144 164
94 144 164
94 144 164
94 144 164
94 144 164
94 144 164
94 144 164
94 144 164
94 144 164
94 144 164
94 144 164
94 144 164
94 144 164
94 144 164
94 144 164
94 144 164
94 144 164
94 144 164
94 144 164
94 144 164
94 144 164
94 144 164
94 144 164
94 144 164
94 144 164
94 144 164
94 144 164
94 144 164
94 144 164
94 144 164
94 144 164
94 144 164
94 144 164
94 144 164
94 144 164
94 144 164
94 144 164
94 144 164
94 144 164
94 144 164
94 144 164
94 144 164
94 144 164
94 144 164
94 144 164
94 144 164
94 144 164
94 144 164
94 144 164
94 144 164
94 144 164
94 144 164
94 144 164
94 144 164
94 144 164
94 144 164
94 144 164
94 144 164
94 144 164
94 144 164
94 144 164
94 144 164
94 144 164
94 144 164
94 144 164
94 144 164
94 144 164
94 144 164
94 144 164
94 144 164
94 144 164
94 144 164
94 144 164
94 144 164
94 144 164
94 144 164
94 144 164
94 144 164
94 144 164
94 144 164
94 144 164
94 144 164
94 144 164
94 144 164
94 144 164
94 144 164
94 144 164
94 144 164
94 144 164
94 144 164
94 144 164
94 144 164
94 144 164
94 144 164
94 144 164
94 144 164
94 144 164
94 144 164
94 144 164
94 144 164
94 144 164
94 144 164
94 144 164
94 144 164
94 144 164
94 144 164
94 144 164
94 144 164
94 144 164
94 144 164
94 144 164
94 144 164
94 144 164
94 144 164
94 144 164
94 144 164
94 144 164
94 144 164
94 144 164
94 144 164
94 144 164
94 144 164
94 144 164
94 144 164
94 144 164
94 144 164
94 144 164
94 144 164
94 144 164
94 144 164
94 144 164
94 144 164
94 144 164
94 144 164
94 144 164
94 144 164
94 144 164
94 144 164
94 144 164
94 144 164
94 144 164
94 144 164
94 144 164
94 144 164
94 144 164
94 144 164
94 144 164
94 144 164
94 144 164
94 144 164
94 144 164
94 144 164
94 144 164
94 144 164
94 144 164
94 144 164
94 144 164
94 144 164
94 144 164
94 144 164
94 144 164
94 144 164
94 144 164
94 144 164
94 144 164
94 144 164
94 144 164
94 144 164
94 144 164
94 144 164
94 144 164
94 144 164
94 144 164
94 144 164
94 144 164
94 144 164
94 144 164
94 144 164
94 144 164
94 144 164
94 144 164
94 144 164
94 144 164
94 144 164
94 144 164
94 144 164
94 144 164
94 144 164
94 144 164
94 144 164
94 144 164
94 144 164
94 144 164
94 144 164
94 144 164
94 144 164
94 144 164
94 144 164
94 144 164
94 144 164
94 144 164
94 144 164
94 144 164
94 144 164
94 144 164
94 144 164
94 144 164
94 144 164
94 144 164
94 144 164
94 144 164
94 144 164
94 144 164
94 144 164
94 144 164
94 144 164
94 144 164
94 144 164
94 144 164
94 144 164
94 144 164
94 144 164
94 144 164
94 144 164
94 144 164
94 144 164
94 144 164
94 144 164
94 144 164
94 144 164
94 144 164
94 144 164
94 144 164
94 144 164
94 144 164
94 144 164
94 144 164
94 144 164
94 144 164
94 144 164
94 144 164
94 144 164
94 144 164
94 144 164
94 144 164
94 144 164
94 144 164
94 144 164
94 144 164
94 144 164
94 144 164
94 144 164
94 144 164
94 144 164
94 144 164
94 144 164
94 144 164
94 144 164
94 144 164
94 144 164
94 144 164
94 144 164
94 144 164
94 144 164
94 144 164
94 144 164
94 144 164
94 144 164
94 144 164
94 144 164
94 144 164
94 144 164
94 144 164
94 144 164
94 144 164
94 144 164
94 144 164
94 144 164
94 144 164
94 144 164
94 144 164
94 144 164
94 144 164
94 144 164
94 144 164
94 144 164
94 144 164
94 144 164
94 144 164
94 144 164
94 144 164
94 144 164
94 144 164
94 144 164
94 144 164
94 144 164
94 144 164
94 144 164
94 144 164
94 144 164
94 144 164
94 144 164
94 144 164
94 144 164
94 144 164
94 144 164
94 144 164
94 144 164
94 144 164
94 144 164
94 144 164
94 144 164
94 144 164
94 144 164
94 144 164
94 144 164
94 144 164
94 144 164
94 144 164
94 144 164
94 144 164
94 144 164
94 144 164
94 144 164
94 144 164
94 144 164
94 144 164
94 144 164
94 144 164
94 144 164
94 144 164
94 144 164
94 144 164
94 144 164
94 144 164
94 144 164
94 144 164
94 144 164
94 144 164
94 144 164
94 144 164
94 144 164
94 144 164
94 144 164
94 144 164
94 144 164
94 144 164
94 144 164
94 144 164
94 144 164
94 144 164
94 144 164
94 144 164
94 144 164
94 144 164
94 144 164
94 144 164
94 144 164
94 144 164
94 144 164
94 144 164
94 144 164
94 144 164
94 144 164
94 144 164
94 144 164
94 144 164
94 144 164
94 144 164
94 144 164
94 144 164
94 144 164
94 144 164
94 144 164
94 144 164
94 144 164
94 144 164
94 144 164
94 144 164
94 144 164
94 144 164
94 144 164
94 144 164
94 144 164
94 144 164
94 144 164
94 144 164
94 144 164
94 144 164
94 144 164
94 144 164
94 144 164
94 144 164
94 144 164
94 144 164
94 144 164
94 144 164
94 144 164
94 144 164
94 144 164
94 144 164
94 144 164
94 144 164
94 144 164
94 144 164
94 144 164
94 144 164
94 144 164
94 144 164
94 144 164
94 144 164
94 144 164
94 144 164
94 144 164
94 144 164
94 144 164
94 144 164
94 144 164
94 144 164
94 144 164
94 144 164
94 144 164
94 144 164
94 144 164
94 144 164
94 144 164
94 144 164
94 144 164
94 144 164
94 144 164
94 144 164
94 144 164
94 144 164
94 144 164
94 144 164
94 144 164
94 144 164
94 144 164
94 144 164
94 144 164
94 144 164
94 144 164
94 144 164
94 144 164
94 144 164
94 144 164
94 144 164
94 144 164
94 144 164
94 144 164
94 144 164
94 144 164
94 144 164
94 144 164
94 144 164
94 144 164
94 144 164
94 144 164
94 144 164
94 144 164
94 144 164
94 144 164
94 144 164
94 144 164
94 144 164
94 144 164
94 144 164
94 144 164
94 144 164
94 144 164
94 144 164
94 144 164
94 144 164
94 144 164
94 144 164
94 144 164
94 144 164
94 144 164
94 144 164
94 144 164
94 144 164
94 144 164
94 144 164
94 144 164
94 144 164
94 144 164
94 144 164
94 144 164
94 144 164
94 144 164
94 144 164
94 144 164
94 144 164
94 144 164
94 144 164
94 144 164
94 144 164
94 144 164
94 144 164
94 144 164
94 144 164
94 144 164
94 144 164
94 144 164
94 144 164
94 144 164
94 144 164
94 144 164
94 144 164
94 144 164
94 144 164
94 144 164
94 144 164
94 144 164
94 144 164
94 144 164
94 144 164
94 144 164
94 144 164
94 144 164
94 144 164
94 144 164
94 144 164
94 144 164
94 144 164
94 144 164
94 144 164
94 144 164
94 144 164
94 144 164
94 144 164
94 144 164
94 144 164
94 144 164
94 144 164
94 144 164
94 144 164
94 144 164
94 144 164
94 144 164
94 144 164
94 144 164
94 144 164
94 144 164
94 144 164
94 144 164
94 144 164
94 144 164
94 144 164
94 144 164
94 144 164
94 144 164
94 144 164
94 144 164
94 144 164
94 144 164
94 144 164
94 144 164
94 144 164
94 144 164
94 144 164
94 144 164
94 144 164
94 144 164
94 144 164
94 144 164
94 144 164
94 144 164
94 144 164
94 144 164
94 144 164
94 144 164
94 144 164
94 144 164
94 144 164
94 144 164
94 144 164
94 144 164
94 144 164
94 144 164
94 144 164
94 144 164
94 144 164
94 144 164
94 144 164
94 144 164
94 144 164
94 144 164
94 144 164
94 144 164
94 144 164
94 144 164
94 144 164
94 144 164
94 144 164
94 144 164
94 144 164
94 144 164
94 144 164
94 144 164
94 144 164
94 144 164
94 144 164
94 144 164
94 144 164
94 144 164
94 144 164
94 144 164
94 144 164
94 144 164
94 144 164
94 144 164
94 144 164
94 144 164
94 144 164
94 144 164
94 144 164
94 144 164
94 144 164
94 144 164
94 144 164
94 144 164
94 144 164
94 144 164
94 144 164
94 144 164
94 144 164
94 144 164
94 144 164
94 144 164
94 144 164
94 144 164
94 144 164
94 144 164
94 144 164
94 144 164
94 144 164
94 144 164
94 144 164
94 144 164
94 144 164
94 144 164
94 144 164
94 144 164
94 144 164
94 144 164
94 144 164
94 144 164
94 144 164
94 144 164
94 144 164
94 144 164
94 144 164
94 144 164
94 144 164
94 144 164
94 144 164
94 144 164
94 144 164
94 144 164
94 144 164
94 144 164
94 144 164
94 144 164
94 144 164
94 144 164
94 144 164
94 144 164
94 144 164
94 144 164
94 144 164
94 144 164
94 144 164
94 144 164
94 144 164
94 144 164
94 144 164
94 144 164
94 144 164
94 144 164
94 144 164
94 144 164
94 144 164
94 144 164
94 144 164
94 144 164
94 144 164
94 144 164
94 144 164
94 144 164
94 144 164
94 144 164
94 144 164
94 144 164
94 144 164
94 144 164
94 144 164
94 144 164
94 144 164
94 144 164
94 144 164
94 144 164
94 144 164
94 144 164
94 144 164
94 144 164
94 144 164
94 144 164
94 144 164
94 144 164
94 144 164
94 144 164
94 144 164
94 144 164
94 144 164
94 144 164
94 144 164
94 144 164
94 144 164
94 144 164
94 144 164
94 144 164
94 144 164
94 144 164
94 144 164
94 144 164
94 144 164
94 144 164
94 144 164
94 144 164
94 144 164
94 144 164
94 144 164
94 144 164
94 144 164
94 144 164
94 144 164
94 144 164
94 144 164
94 144 164
94 144 164
94 144 164
94 144 164
94 144 164
94 144 164
94 144 164
94 144 164
94 144 164
94 144 164
94 144 164
94 144 164
94 144 164
94 144 164
94 144 164
94 144 164
94 144 164
94 144 164
94 144 164
94 144 164
94 144 164
94 144 164
94 144 164
94 144 164
94 144 164
94 144 164
94 144 164
94 144 164
94 144 164
94 144 164
94 144 164
94 144 164
94 144 164
94 144 164
94 144 164
94 144 164
94 144 164
94 144 164
94 144 164
94 144 164
94 144 164
94 144 164
94 144 164
94 144 164
94 144 164
94 144 164
94 144 164
94 144 164
94 144 164
94 144 164
94 144 164
94 144 164
94 144 164
94 144 164
94 144 164
94 144 164
94 144 164
94 144 164
94 144 164
94 144 164
94 144 164
94 144 164
94 144 164
94 144 164
94 144 164
94 144 164
94 144 164
94 144 164
94 144 164
94 144 164
94 144 164
94 144 164
94 144 164
94 144 164
94 144 164
94 144 164
94 144 164
94 144 164
94 144 164
94 144 164
94 144 164
94 144 164
94 144 164
94 144 164
94 144 164
94 144 164
94 144 164
94 144 164
94 144 164
94 144 164
94 144 164
94 144 164
94 144 164
94 144 164
94 144 164
94 144 164
94 144 164
94 144 164
94 144 164
94 144 164
94 144 164
94 144 164
94 144 164
94 144 164
94 144 164
94 144 164
94 144 164
94 144 164
94 144 164
94 144 164
94 144 164
94 144 164
94 144 164
94 144 164
94 144 164
94 144 164
94 144 164
94 144 164
94 144 164
94 144 164
94 144 164
94 144 164
94 144 164
94 144 164
94 144 164
94 144 164
94 144 164
94 144 164
94 144 164
94 144 164
94 144 164
94 144 164
94 144 164
94 144 164
94 144 164
94 144 164
94 144 164
94 144 164
94 144 164
94 144 164
94 144 164
94 144 164
94 144 164
94 144 164
94 144 164
94 144 164
94 144 164
94 144 164
94 144 164
94 144 164
94 144 164
94 144 164
94 144 164
94 144 164
94 144 164
94 144 164
94 144 164
94 144 164
94 144 164
94 144 164
94 144 164
94 144 164
94 144 164
94 144 164
94 144 164
94 144 164
94 144 164
94 144 164
94 144 164
94 144 164
94 144 164
94 144 164
94 144 164
94 144 164
94 144 164
94 144 164
94 144 164
94 144 164
94 144 164
94 144 164
94 144 164
94 144 164
94 144 164
94 144 164
94 144 164
94 144 164
94 144 164
94 144 164
94 144 164
94 144 164
94 144 164
94 144 164
94 144 164
94 144 164
94 144 164
94 144 164
94 144 164
94 144 164
94 144 164
94 144 164
94 144 164
94 144 164
94 144 164
94 144 164
94 144 164
94 144 164
94 144 164
94 144 164
94 144 164
94 144 164
94 144 164
94 144 164
94 144 164
94 144 164
94 144 164
94 144 164
94 144 164
94 144 164
94 144 164
94 144 164
94 144 164
94 144 164
94 144 164
94 144 164
94 144 164
94 144 164
94 144 164
94 144 164
94 144 164
94 144 164
94 144 164
94 144 164
94 144 164
94 144 164
94 144 164
94 144 164
94 144 164
94 144 164
94 144 164
94 144 164
94 144 164
94 144 164
94 144 164
94 144 164
94 144 164
94 144 164
94 144 164
94 144 164
94 144 164
94 144 164
94 144 164
94 144 164
94 144 164
94 144 164
94 144 164
94 144 164
94 144 164
94 144 164
94 144 164
94 144 164
94 144 164
94 144 164
94 144 164
94 144 164
94 144 164
94 144 164
94 144 164
94 144 164
94 144 164
94 144 164
94 144 164
94 144 164
94 144 164
94 144 164
94 144 164
94 144 164
94 144 164
94 144 164
94 144 164
94 144 164
94 144 164
94 144 164
94 144 164
94 144 164
94 144 164
94 144 164
94 144 164
94 144 164
94 144 164
94 144 164
94 144 164
94 144 164
94 144 164
94 144 164
94 144 164
94 144 164
94 144 164
94 144 164
94 144 164
94 144 164
94 144 164
94 144 164
94 144 164
94 144 164
94 144 164
94 144 164
94 144 164
94 144 164
94 144 164
94 144 164
94 144 164
94 144 164
94 144 164
94 144 164
94 144 164
94 144 164
94 144 164
94 144 164
94 144 164
94 144 164
94 144 164
94 144 164
94 144 164
94 144 164
94 144 164
94 144 164
94 144 164
94 144 164
94 144 164
94 144 164
94 144 164
94 144 164
94 144 164
94 144 164
94 144 164
94 144 164
94 144 164
94 144 164
94 144 164
94 144 164
94 144 164
94 144 164
94 144 164
94 144 164
94 144 164
94 144 164
94 144 164
94 144 164
94 144 164
94 144 164
94 144 164
94 144 164
94 144 164
94 144 164
94 144 164
94 144 164
94 144 164
94 144 164
94 144 164
94 144 164
94 144 164
94 144 164
94 144 164
94 144 164
94 144 164
94 144 164
94 144 164
94 144 164
94 144 164
94 144 164
94 144 164
94 144 164
94 144 164
94 144 164
94 144 164
94 144 164
94 144 164
94 144 164
94 144 164
94 144 164
94 144 164
94 144 164
94 144 164
94 144 164
94 144 164
94 144 164
94 144 164
94 144 164
94 144 164
94 144 164
94 144 164
94 144 164
94 144 164
94 144 164
94 144 164
94 144 164
94 144 164
94 144 164
94 144 164
94 144 164
94 144 164
94 144 164
94 144 164
94 144 164
94 144 164
94 144 164
94 144 164
94 144 164
94 144 164
94 144 164
94 144 164
94 144 164
94 144 164
94 144 164
94 144 164
94 144 164
94 144 164
94 144 164
94 144 164
94 144 164
94 144 164
94 144 164
94 144 164
94 144 164
94 144 164
94 144 164
94 144 164
94 144 164
94 144 164
94 144 164
94 144 164
94 144 164
94 144 164
94 144 164
94 144 164
94 144 164
94 144 164
94 144 164
94 144 164
94 144 164
94 144 164
94 144 164
94 144 164
94 144 164
94 144 164
94 144 164
94 144 164
94 144 164
94 144 164
94 144 164
94 144 164
94 144 164
94 144 164
94 144 164
94 144 164
94 144 164
94 144 164
94 144 164
94 144 164
94 144 164
94 144 164
94 144 164
94 144 164
94 144 164
94 144 164
94 144 164
94 144 164
94 144 164
94 144 164
94 144 164
94 144 164
94 144 164
94 144 164
94 144 164
94 144 164
94 144 164
94 144 164
94 144 164
94 144 164
94 144 164
94 144 164
94 144 164
94 144 164
94 144 164
94 144 164
94 144 164
94 144 164
94 144 164
94 144 164
94 144 164
94 144 164
94 144 164
94 144 164
94 144 164
94 144 164
94 144 164
94 144 164
94 144 164
94 144 164
94 144 164
94 144 164
94 144 164
94 144 164
94 144 164
94 144 164
94 144 164
94 144 164
94 144 164
94 144 164
94 144 164
94 144 164
94 144 164
94 144 164
94 144 164
94 144 164
94 144 164
94 144 164
94 144 164
94 144 164
94 144 164
94 144 164
94 144 164
94 144 164
94 144 164
94 144 164
94 144 164
94 144 164
94 144 164
94 144 164
94 144 164
94 144 164
94 144 164
94 144 164
94 144 164
94 144 164
94 144 164
94 144 164
94 144 164
94 144 164
94 144 164
94 144 164
94 144 164
94 144 164
94 144 164
94 144 164
94 144 164
94 144 164
94 144 164
94 144 164
94 144 164
94 144 164
94 144 164
94 144 164
94 144 164
94 144 164
94 144 164
94 144 164
94 144 164
94 144 164
94 144 164
94 144 164
94 144 164
94 144 164
94 144 164
94 144 164
94 144 164
94 144 164
94 144 164
94 144 164
94 144 164
94 144 164
94 144 164
94 144 164
94 144 164
94 144 164
94 144 164
94 144 164
94 144 164
94 144 164
94 144 164
94 144 164
94 144 164
94 144 164
94 144 164
94 144 164
94 144 164
94 144 164
94 144 164
94 144 164
94 144 164
94 144 164
94 144 164
94 144 164
94 144 164
94 144 164
94 144 164
94 144 164
94 144 164
94 144 164
94 144 164
94 144 164
94 144 164
94 144 164
94 144 164
94 144 164
94 144 164
94 144 164
94 144 164
94 144 164
94 144 164
94 144 164
94 144 164
94 144 164
94 144 164
94 144 164
94 144 164
94 144 164
94 144 164
94 144 164
94 144 164
94 144 164
94 144 164
94 144 164
94 144 164
94 144 164
94 144 164
94 144 164
94 144 164
94 144 164
94 144 164
94 144 164
94 144 164
94 144 164
94 144 164
94 144 164
94 144 164
94 144 164
94 144 164
94 144 164
94 144 164
94 144 164
94 144 164
94 144 164
94 144 164
94 144 164
94 144 164
94 144 164
94 144 164
94 144 164
94 144 164
94 144 164
94 144 164
94 144 164
94 144 164
94 144 164
94 144 164
94 144 164
94 144 164
94 144 164
94 144 164
94 144 164
94 144 164
94 144 164
94 144 164
94 144 164
94 144 164
94 144 164
94 144 164
94 144 164
94 144 164
94 144 164
94 144 164
94 144 164
94 144 164
94 144 164
94 144 164
94 144 164
94 144 164
94 144 164
94 144 164
94 144 164
94 144 164
94 144 164
94 144 164
94 144 164
94 144 164
94 144 164
94 144 164
94 144 164
94 144 164
94 144 164
94 144 164
94 144 164
94 144 164
94 144 164
94 144 164
94 144 164
94 144 164
94 144 164
94 144 164
94 144 164
94 144 164
94 144 164
94 144 164
94 144 164
94 144 164
94 144 164
94 144 164
94 144 164
94 144 164
94 144 164
94 144 164
94 144 164
94 144 164
94 144 164
94 144 164
94 144 164
94 144 164
94 144 164
94 144 164
94 144 164
94 144 164
94 144 164
94 144 164
94 144 164
94 144 164
94 144 164
94 144 164
94 144 164
94 144 164
94 144 164
94 144 164
94 144 164
94 144 164
94 144 164
94 144 164
94 144 164
94 144 164
94 144 164
94 144 164
94 144 164
94 144 164
94 144 164
94 144 164
94 144 164
94 144 164
94 144 164
94 144 164
94 144 164
94 144 164
94 144 164
94 144 164
94 144 164
94 144 164
94 144 164
94 144 164
94 144 164
94 144 164
94 144 164
94 144 164
94 144 164
94 144 164
94 144 164
94 144 164
94 144 164
94 144 164
94 144 164
94 144 164
94 144 164
94 144 164
94 144 164
94 144 164
94 144 164
94 144 164
94 144 164
94 144 164
94 144 164
94 144 164
94 144 164
94 144 164
94 144 164
94 144 164
94 144 164
94 144 164
94 144 164
94 144 164
94 144 164
94 144 164
94 144 164
94 144 164
94 144 164
94 144 164
94 144 164
94 144 164
94 144 164
94 144 164
94 144 164
94 144 164
94 144 164
94 144 164
94 144 164
94 144 164
94 144 164
94 144 164
94 144 164
94 144 164
94 144 164
94 144 164
94 144 164
94 144 164
94 144 164
94 144 164
94 144 164
94 144 164
94 144 164
94 144 164
94 144 164
94 144 164
94 144 164
94 144 164
94 144 164
94 144 164
94 144 164
94 144 164
94 144 164
94 144 164
94 144 164
94 144 164
94 144 164
94 144 164
94 144 164
94 144 164
94 144 164
94 144 164
94 144 164
94 144 164
94 144 164
94 144 164
94 144 164
94 144 164
94 144 164
94 144 164
94 144 164
94 144 164
94 144 164
94 144 164
94 144 164
94 144 164
94 144 164
94 144 164
94 144 164
94 144 164
94 144 164
94 144 164
94 144 164
94 144 164
94 144 164
94 144 164
94 144 164
94 144 164
94 144 164
94 144 164
94 144 164
94 144 164
94 144 164
94 144 164
94 144 164
94 144 164
94 144 164
94 144 164
94 144 164
94 144 164
94 144 164
94 144 164
94 144 164
94 144 164
94 144 164
94 144 164
94 144 164
94 144 164
94 144 164
94 144 164
94 144 164
94 144 164
94 144 164
94 144 164
94 144 164
94 144 164
94 144 164
94 144 164
94 144 164
94 144 164
94 144 164
94 144 164
94 144 164
94 144 164
94 144 164
94 144 164
94 144 164
94 144 164
94 144 164
94 144 164
94 144 164
94 144 164
94 144 164
94 144 164
94 144 164
94 144 164
94 144 164
94 144 164
94 144 164
94 144 164
94 144 164
94 144 164
94 144 164
94 144 164
94 144 164
94 144 164
94 144 164
94 144 164
94 144 164
94 144 164
94 144 164
94 144 164
94 144 164
94 144 164
94 144 164
94 144 164
94 144 164
94 144 164
94 144 164
94 144 164
94 144 164
94 144 164
94 144 164
94 144 164
94 144 164
94 144 164
94 144 164
94 144 164
94 144 164
94 144 164
94 144 164
94 144 164
94 144 164
94 144 164
94 144 164
94 144 164
94 144 164
94 144 164
94 144 164
94 144 164
94 144 164
94 144 164
94 144 164
94 144 164
94 144 164
94 144 164
94 144 164
94 144 164
94 144 164
94 144 164
94 144 164
94 144 164
94 144 164
94 144 164
94 144 164
94 144 164
94 144 164
94 144 164
94 144 164
94 144 164
94 144 164
94 144 164
94 144 164
94 144 164
94 144 164
94 144 164
94 144 164
94 144 164
94 144 164
94 144 164
94 144 164
94 144 164
94 144 164
94 144 164
94 144 164
94 144 164
94 144 164
94 144 164
94 144 164
94 144 164
94 144 164
94 144 164
94 144 164
94 144 164
94 144 164
94 144 164
94 144 164
94 144 164
94 144 164
94 144 164
94 144 164
94 144 164
94 144 164
94 144 164
94 144 164
94 144 164
94 144 164
94 144 164
94 144 164
94 144 164
94 144 164
94 144 164
94 144 164
94 144 164
94 144 164
94 144 164
94 144 164
94 144 164
94 144 164
94 144 164
94 144 164
94 144 164
94 144 164
94 144 164
94 144 164
94 144 164
94 144 164
94 144 164
94 144 164
94 144 164
94 144 164
94 144 164
94 144 164
94 144 164
94 144 164
94 144 164
94 144 164
94 144 164
94 144 164
94 144 164
94 144 164
94 144 164
94 144 164
94 144 164
94 144 164
94 144 164
94 144 164
94 144 164
94 144 164
94 144 164
94 144 164
94 144 164
94 144 164
94 144 164
94 144 164
94 144 164
94 144 164
94 144 164
94 144 164
94 144 164
94 144 164
94 144 164
94 144 164
94 144 164
94 144 164
94 144 164
94 144 164
94 144 164
94 144 164
94 144 164
94 144 164
94 144 164
94 144 164
94 144 164
94 144 164
94 144 164
94 144 164
94 144 164
94 144 164
94 144 164
94 144 164
94 144 164
94 144 164
94 144 164
94 144 164
94 144 164
94 144 164
94 144 164
94 144 164
94 144 164
94 144 164
94 144 164
94 144 164
94 144 164
94 144 164
94 144 164
94 144 164
94 144 164
94 144 164
94 144 164
94 144 164
94 144 164
94 144 164
94 144 164
94 144 164
94 144 164
94 144 164
94 144 164
94 144 164
94 144 164
94 144 164
94 144 164
94 144 164
94 144 164
94 144 164
94 144 164
94 144 164
94 144 164
94 144 164
94 144 164
94 144 164
94 144 164
94 144 164
94 144 164
94 144 164
94 144 164
94 144 164
94 144 164
94 144 164
94 144 164
94 144 164
94 144 164
94 144 164
94 144 164
94 144 164
94 144 164
94 144 164
94 144 164
94 144 164
94 144 164
94 144 164
94 144 164
94 144 164
94 144 164
94 144 164
94 144 164
94 144 164
94 144 164
94 144 164
94 144 164
94 144 164
94 144 164
94 144 164
94 144 164
94 144 164
94 144 164
94 144 164
94 144 164
94 144 164
94 144 164
94 144 164
94 144 164
94 144 164
94 144 164
94 144 164
94 144 164
94 144 164
94 144 164
94 144 164
94 144 164
94 144 164
94 144 164
94 144 164
94 144 164
94 144 164
94 144 164
94 144 164
94 144 164
94 144 164
94 144 164
94 144 164
94 144 164
94 144 164
94 144 164
94 144 164
94 144 164
94 144 164
94 144 164
94 144 164
94 144 164
94 144 164
94 144 164
94 144 164
94 144 164
94 144 164
94 144 164
94 144 164
94 144 164
94 144 164
94 144 164
94 144 164
94 144 164
94 144 164
94 144 164
94 144 164
94 144 164
94 144 164
94 144 164
94 144 164
94 144 164
94 144 164
94 144 164
94 144 164
94 144 164
94 144 164
94 144 164
94 144 164
94 144 164
94 144 164
94 144 164
94 144 164
94 144 164
94 144 164
94 144 164
94 144 164
94 144 164
94 144 164
94 144 164
94 144 164
94 144 164
94 144 164
94 144 164
94 144 164
94 144 164
94 144 164
94 144 164
94 144 164
94 144 164
94 144 164
94 144 164
94 144 164
94 144 164
94 144 164
94 144 164
94 144 164
94 144 164
94 144 164
94 144 164
94 144 164
94 144 164
94 144 164
94 144 164
94 144 164
94 144 164
94 144 164
94 144 164
94 144 164
94 144 164
94 144 164
94 144 164
94 144 164
94 144 164
94 144 164
94 144 164
94 144 164
94 144 164
94 144 164
94 144 164
94 144 164
94 144 164
94 144 164
94 144 164
94 144 164
94 144 164
94 144 164
94 144 164
94 144 164
94 144 164
94 144 164
94 144 164
94 144 164
94 144 164
94 144 164
94 144 164
94 144 164
94 144 164
94 144 164
94 144 164
94 144 164
94 144 164
94 144 164
94 144 164
94 144 164
94 144 164
94 144 164
94 144 164
94 144 164
94 144 164
94 144 164
94 144 164
94 144 164
94 144 164
94 144 164
94 144 164
94 144 164
94 144 164
94 144 164
94 144 164
94 144 164
94 144 164
94 144 164
94 144 164
94 144 164
94 144 164
94 144 164
94 144 164
94 144 164
94 144 164
94 144 164
94 144 164
94 144 164
94 144 164
94 144 164
94 144 164
94 144 164
94 144 164
94 144 164
94 144 164
94 144 164
94 144 164
94 144 164
94 144 164
94 144 164
94 144 164
94 144 164
94 144 164
94 144 164
94 144 164
94 144 164
94 144 164
94 144 164
94 144 164
94 144 164
94 144 164
94 144 164
94 144 164
94 144 164
94 144 164
94 144 164
94 144 164
94 144 164
94 144 164
94 144 164
94 144 164
94 144 164
94 144 164
94 144 164
94 144 164
94 144 164
94 144 164
94 144 164
94 144 164
94 144 164
94 144 164
94 144 164
94 144 164
94 144 164
94 144 164
94 144 164
94 144 164
94 144 164
94 144 164
94 144 164
94 144 164
94 144 164
94 144 164
94 144 164
94 144 164
94 144 164
94 144 164
94 144 164
94 144 164
94 144 164
94 144 164
94 144 164
94 144 164
94 144 164
94 144 164
94 144 164
94 144 164
94 144 164
94 144 164
94 144 164
94 144 164
94 144 164
94 144 164
94 144 164
94 144 164
94 144 164
94 144 164
94 144 164
94 144 164
94 144 164
94 144 164
94 144 164
94 144 164
94 144 164
94 144 164
94 144 164
94 144 164
94 144 164
94 144 164
94 144 164
94 144 164
94 144 164
94 144 164
94 144 164
94 144 164
94 144 164
94 144 164
94 144 164
94 144 164
94 144 164
94 144 164
94 144 164
94 144 164
94 144 164
94 144 164
94 144 164
94 144 164
94 144 164
94 144 164
94 144 164
94 144 164
94 144 164
94 144 164
94 144 164
94 144 164
94 144 164
94 144 164
94 144 164
94 144 164
94 144 164
94 144 164
94 144 164
94 144 164
94 144 164
94 144 164
94 144 164
94 144 164
94 144 164
94 144 164
94 144 164
94 144 164
94 144 164
94 144 164
94 144 164
94 144 164
94 144 164
94 144 164
94 144 164
94 144 164
94 144 164
94 144 164
94 144 164
94 144 164
94 144 164
94 144 164
94 144 164
94 144 164
94 144 164
94 144 164
94 144 164
94 144 164
94 144 164
94 144 164
94 144 164
94 144 164
94 144 164
94 144 164
94 144 164
94 144 164
94 144 164
94 144 164
94 144 164
94 144 164
94 144 164
94 144 164
94 144 164
94 144 164
94 144 164
94 144 164
94 144 164
94 144 164
94 144 164
94 144 164
94 144 164
94 144 164
94 144 164
94 144 164
94 144 164
94 144 164
94 144 164
94 144 164
94 144 164
94 144 164
94 144 164
94 144 164
94 144 164
94 144 164
94 144 164
94 144 164
94 144 164
94 144 164
94 144 164
94 144 164
94 144 164
94 144 164
94 144 164
94 144 164
94 144 164
94 144 164
94 144 164
94 144 164
94 144 164
94 144 164
94 144 164
94 144 164
94 144 164
94 144 164
94 144 164
94 144 164
94 144 164
94 144 164
94 144 164
94 144 164
94 144 164
94 144 164
94 144 164
94 144 164
94 144 164
94 144 164
94 144 164
94 144 164
94 144 164
94 144 164
94 144 164
94 144 164
94 144 164
94 144 164
94 144 164
94 144 164
94 144 164
94 144 164
94 144 164
94 144 164
94 144 164
94 144 164
94 144 164
94 144 164
94 144 164
94 144 164
94 144 164
94 144 164
94 144 164
94 144 164
94 144 164
94 144 164
94 144 164
94 144 164
94 144 164
94 144 164
94 144 164
94 144 164
94 144 164
94 144 164
94 144 164
94 144 164
94 144 164
94 144 164
94 144 164
94 144 164
94 144 164
94 144 164
94 144 164
94 144 164
94 144 164
94 144 164
94 144 164
94 144 164
94 144 164
94 144 164
94 144 164
94 144 164
94 144 164
94 144 164
94 144 164
94 144 164
94 144 164
94 144 164
94 144 164
94 144 164
94 144 164
94 144 164
94 144 164
94 144 164
94 144 164
94 144 164
94 144 164
94 144 164
94 144 164
94 144 164
94 144 164
94 144 164
94 144 164
94 144 164
94 144 164
94 144 164
94 144 164
94 144 164
94 144 164
94 144 164
94 144 164
94 144 164
94 144 164
94 144 164
94 144 164
94 144 164
94 144 164
94 144 164
94 144 164
94 144 164
94 144 164
94 144 164
94 144 164
94 144 164
94 144 164
94 144 164
94 144 164
94 144 164
94 144 164
94 144 164
94 144 164
94 144 164
94 144 164
94 144 164
94 144 164
94 144 164
94 144 164
94 144 164
94 144 164
94 144 164
94 144 164
94 144 164
94 144 164
94 144 164
94 144 164
94 144 164
94 144 164
94 144 164
94 144 164
94 144 164
94 144 164
94 144 164
94 144 164
94 144 164
94 144 164
94 144 164
94 144 164
94 144 164
94 144 164
94 144 164
94 144 164
94 144 164
94 144 164
94 144 164
94 144 164
94 144 164
94 144 164
94 144 164
94 144 164
94 144 164
94 144 164
94 144 164
94 144 164
94 144 164
94 144 164
94 144 164
94 144 164
94 144 164
94 144 164
94 144 164
94 144 164
94 144 164
94 144 164
94 144 164
94 144 164
94 144 164
94 144 164
94 144 164
94 144 164
94 144 164
94 144 164
94 144 164
94 144 164
94 144 164
94 144 164
94 144 164
94 144 164
94 144 164
94 144 164
94 144 164
94 144 164
94 144 164
94 144 164
94 144 164
94 144 164
94 144 164
94 144 164
94 144 164
94 144 164
94 144 164
94 144 164
94 144 164
94 144 164
94 144 164
94 144 164
94 144 164
94 144 164
94 144 164
94 144 164
94 144 164
94 144 164
94 144 164
94 144 164
94 144 164
94 144 164
94 144 164
94 144 164
94 144 164
94 144 164
94 144 164
94 144 164
94 144 164
94 144 164
94 144 164
94 144 164
94 144 164
94 144 164
94 144 164
94 144 164
94 144 164
94 144 164
94 144 164
94 144 164
94 144 164
94 144 164
94 144 164
94 144 164
94 144 164
94 144 164
94 144 164
94 144 164
94 144 164
94 144 164
94 144 164
94 144 164
94 144 164
94 144 164
94 144 164
94 144 164
94 144 164
94 144 164
94 144 164
94 144 164
94 144 164
94 144 164
94 144 164
94 144 164
94 144 164
94 144 164
94 144 164
94 144 164
94 144 164
94 144 164
94 144 164
94 144 164
94 144 164
94 144 164
94 144 164
94 144 164
94 144 164
94 144 164
94 144 164
94 144 164
94 144 164
94 144 164
94 144 164
94 144 164
94 144 164
94 144 164
94 144 164
94 144 164
94 144 164
94 144 164
94 144 164
94 144 164
94 144 164
94 144 164
94 144 164
94 144 164
94 144 164
94 144 164
94 144 164
94 144 164
94 144 164
94 144 164
94 144 164
94 144 164
94 144 164
94 144 164
94 144 164
94 144 164
94 144 164
94 144 164
94 144 164
94 144 164
94 144 164
94 144 164
94 144 164
94 144 164
94 144 164
94 144 164
94 144 164
94 144 164
94 144 164
94 144 164
94 144 164
94 144 164
94 144 164
94 144 164
94 144 164
94 144 164
94 144 164
94 144 164
94 144 164
94 144 164
94 144 164
94 144 164
94 144 164
94 144 164
94 144 164
94 144 164
94 144 164
94 144 164
94 144 164
94 144 164
94 144 164
94 144 164
94 144 164
94 144 164
94 144 164
94 144 164
94 144 164
94 144 164
94 144 164
94 144 164
94 144 164
94 144 164
94 144 164
94 144 164
94 144 164
94 144 164
94 144 164
94 144 164
94 144 164
94 144 164
94 144 164
94 144 164
94 144 164
94 144 164
94 144 164
94 144 164
94 144 164
94 144 164
94 144 164
94 144 164
94 144 164
94 144 164
94 144 164
94 144 164
94 144 164
94 144 164
94 144 164
94 144 164
94 144 164
94 144 164
94 144 164
94 144 164
94 144 164
94 144 164
94 144 164
94 144 164
94 144 164
94 144 164
94 144 164
94 144 164
94 144 164
94 144 164
94 144 164
94 144 164
94 144 164
94 144 164
94 144 164
94 144 164
94 144 164
94 144 164
94 144 164
94 144 164
94 144 164
94 144 164
94 144 164
94 144 164
94 144 164
94 144 164
94 144 164
94 144 164
94 144 164
94 144 164
94 144 164
94 144 164
94 144 164
94 144 164
94 144 164
94 144 164
94 144 164
94 144 164
94 144 164
94 144 164
94 144 164
94 144 164
94 144 164
94 144 164
94 144 164
94 144 164
94 144 164
94 144 164
94 144 164
94 144 164
94 144 164
94 144 164
94 144 164
94 144 164
94 144 164
94 144 164
94 144 164
94 144 164
94 144 164
94 144 164
94 144 164
94 144 164
94 144 164
94 144 164
94 144 164
94 144 164
94 144 164
94 144 164
94 144 164
94 144 164
94 144 164
94 144 164
94 144 164
94 144 164
94 144 164
94 144 164
94 144 164
94 144 164
94 144 164
94 144 164
94 144 164
94 144 164
94 144 164
94 144 164
94 144 164
94 144 164
94 144 164
94 144 164
94 144 164
94 144 164
94 144 164
94 144 164
94 144 164
94 144 164
94 144 164
94 144 164
94 144 164
94 144 164
94 144 164
94 144 164
94 144 164
94 144 164
94 144 164
94 144 164
94 144 164
94 144 164
94 144 164
94 144 164
94 144 164
94 144 164
94 144 164
94 144 164
94 144 164
94 144 164
94 144 164
94 144 164
94 144 164
94 144 164
94 144 164
94 144 164
94 144 164
94 144 164
94 144 164
94 144 164
94 144 164
94 144 164
94 144 164
94 144 164
94 144 164
94 144 164
94 144 164
94 144 164
94 144 164
94 144 164
94 144 164
94 144 164
94 144 164
94 144 164
94 144 164
94 144 164
94 144 164
94 144 164
94 144 164
94 144 164
94 144 164
94 144 164
94 144 164
94 144 164
94 144 164
94 144 164
94 144 164
94 144 164
94 144 164
94 144 164
94 144 164
94 144 164
94 144 164
94 144 164
94 144 164
94 144 164
94 144 164
94 144 164
94 144 164
94 144 164
94 144 164
94 144 164
94 144 164
94 144 164
94 144 164
94 144 164
94 144 164
94 144 164
94 144 164
94 144 164
94 144 164
94 144 164
94 144 164
94 144 164
94 144 164
94 144 164
94 144 164
94 144 164
94 144 164
94 144 164
94 144 164
94 144 164
94 144 164
94 144 164
94 144 164
94 144 164
94 144 164
94 144 164
94 144 164
94 144 164
94 144 164
94 144 164
94 144 164
94 144 164
94 144 164
94 144 164
94 144 164
94 144 164
94 144 164
94 144 164
94 144 164
94 144 164
94 144 164
94 144 164
94 144 164
94 144 164
94 144 164
94 144 164
94 144 164
94 144 164
94 144 164
94 144 164
94 144 164
94 144 164
94 144 164
94 144 164
94 144 164
94 144 164
94 144 164
94 144 164
94 144 164
94 144 164
94 144 164
94 144 164
94 144 164
94 144 164
94 144 164
94 144 164
94 144 164
94 144 164
94 144 164
94 144 164
94 144 164
94 144 164
94 144 164
94 144 164
94 144 164
94 144 164
94 144 164
94 144 164
94 144 164
94 144 164
94 144 164
94 144 164
94 144 164
94 144 164
94 144 164
94 144 164
94 144 164
94 144 164
94 144 164
94 144 164
94 144 164
94 144 164
94 144 164
94 144 164
94 144 164
94 144 164
94 144 164
94 144 164
94 144 164
94 144 164
94 144 164
94 144 164
94 144 164
94 144 164
94 144 164
94 144 164
94 144 164
94 144 164
94 144 164
94 144 164
94 144 164
94 144 164
94 144 164
94 144 164
94 144 164
94 144 164
94 144 164
94 144 164
94 144 164
94 144 164
94 144 164
94 144 164
94 144 164
94 144 164
94 144 164
94 144 164
94 144 164
94 144 164
94 144 164
94 144 164
94 144 164
94 144 164
94 144 164
94 144 164
94 144 164
94 144 164
94 144 164
94 144 164
94 144 164
94 144 164
94 144 164
94 144 164
94 144 164
94 144 164
94 144 164
94 144 164
94 144 164
94 144 164
94 144 164
94 144 164
94 144 164
94 144 164
94 144 164
94 144 164
94 144 164
94 144 164
94 144 164
94 144 164
94 144 164
94 144 164
94 144 164
94 144 164
94 144 164
94 144 164
94 144 164
94 144 164
94 144 164
94 144 164
94 144 164
94 144 164
94 144 164
94 144 164
94 144 164
94 144 164
94 144 164
94 144 164
94 144 164
94 144 164
94 144 164
94 144 164
94 144 164
94 144 164
94 144 164
94 144 164
94 144 164
94 144 164
94 144 164
94 144 164
94 144 164
94 144 164
94 144 164
94 144 164
94 144 164
94 144 164
94 144 164
94 144 164
94 144 164
94 144 164
94 144 164
94 144 164
94 144 164
94 144 164
94 144 164
94 144 164
94 144 164
94 144 164
94 144 164
94 144 164
94 144 164
94 144 164
94 144 164
94 144 164
94 144 164
94 144 164
94 144 164
94 144 164
94 144 164
94 144 164
94 144 164
94 144 164
94 144 164
94 144 164
94 144 164
94 144 164
94 144 164
94 144 164
94 144 164
94 144 164
94 144 164
94 144 164
94 144 164
94 144 164
94 144 164
94 144 164
94 144 164
94 144 164
94 144 164
94 144 164
94 144 164
94 144 164
94 144 164
94 144 164
94 144 164
94 144 164
94 144 164
94 144 164
94 144 164
94 144 164
94 144 164
94 144 164
94 144 164
94 144 164
94 144 164
94 144 164
94 144 164
94 144 164
94 144 164
94 144 164
94 144 164
94 144 164
94 144 164
94 144 164
94 144 164
94 144 164
94 144 164
94 144 164
94 144 164
94 144 164
94 144 164
94 144 164
94 144 164
94 144 164
94 144 164
94 144 164
94 144 164
94 144 164
94 144 164
94 144 164
94 144 164
94 144 164
94 144 164
94 144 164
94 144 164
94 144 164
94 144 164
94 144 164
94 144 164
94 144 164
94 144 164
94 144 164
94 144 164
94 144 164
94 144 164
94 144 164
94 144 164
94 144 164
94 144 164
94 144 164
94 144 164
94 144 164
94 144 164
94 144 164
94 144 164
94 144 164
94 144 164
94 144 164
94 144 164
94 144 164
94 144 164
94 144 164
94 144 164
94 144 164
94 144 164
94 144 164
94 144 164
94 144 164
94 144 164
94 144 164
94 144 164
94 144 164
94 144 164
94 144 164
94 144 164
94 144 164
94 144 164
94 144 164
94 144 164
94 144 164
94 144 164
94 144 164
94 144 164
94 144 164
94 144 164
94 144 164
94 144 164
94 144 164
94 144 164
94 144 164
94 144 164
94 144 164
94 144 164
94 144 164
94 144 164
94 144 164
94 144 164
94 144 164
94 144 164
94 144 164
94 144 164
94 144 164
94 144 164
94 144 164
94 144 164
94 144 164
94 144 164
94 144 164
94 144 164
94 144 164
94 144 164
94 144 164
94 144 164
94 144 164
94 144 164
94 144 164
94 144 164
94 144 164
94 144 164
94 144 164
94 144 164
94 144 164
94 144 164
94 144 164
94 144 164
94 144 164
94 144 164
94 144 164
94 144 164
94 144 164
94 144 164
94 144 164
94 144 164
94 144 164
94 144 164
94 144 164
94 144 164
94 144 164
94 144 164
94 144 164
94 144 164
94 144 164
94 144 164
94 144 164
94 144 164
94 144 164
94 144 164
94 144 164
94 144 164
94 144 164
94 144 164
94 144 164
94 144 164
94 144 164
94 144 164
94 144 164
94 144 164
94 144 164
94 144 164
94 144 164
94 144 164
94 144 164
94 144 164
94 144 164
94 144 164
94 144 164
94 144 164
94 144 164
94 144 164
94 144 164
94 144 164
94 144 164
94 144 164
94 144 164
94 144 164
94 144 164
94 144 164
94 144 164
94 144 164
94 144 164
94 144 164
94 144 164
94 144 164
94 144 164
94 144 164
94 144 164
94 144 164
94 144 164
94 144 164
94 144 164
94 144 164
94 144 164
94 144 164
94 144 164
94 144 164
94 144 164
94 144 164
94 144 164
94 144 164
94 144 164
94 144 164
94 144 164
94 144 164
94 144 164
94 144 164
94 144 164
94 144 164
94 144 164
94 144 164
94 144 164
94 144 164
94 144 164
94 144 164
94 144 164
94 144 164
94 144 164
94 144 164
94 144 164
94 144 164
94 144 164
94 144 164
94 144 164
94 144 164
94 144 164
94 144 164
94 144 164
94 144 164
94 144 164
94 144 164
94 144 164
94 144 164
94 144 164
94 144 164
94 144 164
94 144 164
94 144 164
94 144 164
94 144 164
94 144 164
94 144 164
94 144 164
94 144 164
94 144 164
94 144 164
94 144 164
94 144 164
94 144 164
94 144 164
94 144 164
94 144 164
94 144 164
94 144 164
94 144 164
94 144 164
94 144 164
94 144 164
94 144 164
94 144 164
94 144 164
94 144 164
94 144 164
94 144 164
94 144 164
94 144 164
94 144 164
94 144 164
94 144 164
94 144 164
94 144 164
94 144 164
94 144 164
94 144 164
94 144 164
94 144 164
94 144 164
94 144 164
94 144 164
94 144 164
94 144 164
94 144 164
94 144 164
94 144 164
94 144 164
94 144 164
94 144 164
94 144 164
94 144 164
94 144 164
94 144 164
94 144 164
94 144 164
94 144 164
94 144 164
94 144 164
94 144 164
94 144 164
94 144 164
94 144 164
94 144 164
94 144 164
94 144 164
94 144 164
94 144 164
94 144 164
94 144 164
94 144 164
94 144 164
94 144 164
94 144 164
94 144 164
94 144 164
94 144 164
94 144 164
94 144 164
94 144 164
94 144 164
94 144 164
94 144 164
94 144 164
94 144 164
94 144 164
94 144 164
94 144 164
94 144 164
94 144 164
94 144 164
94 144 164
94 144 164
94 144 164
94 144 164
94 144 164
94 144 164
94 144 164
94 144 164
94 144 164
94 144 164
94 144 164
94 144 164
94 144 164
94 144 164
94 144 164
94 144 164
94 144 164
94 144 164
94 144 164
94 144 164
94 144 164
94 144 164
94 144 164
94 144 164
94 144 164
94 144 164
94 144 164
94 144 164
94 144 164
94 144 164
94 144 164
94 144 164
94 144 164
94 144 164
94 144 164
94 144 164
94 144 164
94 144 164
94 144 164
94 144 164
94 144 164
94 144 164
94 144 164
94 144 164
94 144 164
94 144 164
94 144 164
94 144 164
94 144 164
94 144 164
94 144 164
94 144 164
94 144 164
94 144 164
94 144 164
94 144 164
94 144 164
94 144 164
94 144 164
94 144 164
94 144 164
94 144 164
94 144 164
94 144 164
94 144 164
94 144 164
94 144 164
94 144 164
94 144 164
94 144 164
94 144 164
94 144 164
94 144 164
94 144 164
94 144 164
94 144 164
94 144 164
94 144 164
94 144 164
94 144 164
94 144 164
94 144 164
94 144 164
94 144 164
94 144 164
94 144 164
94 144 164
94 144 164
94 144 164
94 144 164
94 144 164
94 144 164
94 144 164
94 144 164
94 144 164
94 144 164
94 144 164
94 144 164
94 144 164
94 144 164
94 144 164
94 144 164
94 144 164
94 144 164
94 144 164
94 144 164
94 144 164
94 144 164
94 144 164
94 144 164
94 144 164
94 144 164
94 144 164
94 144 164
94 144 164
94 144 164
94 144 164
94 144 164
94 144 164
94 144 164
94 144 164
94 144 164
94 144 164
94 144 164
94 144 164
94 144 164
94 144 164
94 144 164
94 144 164
94 144 164
94 144 164
94 144 164
94 144 164
94 144 164
94 144 164
94 144 164
94 144 164
94 144 164
94 144 164
94 144 164
94 144 164
94 144 164
94 144 164
94 144 164
94 144 164
94 144 164
94 144 164
94 144 164
94 144 164
94 144 164
94 144 164
94 144 164
94 144 164
94 144 164
94 144 164
94 144 164
94 144 164
94 144 164
94 144 164
94 144 164
94 144 164
94 144 164
94 144 164
94 144 164
94 144 164
94 144 164
94 144 164
94 144 164
94 144 164
94 144 164
94 144 164
94 144 164
94 144 164
94 144 164
94 144 164
94 144 164
94 144 164
94 144 164
94 144 164
94 144 164
94 144 164
94 144 164
94 144 164
94 144 164
94 144 164
94 144 164
94 144 164
94 144 164
94 144 164
94 144 164
94 144 164
94 144 164
94 144 164
94 144 164
94 144 164
94 144 164
94 144 164
94 144 164
94 144 164
94 144 164
94 144 164
94 144 164
94 144 164
94 144 164
94 144 164
94 144 164
94 144 164
94 144 164
94 144 164
94 144 164
94 144 164
94 144 164
94 144 164
94 144 164
94 144 164
94 144 164
94 144 164
94 144 164
94 144 164
94 144 164
94 144 164
94 144 164
94 144 164
94 144 164
94 144 164
94 144 164
94 144 164
94 144 164
94 144 164
94 144 164
94 144 164
94 144 164
94 144 164
94 144 164
94 144 164
94 144 164
94 144 164
94 144 164
94 144 164
94 144 164
94 144 164
94 144 164
94 144 164
94 144 164
94 144 164
94 144 164
94 144 164
94 144 164
94 144 164
94 144 164
94 144 164
94 144 164
94 144 164
94 144 164
94 144 164
94 144 164
94 144 164
94 144 164
94 144 164
94 144 164
94 144 164
94 144 164
94 144 164
94 144 164
94 144 164
94 144 164
94 144 164
94 144 164
94 144 164
94 144 164
94 144 164
94 144 164
94 144 164
94 144 164
94 144 164
94 144 164
94 144 164
94 144 164
94 144 164
94 144 164
94 144 164
94 144 164
94 144 164
94 144 164
94 144 164
94 144 164
94 144 164
94 144 164
94 144 164
94 144 164
94 144 164
94 144 164
94 144 164
94 144 164
94 144 164
94 144 164
94 144 164
94 144 164
94 144 164
94 144 164
94 144 164
94 144 164
94 144 164
94 144 164
94 144 164
94 144 164
94 144 164
94 144 164
94 144 164
94 144 164
94 144 164
94 144 164
94 144 164
94 144 164
94 144 164
94 144 164
94 144 164
94 144 164
94 144 164
94 144 164
94 144 164
94 144 164
94 144 164
94 144 164
94 144 164
94 144 164
94 144 164
94 144 164
94 144 164
94 144 164
94 144 164
94 144 164
94 144 164
94 144 164
94 144 164
94 144 164
94 144 164
94 144 164
94 144 164
94 144 164
94 144 164
94 144 164
94 144 164
94 144 164
94 144 164
94 144 164
94 144 164
94 144 164
94 144 164
94 144 164
94 144 164
94 144 164
94 144 164
94 144 164
94 144 164
94 144 164
94 144 164
94 144 164
94 144 164
94 144 164
94 144 164
94 144 164
94 144 164
94 144 164
94 144 164
94 144 164
94 144 164
94 144 164
94 144 164
94 144 164
94 144 164
94 144 164
94 144 164
94 144 164
94 144 164
94 144 164
94 144 164
94 144 164
94 144 164
94 144 164
94 144 164
94 144 164
94 144 164
94 144 164
94 144 164
94 144 164
94 144 164
94 144 164
94 144 164
94 144 164
94 144 164
94 144 164
94 144 164
94 144 164
94 144 164
94 144 164
94 144 164
94 144 164
94 144 164
94 144 164
94 144 164
94 144 164
94 144 164
94 144 164
94 144 164
94 144 164
94 144 164
94 144 164
94 144 164
94 144 164
94 144 164
94 144 164
94 144 164
94 144 164
94 144 164
94 144 164
94 144 164
94 144 164
94 144 164
94 144 164
94 144 164
94 144 164
94 144 164
94 144 164
94 144 164
94 144 164
94 144 164
94 144 164
94 144 164
94 144 164
94 144 164
94 144 164
94 144 164
94 144 164
94 144 164
94 144 164
94 144 164
94 144 164
94 144 164
94 144 164
94 144 164
94 144 164
94 144 164
94 144 164
94 144 164
94 144 164
94 144 164
94 144 164
94 144 164
94 144 164
94 144 164
94 144 164
94 144 164
94 144 164
94 144 164
94 144 164
94 144 164
94 144 164
94 144 164
94 144 164
94 144 164
94 144 164
94 144 164
94 144 164
94 144 164
94 144 164
94 144 164
94 144 164
94 144 164
94 144 164
94 144 164
94 144 164
94 144 164
94 144 164
94 144 164
94 144 164
94 144 164
94 144 164
94 144 164
94 144 164
94 144 164
94 144 164
94 144 164
94 144 164
94 144 164
94 144 164
94 144 164
94 144 164
94 144 164
94 144 164
94 144 164
94 144 164
94 144 164
94 144 164
94 144 164
94 144 164
94 144 164
94 144 164
94 144 164
94 144 164
94 144 164
94 144 164
94 144 164
94 144 164
94 144 164
94 144 164
94 144 164
94 144 164
94 144 164
94 144 164
94 144 164
94 144 164
94 144 164
94 144 164
94 144 164
94 144 164
94 144 164
94 144 164
94 144 164
94 144 164
94 144 164
94 144 164
94 144 164
94 144 164
94 144 164
94 144 164
94 144 164
94 144 164
94 144 164
94 144 164
94 144 164
94 144 164
94 144 164
94 144 164
94 144 164
94 144 164
94 144 164
94 144 164
94 144 164
94 144 164
94 144 164
94 144 164
94 144 164
94 144 164
94 144 164
94 144 164
94 144 164
94 144 164
94 144 164
94 144 164
94 144 164
94 144 164
94 144 164
94 144 164
94 144 164
94 144 164
94 144 164
94 144 164
94 144 164
94 144 164
94 144 164
94 144 164
94 144 164
94 144 164
94 144 164
94 144 164
94 144 164
94 144 164
94 144 164
94 144 164
94 144 164
94 144 164
94 144 164
94 144 164
94 144 164
94 144 164
94 144 164
94 144 164
94 144 164
94 144 164
94 144 164
94 144 164
94 144 164
94 144 164
94 144 164
94 144 164
94 144 164
94 144 164
94 144 164
94 144 164
94 144 164
94 144 164
94 144 164
94 144 164
94 144 164
94 144 164
94 144 164
94 144 164
94 144 164
94 144 164
94 144 164
94 144 164
94 144 164
94 144 164
94 144 164
94 144 164
94 144 164
94 144 164
94 144 164
94 144 164
94 144 164
94 144 164
94 144 164
94 144 164
94 144 164
94 144 164
94 144 164
94 144 164
94 144 164
94 144 164
94 144 164
94 144 164
94 144 164
94 144 164
94 144 164
94 144 164
94 144 164
94 144 164
94 144 164
94 144 164
94 144 164
94 144 164
94 144 164
94 144 164
94 144 164
94 144 164
94 144 164
94 144 164
94 144 164
94 144 164
94 144 164
94 144 164
94 144 164
94 144 164
94 144 164
94 144 164
94 144 164
94 144 164
94 144 164
94 144 164
94 144 164
94 144 164
94 144 164
94 144 164
94 144 164
94 144 164
94 144 164
94 144 164
94 144 164
94 144 164
94 144 164
94 144 164
94 144 164
94 144 164
94 144 164
94 144 164
94 144 164
94 144 164
94 144 164
94 144 164
94 144 164
94 144 164
94 144 164
94 144 164
94 144 164
94 144 164
94 144 164
94 144 164
94 144 164
94 144 164
94 144 164
94 144 164
94 144 164
94 144 164
94 144 164
94 144 164
94 144 164
94 144 164
94 144 164
94 144 164
94 144 164
94 144 164
94 144 164
94 144 164
94 144 164
94 144 164
94 144 164
94 144 164
94 144 164
94 144 164
94 144 164
94 144 164
94 144 164
94 144 164
94 144 164
94 144 164
94 144 164
94 144 164
94 144 164
94 144 164
94 144 164
94 144 164
94 144 164
94 144 164
94 144 164
94 144 164
94 144 164
94 144 164
94 144 164
94 144 164
208 150 147
208 150 147
208 150 147
208 150 147
208 150 147
208 150 147
208 150 147
208 150 147
208 150 147
94 144 164
94 144 164
94 144 164
94 144 164
94 144 164
94 144 164
94 144 164
94 144 164
94 144 164
94 144 164
94 144 164
94 144 164
94 144 164
94 144 164
94 144 164
94 144 164
94 144 164
94 144 164
94 144 164
94 144 164
94 144 164
94 144 164
94 144 164
94 144 164
94 144 164
94 144 164
94 144 164
94 144 164
94 144 164
94 144 164
94 144 164
94 144 164
94 144 164
94 144 164
94 144 164
94 144 164
94 144 164
94 144 164
94 144 164
94 144 164
94 144 164
94 144 164
94 144 164
94 144 164
94 144 164
94 144 164
94 144 164
94 144 164
94 144 164
94 144 164
94 144 164
94 144 164
94 144 164
94 144 164
94 144 164
94 144 164
94 144 164
94 144 164
94 144 164
94 144 164
94 144 164
94 144 164
94 144 164
94 144 164
94 144 164
94 144 164
94 144 164
94 144 164
94 144 164
94 144 164
94 144 164
94 144 164
94 144 164
94 144 164
94 144 164
94 144 164
94 144 164
94 144 164
94 144 164
94 144 164
94 144 164
94 144 164
94 144 164
94 144 164
94 144 164
94 144 164
94 144 164
94 144 164
94 144 164
94 144 164
94 144 164
94 144 164
94 144 164
94 144 164
94 144 164
94 144 164
94 144 164
94 144 164
94 144 164
94 144 164
94 144 164
94 144 164
94 144 164
94 144 164
94 144 164
94 144 164
94 144 164
94 144 164
94 144 164
94 144 164
94 144 164
94 144 164
94 144 164
94 144 164
94 144 164
94 144 164
94 144 164
94 144 164
94 144 164
94 144 164
94 144 164
94 144 164
94 144 164
94 144 164
94 144 164
94 144 164
94 144 164
94 144 164
94 144 164
94 144 164
94 144 164
94 144 164
94 144 164
94 144 164
94 144 164
94 144 164
94 144 164
94 144 164
94 144 164
94 144 164
94 144 164
94 144 164
94 144 164
94 144 164
94 144 164
94 144 164
94 144 164
94 144 164
94 144 164
94 144 164
94 144 164
94 144 164
94 144 164
94 144 164
94 144 164
94 144 164
94 144 164
94 144 164
94 144 164
94 144 164
94 144 164
94 144 164
94 144 164
94 144 164
94 144 164
94 144 164
94 144 164
94 144 164
94 144 164
94 144 164
94 144 164
94 144 164
94 144 164
94 144 164
94 144 164
94 144 164
94 144 164
94 144 164
94 144 164
94 144 164
94 144 164
94 144 164
94 144 164
94 144 164
94 144 164
94 144 164
94 144 164
94 144 164
94 144 164
94 144 164
94 144 164
94 144 164
94 144 164
94 144 164
94 144 164
94 144 164
94 144 164
94 144 164
94 144 164
94 144 164
94 144 164
94 144 164
94 144 164
94 144 164
94 144 164
94 144 164
94 144 164
94 144 164
94 144 164
94 144 164
94 144 164
94 144 164
94 144 164
94 144 164
94 144 164
94 144 164
94 144 164
94 144 164
94 144 164
94 144 164
94 144 164
94 144 164
94 144 164
94 144 164
94 144 164
94 144 164
94 144 164
94 144 164
94 144 164
94 144 164
94 144 164
94 144 164
94 144 164
94 144 164
94 144 164
94 144 164
94 144 164
94 144 164
94 144 164
94 144 164
94 144 164
94 144 164
94 144 164
94 144 164
94 144 164
94 144 164
94 144 164
94 144 164
94 144 164
94 144 164
94 144 164
94 144 164
94 144 164
94 144 164
94 144 164
94 144 164
94 144 164
94 144 164
94 144 164
94 144 164
94 144 164
94 144 164
94 144 164
94 144 164
94 144 164
94 144 164
94 144 164
94 144 164
94 144 164
94 144 164
94 144 164
94 144 164
94 144 164
94 144 164
94 144 164
94 144 164
94 144 164
94 144 164
94 144 164
94 144 164
94 144 164
94 144 164
94 144 164
94 144 164
94 144 164
94 144 164
94 144 164
94 144 164
94 144 164
94 144 164
94 144 164
94 144 164
94 144 164
94 144 164
94 144 164
94 144 164
94 144 164
94 144 164
94 144 164
94 144 164
94 144 164
94 144 164
94 144 164
94 144 164
208 150 147
208 150 147
208 150 147
177 141 143
177 141 143
177 141 143
177 141 143
177 141 143
177 141 143
177 141 143
208 150 147
208 150 147
208 150 147
177 141 143
177 141 143
177 141 143
177 141 143
177 141 143
177 141 143
177 141 143
177 141 143
208 150 147
94 144 164
94 144 164
94 144 164
94 144 164
94 144 164
94 144 164
94 144 164
94 144 164
94 144 164
94 144 164
94 144 164
94 144 164
94 144 164
94 144 164
94 144 164
94 144 164
94 144 164
94 144 164
94 144 164
94 144 164
94 144 164
94 144 164
94 144 164
94 144 164
94 144 164
94 144 164
94 144 164
94 144 164
94 144 164
94 144 164
94 144 164
94 144 164
94 144 164
94 144 164
94 144 164
94 144 164
94 144 164
94 144 164
94 144 164
94 144 164
94 144 164
94 144 164
94 144 164
94 144 164
94 144 164
94 144 164
94 144 164
94 144 164
94 144 164
94 144 164
94 144 164
94 144 164
94 144 164
94 144 164
94 144 164
94 144 164
94 144 164
94 144 164
94 144 164
94 144 164
94 144 164
94 144 164
94 144 164
94 144 164
94 144 164
94 144 164
94 144 164
94 144 164
94 144 164
94 144 164
94 144 164
94 144 164
94 144 164
94 144 164
94 144 164
94 144 164
94 144 164
94 144 164
94 144 164
94 144 164
94 144 164
94 144 164
94 144 164
94 144 164
94 144 164
94 144 164
94 144 164
94 144 164
94 144 164
94 144 164
94 144 164
94 144 164
94 144 164
94 144 164
94 144 164
94 144 164
94 144 164
94 144 164
94 144 164
94 144 164
94 144 164
94 144 164
94 144 164
94 144 164
94 144 164
94 144 164
94 144 164
94 144 164
94 144 164
94 144 164
94 144 164
94 144 164
94 144 164
94 144 164
94 144 164
94 144 164
94 144 164
94 144 164
94 144 164
94 144 164
94 144 164
94 144 164
94 144 164
94 144 164
94 144 164
94 144 164
94 144 164
94 144 164
94 144 164
94 144 164
94 144 164
94 144 164
94 144 164
94 144 164
94 144 164
94 144 164
94 144 164
94 144 164
94 144 164
94 144 164
94 144 164
94 144 164
94 144 164
94 144 164
94 144 164
94 144 164
94 144 164
94 144 164
94 144 164
94 144 164
94 144 164
94 144 164
94 144 164
94 144 164
94 144 164
94 144 164
94 144 164
94 144 164
94 144 164
94 144 164
94 144 164
94 144 164
94 144 164
94 144 164
94 144 164
94 144 164
94 144 164
94 144 164
94 144 164
94 144 164
94 144 164
94 144 164
94 144 164
94 144 164
94 144 164
94 144 164
94 144 164
94 144 164
94 144 164
94 144 164
94 144 164
94 144 164
94 144 164
94 144 164
94 144 164
94 144 164
94 144 164
94 144 164
94 144 164
94 144 164
94 144 164
94 144 164
94 144 164
94 144 164
94 144 164
94 144 164
94 144 164
94 144 164
94 144 164
94 144 164
94 144 164
94 144 164
94 144 164
94 144 164
94 144 164
94 144 164
94 144 164
94 144 164
94 144 164
94 144 164
94 144 164
94 144 164
94 144 164
94 144 164
94 144 164
94 144 164
94 144 164
94 144 164
94 144 164
94 144 164
94 144 164
94 144 164
94 144 164
94 144 164
94 144 164
94 144 164
94 144 164
94 144 164
94 144 164
94 144 164
94 144 164
94 144 164
94 144 164
94 144 164
94 144 164
94 144 164
94 144 164
94 144 164
94 144 164
94 144 164
94 144 164
94 144 164
94 144 164
94 144 164
94 144 164
94 144 164
94 144 164
94 144 164
94 144 164
94 144 164
94 144 164
94 144 164
94 144 164
94 144 164
94 144 164
94 144 164
94 144 164
94 144 164
94 144 164
94 144 164
94 144 164
94 144 164
94 144 164
94 144 164
94 144 164
94 144 164
94 144 164
94 144 164
94 144 164
94 144 164
94 144 164
94 144 164
94 144 164
94 144 164
94 144 164
94 144 164
94 144 164
94 144 164
94 144 164
94 144 164
94 144 164
94 144 164
94 144 164
94 144 164
94 144 164
94 144 164
94 144 164
94 144 164
94 144 164
94 144 164
94 144 164
177 141 142
177 141 142
177 141 142
177 141 142
177 141 142
177 141 142
208 150 147
208 150 147
208 150 147
208 150 147
208 150 147
177 141 142
177 141 142
177 141 142
177 141 142
208 150 147
208 150 147
208 150 147
208 150 147
208 150 147
208 150 147
177 141 142
177 141 142
177 141 142
177 141 142
208 150 147
208 150 147
208 150 147
208 150 147
208 150 147
208 150 147
208 150 147
177 141 142
177 141 142
177 141 142
94 144 164
94 144 164
94 144 164
94 144 164
94 144 164
94 144 164
94 144 164
94 144 164
94 144 164
94 144 164
94 144 164
94 144 164
94 144 164
94 144 164
94 144 164
94 144 164
94 144 164
94 144 164
94 144 164
94 144 164
94 144 164
94 144 164
94 144 164
94 144 164
94 144 164
94 144 164
94 144 164
94 144 164
94 144 164
94 144 164
94 144 164
94 144 164
94 144 164
94 144 164
94 144 164
94 144 164
94 144 164
94 144 164
94 144 164
94 144 164
94 144 164
94 144 164
94 144 164
94 144 164
94 144 164
94 144 164
94 144 164
94 144 164
94 144 164
94 144 164
94 144 164
94 144 164
94 144 164
94 144 164
94 144 164
94 144 164
94 144 164
94 144 164
94 144 164
94 144 164
94 144 164
94 144 164
94 144 164
94 144 164
94 144 164
94 144 164
94 144 164
94 144 164
94 144 164
94 144 164
94 144 164
94 144 164
94 144 164
94 144 164
94 144 164
94 144 164
94 144 164
94 144 164
94 144 164
94 144 164
94 144 164
94 144 164
94 144 164
94 144 164
94 144 164
94 144 164
94 144 164
94 144 164
94 144 164
94 144 164
94 144 164
94 144 164
94 144 164
94 144 164
94 144 164
94 144 164
94 144 164
94 144 164
94 144 164
94 144 164
94 144 164
94 144 164
94 144 164
94 144 164
94 144 164
94 144 164
94 144 164
94 144 164
94 144 164
94 144 164
94 144 164
94 144 164
94 144 164
94 144 164
94 144 164
94 144 164
94 144 164
94 144 164
94 144 164
94 144 164
94 144 164
94 144 164
94 144 164
94 144 164
94 144 164
94 144 164
94 144 164
94 144 164
94 144 164
94 144 164
94 144 164
94 144 164
94 144 164
94 144 164
94 144 164
94 144 164
94 144 164
94 144 164
94 144 164
94 144 164
94 144 164
94 144 164
94 144 164
94 144 164
94 144 164
94 144 164
94 144 164
94 144 164
94 144 164
94 144 164
94 144 164
94 144 164
94 144 164
94 144 164
94 144 164
94 144 164
94 144 164
94 144 164
94 144 164
94 144 164
94 144 164
94 144 164
94 144 164
94 144 164
94 144 164
94 144 164
94 144 164
94 144 164
94 144 164
94 144 164
94 144 164
94 144 164
94 144 164
94 144 164
94 144 164
94 144 164
94 144 164
94 144 164
94 144 164
94 144 164
94 144 164
94 144 164
94 144 164
94 144 164
94 144 164
94 144 164
94 144 164
94 144 164
94 144 164
94 144 164
94 144 164
94 144 164
94 144 164
94 144 164
94 144 164
94 144 164
94 144 164
94 144 164
94 144 164
94 144 164
94 144 164
94 144 164
94 144 164
94 144 164
94 144 164
94 144 164
94 144 164
94 144 164
94 144 164
94 144 164
94 144 164
94 144 164
94 144 164
94 144 164
94 144 164
94 144 164
94 144 164
94 144 164
94 144 164
94 144 164
94 144 164
94 144 164
94 144 164
94 144 164
94 144 164
94 144 164
94 144 164
94 144 164
94 144 164
94 144 164
94 144 164
94 144 164
94 144 164
94 144 164
94 144 164
94 144 164
94 144 164
94 144 164
94 144 164
94 144 164
94 144 164
94 144 164
94 144 164
94 144 164
94 144 164
94 144 164
94 144 164
94 144 164
94 144 164
94 144 164
94 144 164
94 144 164
94 144 164
94 144 164
94 144 164
94 144 164
94 144 164
94 144 164
94 144 164
94 144 164
94 144 164
94 144 164
94 144 164
94 144 164
94 144 164
94 144 164
94 144 164
94 144 164
94 144 164
94 144 164
94 144 164
94 144 164
94 144 164
94 144 164
94 144 164
94 144 164
94 144 164
94 144 164
94 144 164
94 144 164
94 144 164
94 144 164
94 144 164
162 107 98
162 107 98
162 107 98
177 141 142
177 141 142
177 141 142
208 149 146
208 149 146
208 149 146
208 149 146
208 149 146
208 149 146
208 149 146
177 141 142
177 141 142
177 141 142
177 141 142
208 149 146
208 149 146
208 149 146
208 149 146
208 149 146
208 149 146
177 141 142
177 141 142
177 141 142
177 141 142
177 141 142
208 149 146
208 149 146
208 149 146
208 149 146
177 141 142
177 141 142
177 141 142
177 141 142
177 141 142
177 141 142
177 141 142
159 104 95
94 144 164
94 144 164
94 144 164
94 144 164
94 144 164
94 144 164
94 144 164
94 144 164
94 144 164
94 144 164
94 144 164
94 144 164
94 144 164
94 144 164
94 144 164
94 144 164
94 144 164
94 144 164
94 144 164
94 144 164
94 144 164
94 144 164
94 144 164
94 144 164
94 144 164
94 144 164
94 144 164
94 144 164
94 144 164
94 144 164
94 144 164
94 144 164
94 144 164
94 144 164
94 144 164
94 144 164
94 144 164
94 144 164
94 144 164
94 144 164
94 144 164
94 144 164
94 144 164
94 144 164
94 144 164
94 144 164
94 144 164
94 144 164
94 144 164
94 144 164
94 144 164
94 144 164
94 144 164
94 144 164
94 144 164
94 144 164
94 144 164
94 144 164
94 144 164
94 144 164
94 144 164
94 144 164
94 144 164
94 144 164
94 144 164
94 144 164
94 144 164
94 144 164
94 144 164
94 144 164
94 144 164
94 144 164
94 144 164
94 144 164
94 144 164
94 144 164
94 144 164
94 144 164
94 144 164
94 144 164
94 144 164
94 144 164
94 144 164
94 144 164
94 144 164
94 144 164
94 144 164
94 144 164
94 144 164
94 144 164
94 144 164
94 144 164
94 144 164
94 144 164
94 144 164
94 144 164
94 144 164
94 144 164
94 144 164
94 144 164
94 144 164
94 144 164
94 144 164
94 144 164
94 144 164
94 144 164
94 144 164
94 144 164
94 144 164
94 144 164
94 144 164
94 144 164
94 144 164
94 144 164
94 144 164
94 144 164
94 144 164
94 144 164
94 144 164
94 144 164
94 144 164
94 144 164
94 144 164
94 144 164
94 144 164
94 144 164
94 144 164
94 144 164
94 144 164
94 144 164
94 144 164
94 144 164
94 144 164
94 144 164
94 144 164
94 144 164
94 144 164
94 144 164
94 144 164
94 144 164
94 144 164
94 144 164
94 144 164
94 144 164
94 144 164
94 144 164
94 144 164
94 144 164
94 144 164
94 144 164
94 144 164
94 144 164
94 144 164
94 144 164
94 144 164
94 144 164
94 144 164
94 144 164
94 144 164
94 144 164
94 144 164
94 144 164
94 144 164
94 144 164
94 144 164
94 144 164
94 144 164
94 144 164
94 144 164
94 144 164
94 144 164
94 144 164
94 144 164
94 144 164
94 144 164
94 144 164
94 144 164
94 144 164
94 144 164
94 144 164
94 144 164
94 144 164
94 144 164
94 144 164
94 144 164
94 144 164
94 144 164
94 144 164
94 144 164
94 144 164
94 144 164
94 144 164
94 144 164
94 144 164
94 144 164
94 144 164
94 144 164
94 144 164
94 144 164
94 144 164
94 144 164
94 144 164
94 144 164
94 144 164
94 144 164
94 144 164
94 144 164
94 144 164
94 144 164
94 144 164
94 144 164
94 144 164
94 144 164
94 144 164
94 144 164
94 144 164
94 144 164
94 144 164
94 144 164
94 144 164
94 144 164
94 144 164
94 144 164
94 144 164
94 144 164
94 144 164
94 144 164
94 144 164
94 144 164
94 144 164
94 144 164
94 144 164
94 144 164
94 144 164
94 144 164
94 144 164
94 144 164
94 144 164
94 144 164
94 144 164
94 144 164
94 144 164
94 144 164
94 144 164
94 144 164
94 144 164
94 144 164
94 144 164
94 144 164
94 144 164
94 144 164
94 144 164
94 144 164
94 144 164
94 144 164
94 144 164
94 144 164
94 144 164
94 144 164
94 144 164
94 144 164
94 144 164
94 144 164
94 144 164
94 144 164
94 144 164
94 144 164
94 144 164
94 144 164
94 144 164
94 144 164
94 144 164
94 144 164
94 144 164
94 144 164
94 144 164
94 144 164
94 144 164
94 144 164
94 144 164
162 107 99
162 107 98
162 107 98
162 107 98
194 116 103
194 116 102
194 116 102
194 116 102
209 149 146
209 149 146
177 140 141
177 140 141
177 140 141
177 140 141
177 140 141
177 140 141
177 140 141
177 140 141
209 149 146
209 149 146
209 149 146
209 149 146
177 140 141
177 140 141
177 140 141
177 140 141
177 140 141
177 140 141
209 149 146
209 149 146
209 149 146
209 149 146
209 149 146
190 112 99
190 112 99
159 104 94
159 104 95
159 104 95
159 104 95
159 104 95
94 144 164
94 144 164
94 144 164
94 144 164
94 144 164
94 144 164
94 144 164
94 144 164
94 144 164
94 144 164
94 144 164
94 144 164
94 144 164
94 144 164
94 144 164
94 144 164
94 144 164
94 144 164
94 144 164
94 144 164
94 144 164
94 144 164
94 144 164
94 144 164
94 144 164
94 144 164
94 144 164
94 144 164
94 144 164
94 144 164
94 144 164
94 144 164
94 144 164
94 144 164
94 144 164
94 144 164
94 144 164
94 144 164
94 144 164
94 144 164
94 144 164
94 144 164
94 144 164
94 144 164
94 144 164
94 144 164
94 144 164
94 144 164
94 144 164
94 144 164
94 144 164
94 144 164
94 144 164
94 144 164
94 144 164
94 144 164
94 144 164
94 144 164
94 144 164
94 144 164
94 144 164
94 144 164
94 144 164
94 144 164
94 144 164
94 144 164
94 144 164
94 144 164
94 144 164
94 144 164
94 144 164
94 144 164
94 144 164
94 144 164
94 144 164
94 144 164
94 144 164
94 144 164
94 144 164
94 144 164
94 144 164
94 144 164
94 144 164
94 144 164
94 144 164
94 144 164
94 144 164
94 144 164
94 144 164
94 144 164
94 144 164
94 144 164
94 144 164
94 144 164
94 144 164
94 144 164
94 144 164
94 144 164
94 144 164
94 144 164
94 144 164
94 144 164
94 144 164
94 144 164
94 144 164
94 144 164
94 144 164
94 144 164
94 144 164
94 144 164
94 144 164
94 144 164
94 144 164
94 144 164
94 144 164
94 144 164
94 144 164
94 144 164
94 144 164
94 144 164
94 144 164
94 144 164
94 144 164
94 144 164
94 144 164
94 144 164
94 144 164
94 144 164
94 144 164
94 144 164
94 144 164
94 144 164
94 144 164
94 144 164
94 144 164
94 144 164
94 144 164
94 144 164
94 144 164
94 144 164
94 144 164
94 144 164
94 144 164
94 144 164
94 144 164
94 144 164
94 144 164
94 144 164
94 144 164
94 144 164
94 144 164
94 144 164
94 144 164
94 144 164
94 144 164
94 144 164
94 144 164
94 144 164
94 144 164
94 144 164
94 144 164
94 144 164
94 144 164
94 144 164
94 144 164
94 144 164
94 144 164
94 144 164
94 144 164
94 144 164
94 144 164
94 144 164
94 144 164
94 144 164
94 144 164
94 144 164
94 144 164
94 144 164
94 144 164
94 144 164
94 144 164
94 144 164
94 144 164
94 144 164
94 144 164
94 144 164
94 144 164
94 144 164
94 144 164
94 144 164
94 144 164
94 144 164
94 144 164
94 144 164
94 144 164
94 144 164
94 144 164
94 144 164
94 144 164
94 144 164
94 144 164
94 144 164
94 144 164
94 144 164
94 144 164
94 144 164
94 144 164
94 144 164
94 144 164
94 144 164
94 144 164
94 144 164
94 144 164
94 144 164
94 144 164
94 144 164
94 144 164
94 144 164
94 144 164
94 144 164
94 144 164
94 144 164
94 144 164
94 144 164
94 144 164
94 144 164
94 144 164
94 144 164
94 144 164
94 144 164
94 144 164
94 144 164
94 144 164
94 144 164
94 144 164
94 144 164
94 144 164
94 144 164
94 144 164
94 144 164
94 144 164
94 144 164
94 144 164
94 144 164
94 144 164
94 144 164
94 144 164
94 144 164
94 144 164
94 144 164
94 144 164
94 144 164
94 144 164
94 144 164
94 144 164
94 144 164
94 144 164
94 144 164
94 144 164
94 144 164
94 144 164
94 144 164
94 144 164
94 144 164
94 144 164
94 144 164
94 144 164
94 144 164
94 144 164
94 144 164
94 144 164
94 144 164
94 144 164
94 144 164
94 144 164
94 144 164
94 144 164
94 144 164
94 144 164
94 144 164
162 107 99
162 107 98
162 107 98
162 107 98
194 116 103
194 116 102
194 116 102
194 116 102
194 115 102
162 107 97
162 106 97
162 106 97
177 140 141
177 140 141
177 140 141
209 149 146
209 149 146
209 149 146
209 149 146
209 149 146
209 149 146
209 149 146
209 149 146
177 140 141
177 140 141
177 140 141
177 140 141
159 103 94
159 103 94
159 103 94
190 112 99
190 112 99
190 112 99
190 112 99
190 112 99
159 104 94
159 104 95
159 104 95
159 104 95
159 104 95
94 144 164
94 144 164
94 144 164
94 144 164
94 144 164
94 144 164
94 144 164
94 144 164
94 144 164
94 144 164
94 144 164
94 144 164
94 144 164
94 144 164
94 144 164
94 144 164
94 144 164
94 144 164
94 144 164
94 144 164
94 144 164
94 144 164
94 144 164
94 144 164
94 144 164
94 144 164
94 144 164
94 144 164
94 144 164
94 144 164
94 144 164
94 144 164
94 144 164
94 144 164
94 144 164
94 144 164
94 144 164
94 144 164
94 144 164
94 144 164
94 144 164
94 144 164
94 144 164
94 144 164
94 144 164
94 144 164
94 144 164
94 144 164
94 144 164
94 144 164
94 144 164
94 144 164
94 144 164
94 144 164
94 144 164
94 144 164
94 144 164
94 144 164
94 144 164
94 144 164
94 144 164
94 144 164
94 144 164
94 144 164
94 144 164
94 144 164
94 144 164
94 144 164
94 144 164
94 144 164
94 144 164
94 144 164
94 144 164
94 144 164
94 144 164
94 144 164
94 144 164
94 144 164
94 144 164
94 144 164
94 144 164
94 144 164
94 144 164
94 144 164
94 144 164
94 144 164
94 144 164
94 144 164
94 144 164
94 144 164
94 144 164
94 144 164
94 144 164
94 144 164
94 144 164
94 144 164
94 144 164
94 144 164
94 144 164
94 144 164
94 144 164
94 144 164
94 144 164
94 144 164
94 144 164
94 144 164
94 144 164
94 144 164
94 144 164
94 144 164
94 144 164
94 144 164
94 144 164
94 144 164
94 144 164
94 144 164
94 144 164
94 144 164
94 144 164
94 144 164
94 144 164
94 144 164
94 144 164
94 144 164
94 144 164
94 144 164
94 144 164
94 144 164
94 144 164
94 144 164
94 144 164
94 144 164
94 144 164
94 144 164
94 144 164
94 144 164
94 144 164
94 144 164
94 144 164
94 144 164
94 144 164
94 144 164
94 144 164
94 144 164
94 144 164
94 144 164
94 144 164
94 144 164
94 144 164
94 144 164
94 144 164
94 144 164
94 144 164
94 144 164
94 144 164
94 144 164
94 144 164
94 144 164
94 144 164
94 144 164
94 144 164
94 144 164
94 144 164
94 144 164
94 144 164
94 144 164
94 144 164
94 144 164
94 144 164
94 144 164
94 144 164
94 144 164
94 144 164
94 144 164
94 144 164
94 144 164
94 144 164
94 144 164
94 144 164
94 144 164
94 144 164
94 144 164
94 144 164
94 144 164
94 144 164
94 144 164
94 144 164
94 144 164
94 144 164
94 144 164
94 144 164
94 144 164
94 144 164
94 144 164
94 144 164
94 144 164
94 144 164
94 144 164
94 144 164
94 144 164
94 144 164
94 144 164
94 144 164
94 144 164
94 144 164
94 144 164
94 144 164
94 144 164
94 144 164
94 144 164
94 144 164
94 144 164
94 144 164
94 144 164
94 144 164
94 144 164
94 144 164
94 144 164
94 144 164
94 144 164
94 144 164
94 144 164
94 144 164
94 144 164
94 144 164
94 144 164
94 144 164
94 144 164
94 144 164
94 144 164
94 144 164
94 144 164
94 144 164
94 144 164
94 144 164
94 144 164
94 144 164
94 144 164
94 144 164
94 144 164
94 144 164
94 144 164
94 144 164
94 144 164
94 144 164
94 144 164
94 144 164
94 144 164
94 144 164
94 144 164
94 144 164
94 144 164
94 144 164
94 144 164
94 144 164
94 144 164
94 144 164
94 144 164
94 144 164
94 144 164
94 144 164
94 144 164
94 144 164
94 144 164
94 144 164
94 144 164
94 144 164
94 144 164
94 144 164
94 144 164
94 144 164
94 144 164
94 144 164
94 144 164
94 144 164
94 144 164
94 144 164
94 144 164
94 144 164
94 144 164
162 107 99
162 107 98
162 107 98
162 107 98
194 116 103
194 116 102
194 116 102
194 116 102
194 115 102
162 107 97
162 107 97
162 106 97
162 106 97
162 106 97
194 115 101
194 115 101
194 115 101
209 149 145
209 149 145
209 149 145
209 149 145
190 111 98
190 111 98
190 111 98
190 112 98
159 103 94
159 103 94
159 103 94
159 103 94
159 103 94
190 112 99
190 112 99
190 112 99
190 112 99
190 112 99
159 104 94
159 104 95
159 104 95
159 104 95
159 104 95
94 144 164
94 144 164
94 144 164
94 144 164
94 144 164
94 144 164
94 144 164
94 144 164
94 144 164
94 144 164
94 144 164
94 144 164
94 144 164
94 144 164
94 144 164
94 144 164
94 144 164
94 144 164
94 144 164
94 144 164
94 144 164
94 144 164
94 144 164
94 144 164
94 144 164
94 144 164
94 144 164
94 144 164
94 144 164
94 144 164
94 144 164
94 144 164
94 144 164
94 144 164
94 144 164
94 144 164
94 144 164
94 144 164
94 144 164
94 144 164
94 144 164
94 144 164
94 144 164
94 144 164
94 144 164
94 144 164
94 144 164
94 144 164
94 144 164
94 144 164
94 144 164
94 144 164
94 144 164
94 144 164
94 144 164
94 144 164
94 144 164
94 144 164
94 144 164
94 144 164
94 144 164
94 144 164
94 144 164
94 144 164
94 144 164
94 144 164
94 144 164
94 144 164
94 144 164
94 144 164
94 144 164
94 144 164
94 144 164
94 144 164
94 144 164
94 144 164
94 144 164
94 144 164
94 144 164
94 144 164
94 144 164
94 144 164
94 144 164
94 144 164
94 144 164
94 144 164
94 144 164
94 144 164
94 144 164
94 144 164
94 144 164
94 144 164
94 144 164
94 144 164
94 144 164
94 144 164
94 144 164
94 144 164
94 144 164
94 144 164
94 144 164
94 144 164
94 144 164
94 144 164
94 144 164
94 144 164
94 144 164
94 144 164
94 144 164
94 144 164
94 144 164
94 144 164
94 144 164
94 144 164
94 144 164
94 144 164
94 144 164
94 144 164
94 144 164
94 144 164
94 144 164
94 144 164
94 144 164
94 144 164
94 144 164
94 144 164
94 144 164
94 144 164
94 144 164
94 144 164
94 144 164
94 144 164
94 144 164
94 144 164
94 144 164
94 144 164
94 144 164
94 144 164
94 144 164
94 144 164
94 144 164
94 144 164
94 144 164
94 144 164
94 144 164
94 144 164
94 144 164
94 144 164
94 144 164
94 144 164
94 144 164
94 144 164
94 144 164
94 144 164
94 144 164
94 144 164
94 144 164
94 144 164
94 144 164
94 144 164
94 144 164
94 144 164
94 144 164
94 144 164
94 144 164
94 144 164
94 144 164
94 144 164
94 144 164
94 144 164
94 144 164
94 144 164
94 144 164
94 144 164
94 144 164
94 144 164
94 144 164
94 144 164
94 144 164
94 144 164
94 144 164
94 144 164
94 144 164
94 144 164
94 144 164
94 144 164
94 144 164
94 144 164
94 144 164
94 144 164
94 144 164
94 144 164
94 144 164
94 144 164
94 144 164
94 144 164
94 144 164
94 144 164
94 144 164
94 144 164
94 144 164
94 144 164
94 144 164
94 144 164
94 144 164
94 144 164
94 144 164
94 144 164
94 144 164
94 144 164
94 144 164
94 144 164
94 144 164
94 144 164
94 144 164
94 144 164
94 144 164
94 144 164
94 144 164
94 144 164
94 144 164
94 144 164
94 144 164
94 144 164
94 144 164
94 144 164
94 144 164
94 144 164
94 144 164
94 144 164
94 144 164
94 144 164
94 144 164
94 144 164
94 144 164
94 144 164
94 144 164
94 144 164
94 144 164
94 144 164
94 144 164
94 144 164
94 144 164
94 144 164
94 144 164
94 144 164
94 144 164
94 144 164
94 144 164
94 144 164
94 144 164
94 144 164
94 144 164
94 144 164
94 144 164
94 144 164
94 144 164
94 144 164
94 144 164
94 144 164
94 144 164
94 144 164
94 144 164
94 144 164
94 144 164
94 144 164
94 144 164
94 144 164
94 144 164
94 144 164
94 144 164
94 144 164
94 144 164
94 144 164
94 144 164
94 144 164
94 144 164
94 144 164
94 144 164
94 144 164
162 107 99
162 107 98
162 107 98
162 107 98
194 116 103
194 116 102
194 116 102
194 116 102
194 115 102
162 107 97
162 107 97
162 106 97
162 106 97
162 106 97
194 115 101
194 115 101
194 115 101
194 115 101
194 115 101
190 111 98
190 111 98
190 111 98
190 111 98
190 111 98
190 112 98
159 103 94
159 103 94
159 103 94
159 103 94
159 103 94
190 112 99
190 112 99
190 112 99
190 112 99
190 112 99
159 104 95
159 104 95
159 104 95
159 104 95
159 104 95
124 181 162
130 196 166
124 181 162
94 144 164
94 144 164
94 144 164
94 144 164
94 144 164
94 144 164
94 144 164
94 144 164
94 144 164
94 144 164
94 144 164
94 144 164
94 144 164
94 144 164
94 144 164
94 144 164
94 144 164
94 144 164
94 144 164
94 144 164
94 144 164
94 144 164
94 144 164
94 144 164
94 144 164
94 144 164
94 144 164
94 144 164
94 144 164
94 144 164
94 144 164
94 144 164
94 144 164
94 144 164
94 144 164
94 144 164
94 144 164
94 144 164
94 144 164
94 144 164
94 144 164
94 144 164
94 144 164
94 144 164
94 144 164
94 144 164
94 144 164
94 144 164
94 144 164
94 144 164
94 144 164
94 144 164
94 144 164
94 144 164
94 144 164
94 144 164
94 144 164
94 144 164
94 144 164
94 144 164
94 144 164
94 144 164
94 144 164
94 144 164
94 144 164
94 144 164
94 144 164
94 144 164
94 144 164
94 144 164
94 144 164
94 144 164
94 144 164
94 144 164
94 144 164
94 144 164
94 144 164
94 144 164
94 144 164
94 144 164
94 144 164
94 144 164
94 144 164
94 144 164
94 144 164
94 144 164
94 144 164
94 144 164
94 144 164
94 144 164
94 144 164
94 144 164
94 144 164
94 144 164
94 144 164
94 144 164
94 144 164
94 144 164
94 144 164
94 144 164
94 144 164
94 144 164
94 144 164
94 144 164
94 144 164
94 144 164
94 144 164
94 144 164
94 144 164
94 144 164
94 144 164
94 144 164
94 144 164
94 144 164
94 144 164
94 144 164
94 144 164
94 144 164
94 144 164
94 144 164
94 144 164
94 144 164
94 144 164
94 144 164
94 144 164
94 144 164
94 144 164
94 144 164
94 144 164
94 144 164
94 144 164
94 144 164
94 144 164
94 144 164
94 144 164
94 144 164
94 144 164
94 144 164
94 144 164
94 144 164
94 144 164
94 144 164
94 144 164
94 144 164
94 144 164
94 144 164
94 144 164
94 144 164
94 144 164
94 144 164
94 144 164
94 144 164
94 144 164
94 144 164
94 144 164
94 144 164
94 144 164
94 144 164
94 144 164
94 144 164
94 144 164
94 144 164
94 144 164
94 144 164
94 144 164
94 144 164
94 144 164
94 144 164
94 144 164
94 144 164
94 144 164
94 144 164
94 144 164
94 144 164
94 144 164
94 144 164
94 144 164
94 144 164
94 144 164
94 144 164
94 144 164
94 144 164
94 144 164
94 144 164
94 144 164
94 144 164
94 144 164
94 144 164
94 144 164
94 144 164
94 144 164
94 144 164
94 144 164
94 144 164
94 144 164
94 144 164
94 144 164
94 144 164
94 144 164
94 144 164
94 144 164
94 144 164
94 144 164
94 144 164
94 144 164
94 144 164
94 144 164
94 144 164
94 144 164
94 144 164
94 144 164
94 144 164
94 144 164
94 144 164
94 144 164
94 144 164
94 144 164
94 144 164
94 144 164
94 144 164
94 144 164
94 144 164
94 144 164
94 144 164
94 144 164
94 144 164
94 144 164
94 144 164
94 144 164
94 144 164
94 144 164
94 144 164
94 144 164
94 144 164
94 144 164
94 144 164
94 144 164
94 144 164
94 144 164
94 144 164
94 144 164
94 144 164
94 144 164
94 144 164
94 144 164
94 144 164
94 144 164
94 144 164
94 144 164
94 144 164
94 144 164
94 144 164
94 144 164
94 144 164
94 144 164
94 144 164
94 144 164
94 144 164
94 144 164
94 144 164
94 144 164
94 144 164
94 144 164
94 144 164
94 144 164
94 144 164
94 144 164
94 144 164
94 144 164
94 144 164
94 144 164
94 144 164
94 144 164
94 144 164
94 144 164
94 144 164
94 144 164
162 108 99
162 107 98
162 107 98
162 107 98
194 116 103
194 116 102
194 116 102
194 116 102
194 115 102
162 107 97
162 107 97
162 106 97
162 106 97
162 106 97
194 115 101
194 115 101
194 115 101
194 115 101
194 115 101
190 111 98
190 111 98
190 111 98
190 111 98
190 112 98
190 112 98
159 103 94
159 103 94
159 103 94
159 103 94
159 103 94
190 112 99
190 112 99
190 112 99
190 112 99
190 112 99
159 104 95
159 104 95
159 104 95
159 104 95
159 104 95
123 181 161
123 181 161
123 181 161
123 181 161
123 181 161
123 181 161
123 181 161
123 181 161
94 144 164
94 144 164
94 144 164
94 144 164
94 144 164
94 144 164
94 144 164
94 144 164
94 144 164
94 144 164
94 144 164
94 144 164
94 144 164
94 144 164
94 144 164
94 144 164
94 144 164
94 144 164
94 144 164
94 144 164
94 144 164
94 144 164
94 144 164
94 144 164
94 144 164
94 144 164
94 144 164
94 144 164
94 144 164
94 144 164
94 144 164
94 144 164
94 144 164
94 144 164
94 144 164
94 144 164
94 144 164
94 144 164
94 144 164
94 144 164
94 144 164
94 144 164
94 144 164
94 144 164
94 144 164
94 144 164
94 144 164
94 144 164
94 144 164
94 144 164
94 144 164
94 144 164
94 144 164
94 144 164
94 144 164
94 144 164
94 144 164
94 144 164
94 144 164
94 144 164
94 144 164
94 144 164
94 144 164
94 144 164
94 144 164
94 144 164
94 144 164
94 144 164
94 144 164
94 144 164
94 144 164
94 144 164
94 144 164
94 144 164
94 144 164
94 144 164
94 144 164
94 144 164
94 144 164
94 144 164
94 144 164
94 144 164
94 144 164
94 144 164
94 144 164
94 144 164
94 144 164
94 144 164
94 144 164
94 144 164
94 144 164
94 144 164
94 144 164
94 144 164
94 144 164
94 144 164
94 144 164
94 144 164
94 144 164
94 144 164
94 144 164
94 144 164
94 144 164
94 144 164
94 144 164
94 144 164
94 144 164
94 144 164
94 144 164
94 144 164
94 144 164
94 144 164
94 144 164
94 144 164
94 144 164
94 144 164
94 144 164
94 144 164
94 144 164
94 144 164
94 144 164
94 144 164
94 144 164
94 144 164
94 144 164
94 144 164
94 144 164
94 144 164
94 144 164
94 144 164
94 144 164
94 144 164
94 144 164
94 144 164
94 144 164
94 144 164
94 144 164
94 144 164
94 144 164
94 144 164
94 144 164
94 144 164
94 144 164
94 144 164
94 144 164
94 144 164
94 144 164
94 144 164
94 144 164
94 144 164
94 144 164
94 144 164
94 144 164
94 144 164
94 144 164
94 144 164
94 144 164
94 144 164
94 144 164
94 144 164
94 144 164
94 144 164
94 144 164
94 144 164
94 144 164
94 144 164
94 144 164
94 144 164
94 144 164
94 144 164
94 144 164
94 144 164
94 144 164
94 144 164
94 144 164
94 144 164
94 144 164
94 144 164
94 144 164
94 144 164
94 144 164
94 144 164
94 144 164
94 144 164
94 144 164
94 144 164
94 144 164
94 144 164
94 144 164
94 144 164
94 144 164
94 144 164
94 144 164
94 144 164
94 144 164
94 144 164
94 144 164
94 144 164
94 144 164
94 144 164
94 144 164
94 144 164
94 144 164
94 144 164
94 144 164
94 144 164
94 144 164
94 144 164
94 144 164
94 144 164
94 144 164
94 144 164
94 144 164
94 144 164
94 144 164
94 144 164
94 144 164
94 144 164
94 144 164
94 144 164
94 144 164
94 144 164
94 144 164
94 144 164
94 144 164
94 144 164
94 144 164
94 144 164
94 144 164
94 144 164
94 144 164
94 144 164
94 144 164
94 144 164
94 144 164
94 144 164
94 144 164
94 144 164
94 144 164
94 144 164
94 144 164
94 144 164
94 144 164
94 144 164
94 144 164
94 144 164
94 144 164
94 144 164
94 144 164
94 144 164
94 144 164
94 144 164
94 144 164
94 144 164
94 144 164
94 144 164
94 144 164
94 144 164
94 144 164
94 144 164
94 144 164
94 144 164
94 144 164
94 144 164
94 144 164
94 144 164
94 144 164
94 144 164
94 144 164
94 144 164
94 144 164
94 144 164
162 108 99
162 107 98
162 107 98
162 107 98
194 116 103
194 116 103
194 116 102
194 116 102
194 115 102
162 107 97
162 107 97
162 106 97
162 106 97
162 106 97
194 115 101
194 115 101
194 115 101
194 115 101
194 115 101
190 111 98
190 111 98
190 111 98
190 111 98
190 112 98
190 112 98
159 103 94
159 103 94
159 103 94
159 103 94
159 103 94
190 112 99
190 112 99
190 112 99
190 112 99
190 112 99
159 104 95
159 104 95
159 104 95
159 104 95
159 104 95
115 168 128
115 168 128
109 152 124
109 152 125
112 155 127
112 155 127
115 168 128
109 152 125
109 152 125
94 144 164
94 144 164
94 144 164
94 144 164
94 144 164
94 144 164
94 144 164
94 144 164
94 144 164
94 144 164
94 144 164
94 144 164
94 144 164
94 144 164
94 144 164
94 144 164
94 144 164
94 144 164
94 144 164
94 144 164
94 144 164
94 144 164
94 144 164
94 144 164
94 144 164
94 144 164
94 144 164
94 144 164
94 144 164
94 144 164
94 144 164
94 144 164
94 144 164
94 144 164
94 144 164
94 144 164
94 144 164
94 144 164
94 144 164
94 144 164
94 144 164
94 144 164
94 144 164
94 144 164
94 144 164
94 144 164
94 144 164
94 144 164
94 144 164
94 144 164
94 144 164
94 144 164
94 144 164
94 144 164
94 144 164
94 144 164
94 144 164
94 144 164
94 144 164
94 144 164
94 144 164
94 144 164
94 144 164
94 144 164
94 144 164
94 144 164
94 144 164
94 144 164
94 144 164
94 144 164
94 144 164
94 144 164
94 144 164
94 144 164
94 144 164
94 144 164
94 144 164
94 144 164
94 144 164
94 144 164
94 144 164
94 144 164
94 144 164
94 144 164
94 144 164
94 144 164
94 144 164
94 144 164
94 144 164
94 144 164
94 144 164
94 144 164
94 144 164
94 144 164
94 144 164
94 144 164
94 144 164
94 144 164
94 144 164
94 144 164
94 144 164
94 144 164
94 144 164
94 144 164
94 144 164
94 144 164
94 144 164
94 144 164
94 144 164
94 144 164
94 144 164
94 144 164
94 144 164
94 144 164
94 144 164
94 144 164
94 144 164
94 144 164
94 144 164
94 144 164
94 144 164
94 144 164
94 144 164
94 144 164
94 144 164
94 144 164
94 144 164
94 144 164
94 144 164
94 144 164
94 144 164
94 144 164
94 144 164
94 144 164
94 144 164
94 144 164
94 144 164
94 144 164
94 144 164
94 144 164
94 144 164
94 144 164
94 144 164
94 144 164
94 144 164
94 144 164
94 144 164
94 144 164
94 144 164
94 144 164
94 144 164
94 144 164
94 144 164
94 144 164
94 144 164
94 144 164
94 144 164
94 144 164
94 144 164
94 144 164
94 144 164
94 144 164
94 144 164
94 144 164
94 144 164
94 144 164
94 144 164
94 144 164
94 144 164
94 144 164
94 144 164
94 144 164
94 144 164
94 144 164
94 144 164
94 144 164
94 144 164
94 144 164
94 144 164
94 144 164
94 144 164
94 144 164
94 144 164
94 144 164
94 144 164
94 144 164
94 144 164
94 144 164
94 144 164
94 144 164
94 144 164
94 144 164
94 144 164
94 144 164
94 144 164
94 144 164
94 144 164
94 144 164
94 144 164
94 144 164
94 144 164
94 144 164
94 144 164
94 144 164
94 144 164
94 144 164
94 144 164
94 144 164
94 144 164
94 144 164
94 144 164
94 144 164
94 144 164
94 144 164
94 144 164
94 144 164
94 144 164
94 144 164
94 144 164
94 144 164
94 144 164
94 144 164
94 144 164
94 144 164
94 144 164
94 144 164
94 144 164
94 144 164
94 144 164
94 144 164
94 144 164
94 144 164
94 144 164
94 144 164
94 144 164
94 144 164
94 144 164
94 144 164
94 144 164
94 144 164
94 144 164
94 144 164
94 144 164
94 144 164
94 144 164
94 144 164
94 144 164
94 144 164
94 144 164
94 144 164
94 144 164
94 144 164
94 144 164
94 144 164
94 144 164
94 144 164
94 144 164
94 144 164
94 144 164
94 144 164
94 144 164
122 180 160
122 180 160
94 144 164
94 144 164
94 144 164
128 196 164
122 180 160
94 144 164
94 144 164
94 144 164
194 116 103
162 107 99
162 107 98
162 107 98
194 116 103
194 116 103
194 116 102
194 116 102
194 116 102
162 107 97
162 107 97
162 106 97
162 106 97
162 106 97
194 115 102
194 115 101
194 115 101
194 115 101
194 115 101
190 111 98
190 111 98
190 111 98
190 111 98
190 112 98
190 112 98
159 103 94
159 103 94
159 103 94
159 103 94
159 103 94
190 112 99
190 112 99
190 112 99
190 112 99
190 112 99
159 104 95
159 104 95
159 104 95
159 104 95
159 104 95
115 168 128
115 168 128
115 168 128
109 152 125
112 155 127
112 155 127
109 152 124
109 152 125
94 144 164
94 144 164
94 144 164
94 144 164
94 144 164
94 144 164
94 144 164
94 144 164
94 144 164
94 144 164
94 144 164
94 144 164
94 144 164
94 144 164
94 144 164
94 144 164
94 144 164
94 144 164
94 144 164
94 144 164
94 144 164
94 144 164
94 144 164
94 144 164
94 144 164
94 144 164
94 144 164
94 144 164
94 144 164
94 144 164
94 144 164
94 144 164
94 144 164
94 144 164
94 144 164
94 144 164
94 144 164
94 144 164
94 144 164
94 144 164
94 144 164
94 144 164
94 144 164
94 144 164
94 144 164
94 144 164
94 144 164
94 144 164
94 144 164
94 144 164
94 144 164
94 144 164
94 144 164
94 144 164
94 144 164
94 144 164
94 144 164
94 144 164
94 144 164
94 144 164
94 144 164
94 144 164
94 144 164
94 144 164
94 144 164
94 144 164
94 144 164
94 144 164
94 144 164
94 144 164
94 144 164
94 144 164
94 144 164
94 144 164
94 144 164
94 144 164
94 144 164
94 144 164
94 144 164
94 144 164
94 144 164
94 144 164
94 144 164
94 144 164
94 144 164
94 144 164
94 144 164
94 144 164
94 144 164
94 144 164
94 144 164
94 144 164
94 144 164
94 144 164
94 144 164
94 144 164
94 144 164
94 144 164
94 144 164
94 144 164
94 144 164
94 144 164
94 144 164
94 144 164
94 144 164
94 144 164
94 144 164
94 144 164
94 144 164
94 144 164
94 144 164
94 144 164
94 144 164
94 144 164
94 144 164
94 144 164
94 144 164
94 144 164
94 144 164
94 144 164
94 144 164
94 144 164
94 144 164
94 144 164
94 144 164
94 144 164
94 144 164
94 144 164
94 144 164
94 144 164
94 144 164
94 144 164
94 144 164
94 144 164
94 144 164
94 144 164
94 144 164
94 144 164
94 144 164
94 144 164
94 144 164
94 144 164
94 144 164
94 144 164
94 144 164
94 144 164
94 144 164
94 144 164
94 144 164
94 144 164
94 144 164
94 144 164
94 144 164
94 144 164
94 144 164
94 144 164
94 144 164
94 144 164
94 144 164
94 144 164
94 144 164
94 144 164
94 144 164
94 144 164
94 144 164
94 144 164
94 144 164
94 144 164
94 144 164
94 144 164
94 144 164
94 144 164
94 144 164
94 144 164
94 144 164
94 144 164
94 144 164
94 144 164
94 144 164
94 144 164
94 144 164
94 144 164
94 144 164
94 144 164
94 144 164
94 144 164
94 144 164
94 144 164
94 144 164
94 144 164
94 144 164
94 144 164
94 144 164
94 144 164
94 144 164
94 144 164
94 144 164
94 144 164
94 144 164
94 144 164
94 144 164
94 144 164
94 144 164
94 144 164
94 144 164
94 144 164
94 144 164
94 144 164
94 144 164
94 144 164
94 144 164
94 144 164
94 144 164
94 144 164
94 144 164
94 144 164
94 144 164
94 144 164
94 144 164
94 144 164
94 144 164
94 144 164
94 144 164
94 144 164
94 144 164
94 144 164
94 144 164
94 144 164
94 144 164
94 144 164
94 144 164
94 144 164
94 144 164
94 144 164
94 144 164
94 144 164
94 144 164
94 144 164
94 144 164
94 144 164
94 144 164
94 144 164
94 144 164
94 144 164
94 144 164
94 144 164
94 144 164
94 144 164
94 144 164
94 144 164
94 144 164
94 144 164
94 144 164
94 144 164
94 144 164
94 144 164
122 180 159
122 180 159
122 180 159
122 180 159
128 196 163
122 180 159
122 180 159
128 196 163
121 180 159
127 196 163
127 196 163
121 180 159
121 180 159
121 180 159
127 196 163
121 180 159
194 116 103
194 116 103
194 116 103
194 116 103
162 107 98
194 116 103
194 116 102
194 116 102
194 116 102
162 107 98
162 107 97
162 106 97
162 106 97
162 106 97
194 115 102
194 115 101
194 115 101
194 115 101
194 115 101
190 111 98
190 111 98
190 111 98
190 111 98
190 112 98
190 112 98
159 103 94
159 103 94
159 103 94
159 103 94
159 103 94
190 112 99
190 112 99
190 112 99
190 112 99
190 112 99
159 104 95
190 112 99
190 113 99
190 113 99
190 113 100
115 168 128
115 168 128
109 152 125
109 152 125
112 155 127
118 171 131
115 168 128
109 152 125
94 144 164
94 144 164
94 144 164
94 144 164
94 144 164
94 144 164
94 144 164
94 144 164
94 144 164
94 144 164
94 144 164
122 180 159
122 180 159
122 180 159
122 180 159
122 180 159
94 144 164
94 144 164
94 144 164
94 144 164
94 144 164
94 144 164
94 144 164
94 144 164
94 144 164
94 144 164
94 144 164
94 144 164
94 144 164
94 144 164
94 144 164
94 144 164
94 144 164
94 144 164
94 144 164
94 144 164
94 144 164
94 144 164
94 144 164
94 144 164
94 144 164
94 144 164
94 144 164
94 144 164
94 144 164
94 144 164
94 144 164
94 144 164
94 144 164
94 144 164
94 144 164
94 144 164
94 144 164
94 144 164
94 144 164
94 144 164
94 144 164
94 144 164
94 144 164
94 144 164
94 144 164
94 144 164
94 144 164
94 144 164
94 144 164
94 144 164
94 144 164
94 144 164
94 144 164
94 144 164
94 144 164
94 144 164
94 144 164
94 144 164
94 144 164
94 144 164
94 144 164
94 144 164
94 144 164
94 144 164
94 144 164
94 144 164
94 144 164
94 144 164
94 144 164
94 144 164
94 144 164
94 144 164
94 144 164
94 144 164
94 144 164
94 144 164
94 144 164
94 144 164
94 144 164
94 144 164
94 144 164
94 144 164
94 144 164
94 144 164
94 144 164
94 144 164
94 144 164
94 144 164
94 144 164
94 144 164
94 144 164
94 144 164
94 144 164
94 144 164
94 144 164
94 144 164
94 144 164
94 144 164
94 144 164
94 144 164
94 144 164
94 144 164
94 144 164
94 144 164
94 144 164
94 144 164
94 144 164
94 144 164
94 144 164
94 144 164
94 144 164
94 144 164
94 144 164
94 144 164
94 144 164
94 144 164
94 144 164
94 144 164
94 144 164
94 144 164
94 144 164
94 144 164
94 144 164
94 144 164
94 144 164
94 144 164
94 144 164
94 144 164
94 144 164
94 144 164
94 144 164
94 144 164
94 144 164
94 144 164
94 144 164
94 144 164
94 144 164
94 144 164
94 144 164
94 144 164
94 144 164
94 144 164
94 144 164
94 144 164
94 144 164
94 144 164
94 144 164
94 144 164
94 144 164
94 144 164
94 144 164
94 144 164
94 144 164
94 144 164
94 144 164
94 144 164
94 144 164
94 144 164
94 144 164
94 144 164
94 144 164
94 144 164
94 144 164
94 144 164
94 144 164
94 144 164
94 144 164
94 144 164
94 144 164
94 144 164
94 144 164
94 144 164
94 144 164
94 144 164
94 144 164
94 144 164
94 144 164
94 144 164
94 144 164
94 144 164
94 144 164
94 144 164
94 144 164
94 144 164
94 144 164
94 144 164
94 144 164
94 144 164
94 144 164
94 144 164
94 144 164
94 144 164
94 144 164
94 144 164
94 144 164
94 144 164
94 144 164
94 144 164
94 144 164
94 144 164
94 144 164
94 144 164
94 144 164
94 144 164
94 144 164
94 144 164
94 144 164
94 144 164
94 144 164
94 144 164
94 144 164
94 144 164
94 144 164
94 144 164
94 144 164
94 144 164
94 144 164
94 144 164
94 144 164
94 144 164
94 144 164
94 144 164
94 144 164
94 144 164
94 144 164
94 144 164
94 144 164
94 144 164
94 144 164
94 144 164
94 144 164
94 144 164
94 144 164
94 144 164
121 180 159
121 180 159
121 180 159
121 180 159
127 196 163
121 180 159
127 196 163
121 180 159
127 196 163
127 196 163
121 180 159
121 180 159
121 180 159
127 196 163
127 196 163
121 180 158
121 180 158
127 196 162
127 196 162
121 180 158
121 180 158
121 180 158
194 116 103
194 116 103
194 116 103
194 116 103
162 107 98
162 107 98
162 107 98
162 107 98
162 107 98
162 107 98
162 107 97
162 107 97
162 106 97
162 106 97
194 115 102
194 115 101
194 115 101
194 115 101
194 115 101
190 111 98
190 111 98
190 111 98
190 111 98
190 112 98
190 112 98
159 103 94
159 103 94
159 103 94
159 103 94
159 103 94
190 112 99
159 103 94
159 103 94
159 104 94
159 104 95
190 112 99
190 112 99
190 113 99
190 113 99
190 113 100
129 196 164
129 196 165
129 196 165
123 181 161
123 181 161
123 181 161
129 196 165
129 196 165
123 181 161
123 181 161
129 196 165
129 196 165
94 144 164
94 144 164
94 144 164
94 144 164
94 144 164
116 170 128
115 169 128
115 169 128
121 180 159
121 180 159
127 196 163
121 180 159
121 180 159
121 180 159
121 180 159
121 180 159
127 196 163
94 144 164
94 144 164
94 144 164
94 144 164
94 144 164
94 144 164
94 144 164
94 144 164
94 144 164
94 144 164
94 144 164
94 144 164
94 144 164
94 144 164
94 144 164
94 144 164
94 144 164
94 144 164
94 144 164
94 144 164
94 144 164
94 144 164
94 144 164
94 144 164
94 144 164
94 144 164
94 144 164
94 144 164
94 144 164
94 144 164
94 144 164
94 144 164
94 144 164
94 144 164
94 144 164
94 144 164
94 144 164
94 144 164
94 144 164
94 144 164
94 144 164
94 144 164
94 144 164
94 144 164
94 144 164
94 144 164
94 144 164
94 144 164
94 144 164
94 144 164
94 144 164
94 144 164
94 144 164
94 144 164
94 144 164
94 144 164
94 144 164
94 144 164
94 144 164
94 144 164
94 144 164
94 144 164
94 144 164
94 144 164
94 144 164
94 144 164
94 144 164
94 144 164
94 144 164
94 144 164
94 144 164
94 144 164
94 144 164
94 144 164
94 144 164
94 144 164
94 144 164
94 144 164
94 144 164
94 144 164
94 144 164
94 144 164
94 144 164
94 144 164
94 144 164
94 144 164
94 144 164
94 144 164
94 144 164
94 144 164
94 144 164
94 144 164
94 144 164
94 144 164
94 144 164
94 144 164
94 144 164
94 144 164
94 144 164
94 144 164
94 144 164
94 144 164
94 144 164
94 144 164
94 144 164
94 144 164
94 144 164
94 144 164
94 144 164
94 144 164
94 144 164
94 144 164
94 144 164
94 144 164
94 144 164
94 144 164
94 144 164
94 144 164
94 144 164
94 144 164
94 144 164
94 144 164
94 144 164
94 144 164
94 144 164
94 144 164
94 144 164
94 144 164
94 144 164
94 144 164
94 144 164
94 144 164
94 144 164
94 144 164
94 144 164
94 144 164
94 144 164
94 144 164
94 144 164
94 144 164
94 144 164
94 144 164
94 144 164
94 144 164
94 144 164
94 144 164
94 144 164
94 144 164
94 144 164
94 144 164
94 144 164
94 144 164
94 144 164
94 144 164
94 144 164
94 144 164
94 144 164
94 144 164
94 144 164
94 144 164
94 144 164
94 144 164
94 144 164
94 144 164
94 144 164
94 144 164
94 144 164
94 144 164
94 144 164
94 144 164
94 144 164
94 144 164
94 144 164
94 144 164
94 144 164
94 144 164
94 144 164
94 144 164
94 144 164
94 144 164
94 144 164
94 144 164
94 144 164
94 144 164
94 144 164
94 144 164
94 144 164
94 144 164
94 144 164
94 144 164
94 144 164
94 144 164
94 144 164
94 144 164
94 144 164
94 144 164
94 144 164
94 144 164
94 144 164
94 144 164
94 144 164
94 144 164
94 144 164
94 144 164
94 144 164
94 144 164
94 144 164
94 144 164
94 144 164
94 144 164
94 144 164
94 144 164
94 144 164
94 144 164
94 144 164
94 144 164
94 144 164
94 144 164
94 144 164
94 144 164
94 144 164
94 144 164
94 144 164
94 144 164
94 144 164
115 169 127
127 196 162
121 180 158
121 180 158
121 180 158
121 180 158
127 196 162
127 196 162
121 180 158
120 180 158
120 180 158
127 196 162
120 180 158
120 180 158
120 180 158
126 196 162
126 196 162
126 196 162
126 196 162
120 180 158
120 180 158
126 196 162
120 180 158
120 180 158
120 180 158
126 196 162
194 116 103
194 116 103
194 116 103
194 116 103
194 116 103
162 107 98
162 107 98
162 107 98
162 107 98
194 115 102
194 115 102
194 115 102
194 115 102
162 106 97
194 115 102
194 115 101
194 115 101
194 115 101
194 115 101
190 111 98
190 111 98
190 111 98
190 112 98
190 112 98
190 112 98
159 103 94
190 112 98
190 112 98
190 112 99
190 112 99
159 103 94
159 103 94
159 103 94
159 104 94
159 104 95
190 112 99
190 112 99
190 113 99
190 113 100
190 113 100
122 181 160
108 152 123
117 170 130
122 181 160
122 181 160
108 152 123
108 152 124
114 168 128
115 168 128
117 170 130
117 170 130
111 154 126
122 181 160
128 196 164
128 196 164
120 180 158
120 180 158
121 180 158
121 180 158
121 180 158
127 196 162
121 180 158
121 180 158
127 196 162
121 180 158
121 180 158
121 180 158
121 180 158
127 196 162
121 180 158
127 196 162
121 180 158
121 180 158
121 180 159
94 144 164
94 144 164
94 144 164
94 144 164
94 144 164
94 144 164
94 144 164
94 144 164
94 144 164
94 144 164
94 144 164
94 144 164
94 144 164
94 144 164
94 144 164
94 144 164
94 144 164
94 144 164
94 144 164
94 144 164
94 144 164
94 144 164
94 144 164
94 144 164
94 144 164
94 144 164
94 144 164
94 144 164
94 144 164
94 144 164
94 144 164
94 144 164
94 144 164
94 144 164
94 144 164
94 144 164
94 144 164
94 144 164
94 144 164
94 144 164
94 144 164
94 144 164
94 144 164
94 144 164
94 144 164
94 144 164
94 144 164
94 144 164
94 144 164
94 144 164
94 144 164
94 144 164
94 144 164
94 144 164
94 144 164
94 144 164
94 144 164
94 144 164
94 144 164
94 144 164
94 144 164
94 144 164
94 144 164
94 144 164
94 144 164
94 144 164
94 144 164
94 144 164
94 144 164
94 144 164
94 144 164
94 144 164
94 144 164
94 144 164
94 144 164
94 144 164
94 144 164
94 144 164
94 144 164
94 144 164
94 144 164
94 144 164
94 144 164
94 144 164
94 144 164
94 144 164
94 144 164
94 144 164
94 144 164
94 144 164
94 144 164
94 144 164
94 144 164
94 144 164
94 144 164
94 144 164
94 144 164
94 144 164
94 144 164
94 144 164
94 144 164
94 144 164
94 144 164
94 144 164
94 144 164
94 144 164
94 144 164
94 144 164
94 144 164
94 144 164
94 144 164
94 144 164
94 144 164
94 144 164
94 144 164
94 144 164
94 144 164
94 144 164
94 144 164
94 144 164
94 144 164
94 144 164
94 144 164
94 144 164
94 144 164
94 144 164
94 144 164
94 144 164
94 144 164
94 144 164
94 144 164
94 144 164
94 144 164
94 144 164
94 144 164
94 144 164
94 144 164
94 144 164
94 144 164
94 144 164
94 144 164
94 144 164
94 144 164
94 144 164
94 144 164
94 144 164
94 144 164
94 144 164
94 144 164
94 144 164
94 144 164
94 144 164
94 144 164
94 144 164
94 144 164
94 144 164
94 144 164
94 144 164
94 144 164
94 144 164
94 144 164
94 144 164
94 144 164
94 144 164
94 144 164
94 144 164
94 144 164
94 144 164
94 144 164
94 144 164
94 144 164
94 144 164
94 144 164
94 144 164
94 144 164
94 144 164
94 144 164
94 144 164
94 144 164
94 144 164
94 144 164
94 144 164
94 144 164
94 144 164
94 144 164
94 144 164
94 144 164
94 144 164
94 144 164
94 144 164
94 144 164
94 144 164
94 144 164
94 144 164
94 144 164
94 144 164
94 144 164
94 144 164
94 144 164
94 144 164
94 144 164
94 144 164
94 144 164
94 144 164
94 144 164
94 144 164
94 144 164
94 144 164
94 144 164
94 144 164
94 144 164
94 144 164
94 144 164
94 144 164
94 144 164
94 144 164
94 144 164
120 180 158
120 180 158
120 180 158
120 180 158
126 196 162
126 196 162
120 180 158
120 180 158
120 180 158
126 196 162
126 196 162
126 196 162
126 196 162
126 196 162
126 196 162
126 196 162
120 180 157
126 196 162
126 196 162
126 196 161
120 180 157
120 180 157
126 196 161
126 196 161
126 196 161
126 196 161
126 196 161
126 196 161
126 196 161
194 116 103
194 116 103
194 116 103
194 116 103
194 116 103
162 107 98
162 107 98
162 107 98
162 107 98
194 115 102
194 115 102
194 115 102
194 115 102
194 115 102
162 106 97
162 106 97
162 106 97
194 115 101
194 115 101
190 111 98
190 111 98
159 103 93
159 103 93
159 103 93
159 103 94
190 112 98
190 112 98
190 112 98
190 112 99
190 112 99
159 103 94
159 103 94
159 103 94
159 104 94
159 104 95
190 112 99
190 112 99
190 113 99
190 113 100
190 113 100
114 167 127
108 152 123
117 170 130
111 154 126
108 152 123
114 167 127
108 152 124
109 152 124
115 168 128
117 170 130
117 170 130
116 170 129
122 180 160
122 180 160
122 180 160
109 153 123
120 180 157
126 196 162
120 180 158
120 180 158
120 180 158
126 196 162
120 180 158
120 180 158
120 180 158
120 180 158
126 196 162
120 180 158
120 180 158
126 196 162
126 196 162
126 196 162
120 180 158
120 180 158
120 180 158
127 196 162
127 196 162
120 180 158
121 180 158
94 144 164
94 144 164
94 144 164
94 144 164
94 144 164
94 144 164
94 144 164
94 144 164
94 144 164
94 144 164
94 144 164
94 144 164
94 144 164
94 144 164
94 144 164
94 144 164
94 144 164
94 144 164
94 144 164
94 144 164
94 144 164
94 144 164
94 144 164
94 144 164
94 144 164
94 144 164
94 144 164
94 144 164
94 144 164
94 144 164
94 144 164
94 144 164
94 144 164
94 144 164
94 144 164
94 144 164
94 144 164
94 144 164
94 144 164
94 144 164
94 144 164
94 144 164
94 144 164
94 144 164
94 144 164
94 144 164
94 144 164
94 144 164
94 144 164
94 144 164
94 144 164
94 144 164
94 144 164
94 144 164
94 144 164
94 144 164
94 144 164
94 144 164
94 144 164
94 144 164
94 144 164
94 144 164
94 144 164
94 144 164
94 144 164
94 144 164
94 144 164
94 144 164
94 144 164
94 144 164
94 144 164
94 144 164
94 144 164
94 144 164
94 144 164
94 144 164
94 144 164
94 144 164
94 144 164
94 144 164
94 144 164
94 144 164
94 144 164
94 144 164
94 144 164
94 144 164
94 144 164
94 144 164
94 144 164
94 144 164
94 144 164
94 144 164
94 144 164
94 144 164
94 144 164
94 144 164
94 144 164
94 144 164
94 144 164
94 144 164
94 144 164
94 144 164
94 144 164
94 144 164
94 144 164
94 144 164
94 144 164
94 144 164
94 144 164
94 144 164
94 144 164
94 144 164
94 144 164
94 144 164
94 144 164
94 144 164
94 144 164
94 144 164
94 144 164
94 144 164
94 144 164
94 144 164
94 144 164
94 144 164
94 144 164
94 144 164
94 144 164
94 144 164
94 144 164
94 144 164
94 144 164
94 144 164
94 144 164
94 144 164
94 144 164
94 144 164
94 144 164
94 144 164
94 144 164
94 144 164
94 144 164
94 144 164
94 144 164
94 144 164
94 144 164
94 144 164
94 144 164
94 144 164
94 144 164
94 144 164
94 144 164
94 144 164
94 144 164
94 144 164
94 144 164
94 144 164
94 144 164
94 144 164
94 144 164
94 144 164
94 144 164
94 144 164
94 144 164
94 144 164
94 144 164
94 144 164
94 144 164
94 144 164
94 144 164
94 144 164
94 144 164
94 144 164
94 144 164
94 144 164
94 144 164
94 144 164
94 144 164
94 144 164
94 144 164
94 144 164
94 144 164
94 144 164
94 144 164
94 144 164
94 144 164
94 144 164
94 144 164
94 144 164
94 144 164
94 144 164
94 144 164
94 144 164
94 144 164
94 144 164
94 144 164
94 144 164
94 144 164
94 144 164
94 144 164
94 144 164
94 144 164
94 144 164
94 144 164
94 144 164
94 144 164
94 144 164
94 144 164
94 144 164
94 144 164
94 144 164
94 144 164
108 152 122
120 180 157
126 196 161
126 196 161
120 180 157
126 196 161
120 180 157
120 180 157
120 180 157
119 180 157
126 196 161
119 180 157
126 196 161
126 196 161
126 196 161
126 196 161
119 180 157
126 196 161
126 196 161
126 196 161
126 196 161
125 196 161
125 196 161
125 196 161
125 196 161
125 196 161
125 196 161
119 179 157
125 196 161
125 196 161
194 116 103
194 116 103
194 116 103
194 116 103
194 116 103
162 107 98
162 107 98
162 107 98
162 107 98
194 115 102
194 115 102
194 115 102
194 115 102
194 115 102
162 106 97
162 106 97
162 106 97
162 106 97
162 106 97
159 103 93
159 103 93
159 103 93
159 103 93
159 103 94
190 112 98
190 112 98
190 112 98
190 112 98
190 112 99
190 112 99
159 103 94
159 103 94
159 103 94
159 104 94
159 104 95
190 112 99
190 113 99
190 113 99
190 113 100
190 113 100
108 152 123
114 167 127
111 154 126
111 154 126
108 152 123
108 152 123
114 168 128
115 168 128
115 168 128
117 170 131
117 170 130
110 154 125
110 153 124
121 180 159
121 180 159
109 153 123
114 169 126
119 180 157
126 196 161
119 180 157
119 180 157
126 196 161
120 180 157
120 180 157
120 180 157
120 180 157
126 196 161
126 196 161
120 180 157
120 180 157
126 196 161
126 196 161
126 196 161
126 196 162
120 180 157
126 196 162
126 196 162
126 196 162
126 196 162
120 180 158
126 196 162
126 196 162
126 196 162
126 196 162
94 144 164
94 144 164
94 144 164
94 144 164
94 144 164
94 144 164
94 144 164
94 144 164
94 144 164
94 144 164
94 144 164
94 144 164
94 144 164
94 144 164
94 144 164
94 144 164
94 144 164
94 144 164
94 144 164
94 144 164
94 144 164
94 144 164
94 144 164
94 144 164
94 144 164
94 144 164
94 144 164
94 144 164
94 144 164
94 144 164
94 144 164
94 144 164
94 144 164
94 144 164
94 144 164
94 144 164
94 144 164
94 144 164
94 144 164
94 144 164
94 144 164
94 144 164
94 144 164
94 144 164
94 144 164
94 144 164
94 144 164
94 144 164
94 144 164
94 144 164
94 144 164
94 144 164
94 144 164
94 144 164
94 144 164
94 144 164
94 144 164
94 144 164
94 144 164
94 144 164
94 144 164
94 144 164
94 144 164
94 144 164
94 144 164
94 144 164
94 144 164
94 144 164
94 144 164
94 144 164
94 144 164
94 144 164
94 144 164
94 144 164
94 144 164
94 144 164
94 144 164
94 144 164
94 144 164
94 144 164
94 144 164
94 144 164
94 144 164
94 144 164
94 144 164
94 144 164
94 144 164
94 144 164
94 144 164
94 144 164
94 144 164
94 144 164
94 144 164
94 144 164
94 144 164
94 144 164
94 144 164
94 144 164
94 144 164
94 144 164
94 144 164
94 144 164
94 144 164
94 144 164
94 144 164
94 144 164
94 144 164
94 144 164
94 144 164
94 144 164
94 144 164
94 144 164
94 144 164
94 144 164
94 144 164
94 144 164
94 144 164
94 144 164
94 144 164
94 144 164
94 144 164
94 144 164
94 144 164
94 144 164
94 144 164
94 144 164
94 144 164
94 144 164
94 144 164
94 144 164
94 144 164
94 144 164
94 144 164
94 144 164
94 144 164
94 144 164
94 144 164
94 144 164
94 144 164
94 144 164
94 144 164
94 144 164
94 144 164
94 144 164
94 144 164
94 144 164
94 144 164
94 144 164
94 144 164
94 144 164
94 144 164
94 144 164
94 144 164
94 144 164
94 144 164
94 144 164
94 144 164
94 144 164
94 144 164
94 144 164
94 144 164
94 144 164
94 144 164
94 144 164
94 144 164
94 144 164
94 144 164
94 144 164
94 144 164
94 144 164
94 144 164
94 144 164
94 144 164
94 144 164
94 144 164
94 144 164
94 144 164
94 144 164
94 144 164
94 144 164
94 144 164
94 144 164
94 144 164
94 144 164
94 144 164
94 144 164
94 144 164
94 144 164
94 144 164
94 144 164
94 144 164
94 144 164
94 144 164
94 144 164
94 144 164
94 144 164
94 144 164
94 144 164
94 144 164
94 144 164
94 144 164
94 144 164
94 144 164
94 144 164
94 144 164
107 152 121
125 196 161
119 179 157
119 179 157
125 196 161
125 196 161
119 179 157
125 196 161
125 196 161
119 179 157
125 196 161
119 179 156
125 196 161
125 196 161
125 196 161
125 196 161
119 179 156
119 179 156
125 196 161
125 196 161
125 196 161
119 179 156
125 196 160
125 196 160
125 196 160
125 196 160
119 179 156
119 179 156
119 179 156
125 196 160
125 196 160
194 116 103
194 116 103
194 116 103
194 116 103
194 116 103
162 107 98
162 107 98
162 107 98
162 107 98
194 116 102
194 115 102
194 115 102
194 115 102
194 115 102
162 106 97
162 106 97
162 106 97
162 106 97
162 106 97
159 103 93
159 103 93
159 103 93
159 103 93
159 103 94
190 112 98
190 112 98
190 112 98
190 112 98
190 112 99
190 112 99
159 103 94
159 103 94
159 103 94
159 104 95
159 104 95
190 112 99
190 113 99
190 113 99
190 113 100
190 113 100
108 152 123
114 168 127
111 154 126
117 170 130
108 152 123
108 152 123
129 196 164
129 196 164
129 196 164
129 196 164
129 196 164
110 154 125
109 153 123
121 180 158
121 180 158
109 153 123
107 152 121
107 152 121
107 152 120
113 168 125
125 196 161
125 196 161
125 196 161
125 196 161
125 196 161
125 196 161
125 196 161
119 179 157
125 196 161
125 196 161
119 179 157
125 196 161
126 196 161
126 196 161
126 196 161
119 180 157
126 196 161
126 196 161
126 196 161
119 180 157
120 180 157
120 180 157
126 196 161
126 196 161
120 180 157
120 180 157
126 196 161
126 196 161
126 196 161
94 144 164
94 144 164
94 144 164
94 144 164
94 144 164
94 144 164
94 144 164
94 144 164
94 144 164
94 144 164
94 144 164
94 144 164
94 144 164
94 144 164
94 144 164
94 144 164
94 144 164
94 144 164
94 144 164
94 144 164
94 144 164
94 144 164
94 144 164
94 144 164
94 144 164
94 144 164
94 144 164
94 144 164
94 144 164
94 144 164
94 144 164
94 144 164
94 144 164
94 144 164
94 144 164
94 144 164
94 144 164
94 144 164
94 144 164
94 144 164
94 144 164
94 144 164
94 144 164
94 144 164
94 144 164
94 144 164
94 144 164
94 144 164
94 144 164
94 144 164
94 144 164
94 144 164
94 144 164
94 144 164
94 144 164
94 144 164
94 144 164
94 144 164
94 144 164
94 144 164
94 144 164
94 144 164
94 144 164
94 144 164
94 144 164
94 144 164
94 144 164
94 144 164
94 144 164
94 144 164
94 144 164
94 144 164
94 144 164
94 144 164
94 144 164
94 144 164
94 144 164
94 144 164
94 144 164
94 144 164
94 144 164
94 144 164
94 144 164
94 144 164
94 144 164
94 144 164
94 144 164
94 144 164
94 144 164
94 144 164
94 144 164
94 144 164
94 144 164
94 144 164
94 144 164
94 144 164
94 144 164
94 144 164
94 144 164
94 144 164
94 144 164
94 144 164
94 144 164
94 144 164
94 144 164
94 144 164
94 144 164
94 144 164
94 144 164
94 144 164
94 144 164
94 144 164
94 144 164
94 144 164
94 144 164
94 144 164
94 144 164
94 144 164
94 144 164
94 144 164
94 144 164
94 144 164
94 144 164
94 144 164
94 144 164
94 144 164
94 144 164
94 144 164
94 144 164
94 144 164
94 144 164
94 144 164
94 144 164
94 144 164
94 144 164
94 144 164
94 144 164
94 144 164
94 144 164
94 144 164
94 144 164
94 144 164
94 144 164
94 144 164
94 144 164
94 144 164
94 144 164
94 144 164
94 144 164
94 144 164
94 144 164
94 144 164
94 144 164
94 144 164
94 144 164
94 144 164
94 144 164
94 144 164
94 144 164
94 144 164
94 144 164
94 144 164
94 144 164
94 144 164
94 144 164
94 144 164
94 144 164
94 144 164
94 144 164
94 144 164
94 144 164
94 144 164
94 144 164
94 144 164
94 144 164
94 144 164
94 144 164
94 144 164
94 144 164
94 144 164
94 144 164
94 144 164
94 144 164
94 144 164
94 144 164
94 144 164
94 144 164
94 144 164
94 144 164
94 144 164
94 144 164
94 144 164
94 144 164
94 144 164
94 144 164
94 144 164
94 144 164
94 144 164
94 144 164
94 144 164
113 169 125
113 168 125
113 168 125
113 168 124
119 179 156
119 179 156
119 179 156
125 196 160
125 196 160
119 179 156
118 179 156
118 179 156
118 179 156
125 196 160
118 179 156
125 196 160
118 179 156
125 196 160
125 196 160
118 179 156
118 179 156
125 196 160
125 196 160
125 196 160
125 196 160
118 179 156
118 179 156
125 196 160
118 179 156
106 151 119
118 179 156
163 108 99
194 116 103
194 116 103
194 116 103
194 116 103
162 107 98
162 107 98
162 107 98
162 107 98
194 116 102
194 115 102
194 115 102
194 115 102
194 115 102
162 106 97
162 106 97
162 106 97
162 106 97
162 106 97
159 103 93
159 103 93
159 103 93
159 103 93
159 103 94
190 112 98
190 112 98
190 112 98
190 112 99
190 112 99
190 112 99
159 103 94
159 103 94
159 104 94
159 104 95
159 104 95
190 112 99
190 113 99
190 113 100
190 113 100
190 113 100
111 154 126
110 154 125
128 196 164
128 196 164
128 196 164
128 196 164
122 180 160
128 196 164
122 180 160
122 180 160
128 196 164
110 154 125
109 153 123
126 196 162
120 180 158
114 169 126
107 152 121
107 152 121
107 152 121
113 168 125
113 168 124
113 168 124
106 151 120
106 151 120
119 179 156
119 179 156
119 179 156
119 179 156
125 196 160
119 179 156
119 179 156
125 196 160
125 196 160
119 179 156
119 179 156
119 179 156
119 179 156
125 196 161
125 196 161
119 179 157
119 179 157
119 179 157
119 179 157
125 196 161
119 179 157
119 179 157
119 179 157
125 196 161
111 166 122
105 149 118
111 166 123
94 144 164
94 144 164
94 144 164
94 144 164
94 144 164
94 144 164
94 144 164
94 144 164
94 144 164
94 144 164
94 144 164
94 144 164
94 144 164
94 144 164
94 144 164
94 144 164
94 144 164
94 144 164
94 144 164
94 144 164
94 144 164
94 144 164
94 144 164
94 144 164
94 144 164
94 144 164
94 144 164
94 144 164
94 144 164
94 144 164
94 144 164
94 144 164
94 144 164
94 144 164
94 144 164
94 144 164
94 144 164
94 144 164
94 144 164
94 144 164
94 144 164
94 144 164
94 144 164
94 144 164
94 144 164
94 144 164
94 144 164
94 144 164
94 144 164
94 144 164
94 144 164
94 144 164
94 144 164
94 144 164
94 144 164
94 144 164
94 144 164
94 144 164
94 144 164
94 144 164
94 144 164
94 144 164
94 144 164
94 144 164
94 144 164
94 144 164
94 144 164
94 144 164
94 144 164
94 144 164
94 144 164
94 144 164
94 144 164
94 144 164
94 144 164
94 144 164
94 144 164
94 144 164
94 144 164
94 144 164
94 144 164
94 144 164
94 144 164
94 144 164
94 144 164
94 144 164
94 144 164
94 144 164
94 144 164
94 144 164
94 144 164
94 144 164
94 144 164
94 144 164
94 144 164
94 144 164
94 144 164
94 144 164
94 144 164
94 144 164
94 144 164
94 144 164
94 144 164
94 144 164
94 144 164
94 144 164
94 144 164
94 144 164
94 144 164
94 144 164
94 144 164
94 144 164
94 144 164
94 144 164
94 144 164
94 144 164
94 144 164
94 144 164
94 144 164
94 144 164
94 144 164
94 144 164
94 144 164
94 144 164
94 144 164
94 144 164
94 144 164
94 144 164
94 144 164
94 144 164
94 144 164
94 144 164
94 144 164
94 144 164
94 144 164
94 144 164
94 144 164
94 144 164
94 144 164
94 144 164
94 144 164
94 144 164
94 144 164
94 144 164
94 144 164
94 144 164
94 144 164
94 144 164
94 144 164
94 144 164
94 144 164
94 144 164
94 144 164
94 144 164
94 144 164
94 144 164
94 144 164
94 144 164
94 144 164
94 144 164
94 144 164
94 144 164
94 144 164
94 144 164
94 144 164
94 144 164
94 144 164
94 144 164
94 144 164
94 144 164
94 144 164
94 144 164
94 144 164
94 144 164
94 144 164
94 144 164
94 144 164
94 144 164
94 144 164
94 144 164
94 144 164
94 144 164
94 144 164
94 144 164
94 144 164
94 144 164
94 144 164
94 144 164
94 144 164
94 144 164
94 144 164
94 144 164
94 144 164
94 144 164
94 144 164
94 144 164
94 144 164
94 144 164
114 169 125
107 152 121
113 168 125
107 152 120
106 151 120
112 168 124
106 151 119
103 148 116
109 165 120
109 165 121
103 148 116
112 168 123
124 196 160
109 165 120
109 165 120
109 165 120
112 168 123
112 168 123
124 196 160
109 165 120
109 165 120
112 168 123
112 168 123
118 179 155
109 165 120
103 148 116
103 148 116
103 148 116
103 148 116
103 148 116
106 151 119
163 108 99
163 108 99
162 107 99
162 107 98
162 107 98
162 107 98
162 107 98
162 107 98
162 107 98
194 116 102
194 115 102
194 115 102
194 115 102
194 115 102
162 106 97
162 106 97
162 106 97
162 106 97
162 106 97
159 103 93
159 103 93
159 103 93
159 103 93
159 103 94
190 112 98
190 112 98
190 112 98
190 112 99
190 112 99
190 112 99
159 103 94
159 103 94
159 104 94
159 104 95
159 104 95
190 112 99
190 113 99
159 104 95
159 104 95
159 104 95
111 154 126
110 154 125
116 170 129
116 170 129
110 154 125
116 170 129
122 180 159
122 180 159
122 180 159
128 196 163
128 196 163
122 180 159
115 169 127
108 153 122
120 180 157
120 180 157
107 152 121
107 152 121
107 152 121
113 168 125
113 168 124
113 168 124
106 151 120
106 151 120
106 151 120
112 168 124
112 168 124
112 168 123
109 165 121
110 165 121
106 151 120
113 168 124
112 168 124
112 168 124
110 165 121
110 165 121
113 168 124
113 168 124
113 168 124
103 148 117
110 165 121
113 168 124
113 168 124
113 168 124
119 179 156
110 165 121
110 166 122
104 149 118
104 149 118
111 166 123
111 166 123
94 144 164
94 144 164
94 144 164
94 144 164
94 144 164
94 144 164
94 144 164
94 144 164
94 144 164
94 144 164
94 144 164
94 144 164
94 144 164
94 144 164
94 144 164
94 144 164
94 144 164
94 144 164
94 144 164
94 144 164
94 144 164
94 144 164
94 144 164
94 144 164
94 144 164
94 144 164
94 144 164
94 144 164
94 144 164
94 144 164
94 144 164
94 144 164
94 144 164
94 144 164
94 144 164
94 144 164
94 144 164
94 144 164
94 144 164
94 144 164
94 144 164
94 144 164
94 144 164
94 144 164
94 144 164
94 144 164
94 144 164
94 144 164
94 144 164
94 144 164
94 144 164
94 144 164
94 144 164
94 144 164
94 144 164
94 144 164
94 144 164
94 144 164
94 144 164
94 144 164
94 144 164
94 144 164
94 144 164
94 144 164
94 144 164
94 144 164
94 144 164
94 144 164
94 144 164
94 144 164
94 144 164
94 144 164
94 144 164
94 144 164
94 144 164
94 144 164
94 144 164
94 144 164
94 144 164
94 144 164
94 144 164
94 144 164
94 144 164
94 144 164
94 144 164
94 144 164
94 144 164
94 144 164
94 144 164
94 144 164
94 144 164
94 144 164
94 144 164
94 144 164
94 144 164
94 144 164
94 144 164
94 144 164
94 144 164
94 144 164
94 144 164
94 144 164
94 144 164
94 144 164
94 144 164
94 144 164
94 144 164
94 144 164
94 144 164
94 144 164
94 144 164
94 144 164
94 144 164
94 144 164
94 144 164
94 144 164
94 144 164
94 144 164
94 144 164
94 144 164
94 144 164
94 144 164
94 144 164
94 144 164
94 144 164
94 144 164
94 144 164
94 144 164
94 144 164
94 144 164
94 144 164
94 144 164
94 144 164
94 144 164
94 144 164
94 144 164
94 144 164
94 144 164
94 144 164
94 144 164
94 144 164
94 144 164
94 144 164
94 144 164
94 144 164
94 144 164
94 144 164
94 144 164
94 144 164
94 144 164
94 144 164
94 144 164
94 144 164
94 144 164
94 144 164
94 144 164
94 144 164
94 144 164
94 144 164
94 144 164
94 144 164
94 144 164
94 144 164
94 144 164
94 144 164
94 144 164
94 144 164
94 144 164
94 144 164
94 144 164
94 144 164
94 144 164
94 144 164
94 144 164
94 144 164
94 144 164
94 144 164
94 144 164
94 144 164
94 144 164
94 144 164
94 144 164
94 144 164
94 144 164
94 144 164
94 144 164
94 144 164
94 144 164
94 144 164
94 144 164
94 144 164
94 144 164
94 144 164
94 144 164
94 144 164
94 144 164
114 169 126
108 152 122
114 169 125
107 152 121
107 152 121
113 168 124
106 151 120
112 168 124
112 168 123
109 165 120
109 165 120
109 165 121
109 165 121
112 168 123
112 168 123
109 165 120
109 165 120
103 148 116
106 151 119
105 151 119
109 165 120
109 165 120
109 165 120
112 168 123
112 168 123
109 165 120
109 165 120
109 165 120
109 165 120
103 148 116
103 148 116
103 148 116
106 151 119
163 108 99
163 108 99
162 108 99
162 107 98
162 107 98
194 116 103
194 116 103
194 116 103
162 107 98
194 116 102
194 115 102
194 115 102
194 115 102
194 115 102
162 106 97
162 106 97
162 106 97
162 106 97
162 106 97
159 103 93
159 103 93
159 103 93
159 103 93
159 103 94
190 112 98
190 112 98
190 112 98
190 112 99
190 112 99
190 112 99
159 103 94
159 103 94
190 112 99
190 112 99
190 112 99
159 104 95
159 104 95
159 104 95
159 104 95
159 104 95
111 154 126
111 154 125
116 170 129
116 170 129
110 154 125
116 170 129
110 154 124
116 170 128
127 196 163
121 180 159
121 180 159
121 180 159
109 153 123
107 152 121
114 169 125
107 152 121
107 152 121
107 152 121
113 168 125
113 168 125
113 168 124
113 168 124
106 151 120
106 151 120
106 151 120
112 168 124
112 168 124
112 168 124
109 165 121
110 165 121
113 168 124
113 168 124
112 168 124
110 165 121
103 148 117
104 149 117
113 168 124
113 168 124
106 151 120
110 165 121
110 165 121
113 168 124
113 168 124
113 168 124
110 165 121
104 149 117
104 149 118
104 149 118
111 166 122
105 149 119
94 144 164
94 144 164
94 144 164
94 144 164
94 144 164
94 144 164
94 144 164
94 144 164
94 144 164
94 144 164
94 144 164
94 144 164
94 144 164
94 144 164
94 144 164
94 144 164
94 144 164
94 144 164
94 144 164
94 144 164
94 144 164
94 144 164
94 144 164
94 144 164
94 144 164
94 144 164
94 144 164
94 144 164
94 144 164
94 144 164
94 144 164
94 144 164
94 144 164
94 144 164
94 144 164
94 144 164
94 144 164
94 144 164
94 144 164
94 144 164
94 144 164
94 144 164
94 144 164
94 144 164
94 144 164
94 144 164
94 144 164
94 144 164
94 144 164
94 144 164
94 144 164
94 144 164
94 144 164
94 144 164
94 144 164
94 144 164
94 144 164
94 144 164
94 144 164
94 144 164
94 144 164
94 144 164
94 144 164
94 144 164
94 144 164
94 144 164
94 144 164
94 144 164
94 144 164
94 144 164
94 144 164
94 144 164
94 144 164
94 144 164
94 144 164
94 144 164
94 144 164
94 144 164
94 144 164
94 144 164
94 144 164
94 144 164
94 144 164
94 144 164
94 144 164
94 144 164
94 144 164
94 144 164
94 144 164
94 144 164
94 144 164
94 144 164
94 144 164
94 144 164
94 144 164
94 144 164
94 144 164
94 144 164
94 144 164
94 144 164
94 144 164
94 144 164
94 144 164
94 144 164
94 144 164
94 144 164
94 144 164
94 144 164
94 144 164
94 144 164
94 144 164
94 144 164
94 144 164
94 144 164
94 144 164
94 144 164
94 144 164
94 144 164
94 144 164
94 144 164
94 144 164
94 144 164
94 144 164
94 144 164
94 144 164
94 144 164
94 144 164
94 144 164
94 144 164
94 144 164
94 144 164
94 144 164
94 144 164
94 144 164
94 144 164
94 144 164
94 144 164
94 144 164
94 144 164
94 144 164
94 144 164
94 144 164
94 144 164
94 144 164
94 144 164
94 144 164
94 144 164
94 144 164
94 144 164
94 144 164
94 144 164
94 144 164
94 144 164
94 144 164
94 144 164
94 144 164
94 144 164
94 144 164
94 144 164
94 144 164
119 179 156
119 179 156
119 179 156
119 179 156
94 144 164
94 144 164
118 179 156
118 179 156
118 179 156
125 196 160
94 144 164
94 144 164
118 179 156
118 179 156
118 179 156
94 144 164
94 144 164
94 144 164
94 144 164
94 144 164
94 144 164
94 144 164
94 144 164
94 144 164
94 144 164
94 144 164
94 144 164
94 144 164
94 144 164
94 144 164
94 144 164
94 144 164
94 144 164
94 144 164
94 144 164
94 144 164
107 152 121
125 196 161
119 179 157
119 179 157
125 196 161
125 196 161
113 168 124
106 151 120
113 168 124
112 168 123
109 165 120
109 165 120
109 165 121
109 165 121
112 168 123
112 168 123
103 148 116
109 165 120
109 165 120
112 168 123
112 168 123
109 165 120
109 165 120
109 165 120
112 168 123
105 151 119
109 165 120
109 165 120
109 165 120
109 165 120
103 148 116
103 148 116
103 148 116
106 151 119
106 151 119
163 108 99
162 108 99
162 107 99
162 107 98
194 116 103
194 116 103
194 116 103
194 116 102
162 107 98
162 107 98
162 107 97
194 115 102
194 115 102
162 106 97
162 106 97
162 106 97
162 106 97
162 106 97
159 103 93
159 103 93
159 103 93
159 103 94
159 103 94
190 112 98
190 112 98
190 112 98
190 112 99
159 103 94
159 103 94
190 112 99
190 112 99
190 112 99
190 112 99
190 112 99
159 104 95
159 104 95
159 104 95
159 104 95
159 104 95
117 179 154
111 154 126
116 170 129
116 170 129
110 154 125
110 154 125
110 154 125
115 169 127
115 169 127
115 169 127
121 180 158
121 180 158
125 196 160
119 179 156
125 196 161
125 196 161
119 179 156
125 196 161
125 196 161
125 196 161
125 196 161
113 168 124
107 151 120
106 151 120
106 151 120
113 168 124
112 168 124
106 151 119
110 165 121
110 165 121
113 168 124
113 168 124
112 168 124
110 165 121
103 148 117
110 165 121
113 168 124
113 168 124
113 168 124
110 165 121
110 165 121
113 168 124
113 168 124
113 168 124
110 165 121
110 165 122
104 149 118
104 149 118
105 149 118
111 166 123
94 144 164
94 144 164
94 144 164
94 144 164
94 144 164
94 144 164
94 144 164
94 144 164
94 144 164
94 144 164
94 144 164
94 144 164
94 144 164
94 144 164
94 144 164
94 144 164
94 144 164
94 144 164
94 144 164
94 144 164
94 144 164
94 144 164
94 144 164
94 144 164
94 144 164
94 144 164
94 144 164
94 144 164
94 144 164
94 144 164
94 144 164
94 144 164
94 144 164
94 144 164
94 144 164
94 144 164
94 144 164
94 144 164
94 144 164
94 144 164
94 144 164
94 144 164
94 144 164
94 144 164
94 144 164
94 144 164
94 144 164
94 144 164
94 144 164
94 144 164
94 144 164
94 144 164
94 144 164
94 144 164
94 144 164
94 144 164
94 144 164
94 144 164
94 144 164
94 144 164
94 144 164
94 144 164
94 144 164
94 144 164
94 144 164
94 144 164
94 144 164
94 144 164
94 144 164
94 144 164
94 144 164
94 144 164
94 144 164
94 144 164
94 144 164
94 144 164
94 144 164
94 144 164
94 144 164
94 144 164
94 144 164
94 144 164
94 144 164
94 144 164
94 144 164
94 144 164
94 144 164
94 144 164
94 144 164
94 144 164
94 144 164
94 144 164
94 144 164
94 144 164
94 144 164
94 144 164
94 144 164
94 144 164
94 144 164
94 144 164
94 144 164
94 144 164
94 144 164
94 144 164
94 144 164
94 144 164
94 144 164
94 144 164
94 144 164
94 144 164
94 144 164
94 144 164
94 144 164
94 144 164
94 144 164
94 144 164
94 144 164
94 144 164
94 144 164
94 144 164
94 144 164
94 144 164
94 144 164
94 144 164
94 144 164
94 144 164
94 144 164
94 144 164
94 144 164
94 144 164
94 144 164
94 144 164
94 144 164
94 144 164
94 144 164
94 144 164
94 144 164
94 144 164
94 144 164
94 144 164
94 144 164
94 144 164
94 144 164
94 144 164
94 144 164
94 144 164
94 144 164
94 144 164
94 144 164
94 144 164
94 144 164
94 144 164
94 144 164
94 144 164
118 179 156
118 179 156
125 196 160
125 196 160
125 196 160
125 196 160
118 179 156
125 196 160
118 179 156
124 196 160
124 196 160
124 196 160
124 196 160
124 196 160
124 196 160
118 179 155
124 196 160
124 196 160
124 196 159
124 196 159
124 196 159
124 196 159
124 196 159
94 144 164
118 179 155
124 196 159
117 179 155
124 196 159
124 196 159
94 144 164
94 144 164
94 144 164
94 144 164
94 144 164
94 144 164
94 144 164
94 144 164
94 144 164
94 144 164
94 144 164
119 179 156
125 196 161
119 179 156
125 196 160
119 179 156
119 179 156
119 179 156
119 179 156
125 196 160
119 179 156
113 168 124
112 168 124
106 151 119
109 165 121
109 165 121
110 165 121
112 168 123
112 168 123
103 148 116
109 165 120
109 165 120
106 151 119
112 168 123
109 165 120
109 165 120
109 165 120
106 151 119
112 168 123
109 165 120
109 165 120
103 148 116
109 165 120
103 148 116
118 179 156
118 179 156
118 179 156
106 151 119
163 108 99
162 108 99
162 107 99
162 107 98
194 116 103
194 116 103
194 116 103
194 116 102
162 107 98
162 107 98
162 107 98
162 107 97
162 106 97
194 115 102
162 106 97
162 106 97
162 106 97
162 106 97
159 103 93
159 103 93
159 103 93
159 103 94
159 103 94
159 103 94
159 103 94
159 103 94
159 103 94
159 103 94
159 103 94
190 112 99
190 112 99
190 112 99
190 112 99
190 112 99
159 104 95
159 104 95
159 104 95
159 104 95
159 104 95
123 196 158
116 179 154
123 196 158
116 179 154
116 179 154
116 170 129
110 154 125
108 153 122
114 169 126
114 169 126
126 196 162
113 168 124
113 168 124
125 196 160
125 196 160
125 196 160
118 179 156
118 179 156
118 179 156
118 179 156
118 179 156
119 179 156
119 179 156
119 179 156
125 196 160
113 168 124
106 151 119
112 168 124
110 165 121
110 165 121
113 168 124
113 168 124
113 168 124
110 165 121
110 165 121
113 168 124
113 168 124
113 168 124
113 168 124
110 165 121
110 165 122
113 168 124
113 168 124
113 168 124
110 165 121
104 149 117
104 149 118
119 179 157
126 196 161
126 196 161
126 196 161
119 180 157
126 196 161
119 180 157
119 180 157
94 144 164
94 144 164
94 144 164
94 144 164
94 144 164
94 144 164
94 144 164
94 144 164
94 144 164
94 144 164
94 144 164
94 144 164
94 144 164
94 144 164
94 144 164
118 179 156
118 179 156
118 179 156
118 179 156
118 179 156
94 144 164
94 144 164
94 144 164
94 144 164
94 144 164
94 144 164
94 144 164
94 144 164
94 144 164
94 144 164
94 144 164
94 144 164
94 144 164
94 144 164
94 144 164
94 144 164
94 144 164
94 144 164
94 144 164
94 144 164
94 144 164
94 144 164
94 144 164
94 144 164
94 144 164
94 144 164
94 144 164
94 144 164
94 144 164
94 144 164
94 144 164
94 144 164
94 144 164
94 144 164
94 144 164
94 144 164
94 144 164
94 144 164
94 144 164
94 144 164
94 144 164
94 144 164
94 144 164
94 144 164
94 144 164
94 144 164
94 144 164
94 144 164
94 144 164
94 144 164
94 144 164
94 144 164
94 144 164
94 144 164
94 144 164
94 144 164
94 144 164
94 144 164
94 144 164
94 144 164
94 144 164
94 144 164
94 144 164
94 144 164
94 144 164
94 144 164
94 144 164
94 144 164
94 144 164
94 144 164
94 144 164
94 144 164
94 144 164
94 144 164
94 144 164
94 144 164
94 144 164
94 144 164
94 144 164
94 144 164
94 144 164
94 144 164
94 144 164
94 144 164
94 144 164
94 144 164
94 144 164
94 144 164
94 144 164
94 144 164
94 144 164
94 144 164
94 144 164
94 144 164
94 144 164
94 144 164
94 144 164
94 144 164
94 144 164
94 144 164
94 144 164
94 144 164
94 144 164
94 144 164
94 144 164
94 144 164
94 144 164
94 144 164
94 144 164
94 144 164
94 144 164
94 144 164
94 144 164
94 144 164
94 144 164
94 144 164
94 144 164
94 144 164
94 144 164
94 144 164
94 144 164
94 144 164
94 144 164
125 196 160
125 196 160
125 196 160
125 196 160
118 179 156
118 179 156
124 196 160
124 196 160
124 196 160
124 196 160
118 179 155
118 179 155
124 196 160
124 196 159
124 196 159
118 179 155
118 179 155
118 179 155
118 179 155
124 196 159
124 196 159
124 196 159
117 179 155
124 196 159
124 196 159
124 196 159
117 179 155
117 179 155
117 179 155
117 179 155
124 196 159
124 196 159
108 165 119
108 165 119
108 165 119
94 144 164
94 144 164
94 144 164
94 144 164
94 144 164
94 144 164
94 144 164
94 144 164
94 144 164
94 144 164
94 144 164
125 196 160
118 179 156
118 179 156
125 196 160
125 196 160
125 196 160
118 179 156
118 179 156
118 179 156
125 196 160
125 196 160
124 196 160
118 179 156
118 179 156
124 196 160
124 196 160
118 179 156
118 179 155
124 196 160
124 196 160
118 179 155
118 179 155
124 196 160
124 196 160
118 179 155
124 196 160
124 196 160
124 196 160
124 196 160
118 179 155
124 196 160
124 196 160
118 179 155
124 196 159
124 196 159
118 179 155
124 196 159
163 108 99
163 108 99
162 107 99
162 107 98
194 116 103
194 116 103
194 116 103
194 116 102
162 107 98
162 107 98
162 107 98
162 107 97
162 107 97
194 115 102
194 115 102
194 115 102
194 115 101
162 106 97
190 111 98
190 112 98
190 112 98
190 112 98
190 112 98
159 103 94
159 103 94
159 103 94
159 103 94
159 103 94
159 103 94
190 112 99
190 112 99
190 112 99
190 112 99
190 112 99
159 104 95
159 104 95
159 104 95
159 104 95
159 104 95
116 178 153
123 196 158
123 196 158
123 196 158
116 178 153
116 178 153
116 178 153
123 196 158
123 196 158
126 196 161
126 196 161
113 168 124
112 168 123
106 151 119
118 179 155
124 196 160
118 179 155
118 179 155
118 179 155
118 179 156
124 196 160
118 179 156
124 196 160
118 179 156
124 196 160
125 196 160
118 179 156
118 179 156
118 179 156
125 196 160
125 196 160
125 196 160
118 179 156
118 179 156
125 196 160
118 179 156
125 196 160
125 196 160
110 165 121
113 168 124
125 196 160
125 196 160
125 196 160
125 196 160
106 151 120
125 196 160
125 196 160
125 196 160
125 196 161
107 152 120
125 196 161
125 196 161
125 196 161
125 196 161
125 196 161
125 196 161
125 196 161
119 179 157
125 196 161
125 196 161
94 144 164
94 144 164
94 144 164
94 144 164
94 144 164
94 144 164
94 144 164
118 179 155
118 179 155
124 196 160
124 196 160
124 196 160
124 196 160
124 196 160
118 179 155
124 196 160
124 196 160
124 196 160
125 196 160
125 196 160
118 179 156
94 144 164
94 144 164
94 144 164
94 144 164
94 144 164
94 144 164
94 144 164
94 144 164
94 144 164
94 144 164
94 144 164
94 144 164
94 144 164
94 144 164
94 144 164
94 144 164
94 144 164
94 144 164
94 144 164
94 144 164
94 144 164
94 144 164
94 144 164
94 144 164
94 144 164
94 144 164
94 144 164
94 144 164
94 144 164
94 144 164
94 144 164
94 144 164
94 144 164
94 144 164
94 144 164
94 144 164
94 144 164
94 144 164
94 144 164
94 144 164
94 144 164
94 144 164
94 144 164
94 144 164
94 144 164
94 144 164
94 144 164
94 144 164
94 144 164
94 144 164
94 144 164
94 144 164
94 144 164
94 144 164
94 144 164
94 144 164
94 144 164
94 144 164
94 144 164
94 144 164
94 144 164
94 144 164
94 144 164
94 144 164
94 144 164
94 144 164
94 144 164
94 144 164
94 144 164
94 144 164
94 144 164
94 144 164
94 144 164
94 144 164
94 144 164
94 144 164
94 144 164
94 144 164
94 144 164
94 144 164
94 144 164
94 144 164
94 144 164
94 144 164
94 144 164
94 144 164
94 144 164
94 144 164
94 144 164
94 144 164
94 144 164
94 144 164
94 144 164
94 144 164
94 144 164
94 144 164
94 144 164
94 144 164
94 144 164
94 144 164
94 144 164
94 144 164
94 144 164
94 144 164
94 144 164
94 144 164
94 144 164
94 144 164
94 144 164
94 144 164
94 144 164
124 196 160
124 196 160
118 179 156
118 179 155
118 179 155
118 179 155
124 196 160
118 179 155
118 179 155
118 179 155
118 179 155
118 179 155
118 179 155
118 179 155
118 179 155
117 179 155
117 179 155
117 179 155
117 179 155
117 179 155
117 179 155
117 179 155
124 196 159
124 196 159
124 196 159
117 179 155
117 179 154
117 179 154
117 179 154
123 196 159
117 179 154
117 179 154
117 179 154
117 179 154
123 196 159
123 196 158
123 196 158
123 196 158
117 179 154
117 179 154
108 165 119
118 179 156
118 179 156
125 196 160
125 196 160
125 196 160
118 179 156
94 144 164
94 144 164
94 144 164
126 196 161
106 151 119
118 179 155
103 148 116
103 148 116
103 148 116
112 168 123
105 151 119
102 148 116
103 148 116
103 148 116
106 151 119
105 151 118
124 196 159
102 148 115
102 148 115
102 148 116
105 151 118
118 179 155
124 196 159
102 148 115
102 148 115
105 151 118
117 179 155
117 179 155
117 179 155
102 148 115
105 151 118
117 179 155
117 179 155
117 179 155
117 179 155
102 148 115
109 165 119
109 165 119
109 165 120
112 168 122
111 168 122
108 165 119
163 108 99
163 108 99
162 108 99
162 107 98
194 116 103
194 116 103
194 116 103
194 116 102
162 107 98
162 107 98
162 107 98
162 107 97
162 107 97
194 115 102
194 115 102
194 115 102
194 115 101
194 115 101
190 111 98
190 112 98
190 112 98
190 112 98
190 112 98
159 103 94
159 103 94
159 103 94
159 103 94
159 103 94
159 103 94
190 112 99
190 112 99
190 112 99
190 112 99
190 113 99
159 104 95
159 104 95
159 104 95
159 104 95
159 104 95
116 178 153
116 178 153
116 178 153
116 178 153
116 178 153
116 178 153
116 178 153
122 196 157
122 196 157
107 164 117
107 164 117
117 179 155
117 179 155
112 168 123
105 151 119
105 151 118
105 151 118
105 151 118
102 148 115
103 148 116
105 151 119
105 151 118
105 151 118
102 148 115
103 148 116
106 151 119
106 151 119
105 151 119
118 179 155
103 148 116
103 148 116
106 151 119
106 151 119
105 151 119
103 148 116
109 165 120
109 165 121
103 148 117
113 168 124
113 168 124
112 168 124
112 168 124
110 165 121
110 165 121
106 151 120
113 168 124
113 168 124
103 148 117
104 149 117
113 168 124
113 168 124
113 168 124
113 168 124
110 165 121
110 166 122
107 152 120
107 152 120
113 168 124
107 152 120
107 151 120
119 179 156
119 179 156
119 179 156
125 196 161
125 196 161
94 144 164
105 150 118
105 150 118
105 150 118
117 179 155
117 179 155
124 196 159
124 196 159
124 196 159
118 179 155
124 196 159
118 179 155
124 196 159
124 196 159
124 196 160
118 179 155
118 179 155
118 179 155
118 179 155
124 196 160
124 196 160
94 144 164
94 144 164
94 144 164
94 144 164
94 144 164
94 144 164
94 144 164
94 144 164
94 144 164
94 144 164
94 144 164
94 144 164
94 144 164
94 144 164
94 144 164
94 144 164
94 144 164
94 144 164
94 144 164
94 144 164
94 144 164
94 144 164
94 144 164
94 144 164
94 144 164
94 144 164
94 144 164
94 144 164
94 144 164
94 144 164
94 144 164
94 144 164
94 144 164
94 144 164
94 144 164
94 144 164
94 144 164
94 144 164
94 144 164
94 144 164
94 144 164
94 144 164
94 144 164
94 144 164
94 144 164
94 144 164
94 144 164
94 144 164
94 144 164
94 144 164
94 144 164
94 144 164
94 144 164
94 144 164
94 144 164
94 144 164
94 144 164
94 144 164
94 144 164
94 144 164
94 144 164
94 144 164
94 144 164
94 144 164
94 144 164
94 144 164
94 144 164
94 144 164
94 144 164
94 144 164
94 144 164
94 144 164
94 144 164
94 144 164
94 144 164
94 144 164
94 144 164
94 144 164
94 144 164
94 144 164
94 144 164
94 144 164
94 144 164
94 144 164
94 144 164
94 144 164
94 144 164
94 144 164
94 144 164
94 144 164
94 144 164
94 144 164
94 144 164
94 144 164
94 144 164
94 144 164
94 144 164
94 144 164
94 144 164
94 144 164
94 144 164
94 144 164
112 168 123
124 196 160
124 196 160
118 179 155
124 196 159
124 196 159
124 196 159
124 196 159
124 196 159
124 196 159
117 179 155
117 179 155
124 196 159
124 196 159
124 196 159
117 179 155
124 196 159
117 179 155
124 196 159
124 196 159
123 196 159
123 196 159
123 196 159
117 179 154
123 196 159
123 196 159
123 196 159
117 179 154
123 196 158
123 196 158
123 196 158
123 196 158
123 196 158
123 196 158
123 196 158
116 179 154
123 196 158
123 196 158
123 196 158
123 196 158
116 179 154
123 196 158
101 147 113
101 147 113
101 147 113
64 85 81
63 85 81
124 196 160
118 179 155
118 179 155
118 179 155
118 179 155
102 148 115
114 169 126
126 196 161
106 151 119
106 151 119
109 165 120
109 165 120
103 148 116
112 168 123
105 151 119
103 148 116
103 148 116
103 148 116
106 151 119
105 151 118
102 148 115
109 165 120
102 148 116
103 148 116
105 151 118
105 150 118
102 148 115
109 165 119
102 148 115
105 151 118
105 150 118
102 147 115
102 148 115
102 148 115
105 151 118
105 150 118
105 150 118
102 147 115
102 147 115
102 148 115
102 148 115
109 165 120
109 165 120
112 168 122
111 168 122
108 165 119
194 116 103
163 108 99
162 108 99
162 107 98
194 116 103
194 116 103
194 116 103
194 116 103
162 107 98
162 107 98
162 107 98
162 107 97
162 107 97
194 115 102
194 115 102
194 115 102
194 115 101
194 115 101
190 111 98
190 112 98
190 112 98
190 112 98
190 112 98
159 103 94
159 103 94
159 103 94
159 103 94
159 103 94
159 103 94
190 112 99
190 112 99
190 112 99
190 112 99
190 113 99
159 104 95
159 104 95
159 104 95
159 104 95
159 104 95
115 178 153
122 196 157
122 196 157
122 196 157
122 196 157
115 178 153
122 196 157
122 196 157
122 196 157
122 196 157
122 196 157
124 196 159
117 179 155
102 147 114
102 147 115
105 151 118
105 151 118
102 148 115
102 148 116
103 148 116
105 151 119
105 151 118
112 168 123
102 148 116
103 148 116
106 151 119
106 151 119
112 168 123
102 148 116
103 148 116
109 165 120
106 151 119
106 151 119
106 151 119
103 148 116
103 148 116
109 165 121
110 165 121
113 168 124
113 168 124
112 168 124
112 168 124
110 165 121
110 165 121
113 168 124
106 151 120
113 168 124
110 165 121
110 165 121
113 168 124
113 168 124
113 168 124
113 168 124
110 165 122
110 166 122
113 168 125
113 168 125
113 168 124
107 152 120
107 151 120
118 179 156
118 179 156
118 179 156
119 179 156
119 179 156
125 196 160
105 150 118
105 150 118
117 179 154
117 179 154
117 179 154
117 179 154
117 179 155
117 179 155
117 179 155
117 179 155
124 196 159
117 179 155
117 179 155
117 179 155
124 196 159
117 179 155
117 179 155
118 179 155
124 196 159
124 196 159
118 179 155
124 196 159
124 196 159
118 179 155
118 179 155
94 144 164
94 144 164
94 144 164
94 144 164
94 144 164
94 144 164
94 144 164
94 144 164
94 144 164
94 144 164
94 144 164
94 144 164
94 144 164
94 144 164
94 144 164
94 144 164
94 144 164
94 144 164
94 144 164
94 144 164
94 144 164
94 144 164
94 144 164
94 144 164
94 144 164
94 144 164
94 144 164
94 144 164
94 144 164
94 144 164
94 144 164
94 144 164
94 144 164
94 144 164
94 144 164
94 144 164
94 144 164
94 144 164
94 144 164
94 144 164
94 144 164
94 144 164
94 144 164
94 144 164
94 144 164
94 144 164
94 144 164
94 144 164
94 144 164
94 144 164
94 144 164
94 144 164
94 144 164
94 144 164
94 144 164
94 144 164
94 144 164
94 144 164
94 144 164
94 144 164
94 144 164
94 144 164
94 144 164
94 144 164
94 144 164
94 144 164
94 144 164
94 144 164
94 144 164
94 144 164
94 144 164
94 144 164
94 144 164
94 144 164
94 144 164
94 144 164
94 144 164
94 144 164
94 144 164
94 144 164
94 144 164
94 144 164
94 144 164
94 144 164
94 144 164
94 144 164
94 144 164
94 144 164
94 144 164
94 144 164
94 144 164
94 144 164
94 144 164
94 144 164
94 144 164
124 196 159
124 196 159
117 179 155
124 196 159
117 179 155
117 179 155
124 196 159
124 196 159
124 196 159
124 196 159
117 179 155
117 179 155
117 179 154
117 179 154
117 179 154
123 196 159
117 179 154
117 179 154
117 179 154
123 196 159
123 196 158
123 196 158
123 196 158
123 196 158
123 196 158
117 179 154
123 196 158
123 196 158
116 179 154
116 179 154
116 179 154
116 179 154
123 196 158
116 178 154
116 178 154
123 196 158
116 178 154
116 178 153
116 178 153
116 178 153
116 178 153
123 196 158
116 178 153
116 178 153
116 178 153
101 147 113
101 147 113
108 165 119
124 196 159
117 179 155
117 179 155
117 179 155
117 179 155
102 148 115
109 165 120
125 196 161
125 196 161
106 151 119
106 151 119
103 148 116
103 148 116
103 148 116
106 151 119
106 151 119
103 148 116
103 148 116
103 148 116
103 148 116
112 168 123
102 148 115
102 148 115
109 165 120
103 148 116
105 151 118
105 151 118
102 148 115
102 148 115
102 148 115
105 151 118
105 150 118
102 147 115
102 148 115
102 148 115
102 148 115
105 150 118
105 150 118
102 147 115
102 147 115
102 148 115
109 165 119
102 148 115
109 165 120
112 168 123
111 168 122
108 165 119
194 116 103
194 116 103
194 116 103
194 116 103
194 116 103
194 116 103
194 116 103
194 116 103
162 107 98
162 107 98
162 107 98
162 107 98
162 107 97
194 115 102
194 115 102
194 115 102
194 115 102
194 115 101
190 112 98
190 112 98
190 112 98
190 112 98
190 112 98
159 103 94
159 103 94
159 103 94
159 103 94
159 103 94
159 103 94
190 112 99
190 112 99
190 112 99
190 112 99
190 113 99
159 104 95
159 104 95
190 113 100
190 113 100
115 178 152
115 178 152
122 196 157
122 196 157
115 178 152
115 178 152
115 178 152
115 178 152
122 196 157
122 196 157
106 163 116
106 163 116
117 179 154
117 179 154
117 179 154
117 179 154
105 151 118
105 151 118
102 148 115
102 148 116
103 148 116
106 151 119
105 151 119
105 151 118
103 148 116
103 148 116
106 151 119
106 151 119
105 151 119
103 148 116
103 148 116
109 165 120
106 151 119
106 151 119
106 151 119
103 148 116
103 148 116
110 165 121
110 165 121
113 168 124
113 168 124
113 168 124
112 168 124
110 165 121
110 165 121
113 168 124
113 168 124
113 168 124
110 165 121
110 165 122
113 168 124
113 168 124
113 168 124
104 149 117
110 165 122
107 152 121
107 152 120
107 152 120
113 168 124
107 152 120
107 152 120
106 151 119
106 151 119
106 151 119
112 168 123
124 196 160
125 196 160
105 150 118
105 150 118
104 150 117
104 150 117
104 150 117
104 150 117
117 179 154
123 196 158
123 196 159
123 196 159
123 196 159
123 196 159
117 179 154
117 179 154
117 179 154
124 196 159
117 179 155
124 196 159
117 179 155
124 196 159
124 196 159
117 179 155
124 196 159
124 196 159
117 179 155
124 196 159
124 196 159
124 196 159
118 179 155
124 196 159
94 144 164
94 144 164
94 144 164
94 144 164
94 144 164
94 144 164
94 144 164
94 144 164
94 144 164
94 144 164
94 144 164
94 144 164
94 144 164
94 144 164
94 144 164
94 144 164
94 144 164
94 144 164
94 144 164
94 144 164
94 144 164
94 144 164
94 144 164
94 144 164
94 144 164
94 144 164
94 144 164
94 144 164
94 144 164
94 144 164
94 144 164
94 144 164
94 144 164
94 144 164
94 144 164
94 144 164
94 144 164
94 144 164
94 144 164
94 144 164
94 144 164
94 144 164
94 144 164
94 144 164
94 144 164
94 144 164
94 144 164
94 144 164
94 144 164
94 144 164
94 144 164
94 144 164
94 144 164
94 144 164
94 144 164
94 144 164
94 144 164
94 144 164
94 144 164
94 144 164
94 144 164
94 144 164
94 144 164
94 144 164
94 144 164
94 144 164
94 144 164
94 144 164
94 144 164
94 144 164
94 144 164
94 144 164
94 144 164
94 144 164
94 144 164
94 144 164
94 144 164
94 144 164
94 144 164
94 144 164
94 144 164
94 144 164
94 144 164
94 144 164
117 179 155
117 179 155
117 179 155
117 179 155
117 179 155
117 179 155
117 179 155
117 179 155
124 196 159
117 179 154
117 179 154
117 179 154
123 196 159
117 179 154
117 179 154
117 179 154
117 179 154
123 196 158
123 196 158
123 196 158
123 196 158
117 179 154
116 179 154
123 196 158
116 179 154
123 196 158
116 179 154
116 179 154
123 196 158
116 178 154
123 196 158
123 196 158
123 196 158
116 178 153
116 178 153
116 178 153
116 178 153
116 178 153
122 196 158
116 178 153
116 178 153
116 178 153
122 196 158
122 196 158
122 196 157
122 196 157
106 164 116
100 146 112
100 146 112
100 146 112
100 146 112
101 147 113
101 147 113
62 84 79
124 196 159
117 179 154
102 147 114
102 147 114
102 147 115
102 148 115
102 148 116
67 91 84
125 196 160
112 168 124
106 151 119
103 148 116
103 148 116
103 148 116
106 151 119
106 151 119
103 148 116
103 148 116
109 165 120
103 148 116
105 151 119
105 151 118
102 148 115
102 148 116
103 148 116
105 151 118
112 168 122
102 148 115
102 148 115
102 148 115
105 151 118
105 151 118
102 147 115
102 148 115
102 148 115
102 148 115
105 150 118
105 150 118
102 147 115
102 148 115
102 148 115
109 165 119
109 165 120
124 196 159
124 196 159
111 168 122
108 165 119
194 116 103
194 116 103
194 116 103
194 116 103
162 107 98
162 107 98
162 107 98
194 116 103
162 107 98
162 107 98
162 107 98
162 107 98
162 107 97
194 115 102
194 115 102
194 115 102
194 115 102
194 115 101
190 112 98
190 112 98
190 112 98
190 112 98
190 112 98
159 103 94
159 103 94
159 103 94
159 103 94
159 103 94
159 103 94
190 112 99
190 112 99
190 112 99
159 104 95
159 104 95
190 113 100
190 113 100
190 113 100
190 113 100
114 178 152
114 178 152
121 196 156
121 196 156
121 196 156
115 178 152
115 178 152
115 178 152
121 196 156
121 196 156
121 196 156
105 163 115
105 163 115
116 179 154
116 179 154
101 147 113
101 147 114
105 151 118
102 148 115
103 148 116
103 148 116
112 168 123
105 151 119
105 151 118
103 148 116
103 148 116
106 151 119
106 151 119
105 151 119
103 148 116
103 148 116
112 168 123
106 151 119
106 151 119
112 168 123
103 148 116
103 148 116
110 165 121
125 196 160
125 196 160
125 196 160
113 168 124
110 165 121
125 196 160
125 196 160
125 196 160
113 168 124
113 168 124
104 149 117
125 196 161
125 196 161
113 168 124
113 168 124
110 165 121
104 149 118
125 196 161
113 168 125
113 168 125
113 168 124
107 152 120
107 152 120
106 151 119
112 168 123
105 151 118
118 179 155
124 196 159
111 168 122
111 168 122
105 150 118
104 150 117
104 150 117
104 150 116
104 149 116
116 179 154
116 179 154
116 179 154
116 179 154
123 196 158
123 196 158
117 179 154
117 179 154
117 179 154
117 179 154
123 196 158
123 196 159
117 179 154
117 179 154
117 179 154
117 179 154
117 179 154
117 179 154
117 179 154
117 179 155
117 179 155
124 196 159
117 179 155
117 179 155
117 179 155
117 179 155
117 179 155
117 179 155
124 196 159
94 144 164
94 144 164
94 144 164
94 144 164
94 144 164
94 144 164
94 144 164
94 144 164
94 144 164
94 144 164
94 144 164
94 144 164
94 144 164
94 144 164
94 144 164
94 144 164
94 144 164
94 144 164
94 144 164
94 144 164
94 144 164
94 144 164
94 144 164
94 144 164
94 144 164
94 144 164
94 144 164
94 144 164
94 144 164
94 144 164
94 144 164
94 144 164
94 144 164
94 144 164
94 144 164
94 144 164
94 144 164
94 144 164
94 144 164
94 144 164
94 144 164
94 144 164
94 144 164
94 144 164
94 144 164
94 144 164
94 144 164
94 144 164
94 144 164
94 144 164
94 144 164
94 144 164
94 144 164
94 144 164
94 144 164
94 144 164
94 144 164
94 144 164
94 144 164
94 144 164
94 144 164
94 144 164
94 144 164
94 144 164
94 144 164
94 144 164
94 144 164
94 144 164
94 144 164
94 144 164
94 144 164
94 144 164
94 144 164
94 144 164
94 144 164
94 144 164
94 144 164
94 144 164
94 144 164
94 144 164
117 179 154
123 196 159
123 196 159
123 196 159
123 196 159
123 196 159
123 196 159
117 179 154
123 196 158
123 196 158
123 196 158
123 196 158
123 196 158
116 179 154
123 196 158
116 179 154
116 179 154
123 196 158
123 196 158
116 178 154
123 196 158
123 196 158
123 196 158
123 196 158
123 196 158
116 178 153
123 196 158
122 196 158
122 196 158
122 196 158
116 178 153
116 178 153
116 178 153
122 196 157
122 196 157
122 196 157
122 196 157
116 178 153
115 178 153
115 178 153
122 196 157
122 196 157
100 146 112
106 164 116
106 164 116
106 164 116
100 146 112
107 164 117
107 164 117
100 146 112
56 73 66
101 147 113
107 164 118
61 83 78
117 179 154
101 147 114
108 164 119
108 165 119
59 75 69
102 148 116
64 85 82
64 85 82
118 179 156
124 196 160
118 179 155
118 179 155
118 179 155
124 196 160
118 179 155
118 179 155
118 179 155
118 179 155
118 179 155
118 179 155
118 179 155
124 196 159
118 179 155
118 179 155
118 179 155
118 179 155
118 179 155
124 196 159
118 179 155
118 179 155
118 179 155
108 165 119
118 179 155
117 179 155
124 196 159
117 179 155
105 150 118
102 147 115
117 179 155
117 179 155
117 179 155
124 196 159
124 196 159
124 196 159
117 179 155
117 179 155
194 116 104
194 116 103
194 116 103
194 116 103
162 107 98
162 107 98
162 107 98
162 107 98
194 116 102
194 116 102
162 107 98
162 107 98
162 107 97
194 115 102
194 115 102
194 115 102
194 115 102
194 115 101
190 112 98
190 112 98
190 112 98
190 112 98
190 112 98
159 103 94
159 103 94
159 103 94
159 103 94
159 103 94
190 112 99
159 104 95
159 104 95
159 104 95
159 104 95
159 104 95
190 113 100
190 113 100
190 113 100
190 113 100
114 178 151
121 196 156
121 196 156
114 178 151
121 196 156
121 196 156
114 178 152
114 178 152
121 196 156
121 196 156
121 196 156
121 196 156
105 163 115
116 178 153
116 178 153
116 178 153
100 146 113
124 196 159
118 179 155
118 179 155
118 179 155
118 179 155
118 179 155
124 196 159
118 179 155
118 179 155
118 179 155
118 179 155
118 179 155
112 168 123
118 179 155
118 179 155
124 196 160
118 179 155
103 148 116
118 179 155
118 179 156
118 179 156
118 179 156
118 179 156
118 179 156
118 179 156
125 196 160
118 179 156
118 179 156
125 196 160
118 179 156
118 179 156
118 179 156
118 179 156
125 196 160
125 196 160
119 179 156
119 179 156
119 179 156
119 179 156
125 196 160
119 179 156
119 179 156
119 179 156
106 151 119
106 151 119
105 151 118
105 151 118
112 168 122
117 179 155
117 179 155
117 179 155
104 150 117
104 150 117
104 150 117
104 150 116
104 149 116
103 149 116
116 178 153
116 178 153
116 178 153
116 178 153
123 196 158
123 196 158
123 196 158
116 178 154
116 179 154
123 196 158
116 179 154
123 196 158
116 179 154
116 179 154
117 179 154
117 179 154
123 196 158
123 196 158
117 179 154
117 179 154
117 179 154
123 196 159
123 196 159
123 196 159
123 196 159
117 179 154
117 179 155
124 196 159
124 196 159
124 196 159
117 179 155
124 196 159
124 196 159
94 144 164
94 144 164
94 144 164
94 144 164
94 144 164
94 144 164
94 144 164
94 144 164
94 144 164
94 144 164
94 144 164
94 144 164
94 144 164
94 144 164
94 144 164
94 144 164
94 144 164
94 144 164
94 144 164
94 144 164
94 144 164
94 144 164
94 144 164
94 144 164
94 144 164
94 144 164
94 144 164
94 144 164
94 144 164
94 144 164
94 144 164
94 144 164
94 144 164
94 144 164
94 144 164
94 144 164
94 144 164
94 144 164
94 144 164
94 144 164
94 144 164
94 144 164
94 144 164
94 144 164
94 144 164
94 144 164
94 144 164
94 144 164
94 144 164
94 144 164
94 144 164
94 144 164
94 144 164
94 144 164
94 144 164
94 144 164
94 144 164
94 144 164
94 144 164
94 144 164
94 144 164
94 144 164
94 144 164
94 144 164
94 144 164
94 144 164
94 144 164
94 144 164
94 144 164
94 144 164
94 144 164
123 196 159
117 179 154
123 196 159
117 179 154
117 179 154
117 179 154
117 179 154
117 179 154
116 179 154
116 179 154
116 179 154
123 196 158
116 179 154
116 179 154
116 178 154
116 178 154
123 196 158
116 178 153
116 178 153
116 178 153
123 196 158
116 178 153
122 196 158
116 178 153
122 196 158
116 178 153
116 178 153
116 178 153
116 178 153
116 178 153
122 196 157
122 196 157
115 178 153
115 178 153
115 178 153
115 178 153
122 196 157
122 196 157
115 178 153
115 178 153
115 178 153
115 178 153
122 196 157
122 196 157
122 196 157
106 163 115
106 163 115
106 163 115
100 146 112
106 164 116
100 146 112
100 146 112
100 146 112
100 146 112
61 82 78
63 87 79
116 179 154
116 179 154
101 147 113
101 147 114
101 147 114
102 147 115
102 147 115
63 85 81
118 179 155
124 196 159
124 196 159
124 196 159
124 196 159
118 179 155
124 196 159
124 196 159
124 196 159
124 196 159
108 165 119
111 168 122
124 196 159
124 196 159
124 196 159
124 196 159
108 165 119
102 147 115
109 165 119
102 148 115
105 150 118
105 150 118
102 147 115
102 147 115
102 147 115
102 148 115
105 150 118
105 150 117
102 147 114
102 147 115
102 147 115
105 150 118
104 150 117
123 196 159
123 196 159
123 196 159
123 196 159
123 196 159
117 179 154
123 196 159
194 116 104
194 116 103
194 116 103
194 116 103
162 107 98
162 107 98
162 107 98
162 107 98
194 116 103
194 116 102
194 116 102
194 115 102
194 115 102
194 115 102
194 115 102
194 115 102
194 115 102
194 115 101
190 112 98
190 112 98
190 112 98
190 112 98
190 112 98
159 103 94
190 112 99
190 112 99
190 112 99
190 112 99
190 112 99
159 104 95
159 104 95
159 104 95
159 104 95
159 104 95
190 113 100
190 113 100
190 113 100
190 113 100
114 178 151
114 178 151
121 196 156
114 178 151
121 196 156
114 178 151
114 178 151
114 178 151
114 178 151
114 178 151
121 196 156
98 145 109
105 163 114
116 178 153
116 178 153
116 178 153
116 178 153
124 196 159
124 196 159
124 196 159
117 179 155
117 179 155
117 179 155
124 196 159
124 196 159
108 165 119
109 165 119
102 148 115
109 165 120
105 151 119
105 151 118
105 151 118
102 148 115
103 148 116
103 148 116
112 168 123
105 151 119
105 151 118
103 148 116
103 148 116
106 151 119
106 151 119
106 151 119
103 148 116
109 165 120
109 165 121
106 151 119
106 151 119
106 151 119
112 168 123
124 196 160
118 179 156
118 179 156
125 196 160
125 196 160
125 196 160
125 196 160
125 196 160
125 196 160
125 196 160
106 151 119
112 168 124
123 196 159
123 196 159
123 196 159
123 196 159
123 196 159
123 196 159
104 150 117
111 167 121
104 150 117
104 150 116
104 150 116
103 149 115
103 149 115
103 149 115
116 178 153
116 178 153
122 196 158
122 196 158
116 178 153
116 178 153
116 178 153
123 196 158
116 178 153
123 196 158
123 196 158
116 178 154
116 178 154
116 178 154
116 179 154
116 179 154
123 196 158
123 196 158
116 179 154
116 179 154
117 179 154
117 179 154
117 179 154
123 196 158
117 179 154
117 179 154
117 179 154
123 196 159
117 179 154
123 196 159
123 196 159
117 179 154
117 179 155
117 179 155
124 196 159
117 179 155
124 196 159
94 144 164
94 144 164
94 144 164
94 144 164
94 144 164
94 144 164
94 144 164
94 144 164
94 144 164
94 144 164
94 144 164
94 144 164
94 144 164
94 144 164
94 144 164
94 144 164
94 144 164
94 144 164
94 144 164
94 144 164
94 144 164
94 144 164
94 144 164
94 144 164
94 144 164
94 144 164
94 144 164
94 144 164
94 144 164
94 144 164
94 144 164
94 144 164
94 144 164
94 144 164
94 144 164
94 144 164
94 144 164
94 144 164
94 144 164
94 144 164
94 144 164
94 144 164
94 144 164
94 144 164
94 144 164
94 144 164
94 144 164
94 144 164
94 144 164
94 144 164
94 144 164
94 144 164
94 144 164
94 144 164
94 144 164
94 144 164
94 144 164
94 144 164
94 144 164
94 144 164
94 144 164
94 144 164
94 144 164
94 144 164
94 144 164
104 150 117
123 196 158
116 179 154
123 196 158
123 196 158
123 196 158
116 178 154
116 178 154
123 196 158
116 178 153
123 196 158
123 196 158
123 196 158
122 196 158
116 178 153
116 178 153
122 196 158
122 196 158
122 196 157
116 178 153
122 196 157
122 196 157
122 196 157
122 196 157
122 196 157
122 196 157
122 196 157
122 196 157
122 196 157
122 196 157
122 196 157
122 196 157
115 178 153
122 196 157
122 196 157
122 196 157
122 196 157
122 196 157
115 178 152
115 178 152
122 196 157
122 196 157
121 196 157
121 196 157
106 163 115
99 146 111
106 163 115
106 163 116
106 164 116
106 164 116
107 164 116
100 146 112
100 146 112
100 146 112
100 146 112
116 178 153
100 146 113
100 146 113
100 146 113
101 147 114
101 147 114
58 74 68
102 147 115
124 196 159
124 196 159
124 196 159
124 196 159
124 196 159
117 179 155
102 147 115
102 147 115
108 165 119
108 165 119
108 165 119
109 165 119
111 168 122
111 168 122
108 165 119
108 165 119
108 165 119
108 165 119
102 148 115
109 165 119
102 148 115
105 151 118
111 168 122
102 147 115
102 147 115
102 147 115
102 148 115
105 150 118
105 150 117
102 147 115
102 147 115
108 165 119
105 150 118
105 150 117
111 167 121
111 167 121
108 164 118
108 164 118
108 164 118
101 147 114
104 150 117
194 117 104
194 116 103
194 116 103
194 116 103
162 107 99
162 107 98
162 107 98
162 107 98
194 116 103
194 116 102
194 116 102
194 116 102
194 115 102
162 107 97
162 106 97
162 106 97
194 115 102
194 115 102
190 112 98
190 112 98
159 103 94
159 103 94
159 103 94
190 112 99
190 112 99
190 112 99
190 112 99
190 112 99
190 112 99
159 104 95
159 104 95
159 104 95
159 104 95
159 104 95
190 113 100
190 113 100
190 113 100
190 113 100
113 178 151
120 196 155
120 196 155
120 196 155
120 196 155
114 178 151
120 196 155
104 162 113
97 144 109
97 144 109
104 163 114
105 163 114
98 145 109
115 178 153
115 178 153
99 146 111
106 163 116
100 146 112
117 179 154
117 179 154
117 179 154
123 196 159
101 147 114
108 164 119
108 165 119
102 147 115
109 165 119
102 148 115
103 148 116
105 151 119
105 151 118
105 151 118
109 165 120
103 148 116
106 151 119
106 151 119
105 151 119
105 151 118
103 148 116
103 148 116
106 151 119
106 151 119
106 151 119
103 148 116
109 165 120
112 168 123
106 151 119
106 151 119
106 151 119
112 168 123
106 151 119
112 168 123
112 168 123
105 151 118
118 179 155
118 179 155
118 179 155
118 179 155
118 179 155
118 179 155
118 179 156
118 179 156
104 150 117
111 167 121
111 167 121
110 167 121
123 196 158
117 179 154
117 179 154
117 179 154
104 150 116
104 150 116
104 150 116
103 149 115
103 149 115
103 149 115
103 149 115
109 167 119
109 167 119
109 167 119
109 167 119
122 196 157
116 178 153
116 178 153
116 178 153
116 178 153
116 178 153
122 196 158
116 178 153
122 196 158
122 196 158
116 178 153
116 178 153
123 196 158
123 196 158
123 196 158
116 178 154
116 178 154
116 179 154
123 196 158
123 196 158
116 179 154
123 196 158
116 179 154
123 196 158
123 196 158
123 196 158
117 179 154
117 179 154
123 196 159
117 179 154
117 179 154
117 179 154
123 196 159
123 196 159
124 196 159
124 196 159
94 144 164
94 144 164
94 144 164
94 144 164
94 144 164
94 144 164
94 144 164
94 144 164
94 144 164
94 144 164
94 144 164
94 144 164
94 144 164
94 144 164
94 144 164
94 144 164
94 144 164
94 144 164
94 144 164
94 144 164
94 144 164
94 144 164
94 144 164
94 144 164
94 144 164
94 144 164
94 144 164
94 144 164
94 144 164
94 144 164
94 144 164
94 144 164
94 144 164
94 144 164
94 144 164
94 144 164
94 144 164
94 144 164
94 144 164
94 144 164
94 144 164
94 144 164
94 144 164
94 144 164
94 144 164
94 144 164
94 144 164
94 144 164
94 144 164
94 144 164
94 144 164
94 144 164
94 144 164
94 144 164
94 144 164
94 144 164
94 144 164
94 144 164
94 144 164
94 144 164
94 144 164
104 150 117
110 167 121
103 149 116
116 178 153
116 178 153
116 178 153
122 196 158
122 196 158
122 196 158
116 178 153
116 178 153
116 178 153
116 178 153
116 178 153
122 196 157
115 178 153
115 178 153
115 178 153
115 178 153
115 178 153
115 178 153
115 178 153
115 178 153
115 178 153
115 178 152
115 178 152
115 178 152
115 178 152
115 178 152
115 178 152
115 178 152
115 178 152
115 178 152
115 178 152
121 196 157
115 178 152
115 178 152
115 178 152
115 178 152
115 178 152
121 196 156
121 196 156
98 145 110
105 163 115
98 145 110
106 163 115
106 163 115
106 163 116
57 77 65
106 164 116
100 146 112
122 196 158
116 178 153
116 178 153
116 178 153
116 178 153
100 146 113
100 146 113
100 146 113
101 147 114
101 147 114
62 84 79
117 179 154
117 179 154
117 179 154
108 164 119
102 147 114
108 164 119
102 147 114
108 165 119
102 147 115
102 147 115
108 165 119
108 165 119
109 165 119
109 165 119
111 168 122
108 165 119
108 165 119
108 165 119
108 165 119
102 148 115
102 148 115
102 148 115
105 151 118
105 150 118
102 147 115
102 147 115
102 148 115
102 148 115
105 150 118
105 150 117
102 147 115
102 147 115
102 147 115
111 167 122
105 150 117
111 167 121
111 167 121
104 150 117
108 164 118
108 164 118
110 167 120
123 196 158
193 117 104
194 116 103
194 116 103
194 116 103
162 107 99
162 107 98
162 107 98
162 107 98
194 116 103
194 116 102
194 116 102
194 116 102
194 115 102
162 107 97
162 107 97
162 106 97
162 106 97
162 106 97
159 103 94
159 103 94
159 103 94
159 103 94
159 103 94
190 112 99
190 112 99
190 112 99
190 112 99
190 112 99
190 112 99
159 104 95
159 104 95
159 104 95
159 104 95
159 104 95
190 113 100
190 113 100
190 113 100
190 113 100
113 177 150
113 177 150
113 177 150
113 177 150
104 162 112
104 162 113
104 162 113
104 162 113
97 144 109
98 144 109
98 145 109
105 163 114
105 163 114
115 178 152
115 178 152
115 178 152
115 178 152
115 178 152
116 179 154
101 147 113
108 164 118
108 164 118
101 147 114
102 147 114
108 165 119
108 165 119
109 165 120
102 148 115
109 165 120
105 151 119
105 151 118
105 151 118
102 148 116
103 148 116
112 168 123
106 151 119
105 151 119
105 151 118
103 148 116
103 148 116
106 151 119
106 151 119
106 151 119
103 148 116
103 148 116
106 151 119
106 151 119
106 151 119
106 151 119
106 151 119
112 168 123
112 168 123
105 151 119
105 151 118
105 151 118
105 151 118
112 168 122
111 168 122
118 179 155
124 196 159
124 196 159
118 179 155
111 167 121
111 167 121
110 167 120
123 196 158
123 196 158
116 179 154
123 196 158
123 196 158
116 179 154
104 150 116
57 73 66
103 149 115
103 149 115
103 149 115
109 167 119
103 149 115
109 167 119
103 149 115
109 167 119
103 149 115
109 167 119
109 167 119
102 149 114
115 178 153
115 178 153
122 196 157
122 196 157
122 196 157
122 196 157
122 196 157
116 178 153
116 178 153
122 196 158
122 196 158
122 196 158
116 178 153
116 178 153
116 178 153
116 178 153
123 196 158
123 196 158
123 196 158
116 178 154
116 178 154
116 179 154
116 179 154
104 150 116
110 167 121
116 179 154
117 179 154
117 179 154
117 179 154
123 196 158
108 164 118
108 165 119
94 144 164
94 144 164
94 144 164
94 144 164
94 144 164
94 144 164
94 144 164
94 144 164
94 144 164
94 144 164
94 144 164
94 144 164
94 144 164
94 144 164
94 144 164
94 144 164
94 144 164
94 144 164
94 144 164
94 144 164
94 144 164
94 144 164
94 144 164
94 144 164
94 144 164
94 144 164
94 144 164
94 144 164
94 144 164
94 144 164
94 144 164
94 144 164
94 144 164
94 144 164
94 144 164
94 144 164
94 144 164
94 144 164
94 144 164
94 144 164
94 144 164
94 144 164
94 144 164
94 144 164
94 144 164
94 144 164
94 144 164
94 144 164
94 144 164
94 144 164
94 144 164
94 144 164
94 144 164
94 144 164
94 144 164
94 144 164
94 144 164
94 144 164
94 144 164
94 144 164
94 144 164
118 179 155
104 150 117
110 167 120
103 149 115
122 196 157
122 196 157
122 196 157
115 178 153
122 196 157
106 164 116
122 196 157
115 178 153
122 196 157
122 196 157
122 196 157
122 196 157
106 163 116
122 196 157
122 196 157
122 196 157
122 196 157
122 196 157
122 196 157
122 196 157
121 196 157
121 196 157
121 196 157
115 178 152
121 196 156
115 178 152
105 163 115
98 145 110
99 145 110
99 145 110
102 148 113
101 148 113
114 178 152
98 145 110
98 145 110
98 145 110
98 145 110
105 163 114
105 163 115
105 163 115
98 145 110
56 75 64
106 163 116
106 163 116
61 86 77
61 86 77
122 196 157
122 196 157
99 146 111
100 146 112
100 146 112
106 164 116
100 146 112
107 164 117
100 146 113
57 73 66
117 179 154
123 196 158
123 196 158
123 196 158
123 196 158
123 196 158
107 164 118
108 164 119
102 147 115
102 147 115
102 147 115
102 147 115
102 148 115
102 148 115
109 165 119
109 165 120
105 150 118
105 150 118
108 165 119
108 165 119
108 165 119
102 148 115
102 148 115
102 148 115
118 179 155
105 150 118
102 147 115
102 147 115
108 165 119
118 179 155
105 150 118
105 150 118
102 147 115
102 147 115
102 147 115
105 150 118
105 150 117
111 167 122
111 167 121
111 167 121
108 164 118
108 164 118
110 167 120
122 196 158
163 108 99
163 108 99
194 116 103
194 116 103
162 107 99
162 107 98
162 107 98
162 107 98
194 116 103
194 116 102
194 116 102
194 116 102
194 115 102
162 107 97
162 107 97
162 106 97
162 106 97
162 106 97
159 103 94
159 103 94
159 103 94
159 103 94
159 103 94
190 112 99
190 112 99
190 112 99
190 112 99
190 112 99
190 112 99
159 104 95
159 104 95
159 104 95
159 104 95
190 113 100
190 113 100
190 113 100
190 113 100
190 113 100
103 162 112
96 144 107
97 144 108
97 144 108
104 162 113
104 162 113
97 144 108
104 163 113
97 144 109
98 145 109
104 163 114
105 163 114
105 163 114
121 196 156
121 196 156
105 163 115
99 145 110
99 145 111
101 147 113
107 164 118
108 164 118
101 147 114
102 147 114
102 147 115
102 147 115
109 165 119
102 148 115
102 148 116
118 179 155
118 179 155
112 168 123
112 168 123
103 148 116
118 179 155
118 179 155
106 151 119
106 151 119
103 148 116
103 148 116
118 179 156
118 179 156
106 151 119
106 151 119
103 148 116
103 148 116
118 179 156
106 151 119
106 151 119
106 151 119
112 168 123
112 168 123
112 168 123
105 151 119
105 151 118
105 151 118
112 168 123
112 168 122
105 151 118
124 196 159
117 179 155
124 196 159
64 89 81
111 167 121
104 150 117
103 149 116
110 167 120
110 167 120
123 196 158
123 196 158
116 178 153
123 196 158
116 178 154
110 167 120
103 149 115
103 149 115
103 149 115
103 149 115
109 167 119
109 167 119
109 167 119
109 167 119
103 149 115
103 149 115
109 167 119
102 149 114
102 149 114
109 166 119
109 166 119
109 166 119
102 149 114
122 196 157
122 196 157
106 164 116
109 167 119
103 149 115
109 167 119
115 178 153
122 196 157
122 196 157
107 164 116
103 149 115
110 167 120
109 167 119
122 196 158
122 196 158
122 196 158
107 164 117
101 147 113
104 150 116
104 150 116
110 167 121
110 167 121
110 167 121
101 147 113
101 147 114
108 164 119
94 144 164
94 144 164
94 144 164
94 144 164
94 144 164
94 144 164
94 144 164
94 144 164
94 144 164
94 144 164
94 144 164
94 144 164
94 144 164
94 144 164
94 144 164
94 144 164
94 144 164
94 144 164
94 144 164
94 144 164
94 144 164
94 144 164
94 144 164
94 144 164
94 144 164
94 144 164
94 144 164
94 144 164
94 144 164
94 144 164
94 144 164
94 144 164
94 144 164
94 144 164
94 144 164
94 144 164
94 144 164
94 144 164
94 144 164
94 144 164
94 144 164
94 144 164
94 144 164
94 144 164
94 144 164
94 144 164
94 144 164
94 144 164
94 144 164
94 144 164
94 144 164
94 144 164
94 144 164
94 144 164
94 144 164
94 144 164
94 144 164
94 144 164
94 144 164
94 144 164
94 144 164
94 144 164
105 150 118
104 150 117
110 167 120
103 149 115
109 167 119
106 163 116
106 164 116
99 146 112
106 164 116
106 164 116
109 167 119
109 166 118
106 163 115
106 163 115
106 163 115
106 163 116
106 163 116
109 166 118
105 163 115
105 163 115
99 145 110
105 163 115
105 163 115
108 166 118
108 166 118
105 163 114
105 163 114
105 163 115
105 163 115
105 163 115
98 145 110
99 145 110
99 145 110
99 145 110
99 145 110
101 148 113
98 145 110
98 145 110
98 145 110
98 145 110
105 163 114
105 163 114
105 163 115
105 163 115
105 163 115
105 163 115
56 76 64
99 146 111
122 196 157
115 178 153
115 178 153
122 196 157
115 178 152
115 178 152
100 146 112
100 146 112
100 146 112
100 146 113
100 146 113
61 82 78
116 179 154
116 179 154
101 147 113
107 164 118
101 147 113
107 164 118
107 164 118
102 147 114
102 147 115
102 147 115
102 147 115
108 165 119
108 165 119
109 165 119
124 196 159
124 196 159
124 196 159
111 167 122
108 165 119
124 196 159
124 196 159
124 196 159
117 179 155
117 179 155
117 179 155
124 196 159
124 196 159
117 179 155
117 179 155
117 179 155
117 179 155
124 196 159
117 179 155
117 179 155
117 179 155
117 179 155
117 179 155
124 196 159
104 150 117
111 167 121
108 164 118
109 167 119
103 149 115
122 196 157
163 108 99
163 108 99
163 108 99
163 108 99
162 108 99
162 107 98
162 107 98
162 107 98
162 107 98
194 116 103
194 116 102
194 116 102
194 115 102
162 107 97
162 107 97
162 106 97
162 106 97
162 106 97
159 103 94
159 103 94
159 103 94
159 103 94
159 103 94
190 112 99
190 112 99
190 112 99
190 112 99
190 112 99
190 112 99
159 104 95
159 104 95
159 104 95
159 104 95
190 113 100
190 113 100
159 104 95
159 104 95
159 104 96
103 162 112
96 144 107
97 144 108
97 144 108
104 162 113
97 144 108
104 162 113
104 163 113
97 144 109
98 145 109
105 163 114
105 163 114
121 196 156
121 196 156
105 163 114
105 163 115
99 145 110
99 145 111
100 146 112
107 164 117
108 164 118
108 164 118
102 147 114
102 147 115
124 196 159
124 196 159
124 196 159
124 196 159
124 196 159
118 179 155
124 196 159
124 196 159
124 196 159
124 196 159
118 179 155
118 179 155
102 148 115
105 151 119
105 151 118
118 179 155
118 179 155
118 179 155
109 165 120
106 151 119
118 179 155
118 179 155
118 179 155
118 179 156
124 196 160
124 196 160
112 168 123
112 168 123
105 151 119
105 151 119
105 151 118
105 151 118
105 151 118
112 168 122
111 167 122
111 167 121
104 150 117
111 167 121
104 150 117
111 167 121
103 149 116
103 149 116
109 167 119
109 167 119
122 196 157
122 196 157
122 196 158
116 178 153
116 178 153
116 178 153
103 149 115
109 167 119
103 149 115
109 167 119
109 167 119
109 167 119
109 167 119
103 149 115
103 149 115
103 149 115
109 167 119
102 149 114
109 166 119
109 166 119
109 166 119
109 166 119
102 149 114
106 163 116
106 164 116
109 167 119
109 167 119
109 167 119
109 167 119
109 167 119
106 164 116
107 164 117
110 167 120
110 167 120
110 167 120
103 149 115
109 167 119
107 164 117
100 146 113
101 147 113
104 150 116
104 150 116
104 150 116
104 150 116
104 150 116
101 147 113
101 147 114
108 164 119
94 144 164
94 144 164
94 144 164
94 144 164
94 144 164
94 144 164
94 144 164
94 144 164
94 144 164
94 144 164
94 144 164
94 144 164
94 144 164
94 144 164
94 144 164
94 144 164
94 144 164
94 144 164
94 144 164
94 144 164
94 144 164
94 144 164
94 144 164
94 144 164
94 144 164
94 144 164
94 144 164
94 144 164
94 144 164
94 144 164
94 144 164
94 144 164
94 144 164
94 144 164
94 144 164
94 144 164
94 144 164
94 144 164
94 144 164
94 144 164
94 144 164
94 144 164
94 144 164
94 144 164
94 144 164
94 144 164
94 144 164
94 144 164
94 144 164
94 144 164
94 144 164
94 144 164
94 144 164
94 144 164
94 144 164
94 144 164
94 144 164
94 144 164
117 179 154
117 179 154
117 179 154
117 179 154
117 179 154
117 179 154
110 167 121
103 149 116
109 167 119
106 164 116
106 164 116
106 164 116
106 164 116
106 164 116
100 146 112
109 166 119
106 163 115
106 163 115
106 163 115
106 163 116
106 163 116
109 166 118
105 163 115
105 163 115
105 163 115
105 163 115
106 163 115
109 166 118
108 166 118
105 163 114
105 163 114
105 163 115
105 163 115
98 145 110
99 145 110
99 145 110
99 145 110
99 145 110
105 163 115
101 148 113
98 145 110
98 145 110
98 145 110
98 145 110
105 163 114
105 163 115
105 163 115
105 163 115
105 163 115
105 163 115
60 85 76
115 178 152
122 196 157
122 196 157
115 178 152
99 145 111
106 163 115
99 145 111
99 145 111
100 146 112
100 146 112
62 87 78
60 82 77
116 178 153
101 147 113
101 147 113
107 164 118
107 164 118
107 164 118
107 164 118
108 164 118
60 79 69
108 165 119
117 179 155
117 179 155
117 179 155
117 179 155
117 179 155
124 196 159
108 164 119
108 165 119
108 165 119
111 167 122
124 196 159
123 196 159
108 164 119
108 164 119
111 167 122
123 196 159
123 196 159
123 196 159
108 164 118
108 164 119
111 167 121
123 196 159
123 196 159
123 196 159
108 164 118
111 167 121
123 196 159
123 196 158
123 196 158
123 196 158
117 179 154
123 196 158
122 196 157
122 196 157
121 196 156
163 108 99
163 108 99
163 108 99
163 108 99
194 116 103
194 116 103
194 116 103
162 107 98
162 107 98
194 116 103
194 116 102
194 116 102
194 116 102
162 107 97
162 107 97
162 106 97
162 106 97
162 106 97
159 103 94
159 103 94
159 103 94
159 103 94
159 103 94
190 112 99
190 112 99
190 112 99
190 112 99
190 112 99
159 104 95
159 104 95
159 104 95
190 113 99
190 113 100
159 104 95
159 104 95
159 104 95
159 104 95
159 104 96
103 162 112
97 144 108
97 144 108
97 144 108
97 144 108
104 162 113
104 162 113
97 144 109
114 178 151
114 178 151
114 178 151
121 196 156
121 196 156
121 196 156
121 196 156
104 163 114
99 145 111
99 145 111
115 178 153
115 178 153
108 164 118
123 196 159
117 179 154
117 179 154
117 179 154
117 179 155
117 179 155
108 164 119
108 165 119
111 168 122
111 168 122
111 167 122
124 196 159
108 165 119
102 148 115
102 148 115
102 148 116
105 151 119
105 151 118
105 151 118
105 151 118
103 148 116
103 148 116
106 151 119
106 151 119
105 151 119
112 168 123
112 168 123
124 196 159
124 196 159
124 196 160
118 179 155
118 179 155
118 179 155
105 151 118
105 151 118
112 168 123
111 167 122
111 167 122
123 196 158
123 196 158
123 196 158
123 196 158
110 167 120
110 167 120
110 167 120
103 149 115
109 167 119
109 167 119
122 196 157
122 196 157
115 178 153
115 178 153
116 178 153
116 178 153
116 178 153
122 196 157
122 196 157
109 167 119
109 167 119
109 167 119
103 149 115
103 149 115
103 149 115
102 149 115
102 149 114
109 166 119
109 166 119
109 166 119
109 166 119
109 166 119
106 163 116
106 164 116
109 167 119
109 167 119
103 149 115
103 149 115
103 149 115
106 164 116
110 167 120
103 149 115
110 167 120
110 167 120
109 167 119
106 164 116
107 164 117
101 147 113
101 147 113
104 150 116
104 150 116
104 150 116
110 167 121
104 150 116
101 147 114
108 164 118
108 165 119
94 144 164
94 144 164
94 144 164
94 144 164
94 144 164
94 144 164
94 144 164
94 144 164
94 144 164
94 144 164
94 144 164
94 144 164
94 144 164
94 144 164
94 144 164
94 144 164
94 144 164
94 144 164
94 144 164
94 144 164
94 144 164
94 144 164
94 144 164
94 144 164
94 144 164
94 144 164
94 144 164
94 144 164
94 144 164
94 144 164
94 144 164
94 144 164
94 144 164
94 144 164
94 144 164
94 144 164
94 144 164
94 144 164
94 144 164
94 144 164
94 144 164
94 144 164
94 144 164
94 144 164
94 144 164
94 144 164
94 144 164
94 144 164
94 144 164
94 144 164
94 144 164
94 144 164
94 144 164
94 144 164
94 144 164
94 144 164
94 144 164
94 144 164
104 150 117
117 179 154
117 179 154
123 196 158
123 196 158
116 179 154
123 196 158
104 149 116
103 149 115
109 167 119
106 164 116
106 164 116
106 164 116
100 146 112
100 146 112
109 166 119
106 163 115
106 163 115
106 163 116
106 163 116
99 146 111
109 166 119
108 166 118
105 163 115
105 163 115
105 163 115
106 163 115
99 145 111
108 166 118
105 163 114
105 163 115
98 145 110
105 163 115
98 145 110
99 145 110
99 145 110
99 145 110
99 145 110
99 145 110
102 148 113
101 148 113
105 163 114
105 163 114
98 145 110
105 163 114
105 163 115
105 163 115
105 163 115
105 163 115
121 196 156
115 178 152
115 178 152
115 178 152
121 196 156
114 178 152
114 178 152
99 145 111
99 145 111
99 146 111
54 71 64
100 146 112
60 81 76
113 177 150
113 177 150
113 177 150
101 147 113
101 147 113
107 164 118
107 164 118
107 164 118
120 196 154
119 196 154
123 196 159
123 196 159
123 196 159
101 147 114
101 147 114
112 177 150
108 164 119
108 165 119
102 147 115
108 165 119
111 167 122
111 167 121
112 177 150
108 164 119
108 164 119
111 167 122
104 150 117
101 147 114
108 164 118
108 164 118
101 147 114
111 167 121
111 167 121
108 164 118
108 164 118
108 164 118
111 167 121
104 150 117
104 150 116
104 150 116
116 179 154
116 179 154
109 166 119
100 147 111
120 196 155
120 196 155
163 108 99
163 108 99
163 108 99
163 108 99
194 116 103
194 116 103
194 116 103
194 116 103
194 116 103
162 107 98
194 116 102
194 116 102
194 116 102
162 107 98
162 107 97
162 107 97
162 106 97
162 106 97
159 103 94
159 103 94
159 103 94
159 103 94
159 103 94
190 112 99
190 112 99
190 112 99
190 112 99
190 112 99
190 112 99
190 112 99
190 113 99
190 113 99
190 113 100
159 104 95
159 104 95
159 104 95
159 104 96
159 104 96
103 162 112
97 144 108
97 144 108
97 144 108
104 162 113
120 196 155
120 196 155
120 196 155
114 178 151
114 178 151
114 178 151
114 178 151
120 196 155
120 196 155
120 196 155
104 163 114
99 145 111
99 145 111
106 163 115
99 146 111
99 146 111
123 196 158
123 196 158
123 196 158
101 147 114
101 147 114
102 147 114
108 165 119
102 147 115
111 168 122
111 168 122
111 167 122
111 167 122
108 165 119
113 177 150
113 177 150
119 196 154
120 196 154
105 151 119
105 151 118
102 148 115
113 177 150
113 177 150
113 177 150
113 177 150
112 168 123
112 168 123
112 168 123
112 168 123
113 177 150
113 177 150
105 150 118
117 179 155
118 179 155
124 196 159
124 196 159
113 177 150
113 177 150
105 150 117
110 167 121
104 150 116
110 167 121
110 167 120
113 178 151
110 167 120
109 167 119
109 167 119
109 167 119
102 149 114
109 166 118
115 178 152
122 196 157
122 196 157
115 178 153
115 178 153
122 196 157
122 196 157
122 196 157
122 196 157
122 196 157
122 196 157
115 178 153
103 149 115
103 149 115
103 149 115
102 149 114
109 166 119
109 166 119
109 166 119
102 149 114
109 166 119
106 164 116
109 167 119
103 149 115
109 167 119
109 167 119
109 167 119
106 164 116
107 164 117
110 167 120
110 167 120
110 167 120
103 149 115
110 167 120
107 164 117
107 164 117
101 147 113
104 150 116
104 150 116
110 167 121
104 150 116
104 150 116
104 150 116
101 147 114
123 196 159
124 196 159
124 196 159
124 196 159
124 196 159
94 144 164
94 144 164
94 144 164
94 144 164
94 144 164
94 144 164
94 144 164
94 144 164
94 144 164
94 144 164
94 144 164
94 144 164
94 144 164
94 144 164
94 144 164
94 144 164
94 144 164
94 144 164
94 144 164
94 144 164
94 144 164
94 144 164
94 144 164
94 144 164
94 144 164
94 144 164
94 144 164
94 144 164
94 144 164
94 144 164
94 144 164
94 144 164
94 144 164
94 144 164
94 144 164
94 144 164
94 144 164
94 144 164
94 144 164
94 144 164
94 144 164
94 144 164
94 144 164
94 144 164
94 144 164
94 144 164
94 144 164
94 144 164
94 144 164
94 144 164
94 144 164
117 179 154
116 179 154
116 179 154
116 179 154
123 196 158
123 196 158
123 196 158
116 178 154
116 178 154
116 178 154
116 178 153
116 178 153
116 178 153
109 167 119
106 164 116
106 164 116
106 164 116
100 146 112
106 164 116
109 167 119
106 163 115
106 163 116
106 163 116
106 163 116
106 163 116
106 163 116
109 166 118
105 163 115
105 163 115
99 145 111
106 163 115
106 163 115
108 166 118
105 163 115
105 163 115
105 163 115
105 163 115
105 163 115
105 163 115
99 145 110
99 145 110
115 178 152
115 178 152
115 178 152
101 148 113
105 163 114
98 145 110
98 145 110
115 178 152
114 178 152
121 196 156
114 178 152
121 196 156
121 196 156
121 196 156
105 163 114
105 163 114
98 145 110
98 145 110
98 145 110
53 70 62
99 145 111
120 196 154
113 177 150
113 177 150
113 177 150
112 177 150
112 177 150
112 177 150
119 196 154
119 196 154
112 177 150
112 177 150
119 196 154
112 177 150
112 177 150
112 177 150
119 196 154
112 177 149
112 177 149
112 177 149
112 177 149
112 177 149
112 177 149
112 177 149
119 196 154
112 177 149
119 196 154
112 177 149
112 177 149
119 196 154
111 167 122
111 167 121
111 167 121
108 164 118
108 164 118
108 164 119
111 167 121
111 167 121
108 164 118
108 164 118
108 164 118
111 167 121
111 167 121
110 167 121
104 150 116
104 149 116
121 196 156
121 196 156
107 166 116
113 177 150
120 196 155
163 108 99
163 108 99
163 108 99
163 108 99
194 116 103
194 116 103
194 116 103
194 116 103
194 116 103
162 107 98
162 107 98
162 107 98
162 107 98
162 107 98
162 107 97
162 107 97
162 106 97
162 106 97
159 103 94
159 103 94
159 103 94
159 103 94
159 103 94
190 112 99
159 103 94
159 103 94
159 104 94
159 104 95
190 112 99
190 112 99
190 113 99
190 113 100
190 113 100
159 104 95
159 104 95
159 104 95
159 104 96
159 104 96
103 162 112
97 144 108
113 177 150
120 196 155
113 177 150
113 177 150
120 196 155
120 196 155
120 196 155
113 178 151
113 178 151
113 178 151
120 196 155
120 196 155
120 196 155
113 178 151
104 162 113
121 196 157
115 178 152
115 178 152
115 178 152
123 196 158
123 196 158
123 196 158
108 164 118
108 164 118
102 147 114
108 165 119
108 165 119
111 168 122
111 168 122
119 196 154
119 196 154
119 196 154
119 196 154
119 196 154
112 177 150
112 177 150
112 177 150
119 196 154
119 196 154
119 196 154
112 177 150
112 177 150
112 177 150
112 177 150
119 196 154
119 196 154
120 196 154
113 177 150
113 177 150
113 177 150
113 177 150
120 196 155
120 196 155
113 177 150
113 177 150
120 196 155
113 177 150
113 177 150
113 177 150
120 196 155
120 196 155
113 177 150
120 196 155
113 177 150
113 177 150
113 177 150
109 166 118
109 166 118
102 149 114
121 196 157
122 196 157
122 196 157
122 196 157
115 178 152
115 178 152
122 196 157
122 196 157
122 196 157
122 196 157
115 178 153
115 178 153
115 178 153
115 178 153
122 196 157
122 196 157
109 166 119
109 166 119
109 166 119
106 163 116
106 164 116
122 196 157
109 167 119
109 167 119
103 149 115
109 167 119
106 164 116
107 164 117
103 149 115
110 167 120
110 167 120
110 167 120
110 167 120
107 164 117
100 146 113
116 179 154
116 179 154
116 179 154
116 179 154
116 179 154
104 150 116
117 179 154
117 179 154
123 196 158
117 179 154
117 179 154
123 196 159
123 196 159
123 196 159
117 179 154
117 179 154
117 179 155
117 179 155
94 144 164
94 144 164
94 144 164
94 144 164
94 144 164
94 144 164
94 144 164
94 144 164
94 144 164
94 144 164
94 144 164
94 144 164
94 144 164
94 144 164
94 144 164
94 144 164
94 144 164
94 144 164
94 144 164
94 144 164
122 196 158
122 196 158
122 196 158
122 196 157
94 144 164
94 144 164
94 144 164
94 144 164
94 144 164
94 144 164
94 144 164
94 144 164
94 144 164
94 144 164
94 144 164
94 144 164
94 144 164
94 144 164
94 144 164
94 144 164
94 144 164
94 144 164
94 144 164
94 144 164
94 144 164
94 144 164
104 150 116
123 196 158
123 196 158
123 196 158
123 196 158
123 196 158
122 196 158
122 196 158
116 178 153
122 196 158
122 196 158
122 196 157
122 196 157
116 178 153
106 164 116
100 146 112
122 196 157
122 196 157
122 196 157
122 196 157
109 166 119
106 163 116
106 163 116
122 196 157
122 196 157
122 196 157
122 196 157
105 163 115
106 163 115
106 163 115
122 196 157
122 196 157
121 196 157
108 166 118
98 145 110
98 145 110
99 145 110
121 196 156
121 196 156
115 178 152
114 178 152
121 196 156
114 178 152
121 196 156
121 196 156
114 178 152
114 178 152
114 178 152
114 178 152
114 178 152
114 178 151
121 196 156
105 163 114
105 163 114
105 163 114
105 163 114
98 145 110
112 177 150
119 196 154
112 177 150
119 196 154
119 196 154
119 196 154
119 196 154
119 196 154
112 177 150
119 196 154
119 196 154
119 196 154
119 196 154
119 196 154
119 196 154
112 177 149
119 196 154
119 196 154
119 196 154
119 196 154
119 196 154
119 196 154
119 196 154
119 196 154
119 196 154
119 196 154
119 196 154
119 196 154
119 196 154
119 196 154
112 177 149
119 196 154
112 177 149
119 196 154
119 196 154
112 177 149
119 196 154
108 164 118
112 177 149
119 196 154
112 177 149
119 196 154
119 196 154
101 147 114
108 164 118
111 167 121
111 167 121
110 167 121
104 150 116
104 150 116
108 166 118
106 165 115
120 196 155
113 177 150
120 196 155
163 108 99
163 108 99
163 108 99
163 108 99
194 116 103
194 116 103
194 116 103
194 116 103
194 116 103
162 107 98
162 107 98
162 107 98
162 107 98
194 115 102
194 115 102
194 115 102
162 106 97
162 106 97
159 103 94
159 103 94
159 103 94
190 112 99
190 112 99
159 103 94
159 103 94
159 103 94
159 104 94
159 104 95
190 112 99
190 113 99
190 113 99
190 113 100
190 113 100
159 104 95
159 104 95
159 104 95
159 104 96
159 105 96
120 196 155
113 177 150
120 196 155
113 177 150
120 196 155
113 177 150
120 196 155
120 196 155
120 196 155
120 196 155
113 177 150
120 196 155
113 177 150
120 196 155
120 196 155
104 162 113
104 162 113
121 196 156
114 178 152
98 145 110
99 145 110
116 178 153
123 196 158
123 196 158
107 164 117
101 147 114
102 147 114
108 165 119
112 177 149
112 177 149
112 177 149
112 177 149
119 196 154
119 196 154
119 196 154
119 196 154
112 177 149
112 177 149
112 177 149
119 196 154
119 196 154
119 196 154
119 196 154
112 177 149
112 177 149
119 196 154
119 196 154
119 196 154
119 196 154
119 196 154
119 196 154
112 177 150
119 196 154
112 177 150
119 196 154
119 196 154
113 177 150
119 196 154
120 196 154
120 196 154
120 196 155
120 196 155
120 196 155
120 196 155
120 196 155
113 177 150
96 144 107
97 144 108
109 166 119
109 166 118
101 148 113
108 166 118
121 196 156
121 196 156
121 196 156
121 196 156
115 178 152
115 178 152
115 178 152
121 196 157
122 196 157
122 196 157
122 196 157
122 196 157
115 178 152
122 196 157
122 196 157
122 196 157
122 196 157
122 196 157
102 149 114
122 196 157
115 178 153
122 196 157
122 196 157
122 196 157
122 196 157
122 196 157
116 178 153
122 196 157
122 196 157
122 196 158
122 196 158
122 196 158
116 178 153
122 196 158
123 196 158
116 178 153
123 196 158
123 196 158
123 196 158
123 196 158
123 196 158
123 196 158
123 196 158
123 196 158
116 179 154
116 179 154
123 196 158
123 196 158
117 179 154
123 196 158
123 196 159
117 179 154
117 179 154
123 196 159
123 196 159
123 196 159
117 179 155
94 144 164
94 144 164
94 144 164
94 144 164
94 144 164
94 144 164
94 144 164
94 144 164
94 144 164
94 144 164
94 144 164
94 144 164
116 178 153
122 196 157
122 196 157
122 196 157
122 196 157
106 164 116
106 164 116
99 146 112
94 144 164
94 144 164
94 144 164
94 144 164
94 144 164
94 144 164
94 144 164
94 144 164
94 144 164
94 144 164
116 179 154
94 144 164
94 144 164
94 144 164
94 144 164
94 144 164
94 144 164
116 178 153
123 196 158
116 178 153
116 178 153
116 178 153
116 178 153
122 196 158
116 178 153
122 196 157
116 178 153
116 178 153
116 178 153
116 178 153
122 196 157
115 178 153
115 178 153
122 196 157
115 178 153
115 178 153
122 196 157
122 196 157
122 196 157
115 178 152
115 178 152
115 178 152
115 178 152
122 196 157
122 196 157
122 196 157
115 178 152
115 178 152
121 196 157
121 196 156
121 196 156
121 196 156
121 196 156
114 178 152
114 178 152
121 196 156
121 196 156
121 196 156
121 196 156
121 196 156
105 163 114
108 166 117
121 196 156
121 196 156
121 196 156
121 196 156
121 196 156
98 145 109
121 196 156
121 196 156
114 178 151
121 196 156
121 196 156
114 178 151
119 196 154
119 196 154
112 177 150
112 177 149
112 177 149
119 196 154
112 177 149
112 177 149
112 177 149
112 177 149
119 196 154
112 177 149
112 177 149
112 177 149
112 177 149
112 177 149
119 196 154
112 177 149
112 177 149
119 196 154
112 177 149
112 177 149
119 196 154
112 177 149
112 177 149
112 177 149
112 177 149
112 177 149
112 177 149
119 196 154
112 177 149
112 177 149
112 177 149
119 196 153
112 177 149
112 177 149
119 196 153
119 196 153
111 177 149
111 177 149
111 177 149
118 196 153
111 177 149
118 196 153
118 196 153
111 177 149
102 161 109
102 161 110
123 196 159
123 196 159
120 196 155
113 177 150
104 150 116
121 196 156
114 178 151
106 165 115
106 165 115
106 165 115
113 177 150
120 196 154
163 108 99
163 108 99
163 108 99
194 116 103
194 116 103
194 116 103
194 116 103
194 116 103
162 107 98
162 107 98
162 107 98
162 107 98
194 116 102
194 115 102
194 115 102
194 115 102
194 115 102
190 112 98
190 112 98
190 112 98
190 112 99
190 112 99
159 103 94
159 103 94
159 104 94
159 104 95
159 104 95
190 112 99
190 113 99
190 113 99
190 113 100
190 113 100
159 104 95
159 104 95
159 104 96
159 104 96
159 105 96
120 196 154
113 177 150
103 162 111
96 144 107
106 165 115
106 165 115
120 196 155
113 177 150
120 196 155
113 177 150
103 162 112
106 165 115
120 196 155
120 196 155
120 196 155
120 196 155
120 196 155
120 196 155
120 196 155
114 178 152
114 178 152
121 196 156
100 146 112
100 146 112
113 177 150
112 177 149
119 196 153
119 196 153
112 177 149
112 177 149
112 177 149
112 177 149
112 177 149
119 196 154
119 196 154
112 177 149
112 177 149
112 177 149
119 196 154
119 196 154
119 196 154
119 196 154
119 196 154
112 177 149
119 196 154
112 177 149
112 177 149
112 177 149
112 177 149
112 177 149
112 177 149
112 177 149
112 177 149
119 196 154
119 196 154
112 177 149
112 177 150
112 177 150
112 177 150
112 177 150
112 177 150
119 196 154
112 177 150
112 177 150
112 177 150
113 177 150
113 177 150
113 177 150
113 177 150
113 177 150
108 166 118
108 166 118
108 166 118
108 166 117
101 148 113
101 148 113
114 178 152
114 178 152
114 178 152
114 178 152
98 145 110
102 148 113
115 178 152
115 178 152
115 178 152
115 178 152
115 178 152
115 178 152
106 163 115
106 163 116
109 166 119
109 166 119
109 166 119
102 149 114
109 166 119
106 163 116
106 164 116
103 149 115
103 149 115
109 167 119
109 167 119
109 167 119
106 164 116
110 167 120
110 167 120
103 149 115
109 167 119
109 167 119
122 196 158
107 164 117
110 167 120
110 167 120
110 167 120
110 167 120
116 178 153
123 196 158
107 164 117
110 167 120
110 167 120
110 167 120
110 167 120
123 196 158
116 179 154
107 164 118
111 167 121
104 150 117
110 167 121
123 196 158
123 196 158
123 196 159
117 179 154
117 179 154
117 179 154
117 179 154
94 144 164
94 144 164
94 144 164
94 144 164
94 144 164
94 144 164
94 144 164
122 196 157
122 196 157
106 164 116
106 164 116
106 164 116
99 146 112
106 164 116
106 164 116
94 144 164
94 144 164
94 144 164
94 144 164
94 144 164
123 196 158
123 196 158
123 196 158
123 196 158
123 196 158
123 196 158
123 196 158
123 196 158
123 196 158
122 196 158
116 178 153
122 196 158
116 178 153
116 178 153
100 146 112
100 146 112
100 146 112
100 146 112
100 146 112
103 149 115
115 178 153
99 146 111
99 146 111
99 146 111
99 146 111
102 149 114
115 178 152
115 178 152
115 178 152
99 145 111
99 146 111
99 146 111
115 178 152
115 178 152
115 178 152
115 178 152
99 145 110
99 145 110
102 148 113
115 178 152
121 196 156
114 178 152
114 178 152
105 163 114
98 145 110
114 178 152
114 178 152
114 178 152
114 178 152
114 178 152
105 163 114
105 163 114
105 163 114
105 163 114
105 163 114
105 163 114
98 145 110
108 166 117
104 163 114
104 163 114
104 163 114
105 163 114
105 163 114
108 166 117
107 166 116
119 196 154
119 196 154
119 196 154
119 196 154
119 196 154
119 196 154
119 196 154
119 196 154
119 196 154
119 196 154
119 196 154
119 196 154
112 177 149
119 196 154
112 177 149
112 177 149
119 196 154
119 196 154
119 196 154
119 196 154
119 196 154
119 196 154
112 177 149
119 196 153
119 196 153
119 196 153
119 196 153
111 177 149
119 196 153
111 177 149
118 196 153
118 196 153
118 196 153
118 196 153
111 177 149
118 196 153
111 177 149
111 177 149
118 196 153
118 196 153
118 196 153
118 196 153
111 177 148
111 177 148
111 177 148
111 177 148
118 196 153
118 196 153
111 177 148
101 161 109
102 161 109
102 161 110
119 196 154
119 196 154
112 177 150
119 196 154
119 196 154
112 177 150
121 196 156
106 165 115
99 147 110
106 165 115
106 165 114
106 165 114
96 143 106
96 143 106
163 108 99
194 116 103
194 116 103
194 116 103
194 116 103
194 116 103
162 107 98
162 107 98
162 107 98
162 107 98
194 116 102
194 115 102
194 115 102
194 115 102
194 115 102
190 112 98
190 112 98
190 112 99
190 112 99
190 112 99
159 103 94
159 103 94
159 104 94
159 104 95
159 104 95
190 112 99
190 113 99
190 113 100
190 113 100
190 113 100
159 104 95
159 104 95
159 104 96
106 165 115
106 165 115
106 165 114
96 143 107
96 144 107
103 162 112
106 165 115
106 165 115
106 165 115
106 165 114
103 162 111
103 162 112
103 162 112
106 165 115
106 165 115
106 165 115
99 147 110
112 177 150
113 177 150
113 177 150
113 177 150
113 177 150
113 177 150
113 177 150
118 196 153
111 177 148
111 177 148
118 196 153
118 196 153
118 196 153
111 177 149
118 196 153
111 177 149
111 177 149
118 196 153
118 196 153
111 177 149
111 177 149
119 196 153
119 196 153
112 177 149
119 196 153
119 196 154
112 177 149
119 196 154
119 196 154
119 196 154
119 196 154
119 196 154
112 177 149
119 196 154
119 196 154
112 177 149
119 196 154
119 196 154
119 196 154
119 196 154
112 177 149
119 196 154
119 196 154
119 196 154
119 196 154
112 177 149
119 196 154
119 196 154
119 196 154
119 196 154
119 196 154
119 196 154
119 196 154
119 196 154
112 177 150
119 196 154
119 196 154
112 177 150
119 196 154
101 148 113
101 148 113
101 148 113
101 148 113
101 148 113
98 145 110
98 145 110
102 148 113
108 166 118
101 148 113
101 148 113
101 148 113
99 145 110
99 145 111
106 163 115
109 166 119
109 166 119
109 166 119
109 166 119
109 166 119
109 166 119
106 164 116
109 167 119
103 149 115
109 167 119
109 167 119
109 167 119
106 164 116
106 164 116
110 167 120
110 167 120
110 167 120
110 167 119
109 167 119
107 164 116
107 164 117
110 167 120
103 149 116
103 149 116
110 167 120
110 167 120
107 164 117
107 164 118
104 150 116
110 167 120
110 167 120
110 167 120
110 167 120
107 164 118
108 164 118
111 167 121
104 150 117
104 150 117
110 167 121
110 167 121
104 150 117
104 150 116
104 150 116
117 179 154
117 179 154
117 179 154
123 196 159
123 196 159
117 179 154
94 144 164
94 144 164
110 167 120
122 196 157
122 196 157
56 76 65
56 76 65
106 164 116
106 164 116
100 146 112
106 164 116
116 179 154
123 196 158
116 178 154
62 87 79
116 178 154
116 178 153
123 196 158
116 178 153
116 178 153
122 196 158
116 178 153
116 178 153
122 196 158
122 196 157
106 164 116
106 164 116
106 164 116
106 164 116
100 146 112
100 146 112
100 146 112
100 146 112
100 146 112
100 146 112
103 149 115
99 146 111
99 146 111
106 163 116
106 164 116
99 146 112
100 146 112
102 149 114
99 145 111
99 145 111
99 146 111
99 146 111
99 146 111
102 148 114
99 145 110
105 163 115
99 145 110
99 145 110
105 163 115
99 145 110
101 148 113
98 145 110
98 145 110
98 145 110
98 145 110
98 145 110
101 148 113
101 148 112
98 145 109
98 145 109
98 145 109
98 145 109
98 145 109
105 163 114
105 163 114
105 163 114
105 163 114
98 145 110
108 166 117
104 163 114
104 163 114
105 163 114
98 145 109
105 163 114
108 166 117
107 166 116
106 165 114
105 165 114
119 196 154
112 177 149
112 177 149
119 196 154
119 196 154
112 177 149
112 177 149
112 177 149
112 177 149
112 177 149
112 177 149
112 177 149
112 177 149
112 177 149
119 196 153
119 196 153
111 177 149
111 177 149
111 177 149
111 177 149
111 177 149
118 196 153
118 196 153
118 196 153
111 177 148
111 177 148
111 177 148
118 196 153
118 196 153
118 196 153
118 196 153
118 196 153
111 177 148
111 177 148
111 177 148
118 196 153
118 196 153
118 196 153
118 196 153
118 196 153
118 196 153
118 196 153
118 196 153
118 196 153
118 196 153
111 177 148
118 196 153
118 196 153
101 161 109
102 161 110
112 177 149
119 196 154
112 177 149
112 177 149
112 177 149
112 177 149
119 196 154
119 196 154
112 177 149
106 165 115
99 147 110
99 146 110
99 146 110
96 143 106
96 143 107
96 143 107
99 147 110
194 116 103
194 116 103
194 116 103
162 107 98
162 107 98
162 107 98
162 107 98
194 116 102
194 115 102
194 115 102
194 115 102
194 115 102
190 112 98
190 112 98
190 112 99
190 112 99
190 112 99
159 103 94
159 103 94
159 104 94
159 104 95
159 104 95
190 113 99
190 113 99
190 113 100
190 113 100
190 113 100
103 162 111
96 144 107
106 165 115
106 165 115
106 165 115
106 165 114
103 162 111
103 162 112
103 162 112
106 165 115
106 165 115
106 165 115
106 165 114
103 162 111
103 162 112
103 162 112
106 165 115
106 165 115
106 165 115
99 147 110
99 147 110
99 146 110
99 146 110
119 196 154
112 177 150
97 145 107
111 177 148
111 177 148
111 177 148
111 177 148
111 177 148
111 177 148
118 196 153
111 177 148
111 177 148
111 177 148
111 177 148
111 177 148
118 196 153
111 177 148
111 177 148
111 177 148
111 177 148
111 177 149
111 177 149
111 177 149
111 177 149
118 196 153
111 177 149
111 177 149
111 177 149
111 177 149
112 177 149
112 177 149
119 196 153
119 196 153
112 177 149
119 196 154
119 196 154
112 177 149
112 177 149
112 177 149
112 177 149
119 196 154
112 177 149
112 177 149
112 177 149
112 177 149
112 177 149
119 196 154
119 196 154
112 177 149
112 177 149
119 196 154
112 177 149
112 177 149
119 196 154
119 196 154
119 196 154
103 162 111
114 178 151
98 145 109
101 148 113
108 166 117
98 145 110
99 145 110
102 148 113
102 148 113
102 148 113
101 148 113
108 166 118
99 145 110
106 163 115
106 163 116
109 166 119
109 166 119
109 166 119
109 166 119
109 166 119
106 163 116
106 164 116
109 167 119
109 167 119
109 167 119
109 167 119
109 167 119
106 164 116
107 164 117
110 167 120
110 167 120
103 149 115
110 167 120
109 167 119
107 164 117
107 164 117
103 149 116
110 167 120
110 167 120
110 167 120
110 167 120
107 164 117
110 167 121
110 167 121
110 167 121
110 167 120
110 167 120
110 167 120
107 164 118
104 150 117
111 167 121
111 167 121
104 150 117
111 167 121
110 167 121
104 150 117
104 150 117
110 167 121
104 150 116
104 150 116
116 179 154
116 179 154
117 179 154
123 196 158
63 88 80
61 83 78
103 149 115
121 196 157
115 178 152
115 178 152
56 76 65
56 76 65
106 164 116
106 164 116
100 146 112
106 164 116
62 87 78
62 87 78
62 87 78
60 81 76
122 196 158
122 196 158
116 178 153
122 196 157
106 164 116
100 146 112
100 146 112
106 164 116
106 164 116
106 164 116
106 164 116
100 146 112
106 164 116
106 164 116
100 146 112
100 146 112
100 146 112
100 146 112
100 146 112
103 149 115
106 163 116
99 146 111
99 146 112
99 146 112
100 146 112
100 146 112
102 149 114
99 145 111
99 146 111
106 163 115
99 146 111
99 146 111
102 149 114
102 148 113
99 145 110
105 163 115
99 145 110
99 145 110
99 145 111
102 148 113
98 145 110
98 145 110
98 145 110
98 145 110
98 145 110
101 148 113
101 148 113
98 145 109
98 145 109
98 145 109
98 145 109
105 163 114
105 163 114
98 145 110
105 163 114
105 163 114
105 163 114
108 166 117
108 166 117
104 163 114
105 163 114
105 163 114
105 163 114
119 196 154
119 196 154
119 196 154
119 196 154
119 196 154
119 196 153
112 177 149
112 177 149
119 196 153
119 196 153
118 196 153
118 196 153
118 196 153
111 177 149
111 177 149
118 196 153
118 196 153
118 196 153
118 196 153
118 196 153
111 177 148
118 196 153
111 177 148
111 177 148
118 196 153
118 196 153
118 196 153
111 177 148
111 177 148
111 177 148
111 177 148
111 177 148
118 196 153
118 196 153
111 177 148
118 196 153
118 196 153
118 196 153
111 177 148
111 177 148
118 196 153
118 196 153
111 177 148
111 177 148
111 177 148
111 177 148
118 196 153
111 177 148
111 177 148
101 161 108
94 142 104
101 161 109
101 161 109
102 161 110
54 80 69
54 80 69
119 196 154
112 177 149
112 177 149
95 143 106
95 143 106
95 143 106
95 143 106
106 165 115
99 147 110
99 147 110
99 146 110
96 143 107
96 143 107
96 143 107
99 147 110
106 165 114
99 146 110
194 116 103
162 107 98
162 107 98
162 107 98
162 107 98
194 116 102
194 116 102
194 115 102
194 115 102
194 115 102
190 112 98
190 112 98
190 112 99
190 112 99
190 112 99
159 103 94
159 104 94
159 104 95
159 104 95
159 104 95
190 113 99
190 113 99
106 165 115
106 165 114
96 143 107
103 162 112
103 162 112
99 147 110
106 165 115
99 147 110
106 165 114
103 162 111
103 162 112
103 162 112
106 165 115
106 165 115
106 165 115
106 165 114
96 144 107
103 162 112
103 162 112
106 165 115
106 165 115
106 165 115
99 147 110
119 196 154
112 177 149
112 177 149
119 196 154
112 177 149
97 145 107
97 145 107
97 145 107
104 164 112
118 196 153
118 196 153
118 196 153
111 177 148
118 196 153
111 177 148
111 177 148
118 196 153
111 177 148
118 196 153
118 196 153
118 196 153
118 196 153
118 196 153
118 196 153
111 177 148
118 196 153
118 196 153
118 196 153
111 177 148
118 196 153
118 196 153
111 177 148
111 177 148
118 196 153
111 177 149
118 196 153
118 196 153
118 196 153
111 177 149
111 177 149
111 177 149
119 196 153
119 196 153
119 196 153
119 196 153
112 177 149
112 177 149
112 177 149
112 177 149
119 196 154
119 196 154
119 196 154
112 177 149
119 196 154
119 196 154
112 177 149
112 177 149
119 196 154
119 196 154
119 196 154
97 144 109
101 148 113
108 166 117
98 145 110
98 145 110
102 148 113
102 148 113
102 148 113
102 148 113
101 148 113
98 145 110
99 145 111
106 163 115
106 163 116
102 149 114
109 166 119
109 166 119
109 166 119
109 166 119
106 163 116
106 164 116
109 167 119
109 167 119
109 167 119
109 167 119
109 167 119
106 164 116
103 149 115
110 167 120
103 149 115
110 167 120
110 167 120
110 167 120
107 164 117
110 167 120
110 167 120
110 167 120
110 167 120
110 167 120
110 167 120
107 164 117
110 167 121
110 167 121
110 167 121
110 167 121
104 150 116
110 167 120
108 164 118
111 167 121
111 167 121
111 167 121
111 167 121
104 150 117
111 167 121
104 150 117
104 150 117
104 150 117
104 150 116
123 196 158
123 196 158
116 178 154
116 178 154
116 179 154
61 82 78
61 82 78
103 149 116
98 145 110
98 145 110
98 145 110
98 145 110
56 76 65
56 76 65
56 76 65
106 164 116
106 164 116
61 86 77
59 81 76
122 196 157
116 178 153
122 196 157
115 178 153
115 178 153
100 146 112
100 146 112
100 146 112
100 146 112
100 146 112
100 146 112
100 146 112
106 164 116
106 164 116
106 164 116
106 164 116
100 146 112
100 146 112
107 164 117
100 146 112
100 146 112
107 164 117
103 149 115
99 146 112
99 146 112
100 146 112
100 146 112
100 146 112
102 149 114
99 146 111
99 146 111
106 163 115
99 146 111
99 146 111
99 146 111
102 148 114
99 145 110
99 145 110
99 145 110
99 145 111
99 145 111
102 148 113
98 145 110
98 145 110
98 145 110
98 145 110
98 145 110
105 163 115
101 148 113
98 145 109
98 145 109
98 145 109
98 145 109
98 145 110
98 145 110
105 163 114
105 163 114
105 163 114
105 163 114
108 166 117
108 166 117
112 177 149
112 177 149
112 177 149
112 177 149
119 196 153
118 196 153
118 196 153
118 196 153
111 177 149
111 177 149
111 177 149
111 177 148
118 196 153
118 196 153
118 196 153
118 196 153
111 177 148
111 177 148
111 177 148
111 177 148
111 177 148
118 196 153
118 196 153
118 196 153
111 177 148
111 177 148
118 196 153
118 196 153
118 196 153
118 196 153
118 196 153
118 196 153
111 177 148
118 196 153
111 177 148
118 196 153
111 177 148
118 196 153
118 196 153
118 196 153
111 177 148
118 196 153
111 177 148
118 196 153
118 196 153
118 196 152
118 196 152
118 196 152
118 196 152
118 196 152
118 196 152
118 196 152
118 196 152
110 177 148
118 196 152
101 161 109
101 161 109
102 161 110
102 161 110
112 177 149
112 177 149
112 177 149
112 177 149
112 177 149
119 196 154
95 143 106
95 143 106
106 165 115
99 147 110
99 147 110
99 146 110
96 143 107
96 143 107
96 143 107
99 147 110
99 147 110
99 146 110
96 143 106
96 143 107
96 143 107
162 107 98
162 107 98
194 116 102
194 116 102
194 115 102
194 115 102
194 115 102
190 112 98
190 112 99
190 112 99
190 112 99
190 112 99
159 103 94
159 104 94
159 104 95
159 104 95
96 144 107
120 196 155
106 165 115
99 147 110
106 165 115
103 162 111
96 144 107
103 162 112
113 177 150
106 165 115
99 147 110
106 165 115
103 162 111
103 162 112
103 162 112
106 165 115
106 165 115
106 165 115
103 162 111
103 162 112
103 162 112
103 162 112
106 165 115
106 165 115
106 165 115
99 147 110
98 146 109
98 146 109
98 146 109
112 177 149
112 177 149
97 145 107
97 145 107
111 177 148
118 196 152
111 177 148
111 177 148
118 196 153
111 177 148
118 196 153
118 196 153
111 177 148
111 177 148
118 196 153
111 177 148
118 196 153
118 196 153
118 196 153
118 196 153
111 177 148
118 196 153
111 177 148
111 177 148
118 196 153
118 196 153
118 196 153
118 196 153
111 177 148
111 177 148
118 196 153
111 177 148
118 196 153
118 196 153
118 196 153
118 196 153
111 177 148
111 177 148
111 177 148
118 196 153
118 196 153
118 196 153
118 196 153
118 196 153
111 177 149
111 177 149
119 196 153
119 196 153
119 196 153
119 196 153
119 196 154
119 196 154
119 196 154
112 177 149
119 196 154
119 196 154
112 177 149
119 196 154
119 196 154
119 196 154
113 178 151
99 145 110
102 148 113
108 166 118
102 148 113
102 148 113
102 148 113
99 145 110
99 145 111
122 196 157
122 196 157
115 178 153
122 196 157
122 196 157
109 166 119
109 166 119
115 178 153
122 196 157
122 196 157
122 196 157
109 167 119
109 167 119
109 167 119
122 196 158
122 196 158
122 196 158
103 149 115
110 167 120
110 167 120
107 164 117
123 196 158
123 196 158
123 196 158
110 167 120
110 167 120
110 167 120
107 164 117
123 196 158
123 196 158
110 167 121
110 167 121
110 167 121
110 167 121
107 164 118
123 196 159
111 167 121
111 167 121
111 167 121
111 167 121
111 167 121
111 167 121
104 150 117
104 150 117
104 150 117
109 167 119
122 196 158
122 196 158
122 196 158
122 196 158
123 196 158
123 196 158
116 178 153
110 167 120
98 145 110
98 145 110
98 145 110
98 145 110
56 76 65
56 76 65
56 76 65
61 86 77
122 196 157
122 196 157
115 178 153
115 178 153
115 178 153
115 178 153
99 146 111
99 146 111
55 71 64
55 71 64
100 146 112
100 146 112
100 146 112
100 146 112
106 164 116
106 164 116
106 164 116
106 164 116
107 164 116
100 146 112
100 146 112
100 146 112
100 146 112
116 178 153
116 178 153
103 149 115
99 146 112
100 146 112
100 146 112
100 146 112
116 178 153
115 178 153
102 149 114
99 146 111
106 163 115
106 163 116
99 146 111
99 146 111
102 148 114
99 145 110
99 145 110
99 145 111
99 145 111
99 145 111
102 148 114
101 148 113
98 145 110
98 145 110
105 163 114
98 145 110
98 145 110
101 148 113
98 145 109
105 163 114
105 163 114
98 145 110
98 145 110
105 163 114
105 163 114
121 196 156
121 196 156
114 178 152
98 146 108
111 177 149
111 177 149
111 177 149
111 177 149
111 177 148
111 177 148
118 196 153
111 177 148
111 177 148
118 196 153
111 177 148
118 196 153
111 177 148
118 196 153
111 177 148
111 177 148
111 177 148
111 177 148
111 177 148
118 196 153
111 177 148
118 196 153
111 177 148
111 177 148
111 177 148
111 177 148
111 177 148
111 177 148
118 196 153
111 177 148
118 196 153
111 177 148
111 177 148
111 177 148
118 196 152
111 177 148
118 196 152
110 177 148
110 177 148
110 177 148
110 177 148
110 177 148
118 196 152
118 196 152
118 196 152
110 177 148
117 196 152
110 177 147
110 177 147
117 196 152
110 177 147
117 196 152
117 196 152
117 196 152
100 161 108
100 161 108
93 142 103
101 161 109
54 79 68
54 79 68
118 196 153
118 196 153
118 196 153
111 177 149
94 142 105
95 143 105
95 143 105
95 143 106
54 75 69
113 177 150
99 147 110
99 146 110
96 143 107
113 177 150
113 177 150
113 177 150
119 196 154
99 146 110
96 143 106
103 162 111
96 143 107
113 177 150
113 177 150
194 116 102
194 116 102
194 115 102
194 115 102
194 115 102
190 112 98
190 112 99
190 112 99
190 112 99
190 112 99
159 103 94
103 162 111
113 177 150
119 196 154
113 177 150
113 177 150
119 196 154
119 196 154
113 177 150
120 196 154
120 196 154
120 196 154
113 177 150
120 196 154
120 196 154
120 196 155
120 196 155
120 196 155
113 177 150
120 196 155
120 196 155
113 177 150
96 143 107
120 196 155
113 177 150
120 196 155
120 196 155
120 196 155
106 165 115
99 147 110
98 146 109
98 146 109
112 177 149
119 196 153
112 177 149
97 145 107
97 145 106
96 145 106
104 164 111
110 177 148
110 177 148
118 196 152
110 177 148
118 196 152
118 196 152
118 196 152
110 177 148
110 177 148
110 177 148
111 177 148
111 177 148
118 196 152
118 196 153
111 177 148
118 196 153
111 177 148
118 196 153
111 177 148
118 196 153
111 177 148
118 196 153
111 177 148
111 177 148
111 177 148
118 196 153
118 196 153
111 177 148
118 196 153
111 177 148
111 177 148
111 177 148
111 177 148
111 177 148
118 196 153
111 177 148
118 196 153
111 177 148
111 177 148
111 177 148
111 177 148
111 177 148
111 177 149
111 177 149
111 177 149
111 177 149
111 177 149
111 177 149
111 177 149
112 177 149
119 196 153
119 196 154
102 161 110
102 162 110
97 144 108
115 178 152
115 178 152
115 178 152
115 178 152
102 148 113
102 148 113
99 145 110
115 178 152
115 178 152
115 178 152
122 196 157
122 196 157
122 196 157
122 196 157
115 178 152
115 178 153
115 178 153
115 178 153
115 178 153
122 196 157
122 196 157
115 178 153
115 178 153
122 196 157
122 196 157
122 196 157
122 196 157
122 196 157
116 178 153
116 178 153
122 196 158
122 196 158
123 196 158
123 196 158
123 196 158
116 178 153
123 196 158
123 196 158
123 196 158
123 196 158
123 196 158
123 196 158
123 196 158
123 196 158
123 196 158
123 196 158
123 196 158
123 196 158
123 196 158
104 150 117
111 167 121
111 167 121
57 74 67
109 167 119
109 167 119
103 149 115
109 167 119
103 149 115
122 196 157
122 196 158
116 178 153
116 178 153
98 145 110
98 145 110
105 163 115
98 145 110
61 86 77
61 86 77
61 85 77
60 85 76
60 85 76
115 178 152
54 70 62
99 146 111
106 163 116
99 146 111
99 146 111
106 163 116
99 146 111
55 71 64
55 71 64
100 146 112
100 146 112
100 146 112
100 146 112
106 164 116
106 164 116
107 164 117
100 146 112
122 196 158
116 178 153
116 178 153
116 178 153
116 178 153
115 178 153
115 178 153
115 178 153
115 178 153
122 196 157
115 178 153
115 178 153
115 178 153
122 196 157
115 178 152
115 178 152
115 178 152
122 196 157
115 178 152
122 196 157
99 145 110
115 178 152
121 196 157
115 178 152
115 178 152
121 196 156
115 178 152
98 145 110
114 178 152
121 196 156
114 178 152
114 178 152
114 178 152
101 148 113
98 145 109
114 178 152
114 178 152
114 178 151
114 178 151
114 178 151
121 196 156
114 178 151
114 178 151
98 146 108
111 177 148
118 196 153
111 177 148
118 196 153
118 196 153
118 196 153
118 196 153
118 196 153
118 196 153
118 196 153
118 196 153
118 196 153
118 196 153
118 196 153
118 196 153
111 177 148
111 177 148
111 177 148
118 196 153
118 196 153
118 196 153
118 196 153
118 196 153
111 177 148
118 196 152
110 177 148
118 196 152
118 196 152
118 196 152
118 196 152
118 196 152
110 177 148
110 177 148
110 177 148
117 196 152
117 196 152
117 196 152
117 196 152
110 177 147
110 176 147
110 176 147
110 176 147
117 196 152
117 196 152
117 196 152
117 196 152
110 176 147
110 176 147
110 176 147
110 176 147
117 196 152
117 196 152
117 196 152
100 161 108
100 161 108
100 161 108
93 142 103
101 161 109
53 78 68
118 196 153
118 196 153
111 177 148
118 196 153
118 196 153
94 142 105
95 143 105
95 143 105
95 143 106
112 177 150
119 196 154
112 177 150
119 196 154
119 196 154
112 177 150
112 177 150
112 177 150
112 177 150
119 196 154
112 177 150
112 177 150
119 196 154
112 177 150
119 196 154
112 177 150
96 143 106
99 146 109
194 115 102
194 115 102
190 112 99
190 112 99
112 177 150
96 143 106
112 177 150
112 177 150
112 177 150
119 196 154
112 177 150
119 196 154
112 177 150
55 80 70
53 75 69
53 75 69
112 177 150
112 177 150
112 177 150
119 196 154
112 177 150
119 196 154
119 196 154
112 177 150
119 196 154
119 196 154
119 196 154
112 177 150
119 196 154
112 177 150
112 177 150
112 177 150
119 196 154
119 196 154
112 177 150
113 177 150
113 177 150
98 146 109
98 146 108
98 146 108
118 196 153
118 196 153
97 145 107
97 145 106
96 145 106
96 145 106
110 176 147
110 176 147
110 176 147
117 196 152
117 196 152
117 196 152
117 196 152
117 196 152
117 196 152
110 177 147
117 196 152
117 196 152
110 177 148
118 196 152
118 196 152
118 196 152
118 196 152
110 177 148
118 196 152
118 196 152
110 177 148
111 177 148
118 196 152
118 196 153
118 196 153
118 196 153
118 196 153
118 196 153
111 177 148
118 196 153
111 177 148
118 196 153
118 196 153
118 196 153
118 196 153
118 196 153
118 196 153
118 196 153
118 196 153
118 196 153
111 177 148
111 177 148
118 196 153
118 196 153
118 196 153
118 196 153
118 196 153
111 177 148
118 196 153
111 177 149
118 196 153
118 196 153
118 196 153
118 196 153
118 196 153
121 196 156
121 196 156
114 178 152
114 178 152
114 178 152
114 178 152
121 196 156
115 178 152
115 178 152
121 196 156
115 178 152
115 178 152
99 145 111
102 148 114
102 148 114
115 178 152
122 196 157
122 196 157
115 178 152
102 149 114
102 149 114
115 178 153
115 178 153
115 178 153
115 178 153
122 196 157
102 149 115
115 178 153
115 178 153
115 178 153
116 178 153
116 178 153
116 178 153
103 149 115
116 178 153
116 178 153
116 178 153
116 178 153
116 178 153
116 178 153
123 196 158
116 178 153
116 178 154
116 178 154
116 178 154
116 179 154
116 179 154
116 179 154
116 179 154
116 179 154
123 196 158
61 83 78
110 167 120
103 149 115
109 167 119
109 167 119
109 167 119
109 167 119
115 178 153
122 196 157
122 196 157
122 196 157
53 69 61
98 145 110
98 145 110
105 163 115
99 145 110
58 80 75
58 80 75
58 80 74
58 79 74
115 178 152
115 178 152
54 70 63
99 146 111
99 146 111
99 146 111
99 146 111
99 146 111
55 71 64
57 77 65
57 77 65
55 71 64
100 146 112
122 196 157
122 196 157
122 196 157
122 196 157
122 196 157
122 196 157
122 196 157
122 196 157
122 196 157
122 196 157
122 196 157
122 196 157
122 196 157
115 178 152
115 178 152
122 196 157
115 178 152
122 196 157
115 178 152
115 178 152
121 196 157
99 145 110
99 145 110
99 145 110
99 145 110
105 163 115
115 178 152
114 178 152
114 178 152
105 163 114
98 145 110
98 145 110
101 148 113
114 178 152
114 178 152
121 196 156
98 145 109
105 163 114
98 145 109
114 178 151
114 178 151
114 178 151
114 178 151
121 196 156
121 196 156
111 177 148
111 177 148
111 177 148
118 196 153
111 177 148
111 177 148
118 196 153
118 196 153
111 177 148
118 196 153
111 177 148
111 177 148
111 177 148
111 177 148
118 196 153
118 196 153
118 196 153
111 177 148
118 196 152
118 196 152
110 177 148
118 196 152
118 196 152
118 196 152
118 196 152
110 177 148
110 177 148
117 196 152
110 177 147
117 196 152
110 177 147
117 196 152
117 196 152
110 176 147
117 196 152
110 176 147
110 176 147
117 196 152
117 196 152
117 196 152
117 196 152
117 196 152
110 176 147
110 176 147
117 196 152
117 196 152
117 196 152
117 196 152
117 196 152
117 196 152
110 176 147
110 176 147
117 196 152
117 196 152
117 196 152
110 176 147
117 196 152
117 196 152
110 176 147
93 142 103
100 161 108
111 177 148
111 177 148
111 177 148
111 177 148
111 177 148
111 177 148
111 177 148
118 196 153
101 161 109
95 143 105
112 177 149
112 177 149
119 196 154
119 196 154
119 196 154
119 196 154
119 196 154
112 177 149
119 196 154
119 196 154
119 196 154
119 196 154
119 196 154
119 196 154
102 162 111
95 143 106
103 162 111
96 143 106
99 146 109
106 165 114
105 165 114
102 162 111
95 143 106
102 162 111
96 143 106
99 146 109
99 146 109
105 165 114
48 64 55
48 64 55
48 64 55
50 70 57
49 65 56
49 65 56
53 74 68
53 74 68
48 64 55
96 143 106
99 146 109
99 146 109
99 146 109
112 177 149
112 177 149
119 196 154
119 196 154
119 196 154
119 196 154
112 177 149
112 177 149
112 177 149
119 196 154
119 196 154
119 196 154
119 196 154
119 196 154
112 177 150
98 146 109
98 146 108
98 146 108
97 146 108
111 177 148
111 177 148
97 145 106
110 176 147
110 176 147
110 176 147
117 196 152
110 176 147
110 176 147
110 176 147
110 176 147
110 176 147
110 176 147
110 176 147
110 176 147
110 176 147
110 176 147
110 176 147
110 176 147
110 176 147
117 196 152
110 176 147
110 176 147
110 177 147
117 196 152
110 177 147
117 196 152
117 196 152
110 177 148
110 177 148
110 177 148
110 177 148
110 177 148
118 196 152
118 196 152
118 196 152
118 196 152
111 177 148
111 177 148
111 177 148
111 177 148
111 177 148
118 196 153
118 196 153
111 177 148
118 196 153
111 177 148
111 177 148
111 177 148
118 196 153
118 196 153
118 196 153
118 196 153
111 177 148
111 177 148
111 177 148
118 196 153
118 196 153
118 196 153
111 177 148
118 196 153
101 161 109
121 196 156
108 166 117
108 166 117
108 166 117
121 196 156
114 178 152
121 196 156
121 196 156
98 145 110
99 145 110
109 166 118
102 148 114
102 148 114
102 148 114
102 148 113
99 145 110
99 145 111
109 166 119
102 149 114
102 149 114
102 149 114
102 149 114
102 148 114
99 146 111
103 149 115
102 149 115
102 149 114
102 149 114
102 149 114
102 149 114
100 146 112
103 149 115
103 149 115
109 167 119
103 149 115
103 149 115
116 178 153
122 196 157
122 196 158
122 196 158
122 196 158
116 178 153
123 196 158
116 178 153
116 178 153
123 196 158
123 196 158
123 196 158
62 87 79
61 82 78
110 167 120
110 167 120
109 167 119
109 167 119
103 149 115
109 166 119
109 166 119
102 149 114
102 149 114
122 196 157
55 75 63
53 69 61
53 69 61
99 145 110
105 163 115
58 79 74
115 178 152
99 145 110
105 163 115
99 145 110
99 145 110
99 145 110
54 70 63
54 70 63
99 146 111
99 146 111
99 146 111
59 81 76
61 86 77
59 81 76
59 81 76
115 178 153
115 178 153
115 178 153
115 178 153
115 178 153
115 178 153
122 196 157
115 178 153
115 178 152
115 178 152
122 196 157
106 163 115
99 145 111
106 163 115
106 163 115
115 178 152
121 196 157
121 196 157
105 163 115
105 163 115
105 163 115
99 145 110
99 145 110
99 145 110
99 145 110
105 163 115
105 163 115
102 148 113
98 145 110
98 145 110
98 145 110
105 163 114
105 163 114
101 148 113
101 148 112
98 145 109
105 163 114
105 163 114
98 145 109
98 145 110
101 148 112
107 166 116
120 196 156
120 196 155
120 196 155
120 196 155
97 145 107
111 177 148
118 196 153
111 177 148
118 196 153
118 196 153
118 196 153
118 196 153
111 177 148
111 177 148
111 177 148
111 177 148
118 196 152
118 196 152
118 196 152
118 196 152
110 177 148
110 177 148
110 177 148
110 177 147
110 177 147
117 196 152
117 196 152
110 176 147
110 176 147
110 176 147
110 176 147
110 176 147
117 196 152
110 176 147
117 196 152
117 196 152
110 176 147
110 176 147
117 196 152
110 176 147
110 176 147
110 176 147
110 176 147
110 176 147
117 196 152
110 176 147
110 176 147
117 196 152
110 176 147
110 176 147
110 176 147
117 196 152
110 176 147
110 176 147
110 176 147
110 176 147
110 176 147
110 176 147
110 176 147
100 160 107
100 160 107
100 160 107
100 160 107
93 142 103
93 142 103
52 78 67
111 177 148
118 196 153
118 196 153
94 142 104
94 142 104
94 142 104
94 142 104
101 161 109
95 143 105
52 74 68
119 196 154
112 177 149
119 196 154
112 177 149
112 177 149
119 196 154
112 177 149
119 196 154
119 196 154
119 196 154
102 162 110
95 143 106
102 162 111
95 143 106
95 143 106
96 143 106
96 143 106
99 146 110
99 146 109
106 165 114
102 162 111
95 143 106
96 143 106
96 143 106
99 146 109
99 146 109
98 146 109
48 64 55
50 70 57
50 70 57
50 70 57
49 65 56
51 71 58
49 65 56
48 64 55
50 70 57
48 64 56
99 146 109
99 146 109
99 146 109
105 165 114
105 165 114
105 165 113
119 196 154
119 196 154
112 177 149
112 177 149
112 177 149
112 177 149
119 196 154
119 196 154
112 177 149
119 196 154
119 196 154
112 177 149
112 177 149
97 145 107
111 177 148
111 177 148
118 196 153
111 177 148
97 145 106
103 164 110
96 144 105
103 164 110
96 144 105
117 196 152
117 196 152
117 196 152
117 196 152
110 176 147
117 196 152
117 196 152
110 176 147
110 176 147
110 176 147
117 196 152
117 196 152
117 196 152
110 176 147
117 196 152
110 176 147
117 196 152
110 176 147
117 196 152
110 176 147
117 196 152
117 196 152
110 176 147
110 176 147
110 176 147
110 177 147
110 177 147
110 177 147
117 196 152
117 196 152
110 177 148
110 177 148
118 196 152
110 177 148
110 177 148
110 177 148
118 196 152
118 196 152
111 177 148
111 177 148
111 177 148
111 177 148
118 196 153
111 177 148
118 196 153
118 196 153
111 177 148
111 177 148
111 177 148
118 196 153
111 177 148
118 196 153
101 161 109
101 161 109
102 161 109
114 178 151
108 166 117
108 166 117
108 166 117
108 166 117
108 166 117
105 163 114
105 163 114
98 145 110
99 145 111
109 166 118
102 148 114
109 166 118
102 148 114
102 148 114
99 145 111
99 146 111
102 149 114
102 149 114
102 149 114
102 149 114
109 166 118
99 146 111
99 146 112
103 149 115
103 149 115
102 149 115
102 149 114
102 149 114
99 146 112
100 146 112
103 149 115
109 167 119
103 149 115
109 167 119
103 149 115
109 167 119
109 167 119
109 167 119
109 167 119
122 196 157
116 178 153
122 196 157
116 178 153
116 178 153
116 178 153
116 178 153
122 196 158
123 196 158
110 167 120
110 167 120
110 167 120
103 149 115
58 78 66
58 78 66
102 149 114
102 149 114
109 166 119
102 149 114
109 166 119
53 69 61
53 69 61
57 79 74
57 79 74
121 196 156
114 178 152
99 145 110
105 163 115
99 145 110
99 145 110
99 145 110
99 145 110
54 70 63
54 70 63
54 70 63
99 146 111
99 146 111
99 146 111
59 80 75
122 196 157
122 196 157
122 196 157
122 196 157
122 196 157
115 178 152
115 178 152
115 178 152
99 145 111
99 145 111
99 145 111
106 163 115
106 163 115
99 145 111
106 163 115
106 163 115
99 146 111
109 166 118
105 163 115
105 163 115
99 145 110
105 163 115
99 145 110
105 163 115
99 145 110
105 163 115
99 145 111
105 163 115
105 163 115
102 148 113
98 145 110
98 145 110
98 145 110
98 145 110
105 163 115
98 145 110
101 148 113
98 145 109
98 145 109
98 145 109
98 145 110
105 163 114
101 148 113
101 148 112
107 166 116
104 162 113
97 144 108
104 162 113
111 177 148
111 177 148
111 177 148
111 177 148
118 196 152
118 196 152
118 196 152
110 177 148
118 196 152
118 196 152
110 177 148
117 196 152
117 196 152
117 196 152
117 196 152
117 196 152
117 196 152
117 196 152
117 196 152
117 196 152
117 196 152
117 196 152
117 196 152
117 196 152
117 196 152
110 176 147
117 196 152
117 196 152
117 196 152
117 196 152
117 196 152
117 196 152
110 176 147
110 176 147
117 196 152
117 196 152
117 196 152
117 196 152
117 196 152
117 196 152
110 176 147
110 176 147
110 176 147
117 196 152
117 196 152
117 196 152
117 196 152
117 196 151
110 176 147
117 196 151
109 176 147
117 196 151
117 196 151
117 196 151
117 196 151
117 196 151
92 141 102
100 160 107
100 160 107
100 161 108
100 161 108
118 196 153
118 196 152
111 177 148
118 196 152
111 177 148
118 196 152
101 161 109
94 142 104
94 142 104
95 143 105
119 196 154
119 196 154
119 196 154
112 177 149
119 196 154
119 196 154
112 177 149
102 161 110
95 143 105
95 143 105
95 143 106
102 162 110
102 162 110
95 143 106
95 143 106
96 143 106
96 143 106
96 143 106
106 165 114
99 146 109
99 146 109
95 143 106
102 162 111
96 143 106
96 143 106
99 146 109
106 165 114
49 65 56
48 64 55
50 70 57
48 64 56
48 65 56
49 65 57
51 71 58
49 65 56
48 64 55
50 70 57
48 65 56
99 146 110
99 146 109
106 165 114
99 146 109
105 165 114
105 165 113
105 165 113
105 165 113
112 177 149
112 177 149
112 177 149
112 177 149
112 177 149
112 177 149
119 196 154
112 177 149
112 177 149
112 177 149
98 146 108
97 145 107
104 164 112
104 164 112
97 145 107
111 177 148
97 145 107
103 164 110
96 144 105
103 164 110
110 176 147
110 176 147
110 176 147
110 176 147
117 196 152
117 196 152
117 196 152
117 196 152
110 176 147
110 176 147
110 176 147
117 196 152
117 196 152
117 196 152
117 196 152
117 196 152
110 176 147
110 176 147
110 176 147
117 196 152
117 196 152
117 196 152
117 196 152
117 196 152
117 196 152
117 196 152
110 176 147
117 196 152
117 196 152
117 196 152
117 196 152
117 196 152
110 176 147
117 196 152
117 196 152
117 196 152
110 177 147
117 196 152
110 177 148
110 177 148
118 196 152
110 177 148
110 177 148
118 196 152
118 196 152
111 177 148
111 177 148
118 196 153
118 196 153
118 196 153
118 196 153
94 142 104
94 142 104
101 161 109
101 161 109
120 196 155
120 196 155
120 196 155
120 196 155
120 196 156
108 166 117
108 166 117
105 163 114
105 163 114
99 145 110
99 145 111
102 148 114
109 166 118
102 148 114
102 148 114
108 166 118
99 145 111
99 146 111
102 149 114
102 149 114
109 166 119
102 149 114
102 149 114
99 146 111
103 149 115
103 149 115
103 149 115
109 167 119
102 149 115
102 149 114
100 146 112
103 149 115
103 149 115
103 149 115
103 149 115
103 149 115
103 149 115
109 167 119
109 167 119
103 149 115
109 167 119
109 167 119
109 167 119
103 149 115
103 149 115
103 149 115
116 178 153
116 178 153
116 178 153
116 178 153
122 196 158
122 196 158
103 149 115
58 78 66
58 78 66
109 166 119
109 166 119
109 166 119
109 166 119
109 166 119
109 166 119
57 79 73
57 79 73
114 178 152
114 178 152
114 178 152
98 145 110
53 69 61
53 69 62
99 145 110
105 163 115
99 145 110
99 145 110
54 70 63
54 70 63
54 70 63
59 80 75
58 80 75
115 178 152
122 196 157
122 196 157
115 178 152
122 196 157
106 163 115
106 163 115
99 145 111
99 145 111
99 145 111
99 145 111
99 145 111
99 145 111
99 145 111
106 163 115
106 163 115
99 146 111
106 163 115
106 163 115
109 166 118
105 163 115
105 163 115
99 145 110
105 163 115
105 163 115
105 163 115
99 145 110
105 163 115
99 145 111
105 163 115
99 145 111
102 148 114
101 148 113
98 145 110
98 145 110
98 145 110
98 145 110
98 145 110
101 148 113
98 145 109
98 145 109
98 145 110
98 145 110
98 145 110
98 145 110
101 148 112
111 177 148
111 177 148
110 177 148
110 177 148
118 196 152
110 177 148
118 196 152
117 196 152
110 177 147
110 177 147
110 177 147
117 196 152
110 176 147
110 176 147
117 196 152
110 176 147
117 196 152
110 176 147
110 176 147
110 176 147
110 176 147
110 176 147
110 176 147
117 196 152
117 196 152
117 196 152
110 176 147
110 176 147
110 176 147
110 176 147
117 196 152
110 176 147
110 176 147
110 176 147
117 196 152
110 176 147
117 196 152
110 176 147
110 176 147
117 196 152
117 196 151
109 176 147
117 196 151
109 176 147
109 176 147
109 176 147
117 196 151
117 196 151
117 196 151
117 196 151
117 196 151
117 196 151
117 196 151
109 176 146
117 196 151
117 196 151
117 196 151
117 196 151
117 196 151
109 176 146
99 160 106
100 160 107
100 160 107
49 71 64
52 77 66
118 196 152
117 196 152
110 177 147
110 177 147
117 196 152
93 142 103
93 142 103
94 142 104
101 161 109
51 73 67
111 177 149
111 177 149
118 196 153
118 196 153
102 161 110
102 161 110
102 161 110
95 143 105
95 143 105
95 143 105
102 162 110
102 162 110
95 143 106
102 162 111
95 143 106
96 143 106
96 143 106
96 143 107
99 146 110
99 146 109
99 146 109
95 143 106
96 143 106
96 143 106
96 143 106
99 146 110
106 165 114
49 65 56
50 70 57
48 64 55
50 70 57
48 65 56
49 66 57
49 65 56
49 65 56
48 64 55
48 64 56
48 65 56
51 71 58
49 65 57
49 65 56
99 146 109
105 165 114
105 165 114
105 165 113
105 165 113
98 146 108
98 146 108
105 165 113
119 196 153
119 196 153
119 196 153
112 177 149
119 196 153
119 196 153
119 196 154
98 146 108
104 164 112
97 145 107
97 145 107
110 177 148
110 177 148
110 177 148
96 144 106
102 163 109
109 176 146
117 196 151
109 176 146
109 176 146
109 176 146
109 176 147
109 176 147
117 196 151
109 176 147
117 196 151
109 176 147
109 176 147
117 196 151
110 176 147
110 176 147
110 176 147
110 176 147
117 196 152
110 176 147
117 196 152
117 196 152
117 196 152
110 176 147
110 176 147
110 176 147
110 176 147
110 176 147
110 176 147
110 176 147
110 176 147
110 176 147
117 196 152
117 196 152
110 176 147
110 176 147
110 176 147
110 176 147
110 176 147
117 196 152
110 176 147
117 196 152
117 196 152
117 196 152
110 177 147
110 177 147
110 177 147
110 177 147
110 177 148
118 196 152
110 177 148
110 177 148
110 177 148
111 177 148
111 177 148
101 161 109
101 161 109
119 196 154
120 196 155
113 178 151
104 162 113
104 163 113
108 166 117
108 166 117
105 163 114
105 163 115
99 145 110
115 178 152
102 148 114
102 148 114
109 166 118
109 166 118
102 148 114
99 146 111
109 166 119
109 166 119
102 149 114
102 149 114
102 149 114
102 149 114
99 146 111
103 149 115
103 149 115
103 149 115
103 149 115
102 149 115
102 149 114
100 146 112
103 149 115
103 149 115
103 149 115
103 149 115
103 149 115
103 149 115
109 167 119
109 167 119
109 167 119
109 167 119
109 167 119
109 167 119
103 149 115
103 149 115
103 149 115
103 149 115
103 149 115
103 149 115
109 167 119
122 196 157
122 196 157
122 196 157
61 86 77
61 86 77
109 166 119
109 166 119
102 149 114
102 149 114
57 77 65
108 166 118
98 145 110
98 145 110
98 145 110
98 145 110
98 145 110
98 145 110
98 145 110
53 69 62
55 75 63
53 69 62
99 145 110
99 145 110
99 145 110
58 80 75
58 80 75
115 178 152
115 178 152
122 196 157
122 196 157
106 163 115
106 163 115
106 163 115
99 145 111
106 163 115
106 163 115
106 163 115
106 163 115
99 145 111
106 163 115
99 145 111
99 146 111
106 163 115
106 163 115
106 163 115
106 163 115
106 163 115
106 163 116
108 166 118
105 163 115
105 163 115
105 163 115
105 163 115
105 163 115
99 145 111
105 163 115
99 145 111
99 145 111
115 178 152
115 178 152
102 148 113
98 145 110
98 145 110
98 145 110
105 163 115
115 178 152
101 148 113
101 148 113
98 145 110
98 145 110
105 163 114
105 163 114
114 178 152
101 148 112
96 145 106
110 177 147
110 177 147
110 177 147
117 196 152
117 196 152
110 176 147
117 196 152
117 196 152
110 176 147
110 176 147
110 176 147
110 176 147
110 176 147
117 196 152
117 196 152
110 176 147
110 176 147
110 176 147
110 176 147
110 176 147
117 196 152
110 176 147
117 196 152
117 196 152
110 176 147
110 176 147
110 176 147
110 176 147
110 176 147
110 176 147
117 196 151
117 196 151
117 196 151
109 176 147
109 176 147
109 176 147
109 176 147
117 196 151
117 196 151
109 176 146
109 176 146
109 176 146
109 176 146
109 176 146
109 176 146
109 176 146
109 176 146
109 176 146
109 176 146
109 176 146
109 176 146
109 176 146
109 176 146
109 176 146
109 176 146
116 196 151
99 160 106
99 160 106
99 160 106
99 160 106
100 160 107
100 160 107
51 76 65
49 71 64
117 196 152
117 196 152
117 196 152
93 141 103
93 141 103
93 142 103
93 142 103
101 161 109
94 142 104
111 177 148
111 177 148
101 161 109
94 142 105
94 142 105
102 161 110
102 161 110
102 161 110
102 161 110
102 161 110
95 143 105
95 143 106
102 162 110
102 162 111
102 162 111
95 143 106
96 143 106
112 177 150
112 177 150
112 177 150
112 177 150
99 146 109
95 143 106
96 143 106
112 177 150
112 177 150
112 177 150
49 65 57
49 65 56
48 64 55
48 64 56
53 75 69
53 75 69
53 75 69
49 65 56
49 65 56
50 70 57
50 70 57
53 75 69
53 75 69
49 66 57
51 71 58
49 65 56
51 71 57
105 165 114
98 146 109
105 165 113
98 146 109
98 146 108
98 146 108
98 146 108
105 164 113
105 164 113
118 196 153
118 196 153
111 177 149
111 177 149
111 177 149
110 176 147
117 196 152
110 176 147
110 177 147
110 177 147
110 177 147
96 144 106
95 144 105
95 144 104
95 144 104
95 144 104
109 176 146
116 196 151
116 196 151
116 196 151
116 196 151
117 196 151
117 196 151
109 176 146
109 176 146
109 176 146
117 196 151
117 196 151
109 176 146
117 196 151
117 196 151
117 196 151
109 176 147
117 196 151
117 196 151
117 196 151
117 196 152
117 196 152
117 196 152
117 196 152
110 176 147
110 176 147
110 176 147
110 176 147
110 176 147
117 196 152
117 196 152
110 176 147
110 176 147
117 196 152
117 196 152
110 176 147
110 176 147
110 176 147
117 196 152
110 176 147
110 176 147
110 176 147
110 176 147
110 176 147
117 196 152
117 196 152
117 196 152
110 177 147
110 177 147
110 177 147
110 177 148
110 177 148
110 177 148
110 177 148
102 161 110
97 144 108
104 162 113
104 163 113
108 166 117
108 166 117
105 163 114
99 145 110
115 178 152
115 178 152
115 178 152
115 178 152
115 178 152
102 148 114
99 145 111
115 178 152
115 178 152
115 178 152
115 178 153
115 178 153
109 166 119
99 146 111
115 178 153
115 178 153
115 178 153
115 178 153
103 149 115
103 149 115
100 146 112
116 178 153
116 178 153
116 178 153
116 178 153
103 149 115
103 149 115
109 167 119
109 167 119
103 149 115
103 149 115
109 167 119
103 149 115
103 149 115
103 149 115
103 149 115
103 149 115
103 149 115
109 167 119
103 149 115
109 167 119
109 167 119
102 149 115
102 149 114
109 166 119
109 166 119
109 166 119
102 149 114
109 166 119
57 77 65
57 77 65
108 166 118
54 74 62
98 145 110
98 145 110
105 163 114
105 163 114
98 145 110
105 163 114
53 69 62
53 69 62
53 69 62
55 75 63
99 145 111
99 145 111
121 196 157
121 196 157
121 196 157
121 196 156
121 196 156
121 196 156
121 196 156
55 75 63
106 163 115
106 163 115
106 163 115
106 163 115
99 145 111
99 145 111
99 145 111
99 145 111
99 146 111
99 146 111
106 163 115
99 146 111
106 163 115
106 163 115
122 196 157
122 196 157
109 166 118
99 145 110
99 145 110
105 163 115
105 163 115
105 163 115
121 196 157
115 178 152
115 178 152
115 178 152
115 178 152
115 178 152
115 178 152
114 178 152
114 178 152
114 178 152
114 178 152
114 178 152
114 178 152
114 178 152
114 178 152
114 178 152
114 178 151
114 178 151
114 178 151
114 178 151
97 145 106
96 145 106
110 176 147
110 176 147
117 196 152
117 196 152
117 196 152
117 196 152
110 176 147
110 176 147
117 196 152
117 196 152
117 196 152
117 196 152
117 196 152
117 196 152
117 196 152
117 196 152
117 196 152
117 196 152
117 196 152
110 176 147
117 196 151
117 196 151
117 196 151
117 196 151
109 176 147
109 176 147
117 196 151
117 196 151
117 196 151
117 196 151
109 176 146
117 196 151
109 176 146
109 176 146
116 196 151
116 196 151
109 176 146
116 196 151
116 196 151
116 196 151
109 176 146
109 176 146
109 176 146
116 196 151
109 176 146
116 196 151
116 196 151
109 176 146
109 176 146
116 196 151
109 176 146
91 140 101
91 140 101
91 140 101
92 140 101
99 160 106
92 141 101
99 160 106
99 160 106
99 160 106
93 141 102
51 76 65
110 176 147
110 176 147
110 176 147
117 196 152
117 196 152
117 196 152
110 176 147
93 142 103
93 142 103
118 196 153
111 177 148
101 161 109
101 161 109
101 161 109
95 142 105
102 161 110
102 161 110
102 161 110
102 161 110
95 143 105
95 143 106
95 143 106
102 162 110
102 162 111
119 196 154
119 196 154
119 196 154
112 177 149
112 177 149
112 177 149
112 177 149
119 196 154
119 196 154
112 177 149
112 177 149
53 74 68
53 74 68
53 74 68
48 64 55
51 71 58
53 74 68
53 74 68
53 74 68
53 74 68
53 74 68
48 64 55
53 74 68
53 74 68
53 74 68
53 74 68
53 74 68
53 74 68
55 80 70
49 65 56
51 70 57
50 70 57
48 65 55
98 146 109
98 146 108
98 146 108
105 165 113
105 164 113
118 196 153
118 196 153
118 196 153
118 196 153
117 196 152
110 176 147
117 196 152
117 196 152
117 196 152
117 196 152
117 196 152
110 176 147
96 145 106
95 144 105
95 144 104
95 144 104
95 144 104
95 144 104
102 163 109
102 163 109
116 196 151
109 176 146
116 196 151
116 196 151
116 196 151
109 176 146
109 176 146
109 176 146
116 196 151
109 176 146
116 196 151
116 196 151
117 196 151
117 196 151
109 176 146
109 176 146
117 196 151
117 196 151
117 196 151
117 196 151
109 176 147
117 196 151
117 196 151
109 176 147
117 196 151
117 196 151
110 176 147
117 196 152
110 176 147
117 196 152
117 196 152
110 176 147
117 196 152
117 196 152
117 196 152
117 196 152
117 196 152
117 196 152
117 196 152
110 176 147
117 196 152
117 196 152
117 196 152
117 196 152
117 196 152
110 176 147
117 196 152
110 176 147
117 196 152
93 141 103
93 142 103
102 162 110
113 177 150
104 162 113
121 196 156
108 166 117
105 163 114
121 196 156
121 196 156
121 196 156
121 196 156
121 196 156
115 178 152
115 178 152
99 145 110
109 166 118
102 148 114
102 148 114
115 178 152
115 178 152
115 178 152
99 145 111
102 149 114
102 149 114
102 149 114
115 178 153
115 178 153
115 178 153
99 146 111
103 149 115
102 149 115
115 178 153
115 178 153
116 178 153
116 178 153
116 178 153
122 196 157
122 196 158
109 167 119
109 167 119
109 167 119
109 167 119
109 167 119
109 167 119
103 149 115
103 149 115
103 149 115
109 167 119
109 167 119
109 167 119
103 149 115
109 167 119
109 167 119
122 196 157
122 196 157
122 196 157
122 196 157
61 86 77
55 71 64
57 77 65
108 166 118
98 144 109
52 68 60
54 74 62
98 145 110
98 145 110
98 145 110
98 145 110
53 70 62
60 85 76
58 79 74
58 79 74
57 79 74
115 178 152
115 178 152
121 196 156
121 196 156
105 163 114
105 163 114
105 163 114
105 163 114
55 75 63
55 75 63
55 75 63
106 163 115
106 163 115
106 163 115
99 145 111
99 146 111
99 146 111
106 163 115
106 163 115
115 178 152
122 196 157
122 196 157
122 196 157
122 196 157
122 196 157
122 196 157
121 196 157
121 196 157
121 196 157
121 196 156
121 196 156
121 196 156
121 196 156
114 178 152
121 196 156
121 196 156
121 196 156
121 196 156
121 196 156
114 178 152
114 178 152
121 196 156
121 196 156
121 196 156
121 196 156
121 196 156
114 178 151
114 178 151
121 196 156
121 196 156
121 196 156
97 145 107
96 145 106
103 164 111
103 164 110
117 196 152
110 176 147
110 176 147
117 196 152
110 176 147
110 176 147
110 176 147
110 176 147
117 196 152
117 196 152
110 176 147
117 196 151
117 196 151
109 176 147
109 176 147
117 196 151
117 196 151
117 196 151
117 196 151
109 176 146
117 196 151
109 176 146
117 196 151
109 176 146
116 196 151
109 176 146
116 196 151
116 196 151
109 176 146
109 176 146
116 196 151
116 196 151
116 196 151
116 196 151
116 196 151
116 196 151
109 176 146
109 176 146
109 176 146
109 176 146
116 196 151
116 196 151
116 196 151
116 196 151
116 196 151
109 176 146
99 160 105
91 140 100
91 140 101
91 140 101
99 160 106
92 140 101
92 141 101
92 141 101
99 160 106
99 160 106
99 160 106
99 160 106
50 76 64
110 176 147
117 196 152
110 176 147
110 176 147
110 176 147
110 176 147
100 160 107
92 141 102
93 142 103
93 142 103
50 72 65
118 196 153
118 196 153
111 177 148
102 161 109
102 161 110
102 161 110
102 161 110
102 161 110
102 161 110
95 143 105
95 143 106
112 177 149
112 177 149
119 196 154
119 196 154
119 196 154
119 196 154
119 196 154
102 162 110
119 196 154
119 196 154
119 196 154
54 79 69
54 79 69
54 79 69
49 69 56
47 64 55
50 70 56
48 64 55
49 65 56
49 65 56
48 65 56
47 64 55
47 64 55
48 64 55
48 64 55
49 65 56
48 65 56
48 65 56
52 74 68
54 80 69
54 80 69
54 80 69
54 80 69
55 80 69
55 80 69
48 65 56
48 64 55
50 70 57
98 146 108
105 165 113
104 164 112
118 196 153
118 196 153
118 196 153
111 177 148
103 164 110
103 164 110
96 144 105
117 196 152
117 196 152
110 176 147
110 176 147
110 176 147
110 176 147
95 144 105
95 144 105
95 144 104
95 144 104
95 144 104
102 163 109
102 163 109
102 163 109
102 163 109
102 163 109
116 196 151
109 176 146
109 176 146
109 176 146
116 196 151
109 176 146
109 176 146
109 176 146
109 176 146
116 196 151
116 196 151
109 176 146
116 196 151
109 176 146
109 176 146
116 196 151
116 196 151
109 176 146
117 196 151
109 176 146
109 176 146
109 176 146
109 176 146
109 176 146
117 196 151
109 176 147
109 176 147
109 176 147
117 196 151
117 196 151
110 176 147
110 176 147
117 196 152
117 196 152
117 196 152
110 176 147
110 176 147
117 196 152
117 196 152
110 176 147
117 196 152
117 196 152
110 176 147
110 176 147
100 160 107
100 161 107
93 142 103
93 142 103
118 196 153
118 196 153
118 196 153
113 177 150
96 144 107
114 178 151
114 178 151
114 178 152
121 196 156
121 196 156
121 196 156
105 163 114
98 145 110
99 145 111
102 148 114
109 166 118
102 148 114
102 148 114
108 166 118
99 145 111
99 146 111
102 149 114
109 166 119
102 149 114
102 149 114
102 149 114
99 146 111
99 146 112
103 149 115
103 149 115
102 149 115
102 149 114
102 149 114
109 166 119
122 196 157
122 196 157
122 196 157
122 196 157
122 196 157
122 196 157
116 178 153
103 149 115
103 149 115
103 149 115
103 149 115
103 149 115
109 167 119
109 167 119
103 149 115
109 167 119
109 167 119
57 77 65
109 166 118
109 166 118
109 166 118
122 196 157
122 196 157
60 85 76
109 166 118
108 166 118
104 163 113
52 69 61
52 69 61
54 74 62
52 69 61
98 145 110
105 163 114
98 145 110
57 79 74
59 84 75
114 178 152
98 145 110
98 145 110
98 145 110
98 145 110
105 163 114
105 163 114
105 163 114
105 163 114
105 163 114
98 145 110
55 75 63
55 75 64
55 75 64
106 163 115
106 163 115
99 146 111
115 178 152
115 178 152
115 178 152
115 178 152
115 178 152
115 178 152
121 196 157
105 163 115
105 163 115
105 163 115
99 145 110
99 145 110
121 196 156
121 196 156
105 163 114
105 163 114
105 163 114
105 163 114
108 166 117
121 196 156
121 196 156
121 196 156
105 163 114
105 163 114
105 163 114
107 166 117
121 196 156
121 196 156
121 196 156
104 163 113
104 163 113
104 163 113
120 196 156
120 196 155
120 196 155
111 177 148
111 177 148
96 145 106
103 164 111
103 164 110
96 144 105
110 176 147
110 176 147
110 176 147
117 196 151
117 196 151
109 176 147
117 196 151
117 196 151
109 176 147
109 176 146
109 176 146
109 176 146
109 176 146
109 176 146
116 196 151
116 196 151
109 176 146
109 176 146
109 176 146
109 176 146
109 176 146
109 176 146
116 196 151
109 176 146
109 176 146
116 196 151
109 176 146
109 176 146
109 176 146
109 176 146
109 176 146
109 176 146
109 176 146
109 176 146
109 176 146
109 176 146
116 196 151
116 196 151
109 176 146
109 176 146
109 176 146
98 160 105
98 160 105
98 160 105
99 160 105
99 160 105
99 160 105
91 140 101
91 140 101
91 140 101
92 140 101
92 141 101
99 160 106
99 160 106
99 160 106
99 160 106
99 160 106
50 75 64
110 176 147
117 196 152
99 160 106
99 160 107
92 141 102
92 141 102
92 141 102
100 160 107
93 142 103
93 142 103
111 177 148
94 142 103
101 161 108
94 142 104
94 142 105
102 161 110
102 161 110
102 161 110
119 196 154
112 177 149
112 177 149
112 177 149
112 177 149
112 177 149
112 177 149
112 177 149
102 161 110
102 161 110
102 162 110
102 162 110
105 165 113
105 165 113
50 70 56
49 69 55
47 63 54
49 69 56
49 69 56
47 64 55
48 64 55
48 64 55
49 65 56
49 65 56
48 65 56
47 64 55
47 64 55
50 70 57
50 70 57
49 65 56
49 65 56
50 70 57
50 70 57
48 64 55
50 70 57
54 79 69
54 79 69
52 74 67
52 74 67
52 74 67
52 74 67
48 64 55
98 146 108
105 165 113
104 164 112
104 164 112
104 164 112
111 177 148
118 196 153
103 164 110
103 164 110
103 164 110
110 176 147
117 196 152
110 176 147
117 196 152
110 176 147
110 176 147
95 144 105
102 163 109
95 144 104
102 163 109
102 163 109
95 144 104
102 163 109
102 163 109
102 163 109
102 163 109
95 144 104
102 163 109
94 144 104
116 196 151
109 176 146
109 176 146
116 196 151
116 196 151
116 196 151
116 196 151
116 196 151
109 176 146
109 176 146
109 176 146
116 196 151
116 196 151
109 176 146
116 196 151
116 196 151
109 176 146
109 176 146
109 176 146
109 176 146
109 176 146
116 196 151
116 196 151
117 196 151
109 176 146
109 176 146
109 176 146
109 176 146
109 176 147
109 176 147
92 141 101
95 144 105
95 144 105
117 196 151
110 176 147
110 176 147
110 176 147
110 176 147
110 176 147
92 141 102
100 160 107
100 160 107
93 141 103
93 142 103
93 142 103
118 196 153
118 196 153
118 196 153
101 161 109
121 196 156
114 178 151
114 178 151
114 178 151
114 178 151
114 178 151
105 163 114
105 163 114
99 145 110
99 145 111
102 148 114
102 148 114
102 148 114
102 148 114
102 148 114
99 145 111
102 149 114
102 149 114
102 149 114
102 149 114
102 149 114
102 149 114
99 146 111
109 167 119
109 167 119
109 167 119
103 149 115
102 149 115
102 149 114
109 166 119
102 149 114
109 166 119
109 166 119
109 166 119
122 196 157
115 178 153
115 178 153
115 178 153
115 178 153
116 178 153
116 178 153
103 149 115
109 167 119
109 167 119
109 167 119
103 149 115
57 77 66
109 166 118
109 166 118
109 166 118
109 166 118
102 148 114
102 148 114
109 166 118
122 196 157
109 166 118
98 145 109
98 145 109
52 69 61
52 69 61
52 69 61
54 74 62
98 145 110
114 178 152
98 145 110
98 145 110
98 145 110
98 145 110
98 145 110
98 145 110
105 163 114
105 163 114
98 145 110
105 163 114
105 163 114
105 163 115
98 145 110
55 75 64
60 85 76
60 85 76
60 85 76
122 196 157
122 196 157
115 178 152
115 178 152
115 178 152
99 145 110
99 145 110
105 163 115
105 163 115
105 163 115
105 163 115
105 163 115
105 163 115
105 163 115
108 166 118
105 163 114
105 163 114
105 163 114
105 163 114
105 163 114
105 163 114
108 166 117
105 163 114
105 163 114
105 163 114
105 163 114
105 163 114
108 166 117
97 144 109
104 163 113
104 163 113
97 144 109
104 163 113
104 163 113
107 166 116
113 178 151
113 178 151
97 145 107
111 177 148
97 145 106
96 145 106
103 164 110
96 144 105
95 144 105
117 196 151
117 196 151
109 176 146
117 196 151
117 196 151
117 196 151
116 196 151
116 196 151
116 196 151
109 176 146
116 196 151
116 196 151
116 196 151
116 196 151
116 196 151
116 196 151
116 196 151
109 176 146
109 176 146
109 176 146
116 196 151
116 196 151
109 176 146
109 176 146
116 196 151
109 176 146
109 176 146
109 176 146
116 196 151
116 196 151
109 176 146
116 196 151
116 196 151
116 196 151
109 176 146
109 176 146
109 176 146
91 140 100
98 160 105
91 140 100
98 160 105
91 140 100
99 160 105
99 160 105
99 160 105
99 160 105
91 140 101
91 140 101
99 160 106
99 160 106
92 141 101
92 141 101
92 141 101
99 160 106
92 141 101
99 160 106
92 141 101
99 160 106
92 141 102
99 160 107
100 160 107
92 141 102
92 141 102
100 160 107
93 141 102
52 77 66
110 177 148
118 196 152
101 161 108
94 142 104
101 161 109
95 142 105
119 196 153
119 196 153
119 196 153
119 196 153
119 196 153
119 196 153
119 196 153
111 177 149
95 143 105
95 143 105
95 143 105
102 161 110
102 162 110
102 162 110
102 162 110
105 165 113
105 165 113
50 70 56
49 69 56
49 69 56
47 64 55
49 69 56
48 64 55
48 64 55
50 70 57
49 65 56
49 65 56
48 65 56
47 64 55
48 64 55
48 64 55
50 70 57
49 65 56
49 65 56
48 65 56
50 70 57
50 70 57
50 70 57
50 70 56
48 64 55
52 73 67
52 73 67
52 73 67
52 73 67
112 177 149
119 196 154
119 196 154
104 164 112
118 196 152
118 196 152
118 196 152
96 145 106
103 163 109
117 196 151
117 196 151
117 196 151
117 196 151
117 196 151
109 176 147
109 176 147
117 196 151
103 163 110
95 144 105
95 144 104
95 144 104
102 163 109
102 163 109
102 163 109
102 163 109
95 144 104
95 144 104
102 163 109
95 144 104
94 144 104
94 144 104
102 163 108
102 163 108
116 196 151
116 196 151
109 176 146
116 196 151
116 196 151
116 196 151
116 196 151
102 163 109
116 196 151
109 176 146
116 196 151
116 196 151
116 196 151
109 176 146
109 176 146
116 196 151
116 196 151
116 196 151
116 196 151
116 196 151
116 196 151
116 196 151
116 196 151
109 176 146
116 196 151
92 141 101
92 141 101
92 141 102
95 144 105
95 144 105
95 144 105
95 144 105
95 144 105
109 176 147
109 176 147
92 141 102
92 141 102
100 160 107
100 161 107
93 141 103
93 142 103
118 196 153
111 177 148
118 196 153
118 196 153
101 161 109
112 177 150
112 177 150
120 196 156
121 196 156
98 144 109
98 145 109
105 163 114
105 163 115
99 145 110
102 148 114
102 148 114
102 148 114
102 148 114
102 148 114
102 148 114
99 146 111
102 149 114
102 149 114
109 166 119
109 166 119
102 149 114
102 149 114
99 146 111
103 149 115
103 149 115
103 149 115
103 149 115
103 149 115
102 149 115
102 149 114
109 166 119
109 166 119
109 166 119
109 166 119
109 166 119
109 166 119
109 166 119
102 149 114
115 178 153
115 178 153
115 178 153
122 196 157
122 196 157
122 196 157
122 196 157
57 77 66
57 77 66
102 148 114
109 166 118
109 166 118
109 166 118
109 166 118
121 196 156
115 178 152
121 196 156
121 196 157
98 145 109
98 145 109
57 78 73
57 78 73
57 78 73
57 78 73
57 78 73
121 196 156
114 178 151
52 69 61
105 163 114
98 145 110
98 145 110
98 145 110
98 145 110
105 163 114
105 163 114
105 163 115
105 163 115
105 163 115
98 145 110
60 85 76
60 85 75
121 196 157
121 196 156
115 178 152
115 178 152
115 178 152
99 145 110
99 145 110
99 145 110
99 145 110
99 145 110
105 163 115
99 145 110
99 145 110
105 163 115
105 163 115
99 145 111
108 166 118
105 163 114
105 163 114
98 145 110
105 163 114
98 145 110
105 163 115
108 166 117
98 145 109
105 163 114
105 163 114
105 163 114
105 163 114
108 166 117
107 166 116
104 163 113
104 163 113
104 163 113
104 163 113
104 163 113
112 177 149
112 177 149
112 177 149
111 177 148
118 196 153
111 177 148
96 145 106
103 164 111
103 164 110
96 144 105
95 144 105
102 163 109
116 196 151
109 176 146
116 196 151
116 196 151
99 160 106
99 160 106
99 160 106
102 163 109
116 196 151
116 196 151
116 196 151
109 176 146
109 176 146
99 160 105
91 140 100
102 163 109
116 196 151
116 196 151
116 196 151
109 176 146
116 196 151
116 196 151
98 160 105
98 160 105
102 163 108
116 196 151
116 196 151
109 176 146
116 196 150
116 196 150
116 196 150
98 160 105
91 140 100
98 160 105
98 160 105
91 140 100
91 140 100
91 140 100
98 160 105
98 160 105
99 160 105
99 160 105
99 160 105
91 140 101
91 140 101
99 160 106
92 140 101
99 160 106
99 160 106
99 160 106
99 160 106
109 176 146
117 196 151
109 176 146
116 196 151
116 196 151
99 160 106
99 160 107
92 141 102
92 141 102
100 160 107
93 141 102
93 141 102
49 71 64
49 71 64
110 176 147
110 176 147
110 176 147
101 161 109
51 73 66
111 177 149
111 177 149
118 196 153
118 196 153
118 196 153
94 142 105
102 161 109
95 143 105
102 161 110
95 143 105
102 161 110
102 161 110
102 162 110
102 162 110
102 162 110
105 165 114
105 165 113
48 64 55
49 69 56
49 69 56
47 64 55
50 70 56
50 70 57
48 64 55
50 70 57
49 65 56
49 65 56
51 71 57
47 64 55
48 64 55
48 64 55
48 64 56
49 65 56
49 65 56
48 65 56
50 70 57
50 70 57
50 70 57
50 70 56
48 64 55
47 64 55
47 64 54
47 64 54
53 79 68
118 196 153
118 196 153
97 145 107
104 164 111
103 164 111
117 196 152
117 196 152
103 164 111
103 163 110
102 163 109
102 163 109
117 196 151
109 176 146
117 196 151
109 176 146
117 196 151
109 176 146
109 176 146
109 176 146
95 144 105
95 144 104
102 163 109
95 144 104
102 163 109
102 163 109
102 163 109
95 144 104
95 144 104
95 144 104
95 144 104
94 144 104
94 143 104
102 163 108
94 143 103
102 163 108
94 143 103
116 196 151
116 196 151
98 160 105
98 160 105
102 163 109
102 163 109
94 144 104
102 163 108
109 176 146
116 196 151
116 196 151
99 160 105
99 160 105
102 163 109
102 163 109
102 163 109
102 163 109
116 196 151
116 196 151
116 196 151
99 160 106
99 160 106
92 141 101
92 141 101
92 141 102
95 144 105
95 144 105
95 144 105
95 144 105
95 144 105
95 144 105
92 141 102
92 141 102
100 160 107
100 160 107
100 161 107
93 142 103
93 142 103
118 196 153
118 196 153
118 196 153
118 196 153
118 196 153
118 196 153
111 177 148
112 177 149
96 143 106
98 145 109
98 145 109
105 163 114
99 145 110
99 145 111
115 178 152
102 148 114
102 148 114
102 148 114
102 148 114
99 145 111
99 146 111
115 178 153
102 149 114
102 149 114
102 149 114
102 149 114
99 146 111
100 146 112
109 167 119
103 149 115
103 149 115
103 149 115
103 149 115
109 167 119
102 149 115
109 166 119
109 166 119
109 166 119
109 166 119
102 149 114
102 149 114
102 149 114
102 149 114
102 149 114
102 149 114
115 178 152
115 178 153
122 196 157
122 196 157
122 196 157
61 86 77
102 149 114
109 166 118
109 166 118
102 148 114
102 148 114
56 76 64
108 166 118
108 166 117
108 166 117
108 166 117
104 163 114
98 145 109
56 78 73
56 78 73
114 178 151
114 178 151
98 145 109
98 145 109
104 163 114
52 69 61
54 74 62
52 69 61
105 163 114
98 145 110
98 145 110
105 163 115
105 163 115
105 163 115
105 163 115
105 163 115
105 163 115
121 196 156
115 178 152
114 178 152
114 178 152
114 178 152
114 178 152
114 178 152
114 178 152
53 69 61
99 145 110
99 145 110
99 145 110
99 145 110
105 163 115
105 163 115
105 163 115
105 163 115
106 163 115
109 166 118
98 145 110
105 163 114
105 163 114
105 163 114
98 145 110
105 163 115
108 166 117
98 145 109
105 163 114
105 163 114
105 163 114
105 163 114
98 145 110
108 166 117
104 163 113
104 163 113
104 163 113
104 163 113
111 177 148
118 196 152
110 177 148
110 177 148
110 177 148
118 196 152
110 177 148
110 177 148
103 164 111
103 164 110
96 144 105
95 144 105
102 163 109
102 163 109
99 160 106
99 160 106
99 160 106
99 160 106
99 160 106
99 160 106
102 163 109
102 163 109
98 160 105
91 140 100
99 160 105
91 140 100
91 140 100
91 140 101
99 160 105
102 163 109
102 163 108
116 196 151
91 140 100
91 140 100
91 140 100
91 140 100
91 140 100
102 163 108
101 163 108
116 196 150
116 196 150
98 160 105
98 160 105
91 140 100
98 160 105
98 160 105
91 140 100
98 160 105
91 140 100
91 140 100
98 160 105
98 160 105
99 160 105
99 160 105
99 160 105
91 140 101
99 160 105
91 140 101
92 140 101
92 141 101
99 160 106
109 176 146
109 176 146
116 196 151
116 196 151
116 196 151
116 196 151
109 176 146
116 196 151
99 160 106
100 160 107
100 160 107
92 141 102
92 141 102
93 141 102
93 141 102
49 71 64
110 176 147
93 141 103
100 161 107
93 141 103
94 142 104
51 72 66
111 177 148
111 177 148
118 196 153
118 196 153
101 161 109
101 161 109
102 161 110
102 161 110
95 143 105
95 143 105
95 143 105
102 161 110
95 143 106
102 162 110
95 143 106
105 165 114
105 165 113
50 70 57
49 69 56
49 69 56
49 69 56
48 64 55
53 74 68
55 80 70
53 74 68
53 74 68
53 74 68
49 65 56
48 64 55
48 64 55
53 74 68
53 74 68
53 74 68
53 74 68
51 71 57
50 70 57
50 70 57
50 70 57
50 70 57
50 70 56
48 64 55
47 64 55
47 64 54
47 63 54
105 164 112
118 196 153
97 145 107
104 164 111
104 164 111
103 164 111
103 164 111
103 164 111
103 163 110
95 144 105
102 163 109
102 163 109
116 196 151
116 196 151
116 196 151
109 176 146
109 176 146
109 176 146
109 176 146
109 176 146
116 196 151
116 196 151
102 163 109
102 163 109
102 163 109
102 163 109
95 144 104
102 163 109
102 163 109
95 144 104
94 144 104
102 163 108
102 163 108
102 163 108
102 163 108
102 163 108
101 163 108
98 160 105
98 160 105
99 160 105
102 163 109
102 163 109
102 163 108
102 163 108
102 163 108
102 163 108
98 160 105
99 160 105
99 160 106
102 163 109
102 163 109
102 163 109
102 163 109
102 163 109
102 163 109
99 160 105
99 160 106
99 160 106
92 141 101
92 141 101
95 144 105
95 144 105
95 144 105
95 144 105
95 144 105
95 144 105
95 144 105
92 141 102
92 141 102
100 160 107
100 161 107
100 161 108
93 142 103
110 177 148
110 177 148
118 196 152
111 177 148
118 196 153
118 196 153
118 196 153
118 196 153
101 161 108
104 163 113
98 145 109
105 163 114
105 163 114
115 178 152
115 178 152
121 196 157
115 178 152
115 178 152
115 178 152
115 178 152
115 178 152
115 178 152
115 178 152
115 178 152
115 178 153
115 178 153
102 149 114
115 178 153
115 178 153
122 196 157
115 178 153
115 178 153
116 178 153
103 149 115
109 167 119
109 167 119
109 167 119
109 166 119
109 166 119
109 166 119
102 149 114
102 149 114
102 149 114
109 166 119
102 149 114
115 178 152
115 178 152
115 178 152
115 178 152
115 178 152
115 178 152
115 178 152
109 166 118
109 166 118
109 166 118
109 166 118
54 71 63
56 76 64
108 166 118
108 166 118
108 166 117
101 148 113
51 68 60
114 178 151
114 178 151
98 145 109
98 145 109
98 145 109
98 145 109
98 145 109
98 145 109
98 145 109
52 69 61
52 69 61
52 69 61
98 145 110
98 145 110
98 145 110
105 163 115
121 196 156
121 196 156
121 196 156
121 196 156
121 196 156
121 196 156
114 178 152
98 145 109
98 145 110
98 145 110
98 145 110
98 145 110
53 69 62
53 69 62
105 163 115
105 163 115
105 163 115
105 163 115
105 163 115
105 163 115
106 163 115
122 196 157
122 196 157
108 166 118
105 163 114
105 163 114
105 163 115
98 145 110
121 196 156
121 196 156
98 145 109
105 163 114
105 163 114
105 163 114
105 163 114
121 196 156
108 166 117
118 196 152
118 196 152
118 196 152
118 196 152
118 196 152
110 177 148
110 177 147
110 177 147
117 196 152
110 176 147
117 196 152
110 176 147
117 196 152
103 164 110
96 144 105
95 144 105
102 163 109
102 163 109
99 160 106
92 140 101
99 160 106
99 160 106
99 160 106
99 160 106
102 163 109
102 163 109
102 163 109
91 140 100
99 160 105
99 160 105
99 160 105
99 160 105
99 160 105
102 163 109
102 163 108
91 140 100
91 140 100
98 160 105
98 160 105
98 160 105
91 140 100
102 163 108
102 163 108
101 163 108
98 160 105
91 140 100
98 160 105
98 160 105
91 140 100
98 160 105
91 140 100
91 140 100
91 140 100
91 140 100
91 140 100
98 160 105
99 160 105
99 160 105
99 160 105
99 160 105
99 160 106
109 176 146
116 196 151
109 176 146
116 196 151
109 176 146
109 176 146
116 196 151
109 176 146
116 196 151
99 160 105
91 140 101
99 160 106
99 160 106
92 141 102
92 141 102
92 141 102
93 141 102
110 176 147
110 176 147
110 176 147
117 196 152
93 141 103
93 141 103
100 161 108
94 142 104
118 196 153
118 196 153
118 196 153
118 196 153
118 196 153
118 196 153
118 196 153
102 161 110
95 143 105
102 161 110
95 143 105
95 143 105
102 162 110
119 196 154
119 196 154
119 196 154
119 196 154
105 165 113
50 70 57
49 69 56
49 69 56
54 80 69
54 80 69
54 80 69
52 74 68
52 74 68
52 74 68
52 74 68
54 80 69
54 80 69
52 74 68
52 74 68
52 74 68
52 74 68
52 74 68
52 74 68
55 80 69
50 70 57
48 65 55
48 64 55
50 70 56
48 64 55
47 64 55
49 69 56
49 69 56
105 164 112
118 196 153
118 196 153
104 164 111
104 164 111
110 176 147
110 176 147
117 196 152
95 144 105
116 196 151
116 196 151
109 176 146
116 196 151
109 176 146
116 196 151
116 196 151
116 196 151
109 176 146
109 176 146
116 196 151
116 196 151
116 196 151
116 196 151
116 196 151
116 196 151
102 163 109
95 144 104
95 144 104
95 144 104
95 144 104
95 144 104
102 163 108
94 143 103
102 163 108
94 143 103
102 163 108
102 163 108
98 160 105
98 160 105
99 160 105
95 144 104
102 163 109
94 144 104
102 163 108
102 163 108
102 163 108
98 160 105
99 160 105
99 160 106
102 163 109
102 163 109
102 163 109
102 163 109
95 144 104
102 163 109
99 160 105
99 160 106
99 160 106
92 141 101
92 141 102
96 144 105
95 144 105
95 144 105
95 144 105
95 144 105
95 144 105
92 141 101
92 141 102
92 141 102
100 160 107
100 161 107
110 176 147
110 177 147
110 177 147
110 177 147
110 177 148
110 177 148
110 177 148
110 177 148
110 177 148
101 161 108
101 161 109
119 196 154
112 177 149
121 196 156
121 196 156
121 196 156
121 196 156
121 196 156
121 196 156
121 196 156
115 178 152
121 196 157
121 196 157
121 196 157
122 196 157
115 178 152
115 178 152
115 178 152
122 196 157
122 196 157
122 196 157
122 196 157
115 178 153
122 196 157
115 178 153
122 196 157
122 196 157
122 196 157
109 167 119
109 167 119
109 166 119
109 166 119
102 149 114
102 149 114
102 149 114
109 166 119
102 148 113
102 148 113
102 148 113
102 148 113
102 148 113
115 178 152
115 178 152
122 196 157
122 196 157
122 196 157
122 196 157
60 85 76
56 76 65
108 166 118
108 166 118
108 166 118
108 166 118
108 166 118
56 77 72
114 178 151
114 178 151
51 68 60
51 68 60
98 145 109
98 145 109
105 163 114
98 145 109
98 145 109
52 69 61
52 69 61
57 79 74
57 79 73
57 79 73
114 178 152
121 196 156
121 196 156
121 196 156
121 196 156
98 145 109
105 163 114
105 163 114
98 145 110
98 145 110
98 145 110
98 145 110
98 145 110
105 163 114
53 69 62
53 69 62
55 75 63
53 70 62
115 178 152
121 196 157
121 196 157
121 196 157
121 196 156
121 196 156
121 196 156
121 196 156
121 196 156
121 196 156
121 196 156
121 196 156
121 196 156
121 196 156
121 196 156
121 196 156
121 196 156
121 196 156
121 196 156
110 177 148
110 177 148
117 196 152
117 196 152
117 196 152
117 196 152
117 196 152
110 176 147
117 196 152
117 196 152
117 196 152
110 176 147
117 196 152
117 196 152
117 196 152
117 196 152
96 144 105
96 144 105
103 163 110
102 163 109
99 160 106
99 160 106
92 141 101
99 160 106
92 141 101
99 160 106
99 160 106
102 163 109
102 163 109
91 140 100
99 160 105
99 160 105
99 160 105
99 160 105
99 160 106
102 163 109
102 163 108
91 140 100
91 140 100
98 160 105
98 160 105
98 160 105
98 160 105
102 163 108
102 163 108
101 163 108
98 160 105
91 140 100
98 160 105
98 160 105
91 140 100
91 140 100
98 160 105
91 140 100
91 140 100
91 140 100
91 140 100
91 140 100
99 160 105
91 140 100
116 196 151
116 196 151
116 196 151
116 196 151
116 196 151
109 176 146
109 176 146
109 176 146
116 196 151
109 176 146
116 196 151
109 176 146
116 196 151
91 140 101
99 160 106
99 160 106
43 59 49
117 196 152
117 196 152
110 176 147
110 176 147
110 176 147
110 176 147
110 176 147
117 196 152
110 176 147
93 142 103
50 72 65
50 72 65
111 177 148
118 196 153
118 196 153
118 196 153
101 161 108
101 161 109
102 161 110
95 143 105
95 143 105
102 161 110
112 177 149
112 177 149
119 196 154
119 196 154
119 196 154
119 196 154
54 79 69
52 74 67
52 74 67
54 79 69
54 79 69
54 79 69
54 79 69
54 79 69
47 63 54
54 79 69
54 79 69
54 79 69
54 79 69
54 79 69
52 74 67
54 79 69
54 79 69
54 79 69
52 74 67
52 74 67
54 79 69
54 79 69
50 70 57
48 64 55
48 64 55
47 64 55
49 69 56
118 196 153
118 196 153
118 196 153
118 196 153
104 164 111
103 164 110
110 176 147
117 196 152
117 196 152
103 163 110
102 163 109
102 163 109
102 163 108
116 196 151
109 176 146
109 176 146
116 196 151
109 176 146
109 176 146
109 176 146
116 196 151
116 196 151
116 196 151
109 176 146
116 196 151
116 196 151
109 176 146
116 196 151
109 176 146
95 144 104
102 163 109
95 144 104
102 163 108
102 163 108
102 163 108
94 143 103
102 163 108
102 163 108
98 160 105
98 160 105
99 160 105
102 163 109
95 144 104
95 144 104
94 144 104
102 163 108
102 163 108
99 160 105
99 160 105
99 160 106
95 144 104
102 163 109
102 163 109
95 144 104
102 163 109
99 160 105
99 160 106
99 160 106
92 141 101
92 141 101
92 141 102
96 144 105
95 144 105
95 144 105
95 144 105
95 144 105
95 144 105
92 141 102
92 141 102
93 141 102
117 196 152
117 196 152
110 176 147
117 196 152
117 196 152
117 196 152
117 196 152
110 176 147
110 176 147
117 196 152
117 196 152
117 196 152
110 177 148
118 196 152
110 177 148
112 177 149
95 143 105
114 178 152
121 196 156
121 196 156
121 196 156
105 163 114
108 166 118
108 166 117
121 196 156
121 196 156
121 196 156
121 196 156
105 163 115
108 166 118
108 166 118
121 196 157
122 196 157
115 178 152
122 196 157
122 196 157
109 166 118
122 196 157
122 196 157
122 196 157
122 196 157
122 196 157
122 196 157
115 178 153
102 149 114
109 166 119
102 149 114
55 71 64
102 148 114
102 148 114
102 148 113
108 166 118
108 166 118
102 148 113
115 178 152
115 178 152
121 196 157
121 196 157
118 196 153
118 196 153
118 196 153
118 196 153
108 166 118
108 166 118
108 166 118
108 166 118
97 144 108
97 144 108
97 144 108
97 144 108
51 68 60
51 68 60
51 68 60
98 145 109
98 145 109
98 145 109
57 79 73
57 78 73
57 78 73
114 178 152
114 178 152
114 178 151
121 196 156
105 163 114
105 163 114
105 163 114
105 163 114
105 163 114
105 163 114
98 145 110
98 145 110
98 145 110
105 163 114
98 145 110
98 145 110
98 145 110
58 79 74
58 79 74
57 79 74
115 178 152
121 196 156
121 196 156
121 196 156
114 178 152
114 178 152
114 178 152
114 178 152
114 178 152
121 196 156
121 196 156
105 163 114
105 163 114
105 163 114
105 163 114
108 166 117
121 196 156
121 196 156
121 196 156
104 164 111
103 164 111
110 176 147
110 176 147
110 176 147
110 176 147
110 176 147
110 176 147
110 176 147
110 176 147
117 196 152
117 196 152
110 176 147
110 176 147
117 196 152
110 176 147
110 176 147
110 176 147
103 163 110
102 163 109
99 160 106
99 160 106
99 160 106
99 160 106
92 141 101
99 160 106
99 160 106
102 163 109
102 163 109
99 160 105
91 140 101
91 140 101
91 140 101
99 160 106
91 140 101
102 163 109
102 163 109
102 163 108
98 160 105
91 140 100
98 160 105
98 160 105
91 140 100
99 160 105
102 163 108
102 163 108
98 160 105
91 140 100
98 160 105
91 140 100
98 160 105
98 160 105
98 160 105
91 140 100
98 160 105
91 140 100
99 160 105
109 176 146
116 196 151
116 196 151
116 196 151
116 196 151
116 196 151
116 196 151
116 196 151
116 196 151
116 196 151
109 176 146
116 196 151
116 196 151
116 196 151
116 196 151
109 176 146
116 196 151
99 160 106
92 141 101
50 75 64
50 75 64
110 176 147
110 176 147
110 176 147
110 176 147
110 176 147
92 141 102
99 160 107
92 141 102
93 142 103
50 71 65
111 177 148
111 177 148
101 161 108
101 161 108
101 161 108
101 161 108
101 161 109
102 161 110
119 196 153
119 196 153
119 196 153
112 177 149
112 177 149
119 196 153
112 177 149
112 177 149
119 196 153
54 79 68
52 73 67
52 73 67
52 73 67
52 73 67
52 73 67
49 69 55
49 69 56
49 69 56
48 64 55
50 70 56
48 64 55
52 73 67
49 69 55
49 69 56
47 63 54
50 70 57
50 70 56
54 79 68
54 79 68
52 73 67
52 73 67
52 73 67
52 73 67
54 79 68
48 64 55
50 69 56
104 164 112
104 164 112
104 164 111
118 196 153
104 164 111
103 164 110
103 164 110
103 164 110
103 164 110
103 163 110
102 163 109
102 163 109
102 163 108
102 163 108
116 196 151
109 176 146
109 176 146
109 176 146
109 176 146
109 176 146
109 176 146
109 176 146
109 176 146
109 176 146
109 176 146
109 176 146
109 176 146
109 176 146
109 176 146
109 176 146
109 176 146
102 163 109
102 163 109
102 163 108
94 143 103
102 163 108
102 163 108
98 160 105
98 160 105
99 160 105
99 160 105
95 144 104
95 144 104
95 144 104
102 163 109
102 163 108
98 160 105
99 160 105
99 160 106
102 163 109
95 144 104
102 163 109
102 163 109
102 163 109
102 163 109
99 160 105
99 160 106
99 160 106
92 141 101
109 176 147
110 176 147
110 176 147
110 176 147
110 176 147
103 163 110
95 144 105
95 144 105
92 141 102
110 176 147
110 176 147
110 176 147
110 176 147
117 196 152
117 196 152
117 196 152
117 196 152
117 196 152
110 176 147
110 176 147
110 176 147
110 176 147
110 176 147
117 196 152
117 196 152
117 196 152
117 196 152
100 161 108
114 178 151
114 178 151
98 145 109
105 163 114
105 163 115
108 166 118
101 148 113
108 166 117
108 166 117
101 148 113
105 163 115
105 163 115
108 166 118
108 166 118
108 166 118
108 166 118
108 166 118
105 163 115
106 163 115
102 149 114
109 166 118
110 176 147
110 176 147
109 166 118
122 196 157
115 178 152
115 178 152
115 178 153
115 178 153
59 80 75
110 176 147
102 148 114
102 148 114
102 148 114
102 148 113
102 148 113
114 178 152
114 178 152
114 178 152
114 178 152
111 177 148
111 177 148
111 177 148
118 196 153
118 196 153
118 196 153
118 196 153
118 196 153
118 196 153
97 144 108
97 144 108
97 144 108
97 144 108
51 68 60
51 68 60
51 68 60
52 68 60
98 145 109
98 145 109
105 163 114
114 178 151
121 196 156
121 196 156
121 196 156
121 196 156
121 196 156
121 196 156
52 68 60
105 163 114
105 163 114
105 163 114
105 163 114
105 163 114
98 145 110
105 163 114
98 145 110
98 145 110
98 145 110
98 145 110
57 79 74
114 178 152
114 178 152
121 196 156
121 196 156
121 196 156
121 196 156
114 178 152
114 178 151
114 178 151
98 145 109
98 145 109
98 145 109
105 163 114
105 163 114
105 163 114
105 163 114
105 163 114
108 166 117
101 148 112
114 178 151
117 196 152
110 176 147
117 196 152
117 196 152
110 176 147
110 176 147
110 176 147
110 176 147
110 176 147
117 196 152
117 196 152
117 196 152
110 176 147
110 176 147
110 176 147
110 176 147
110 176 147
110 176 147
117 196 151
117 196 151
102 163 109
102 163 109
92 141 101
99 160 106
99 160 106
99 160 106
99 160 106
117 196 151
102 163 109
102 163 109
99 160 105
99 160 105
99 160 105
91 140 101
99 160 106
99 160 106
102 163 109
102 163 109
102 163 108
98 160 105
98 160 105
98 160 105
98 160 105
99 160 105
99 160 105
102 163 108
102 163 108
98 160 105
91 140 100
98 160 105
98 160 105
98 160 105
98 160 105
98 160 105
109 176 146
116 196 151
109 176 146
109 176 146
109 176 146
109 176 146
116 196 151
116 196 151
116 196 151
109 176 146
109 176 146
108 176 146
108 176 146
108 176 146
108 176 146
108 176 146
108 176 146
116 196 150
116 196 150
98 160 105
91 140 100
98 160 105
99 160 106
48 69 62
117 196 151
117 196 151
117 196 151
109 176 146
117 196 151
92 141 102
92 141 102
92 141 102
92 141 102
93 142 103
93 142 103
93 142 103
101 161 108
93 142 103
101 161 108
107 175 144
107 175 144
107 175 144
107 175 144
53 79 68
118 196 153
118 196 153
111 177 149
94 142 105
115 195 149
107 175 144
107 175 144
107 175 144
51 73 66
53 79 68
51 73 66
46 63 53
46 63 54
49 69 55
107 175 144
107 175 144
49 69 56
48 64 55
48 64 55
50 70 56
49 69 55
49 69 55
49 69 56
49 69 56
107 175 144
50 70 56
53 79 68
53 79 68
53 79 68
51 73 67
51 73 67
51 73 67
51 73 67
54 79 68
54 79 68
104 164 112
104 164 112
118 196 152
118 196 152
118 196 152
103 164 110
103 164 110
117 196 151
109 176 147
117 196 151
102 163 109
102 163 109
116 196 150
116 196 150
116 196 150
116 196 150
116 196 150
116 196 150
108 176 146
108 176 146
109 176 146
116 196 151
116 196 151
109 176 146
109 176 146
116 196 151
109 176 146
109 176 146
109 176 146
116 196 151
116 196 151
116 196 151
116 196 151
116 196 151
94 144 104
94 143 103
102 163 108
98 160 105
98 160 105
116 196 151
109 176 146
116 196 151
102 163 109
102 163 109
102 163 109
102 163 108
99 160 105
99 160 105
116 196 151
116 196 151
102 163 109
102 163 109
102 163 109
102 163 109
95 144 104
99 160 106
99 160 106
99 160 106
109 176 146
109 176 146
109 176 146
109 176 147
109 176 147
109 176 147
109 176 147
109 176 147
110 176 147
110 176 147
110 176 147
110 176 147
110 176 147
110 176 147
110 176 147
110 176 147
110 176 147
110 176 147
110 176 147
110 176 147
110 176 147
110 176 147
110 176 147
110 176 147
110 176 147
110 176 147
117 196 152
100 161 108
111 177 149
121 196 156
98 145 109
98 145 109
105 163 114
108 166 118
101 148 113
108 166 118
108 166 118
108 166 117
108 166 117
105 163 115
109 166 118
108 166 118
108 166 118
108 166 118
108 166 118
108 166 118
106 163 115
102 149 114
110 176 147
117 196 152
110 176 147
117 196 152
117 196 152
110 176 147
110 176 147
122 196 157
122 196 157
115 178 152
117 196 152
110 176 147
110 176 147
110 176 147
110 176 147
117 196 152
101 148 113
101 148 113
108 166 117
101 148 113
110 177 147
110 177 148
110 177 148
110 177 148
110 177 148
118 196 152
118 196 152
118 196 153
111 177 148
118 196 153
97 144 108
97 144 108
110 177 148
118 196 152
110 177 148
117 196 152
110 177 147
110 176 147
56 78 73
114 178 151
114 178 151
121 196 156
110 176 147
110 176 147
117 196 152
110 176 147
104 163 113
104 163 113
54 74 62
52 68 60
54 74 62
105 163 114
110 176 147
110 176 147
110 176 147
98 145 110
98 145 110
105 163 114
98 145 110
114 178 152
121 196 156
121 196 156
121 196 156
121 196 156
121 196 156
121 196 156
105 163 114
98 145 109
98 145 109
105 163 114
98 145 109
98 145 109
98 145 109
105 163 114
105 163 114
105 163 114
105 163 114
103 164 110
117 196 152
117 196 152
110 176 147
117 196 152
117 196 152
110 176 147
117 196 152
110 176 147
117 196 152
117 196 152
110 176 147
117 196 152
117 196 152
110 176 147
117 196 152
117 196 151
109 176 147
117 196 151
109 176 147
117 196 151
117 196 151
109 176 146
117 196 151
117 196 151
102 163 109
99 160 106
99 160 106
109 176 146
116 196 151
116 196 151
116 196 151
116 196 151
116 196 151
91 140 101
99 160 105
99 160 106
116 196 151
109 176 146
116 196 151
116 196 151
116 196 151
102 163 108
98 160 105
98 160 105
98 160 105
116 196 151
116 196 151
116 196 151
116 196 151
102 163 108
101 163 108
98 160 105
98 160 105
98 160 105
116 196 151
116 196 151
116 196 151
109 176 146
108 176 146
108 176 146
108 176 146
116 196 150
108 176 146
108 176 146
108 176 145
108 176 145
108 176 145
108 176 145
116 196 150
116 196 150
108 176 145
108 176 145
116 196 150
116 196 150
98 160 105
98 160 105
98 160 105
98 160 105
91 140 100
99 160 106
49 75 63
109 176 146
116 196 151
116 196 151
116 196 151
109 176 146
116 196 151
109 176 146
92 141 102
92 141 102
49 71 64
49 71 64
110 176 147
107 175 144
115 195 149
107 175 144
107 175 144
107 175 144
107 175 144
107 175 144
107 175 144
107 175 144
111 177 148
114 195 149
114 195 149
114 195 149
107 175 144
107 175 144
107 175 144
107 175 144
107 175 144
46 63 53
114 195 149
107 175 144
107 175 144
107 175 144
107 175 144
107 175 144
114 195 149
114 195 149
50 70 56
49 69 55
107 175 144
107 175 144
107 175 144
107 175 144
107 175 144
107 175 144
107 175 144
53 78 68
53 78 68
53 78 68
107 175 144
115 195 149
107 175 144
107 175 144
107 175 144
117 196 152
117 196 152
117 196 152
116 196 151
116 196 151
117 196 151
117 196 151
117 196 151
117 196 151
102 163 109
101 163 108
116 196 150
116 196 150
116 196 150
116 196 150
116 196 150
116 196 150
108 176 145
116 196 150
116 196 150
116 196 150
108 176 145
108 176 145
108 176 146
116 196 150
108 176 146
116 196 150
108 176 146
116 196 150
116 196 151
116 196 151
109 176 146
116 196 151
116 196 151
116 196 151
116 196 151
109 176 146
116 196 151
116 196 151
109 176 146
116 196 151
116 196 151
116 196 151
116 196 151
94 144 104
116 196 151
116 196 151
116 196 151
116 196 151
116 196 151
116 196 151
116 196 151
95 144 104
102 163 109
99 160 106
116 196 151
116 196 151
116 196 151
116 196 151
116 196 151
109 176 146
117 196 151
109 176 146
109 176 146
117 196 151
109 176 146
117 196 151
117 196 151
109 176 147
109 176 147
109 176 147
117 196 151
110 176 147
110 176 147
117 196 152
117 196 152
110 176 147
110 176 147
110 176 147
117 196 152
110 176 147
117 196 152
117 196 152
117 196 152
110 176 147
111 177 148
111 177 148
111 177 148
111 177 148
118 196 153
108 166 118
108 166 118
108 166 118
108 166 118
108 166 118
105 163 114
105 163 115
109 166 118
109 166 118
102 148 114
108 166 118
110 177 148
108 166 118
106 163 115
117 196 151
117 196 151
117 196 151
109 176 147
110 176 147
110 176 147
110 176 147
110 176 147
110 176 147
110 176 147
117 196 152
117 196 152
110 176 147
110 176 147
110 176 147
110 176 147
117 196 152
110 176 147
110 176 147
110 176 147
110 176 147
110 176 147
110 176 147
110 176 147
117 196 152
117 196 152
110 177 148
110 177 148
110 177 148
118 196 152
110 177 148
110 177 147
110 177 147
110 177 147
110 176 147
110 176 147
110 176 147
117 196 152
110 176 147
110 176 147
110 176 147
110 176 147
110 176 147
117 196 152
110 176 147
110 176 147
110 176 147
110 176 147
104 163 113
110 176 147
110 176 147
110 176 147
110 176 147
109 176 147
109 176 147
109 176 147
109 176 147
114 178 152
114 178 152
114 178 152
114 178 151
114 178 151
121 196 156
105 163 114
105 163 114
105 163 114
105 163 114
98 145 109
98 145 109
98 145 109
98 145 109
98 145 109
98 145 109
98 145 109
98 145 109
105 163 114
98 145 110
105 163 114
105 163 114
103 164 110
117 196 152
117 196 152
117 196 152
110 176 147
110 176 147
117 196 152
117 196 152
110 176 147
117 196 151
117 196 151
117 196 151
109 176 147
117 196 151
117 196 151
117 196 151
109 176 146
117 196 151
117 196 151
109 176 146
116 196 151
116 196 151
116 196 151
109 176 146
116 196 151
109 176 146
116 196 151
116 196 151
109 176 146
116 196 151
116 196 151
116 196 151
109 176 146
116 196 151
116 196 151
109 176 146
116 196 151
109 176 146
116 196 151
116 196 151
116 196 151
116 196 151
116 196 151
109 176 146
116 196 151
109 176 146
116 196 151
116 196 151
109 176 146
116 196 151
116 196 150
116 196 150
116 196 150
108 176 146
108 176 145
116 196 150
116 196 150
116 196 150
116 196 150
108 176 145
116 196 150
108 176 145
116 196 150
108 176 145
116 196 150
116 196 150
116 196 150
108 176 145
108 176 145
116 196 150
116 196 150
116 196 150
116 196 150
116 196 150
115 196 150
115 196 150
98 160 105
98 160 105
98 160 105
49 75 63
116 196 151
116 196 151
109 176 146
109 176 146
109 176 146
109 176 146
109 176 146
116 196 151
116 196 151
116 196 151
114 195 149
114 195 149
114 195 149
114 195 149
114 195 149
107 175 144
107 175 144
107 175 144
114 195 149
107 175 144
107 175 144
114 195 149
114 195 149
107 175 144
107 175 144
107 175 144
107 175 144
114 195 149
114 195 149
107 175 144
114 195 149
107 175 144
107 175 144
107 175 144
114 195 149
114 195 149
114 195 149
107 175 144
107 175 144
107 175 144
107 175 144
114 195 149
107 175 144
114 195 149
114 195 149
114 195 149
107 175 144
114 195 149
107 175 144
107 175 144
114 195 149
107 175 144
107 175 144
107 175 144
107 175 144
107 175 144
107 175 144
107 175 144
114 195 149
107 175 144
109 176 146
109 176 146
109 176 146
109 176 146
109 176 146
109 176 146
102 163 109
101 163 108
101 163 108
101 163 108
94 143 103
116 196 150
116 196 150
108 176 145
108 176 145
108 176 145
108 176 145
108 176 145
108 176 145
116 196 150
108 176 145
116 196 150
116 196 150
108 176 145
108 176 145
108 176 145
108 176 145
108 176 145
116 196 150
116 196 150
116 196 150
98 160 105
98 160 105
94 143 103
102 163 108
94 143 103
116 196 151
116 196 151
116 196 151
116 196 151
116 196 151
98 160 105
94 144 104
102 163 108
116 196 151
116 196 151
109 176 146
116 196 151
109 176 146
116 196 151
99 160 105
95 144 104
116 196 151
116 196 151
116 196 151
116 196 151
116 196 151
116 196 151
116 196 151
99 160 106
102 163 109
116 196 151
116 196 151
116 196 151
109 176 146
117 196 151
117 196 151
117 196 151
99 160 106
109 176 147
117 196 151
117 196 151
117 196 151
117 196 151
117 196 151
117 196 152
110 176 147
110 176 147
117 196 152
110 176 147
117 196 152
117 196 152
117 196 152
117 196 152
117 196 152
117 196 152
118 196 153
118 196 153
118 196 153
111 177 148
108 166 118
108 166 118
105 163 115
106 163 115
109 166 118
109 166 118
117 196 152
117 196 152
117 196 152
116 196 151
109 176 146
116 196 151
117 196 151
117 196 151
117 196 151
117 196 151
117 196 151
117 196 151
109 176 147
117 196 151
117 196 152
117 196 152
117 196 152
117 196 152
117 196 152
117 196 152
117 196 152
110 176 147
110 176 147
110 176 147
110 176 147
117 196 152
117 196 152
117 196 152
117 196 152
110 176 147
110 176 147
110 176 147
110 176 147
117 196 152
117 196 152
117 196 152
110 176 147
110 176 147
110 176 147
110 176 147
117 196 152
117 196 152
117 196 152
117 196 152
110 176 147
117 196 152
110 176 147
117 196 152
110 176 147
110 176 147
117 196 152
110 176 147
117 196 152
117 196 151
109 176 147
109 176 147
109 176 147
109 176 146
109 176 146
109 176 146
117 196 151
109 176 146
116 196 151
114 178 151
104 163 114
104 163 114
117 196 152
117 196 152
110 176 147
98 145 109
105 163 114
98 145 109
105 163 114
105 163 114
98 145 109
117 196 152
117 196 152
98 145 109
98 145 110
98 145 110
105 163 114
97 145 107
111 177 148
111 177 148
103 164 110
96 144 105
110 176 147
110 176 147
110 176 147
109 176 147
109 176 147
109 176 147
109 176 147
109 176 146
109 176 146
117 196 151
109 176 146
109 176 146
109 176 146
109 176 146
116 196 151
109 176 146
116 196 151
109 176 146
116 196 151
109 176 146
109 176 146
116 196 151
109 176 146
109 176 146
109 176 146
116 196 151
116 196 151
109 176 146
109 176 146
116 196 151
116 196 151
116 196 151
109 176 146
116 196 151
109 176 146
116 196 151
98 160 105
98 160 105
98 160 105
91 140 100
102 163 108
102 163 108
116 196 150
116 196 150
116 196 150
116 196 150
98 160 105
98 160 105
91 140 100
101 163 108
116 196 150
116 196 150
116 196 150
116 196 150
116 196 150
98 159 104
98 159 104
101 163 108
101 163 108
116 196 150
116 196 150
115 196 150
115 196 150
115 196 150
98 159 104
98 159 104
101 163 107
115 196 150
115 196 150
115 196 150
115 196 150
108 176 145
108 176 145
115 196 150
108 176 145
98 160 105
98 160 105
49 74 62
116 196 151
116 196 151
116 196 151
109 176 146
109 176 146
108 176 145
116 196 151
107 175 144
114 195 149
114 195 149
107 175 144
114 195 149
114 195 149
107 175 144
114 195 149
114 195 149
114 195 149
114 195 149
114 195 149
114 195 149
107 175 144
114 195 149
114 195 149
107 175 144
114 195 149
114 195 149
114 195 149
114 195 149
107 175 144
114 195 149
114 195 149
114 195 149
114 195 149
114 195 149
114 195 149
114 195 149
107 175 144
107 175 144
114 195 149
114 195 149
114 195 149
114 195 149
114 195 149
107 175 144
107 175 144
107 175 144
107 175 144
114 195 149
114 195 149
114 195 149
107 175 144
114 195 149
114 195 149
114 195 149
107 175 144
107 175 144
114 195 149
89 139 97
89 139 97
89 139 97
109 176 146
108 176 145
115 196 150
115 196 150
115 196 150
116 196 151
109 176 146
101 163 108
101 163 108
94 143 103
101 163 108
101 163 107
101 163 107
115 196 150
108 176 145
108 176 145
108 176 145
115 196 150
108 176 145
108 176 145
90 140 99
94 143 103
108 176 145
108 176 145
108 176 145
108 176 145
108 176 145
116 196 150
108 176 145
91 140 99
98 160 105
98 160 105
98 160 105
102 163 108
102 163 108
102 163 108
102 163 108
101 163 108
101 163 108
98 160 105
98 160 105
99 160 105
102 163 109
94 144 104
102 163 108
102 163 108
102 163 108
109 176 146
98 160 105
99 160 105
99 160 106
95 144 104
102 163 109
102 163 109
102 163 109
116 196 151
116 196 151
99 160 105
99 160 106
102 163 109
102 163 109
102 163 109
102 163 109
102 163 109
116 196 151
116 196 151
116 196 151
99 160 106
102 163 109
102 163 109
102 163 109
102 163 109
117 196 151
117 196 151
117 196 151
117 196 151
99 160 106
103 164 110
103 164 110
103 163 110
103 163 110
117 196 152
117 196 152
117 196 152
117 196 152
117 196 152
110 176 147
117 196 152
110 176 147
118 196 153
111 177 148
118 196 153
111 177 148
111 177 148
115 178 152
110 176 147
117 196 152
110 176 147
110 176 147
102 163 109
102 163 109
102 163 109
116 196 151
109 176 146
109 176 146
116 196 151
109 176 146
117 196 151
109 176 146
109 176 146
109 176 146
117 196 151
117 196 151
117 196 151
117 196 151
117 196 152
117 196 152
117 196 152
110 176 147
110 176 147
117 196 152
117 196 152
110 176 147
117 196 152
117 196 152
117 196 152
117 196 152
117 196 152
110 176 147
117 196 152
117 196 152
117 196 152
117 196 152
117 196 152
110 176 147
110 176 147
117 196 152
117 196 152
117 196 152
117 196 152
117 196 152
110 176 147
117 196 152
117 196 152
117 196 151
117 196 151
109 176 147
109 176 147
117 196 151
117 196 151
117 196 151
109 176 146
109 176 146
116 196 151
116 196 151
109 176 146
109 176 146
116 196 151
109 176 146
116 196 151
117 196 152
117 196 152
117 196 152
117 196 152
110 176 147
117 196 152
105 163 114
98 145 109
110 176 147
117 196 152
117 196 152
117 196 152
117 196 152
117 196 152
98 145 110
98 145 110
121 196 156
121 196 156
97 145 107
111 177 148
103 164 111
103 164 110
95 144 105
109 176 147
109 176 146
117 196 151
92 141 101
99 160 106
92 141 101
92 141 101
95 144 104
116 196 151
109 176 146
109 176 146
109 176 146
109 176 146
91 140 101
92 140 101
92 140 101
95 144 104
109 176 146
109 176 146
109 176 146
116 196 151
116 196 151
91 140 100
91 140 100
99 160 105
109 176 146
109 176 146
109 176 146
116 196 151
109 176 146
109 176 146
109 176 146
98 160 105
91 140 100
91 140 100
98 160 105
91 140 100
98 160 105
98 160 105
102 163 108
102 163 108
101 163 108
91 140 100
98 160 105
98 160 105
98 160 105
98 160 105
91 140 100
101 163 108
101 163 108
101 163 108
90 140 99
98 159 104
98 159 104
98 159 104
98 160 104
98 160 104
101 163 108
101 163 107
115 196 150
98 159 104
98 159 104
98 159 104
98 159 104
98 159 104
101 163 107
101 163 107
101 163 107
108 176 145
115 195 150
108 176 145
115 195 150
115 195 150
115 195 150
108 176 145
108 176 145
116 196 151
109 176 146
109 176 146
108 176 145
108 176 145
107 175 144
107 175 144
107 175 144
107 175 144
107 175 144
107 175 144
114 195 149
114 195 149
114 195 149
114 195 149
107 175 144
114 195 149
107 175 144
107 175 144
107 175 144
114 195 149
114 195 149
114 195 149
114 195 149
107 175 144
107 175 144
107 175 144
114 195 149
107 175 144
107 175 144
107 175 144
107 175 144
114 195 149
114 195 149
107 175 144
107 175 144
107 175 144
107 175 144
107 175 144
114 195 149
114 195 149
107 175 144
114 195 149
114 195 149
114 195 149
114 195 149
107 175 144
114 195 149
114 195 149
107 175 144
114 195 149
107 175 144
114 195 149
114 195 149
114 195 149
107 175 144
107 175 144
89 139 97
89 139 97
89 139 97
89 139 97
115 195 150
115 195 150
115 195 150
115 195 150
115 195 150
115 195 150
115 195 150
94 143 103
94 143 103
101 163 108
101 163 108
94 143 103
94 143 102
94 143 102
93 143 102
93 143 102
108 176 145
115 196 150
90 140 99
90 140 99
90 140 99
101 163 108
94 143 103
94 143 102
108 176 145
108 176 145
115 196 150
90 140 99
90 140 99
98 160 104
98 160 105
98 160 105
98 160 105
102 163 108
102 163 108
94 143 103
102 163 108
102 163 108
98 160 105
98 160 105
98 160 105
95 144 104
95 144 104
102 163 109
94 144 104
102 163 108
94 143 103
98 160 105
99 160 105
99 160 105
102 163 109
95 144 104
95 144 104
102 163 109
102 163 109
102 163 109
99 160 105
99 160 106
99 160 106
102 163 109
102 163 109
102 163 109
95 144 104
102 163 109
102 163 109
95 144 104
99 160 106
99 160 106
103 163 110
102 163 109
102 163 109
102 163 109
102 163 109
102 163 109
102 163 109
99 160 106
99 160 106
103 164 110
103 164 110
95 144 105
103 163 110
103 163 110
103 163 110
103 163 110
110 176 147
110 176 147
110 176 147
110 176 147
110 176 147
110 176 147
110 176 147
110 176 147
111 177 148
110 176 147
110 176 147
117 196 152
110 176 147
110 176 147
49 70 63
102 163 109
102 163 109
95 144 104
102 163 109
102 163 109
102 163 109
102 163 109
116 196 151
116 196 151
116 196 151
109 176 146
109 176 146
109 176 146
109 176 146
109 176 146
109 176 146
117 196 151
117 196 151
109 176 147
109 176 147
110 176 147
110 176 147
117 196 152
110 176 147
110 176 147
117 196 152
117 196 152
117 196 152
110 176 147
117 196 152
117 196 152
110 176 147
110 176 147
117 196 152
110 176 147
117 196 152
117 196 152
117 196 152
110 176 147
110 176 147
110 176 147
110 176 147
109 176 147
117 196 151
117 196 151
117 196 151
117 196 151
117 196 151
117 196 151
109 176 146
109 176 146
116 196 151
116 196 151
109 176 146
109 176 146
109 176 146
116 196 151
109 176 146
116 196 151
99 160 105
99 160 105
51 76 65
51 76 65
51 76 65
51 76 65
110 176 147
117 196 152
117 196 152
110 176 147
117 196 152
117 196 152
117 196 152
117 196 152
117 196 152
110 176 147
110 176 147
121 196 156
114 178 151
111 177 148
111 177 148
110 177 148
118 196 152
103 164 110
95 144 105
95 144 104
92 141 101
92 141 101
99 160 106
92 141 101
99 160 106
92 141 101
92 141 101
95 144 104
91 140 101
91 140 101
91 140 101
91 140 101
92 140 101
92 140 101
92 141 101
95 144 104
94 144 104
116 196 151
91 140 100
91 140 100
91 140 100
99 160 105
91 140 100
91 140 100
94 143 103
108 176 146
108 176 146
91 140 100
91 140 100
91 140 100
91 140 100
91 140 100
91 140 100
98 160 105
98 160 105
98 160 105
98 160 105
91 140 100
91 140 100
102 163 108
101 163 108
98 160 105
98 160 105
98 160 105
98 160 105
98 160 105
98 160 105
102 163 108
101 163 108
101 163 108
98 159 104
98 159 104
98 159 104
91 140 99
98 160 104
98 160 105
101 163 108
101 163 107
101 163 107
98 159 104
98 159 104
98 159 104
90 140 99
98 159 104
101 163 108
101 163 107
101 163 107
93 143 102
108 176 145
108 176 145
108 176 145
115 195 150
115 195 150
115 195 150
108 176 145
115 195 150
115 195 150
114 195 149
107 175 144
107 175 144
107 175 144
107 175 144
107 175 144
107 175 144
107 175 144
106 175 144
106 175 144
114 195 149
106 175 143
106 175 143
106 175 143
106 175 143
106 175 143
114 195 149
106 175 143
114 195 149
106 175 143
114 195 148
106 175 143
106 175 143
114 195 148
106 175 143
106 175 143
106 175 143
114 195 148
106 175 143
114 195 148
106 175 143
114 195 148
106 175 143
106 175 143
114 195 148
106 175 143
106 175 143
106 175 143
106 175 143
106 175 143
114 195 148
106 175 143
114 195 149
114 195 149
106 175 143
114 195 149
106 175 143
106 175 143
114 195 149
114 195 149
114 195 149
114 195 149
106 175 144
106 175 144
107 175 144
107 175 144
107 175 144
89 139 97
89 139 97
108 176 145
115 195 150
115 195 150
115 195 150
115 195 150
115 195 150
108 176 145
115 195 150
115 195 150
108 176 145
101 163 108
101 163 108
101 163 107
94 143 102
101 163 107
101 163 107
93 143 102
90 140 99
90 140 99
90 140 99
94 143 103
94 143 103
101 163 107
94 143 102
101 163 107
101 163 107
90 140 99
90 140 99
91 140 99
98 160 105
98 160 105
98 160 105
98 160 105
94 143 104
102 163 108
102 163 108
102 163 108
102 163 108
98 160 105
98 160 105
99 160 105
102 163 109
95 144 104
102 163 109
102 163 108
102 163 108
102 163 108
98 160 105
99 160 105
99 160 106
102 163 109
102 163 109
102 163 109
102 163 109
102 163 109
95 144 104
99 160 105
99 160 106
99 160 106
102 163 109
102 163 109
102 163 109
95 144 104
95 144 104
102 163 109
99 160 106
99 160 106
99 160 106
103 163 110
103 163 110
102 163 109
95 144 105
102 163 109
102 163 109
99 160 106
99 160 106
100 160 107
103 164 110
103 164 110
103 164 110
103 164 110
103 163 110
103 163 110
103 163 110
95 144 105
95 144 105
95 144 105
109 176 147
109 176 147
110 176 147
110 176 147
110 176 147
117 196 152
117 196 152
117 196 152
110 176 147
117 196 152
48 70 63
102 163 109
102 163 109
102 163 109
102 163 109
102 163 109
102 163 109
102 163 109
102 163 109
116 196 151
109 176 146
116 196 151
116 196 151
116 196 151
116 196 151
109 176 146
109 176 146
109 176 146
109 176 146
117 196 151
117 196 151
117 196 151
109 176 146
109 176 147
109 176 147
109 176 147
110 176 147
110 176 147
110 176 147
110 176 147
117 196 152
117 196 152
110 176 147
110 176 147
117 196 152
110 176 147
117 196 152
117 196 152
110 176 147
109 176 147
109 176 147
109 176 147
117 196 151
109 176 146
109 176 146
109 176 146
117 196 151
109 176 146
116 196 151
109 176 146
109 176 146
109 176 146
109 176 146
109 176 146
109 176 146
116 196 151
116 196 151
91 140 100
99 160 105
99 160 105
99 160 105
99 160 105
99 160 105
99 160 105
48 70 63
48 70 63
48 70 63
48 70 63
110 176 147
110 176 147
117 196 152
117 196 152
117 196 151
109 176 147
109 176 147
109 176 147
109 176 147
109 176 146
109 176 146
110 177 148
118 196 152
110 177 148
110 177 147
110 177 147
103 164 110
96 144 105
95 144 105
92 141 101
92 141 101
92 141 101
92 141 101
92 141 101
92 141 101
92 141 101
95 144 104
95 144 104
91 140 101
91 140 101
92 140 101
92 140 101
92 141 101
92 141 101
95 144 104
95 144 104
98 160 105
91 140 100
91 140 100
91 140 100
99 160 105
91 140 100
91 140 100
94 144 104
94 143 103
91 140 100
91 140 100
91 140 100
91 140 100
91 140 100
91 140 100
98 160 105
98 160 105
91 140 100
98 160 105
98 160 105
99 160 105
99 160 105
102 163 108
102 163 108
98 160 105
91 140 100
98 160 105
98 160 105
98 160 105
98 160 105
102 163 108
101 163 108
101 163 108
98 159 104
98 159 104
98 159 104
98 160 104
98 160 105
98 160 105
101 163 108
101 163 108
101 163 107
90 140 99
90 140 99
98 159 104
98 159 104
90 140 99
101 163 108
101 163 107
101 163 107
101 163 107
93 143 102
93 143 102
108 176 145
107 176 145
115 195 150
115 195 150
114 195 149
114 195 149
114 195 149
114 195 148
114 195 148
114 195 148
114 195 148
106 175 143
106 175 143
106 175 143
106 175 143
114 195 148
106 175 143
114 195 148
114 195 148
114 195 148
106 175 143
106 175 143
106 175 143
114 195 148
106 175 143
106 175 143
114 195 148
114 195 148
114 195 148
106 175 143
106 175 143
106 175 143
114 195 148
106 175 143
106 175 143
106 175 143
114 195 148
106 175 143
106 175 143
106 175 143
106 175 143
106 175 143
106 175 143
114 195 148
106 175 143
106 175 143
114 195 148
106 175 143
106 175 143
106 175 143
114 195 148
106 175 143
106 175 143
114 195 148
114 195 148
106 175 143
114 195 148
106 175 143
106 175 143
106 175 143
106 175 143
106 175 143
106 175 143
106 175 143
106 175 143
106 175 143
107 176 144
107 176 144
107 176 144
107 176 144
107 176 145
107 176 145
115 195 150
107 176 145
107 176 145
108 176 145
108 176 145
108 176 145
94 143 103
94 143 102
94 143 102
93 143 102
93 143 102
90 140 99
90 140 99
90 140 99
94 143 103
101 163 108
94 143 103
101 163 107
94 143 102
94 143 102
90 140 99
90 140 99
91 140 100
98 160 105
98 160 105
98 160 105
102 163 109
102 163 108
102 163 108
102 163 108
102 163 108
102 163 108
98 160 105
98 160 105
99 160 105
102 163 109
102 163 109
95 144 104
94 144 104
102 163 108
102 163 108
98 160 105
99 160 105
99 160 106
95 144 104
102 163 109
102 163 109
102 163 109
95 144 104
95 144 104
99 160 105
99 160 106
99 160 106
102 163 109
95 144 104
102 163 109
102 163 109
102 163 109
95 144 104
99 160 106
99 160 106
99 160 106
103 163 110
103 163 110
95 144 105
102 163 109
102 163 109
95 144 105
99 160 106
99 160 106
103 164 110
103 164 110
103 164 110
103 164 110
103 164 110
103 164 110
103 163 110
95 144 105
95 144 105
103 163 110
95 144 105
95 144 105
95 144 105
95 144 105
109 176 147
117 196 151
117 196 151
109 176 147
117 196 151
117 196 152
50 75 64
50 75 64
102 163 109
102 163 109
102 163 109
102 163 109
95 144 104
102 163 109
116 196 151
116 196 151
116 196 151
116 196 151
109 176 146
116 196 151
116 196 151
116 196 151
109 176 146
109 176 146
109 176 146
116 196 151
116 196 151
116 196 151
109 176 146
116 196 151
117 196 151
117 196 151
109 176 146
109 176 146
117 196 151
117 196 151
117 196 151
117 196 151
117 196 152
110 176 147
117 196 152
110 176 147
117 196 151
117 196 151
117 196 151
109 176 147
109 176 146
109 176 146
117 196 151
109 176 146
116 196 151
109 176 146
116 196 151
109 176 146
109 176 146
109 176 146
116 196 151
109 176 146
116 196 151
116 196 151
109 176 146
116 196 151
116 196 151
99 160 105
99 160 105
99 160 105
99 160 105
99 160 105
99 160 105
99 160 105
99 160 105
48 70 63
48 70 62
48 70 62
48 70 62
48 69 62
117 196 151
109 176 147
117 196 151
109 176 146
109 176 146
109 176 146
109 176 146
109 176 146
109 176 146
92 141 101
92 141 101
49 71 64
49 71 64
117 196 152
117 196 152
117 196 152
103 164 110
95 144 105
92 141 101
92 141 101
92 141 101
92 141 101
92 141 101
99 160 106
92 141 101
95 144 105
95 144 104
91 140 101
92 140 101
92 140 101
92 141 101
99 160 106
92 141 101
92 141 101
95 144 104
94 144 104
91 140 100
91 140 100
91 140 100
99 160 105
99 160 105
91 140 100
95 144 104
94 143 103
91 140 100
91 140 100
91 140 100
91 140 100
98 160 105
91 140 100
91 140 100
98 160 105
91 140 100
98 160 105
91 140 100
99 160 105
91 140 100
102 163 108
102 163 108
98 160 105
98 160 105
91 140 100
98 160 105
98 160 105
98 160 105
102 163 108
101 163 108
101 163 108
98 159 104
98 159 104
91 140 100
98 160 104
98 160 105
98 160 105
101 163 108
101 163 108
101 163 107
90 140 99
98 159 104
98 159 104
98 159 104
98 159 104
98 159 104
101 163 108
101 163 107
101 163 107
93 143 102
115 195 149
115 195 149
106 175 143
106 175 143
114 195 148
106 175 143
114 195 148
114 195 148
114 195 148
114 195 148
114 195 148
114 195 148
114 195 148
114 195 148
114 195 148
106 175 143
114 195 148
114 195 148
114 195 148
114 195 148
114 195 148
106 175 143
114 195 148
114 195 148
106 175 143
114 195 148
114 195 148
114 195 148
114 195 148
114 195 148
114 195 148
114 195 148
114 195 148
106 175 143
114 195 148
114 195 148
106 175 143
114 195 148
114 195 148
114 195 148
114 195 148
114 195 148
106 175 143
106 175 143
114 195 148
106 175 143
114 195 148
114 195 148
114 195 148
114 195 148
114 195 148
114 195 148
106 175 143
114 195 148
106 175 143
106 175 143
106 175 143
114 195 148
114 195 148
114 195 148
106 175 143
106 175 143
114 195 148
106 175 143
106 175 143
114 195 148
114 195 148
114 195 148
114 195 148
114 195 148
115 195 149
107 176 144
107 176 144
107 176 144
107 176 144
115 195 149
115 195 149
115 195 149
89 139 98
90 139 98
94 143 102
94 143 102
94 143 102
93 143 102
90 140 99
90 140 99
91 140 99
94 143 103
94 143 103
101 163 108
94 143 103
94 143 102
94 143 102
90 140 99
91 140 99
91 140 100
98 160 105
98 160 105
98 160 105
116 196 151
102 163 108
102 163 108
94 143 103
94 143 103
94 143 103
98 160 105
98 160 105
99 160 105
116 196 151
102 163 109
102 163 109
102 163 109
94 144 104
102 163 108
99 160 105
99 160 105
99 160 106
102 163 109
95 144 104
102 163 109
102 163 109
102 163 109
102 163 109
99 160 106
99 160 106
99 160 106
102 163 109
95 144 104
95 144 104
102 163 109
102 163 109
102 163 109
99 160 106
99 160 106
103 163 110
103 163 110
103 163 110
103 163 110
102 163 109
102 163 109
102 163 109
99 160 106
99 160 107
103 164 110
103 164 110
103 164 110
103 164 110
103 164 110
103 164 110
103 164 110
95 144 105
95 144 105
95 144 105
95 144 105
95 144 105
95 144 105
109 176 146
109 176 146
117 196 151
109 176 146
109 176 146
117 196 151
109 176 147
117 196 151
50 75 64
95 144 104
102 163 109
102 163 109
102 163 109
102 163 109
108 176 146
109 176 146
109 176 146
116 196 151
116 196 151
109 176 146
116 196 151
109 176 146
116 196 151
116 196 151
116 196 151
109 176 146
116 196 151
116 196 151
116 196 151
116 196 151
109 176 146
116 196 151
116 196 151
109 176 146
116 196 151
109 176 146
117 196 151
117 196 151
117 196 151
117 196 151
109 176 147
117 196 151
117 196 151
117 196 151
117 196 151
109 176 146
109 176 146
116 196 151
116 196 151
116 196 151
116 196 151
109 176 146
109 176 146
109 176 146
116 196 151
109 176 146
109 176 146
116 196 151
116 196 151
116 196 151
116 196 151
116 196 151
109 176 146
116 196 151
44 63 49
44 63 49
99 160 105
99 160 105
99 160 105
99 160 105
91 140 101
91 140 101
50 75 64
50 75 64
50 75 64
48 69 62
50 75 63
50 75 63
109 176 146
117 196 151
109 176 146
116 196 151
109 176 146
92 141 101
92 141 101
92 141 101
92 141 101
99 160 106
51 76 65
51 76 65
51 76 65
117 196 152
117 196 152
117 196 152
95 144 105
92 141 101
92 141 101
92 141 101
92 141 101
92 141 101
92 141 101
92 141 101
95 144 105
95 144 104
92 140 101
92 140 101
92 141 101
92 141 101
92 141 101
92 141 101
92 141 101
95 144 104
95 144 104
91 140 100
91 140 100
99 160 105
91 140 100
91 140 100
91 140 101
95 144 104
94 143 103
94 143 103
91 140 100
98 160 105
98 160 105
98 160 105
98 160 105
91 140 100
98 160 105
98 160 105
98 160 105
91 140 100
109 176 146
116 196 151
116 196 151
102 163 108
101 163 108
98 160 105
91 140 100
98 160 105
91 140 100
116 196 151
109 176 146
102 163 108
101 163 108
98 159 104
98 160 104
98 160 104
91 140 100
91 140 100
91 140 100
101 163 108
101 163 108
101 163 107
98 159 104
98 159 104
98 159 104
98 159 104
98 159 104
91 140 100
101 163 108
115 195 149
107 176 144
115 195 149
106 175 143
106 175 143
106 175 143
106 175 143
114 195 148
114 195 148
114 195 148
114 195 148
114 195 148
114 195 148
106 175 143
114 195 148
106 175 143
106 175 143
106 175 143
114 195 148
106 175 143
106 175 143
114 195 148
114 195 148
114 195 148
106 175 143
106 175 143
106 175 143
114 195 148
106 175 143
114 195 148
114 195 148
114 195 148
114 195 148
114 195 148
106 175 143
106 175 143
106 175 143
114 195 148
114 195 148
106 175 143
114 195 148
114 195 148
114 195 148
114 195 148
114 195 148
106 175 143
114 195 148
114 195 148
114 195 148
114 195 148
114 195 148
114 195 148
114 195 148
114 195 148
114 195 148
106 175 143
114 195 148
114 195 148
114 195 148
114 195 148
114 195 148
114 195 148
114 195 148
106 175 143
114 195 148
106 175 143
114 195 148
114 195 148
114 195 148
106 175 143
114 195 148
114 195 148
114 195 148
114 195 148
114 195 148
115 195 149
115 195 149
115 195 149
107 176 144
89 139 98
89 139 98
90 139 98
90 139 98
94 143 103
94 143 102
94 143 102
90 140 99
90 140 99
90 140 99
91 140 99
94 143 103
101 163 108
94 143 103
94 143 103
94 143 103
90 140 99
90 140 99
91 140 100
91 140 100
98 160 105
116 196 151
116 196 151
109 176 146
109 176 146
116 196 151
116 196 151
102 163 108
102 163 108
98 160 105
116 196 151
116 196 151
116 196 151
109 176 146
116 196 151
102 163 109
102 163 109
102 163 108
99 160 105
109 176 146
109 176 146
109 176 146
109 176 146
116 196 151
102 163 109
95 144 104
95 144 104
99 160 106
109 176 146
116 196 151
117 196 151
109 176 146
102 163 109
95 144 104
102 163 109
95 144 104
99 160 106
109 176 147
117 196 151
109 176 147
103 163 110
103 163 110
95 144 105
102 163 109
102 163 109
99 160 106
117 196 152
117 196 152
103 164 110
96 144 105
103 164 110
103 164 110
103 164 110
103 164 110
103 163 110
95 144 105
95 144 105
95 144 105
95 144 105
109 176 146
109 176 146
109 176 146
109 176 146
109 176 146
109 176 146
109 176 146
109 176 146
117 196 151
102 163 109
102 163 109
102 163 109
102 163 109
102 163 109
116 196 150
108 176 145
116 196 150
108 176 146
108 176 146
108 176 146
109 176 146
109 176 146
116 196 151
116 196 151
116 196 151
109 176 146
109 176 146
109 176 146
109 176 146
109 176 146
109 176 146
116 196 151
109 176 146
116 196 151
116 196 151
116 196 151
109 176 146
109 176 146
109 176 146
109 176 146
109 176 146
117 196 151
117 196 151
117 196 151
109 176 146
109 176 146
116 196 151
116 196 151
116 196 151
109 176 146
116 196 151
116 196 151
116 196 151
116 196 151
116 196 151
116 196 151
116 196 151
116 196 151
116 196 151
116 196 151
116 196 151
116 196 151
116 196 151
116 196 151
116 196 150
98 160 105
44 64 49
44 64 49
44 64 49
99 160 106
99 160 106
99 160 106
99 160 106
99 160 106
50 75 63
49 75 63
49 75 63
116 196 151
116 196 151
116 196 151
116 196 151
109 176 146
92 141 101
99 160 106
92 141 101
92 141 101
92 141 101
99 160 106
92 141 101
51 76 65
51 76 65
48 70 63
50 76 64
117 196 152
110 176 147
117 196 152
95 144 105
92 141 101
92 141 101
92 141 101
92 141 101
99 160 106
117 196 151
109 176 147
95 144 104
92 140 101
92 141 101
92 141 101
92 141 101
99 160 106
92 141 101
109 176 146
95 144 104
95 144 104
91 140 100
99 160 105
91 140 100
99 160 105
99 160 105
91 140 101
91 140 101
94 144 104
94 143 103
91 140 100
91 140 100
91 140 100
91 140 100
98 160 105
91 140 100
91 140 100
109 176 146
116 196 151
116 196 151
116 196 151
116 196 151
109 176 146
116 196 151
102 163 108
98 160 105
116 196 151
109 176 146
116 196 150
116 196 150
116 196 150
116 196 150
116 196 150
98 160 104
91 140 100
98 160 105
108 176 145
116 196 150
108 176 145
116 196 150
108 176 145
101 163 108
98 159 104
98 159 104
98 159 104
108 176 145
108 176 145
116 196 150
93 142 101
106 175 143
106 175 143
106 175 143
106 175 143
106 175 143
106 175 143
106 175 143
106 175 143
106 175 143
106 175 143
114 195 148
114 195 148
106 175 143
106 175 143
106 175 143
106 175 143
106 175 143
114 195 148
106 175 143
106 175 143
114 195 148
106 175 143
106 175 143
106 175 143
106 175 143
106 175 143
114 195 148
106 175 143
106 175 143
114 195 148
114 195 148
114 195 148
106 175 143
114 195 148
106 175 143
114 195 148
114 195 148
106 175 143
106 175 143
114 195 148
114 195 148
114 195 148
106 175 143
106 175 143
106 175 143
106 175 143
106 175 143
114 195 148
106 175 143
114 195 148
106 175 143
114 195 148
114 195 148
106 175 143
106 175 143
106 175 143
106 175 143
106 175 143
114 195 148
114 195 148
114 195 148
114 195 148
114 195 148
114 195 148
106 175 143
106 175 143
106 175 143
106 175 143
114 195 148
114 195 148
114 195 148
114 195 148
106 175 143
114 195 148
95 158 101
96 158 101
115 195 149
107 175 144
115 195 149
107 175 144
107 175 144
90 139 98
90 139 98
108 176 145
101 163 107
101 163 107
90 140 99
90 140 99
108 176 145
108 176 145
108 176 145
108 176 145
101 163 108
101 163 108
94 143 103
90 140 99
90 140 99
91 140 100
108 176 145
116 196 150
116 196 150
116 196 150
116 196 150
116 196 150
116 196 150
109 176 146
116 196 151
116 196 151
116 196 151
116 196 151
116 196 151
116 196 151
116 196 151
116 196 151
116 196 151
109 176 146
109 176 146
116 196 151
109 176 146
109 176 146
116 196 151
116 196 151
116 196 151
116 196 151
116 196 151
116 196 151
116 196 151
116 196 151
116 196 151
109 176 146
116 196 151
116 196 151
109 176 146
109 176 146
99 160 106
117 196 151
117 196 151
117 196 151
109 176 146
117 196 151
109 176 147
117 196 151
95 144 105
99 160 106
117 196 151
117 196 152
117 196 152
117 196 152
117 196 152
117 196 152
103 164 110
103 164 110
96 144 105
95 144 105
95 144 105
95 144 105
116 196 151
116 196 151
116 196 151
116 196 151
116 196 151
109 176 146
109 176 146
109 176 146
109 176 146
109 176 146
116 196 151
116 196 151
116 196 151
109 176 146
95 144 104
94 143 103
94 143 103
94 143 103
108 176 145
108 176 145
108 176 145
116 196 150
108 176 145
108 176 146
108 176 146
116 196 150
116 196 151
109 176 146
109 176 146
109 176 146
109 176 146
109 176 146
109 176 146
109 176 146
109 176 146
109 176 146
116 196 151
109 176 146
109 176 146
109 176 146
109 176 146
109 176 146
109 176 146
109 176 146
109 176 146
109 176 146
109 176 146
109 176 146
109 176 146
116 196 151
116 196 151
116 196 151
116 196 151
109 176 146
109 176 146
109 176 146
116 196 151
116 196 151
116 196 151
116 196 151
116 196 151
116 196 151
116 196 150
116 196 150
98 160 105
98 160 105
98 160 105
98 160 105
41 58 47
44 64 49
44 64 49
42 58 47
99 160 106
91 140 101
99 160 106
99 160 106
47 69 61
116 196 151
116 196 151
109 176 146
116 196 151
109 176 146
109 176 146
116 196 151
109 176 146
42 58 48
92 141 101
92 141 101
92 141 101
99 160 106
92 141 101
92 141 101
48 70 63
48 70 63
48 70 63
48 70 63
110 176 147
110 176 147
110 176 147
92 141 101
99 160 106
109 176 147
109 176 147
109 176 146
109 176 146
109 176 146
117 196 151
95 144 104
92 141 101
92 141 101
116 196 151
109 176 146
109 176 146
109 176 146
116 196 151
95 144 104
99 160 105
99 160 105
91 140 100
109 176 146
109 176 146
116 196 151
109 176 146
116 196 151
94 143 103
91 140 100
91 140 100
91 140 100
91 140 100
109 176 146
109 176 146
109 176 146
109 176 146
109 176 146
109 176 146
116 196 151
116 196 150
116 196 150
108 176 146
108 176 146
108 176 145
116 196 150
116 196 150
116 196 150
116 196 150
108 176 145
108 176 145
108 176 145
116 196 150
116 196 150
116 196 150
116 196 150
116 196 150
108 176 145
116 196 150
116 196 150
115 196 150
108 176 145
115 196 150
108 176 145
115 196 150
115 196 150
115 196 150
93 142 101
91 142 99
91 141 99
106 175 143
106 175 143
114 195 148
106 175 143
114 195 148
106 175 143
114 195 148
106 175 143
114 195 148
114 195 148
114 195 148
114 195 148
106 175 143
114 195 148
106 175 143
106 175 143
114 195 148
113 195 148
113 195 148
106 175 143
106 175 143
106 175 143
113 195 148
113 195 148
106 175 143
113 195 148
106 175 143
113 195 148
113 195 148
106 175 143
106 175 143
106 175 143
113 195 148
106 175 143
106 175 143
106 175 143
106 175 143
106 175 143
113 195 148
106 175 143
106 175 143
106 175 143
106 175 143
106 175 143
106 175 143
106 175 143
106 175 143
113 195 148
106 175 143
106 175 143
106 175 143
106 175 143
106 175 143
106 175 143
106 175 143
106 175 143
113 195 148
106 175 143
113 195 148
106 175 143
106 175 143
106 175 143
106 175 143
106 175 143
106 175 143
106 175 143
106 175 143
106 175 143
114 195 148
106 175 143
95 158 101
95 158 101
95 158 101
96 158 101
107 175 144
107 175 144
107 175 144
114 195 149
114 195 149
107 175 144
107 175 144
108 176 145
115 196 150
108 176 145
115 196 150
108 176 145
115 196 150
108 176 145
115 196 150
108 176 145
108 176 145
108 176 145
94 143 103
90 140 99
108 176 145
108 176 145
108 176 145
116 196 150
108 176 145
116 196 150
108 176 145
108 176 145
116 196 150
108 176 145
108 176 145
108 176 145
108 176 146
108 176 146
108 176 146
116 196 150
116 196 151
109 176 146
116 196 151
109 176 146
109 176 146
109 176 146
109 176 146
109 176 146
116 196 151
116 196 151
116 196 151
116 196 151
116 196 151
109 176 146
116 196 151
109 176 146
116 196 151
116 196 151
116 196 151
109 176 146
116 196 151
116 196 151
109 176 146
109 176 146
109 176 146
109 176 146
116 196 151
116 196 151
117 196 151
109 176 146
109 176 146
109 176 146
109 176 146
117 196 151
117 196 151
117 196 151
117 196 151
117 196 151
117 196 152
117 196 152
110 176 147
96 144 105
95 144 105
116 196 151
109 176 146
109 176 146
116 196 151
116 196 151
116 196 151
116 196 151
116 196 151
116 196 151
109 176 146
116 196 151
116 196 151
109 176 146
116 196 151
109 176 146
49 75 63
101 163 108
101 163 108
94 143 103
94 143 103
94 143 103
94 143 103
108 176 145
108 176 145
108 176 145
116 196 150
116 196 150
116 196 150
108 176 145
116 196 150
116 196 150
116 196 151
109 176 146
109 176 146
116 196 151
109 176 146
109 176 146
116 196 151
116 196 151
116 196 151
116 196 151
109 176 146
109 176 146
109 176 146
109 176 146
109 176 146
109 176 146
109 176 146
109 176 146
109 176 146
116 196 151
109 176 146
109 176 146
109 176 146
109 176 146
109 176 146
109 176 146
109 176 146
108 176 146
116 196 150
108 176 146
98 160 105
98 160 105
98 160 105
98 160 105
98 160 105
98 160 105
98 160 105
98 160 105
98 160 105
44 64 49
44 64 49
44 64 49
44 64 49
44 64 49
99 160 106
116 196 151
116 196 151
109 176 146
116 196 151
116 196 151
109 176 146
109 176 146
116 196 151
109 176 146
109 176 146
91 140 100
42 58 48
92 141 101
92 141 101
92 141 101
99 160 106
92 141 101
48 70 62
50 75 64
48 69 62
109 176 147
109 176 147
117 196 151
117 196 151
109 176 146
109 176 146
109 176 146
109 176 146
109 176 146
109 176 146
109 176 146
116 196 151
116 196 151
109 176 146
109 176 146
109 176 146
109 176 146
109 176 146
109 176 146
116 196 151
109 176 146
109 176 146
109 176 146
109 176 146
109 176 146
116 196 151
109 176 146
109 176 146
116 196 151
109 176 146
91 140 100
116 196 151
109 176 146
116 196 151
108 176 146
108 176 146
116 196 150
108 176 146
116 196 150
116 196 150
108 176 145
108 176 145
108 176 145
116 196 150
108 176 145
108 176 145
116 196 150
116 196 150
116 196 150
116 196 150
108 176 145
108 176 145
116 196 150
115 196 150
108 176 145
115 196 150
115 196 150
115 196 150
115 196 150
108 176 145
108 176 145
108 176 145
108 176 145
108 176 145
115 196 150
115 196 150
115 196 150
115 196 150
115 196 150
91 142 99
91 141 99
91 141 99
91 141 99
106 175 143
113 195 148
106 175 143
113 195 148
113 195 148
113 195 148
113 195 148
106 175 143
113 195 148
106 175 143
113 195 148
106 175 143
113 195 148
113 195 148
113 195 148
106 175 143
113 195 148
113 195 148
106 175 143
106 175 143
106 175 143
106 175 143
106 175 143
113 195 148
113 195 148
113 195 148
106 175 143
113 195 148
113 195 148
106 175 143
106 175 143
106 175 143
106 175 143
113 195 148
113 195 148
113 195 148
113 195 148
106 175 143
106 175 143
106 175 143
106 175 143
106 175 143
106 175 143
106 175 143
113 195 148
113 195 148
113 195 148
113 195 148
113 195 148
113 195 148
106 175 143
106 175 143
106 175 143
106 175 143
106 175 143
113 195 148
113 195 148
106 175 143
106 175 143
106 175 143
106 175 143
106 175 143
106 175 143
106 175 143
106 175 143
106 175 143
113 195 148
113 195 148
95 158 101
95 158 101
96 158 101
96 158 101
107 175 144
107 175 144
107 175 144
107 175 144
107 175 144
107 175 144
107 175 144
89 139 97
108 176 145
115 196 150
115 196 150
115 196 150
108 176 145
108 176 145
108 176 145
108 176 145
108 176 145
108 176 145
108 176 145
115 196 150
115 196 150
108 176 145
108 176 145
115 196 150
116 196 150
108 176 145
108 176 145
90 140 99
94 143 103
108 176 145
116 196 150
108 176 145
108 176 145
116 196 150
108 176 145
108 176 145
108 176 145
94 143 103
108 176 146
108 176 146
116 196 150
108 176 146
108 176 146
109 176 146
116 196 151
116 196 151
109 176 146
109 176 146
116 196 151
109 176 146
109 176 146
116 196 151
109 176 146
109 176 146
109 176 146
109 176 146
109 176 146
116 196 151
109 176 146
109 176 146
116 196 151
109 176 146
109 176 146
116 196 151
116 196 151
109 176 146
109 176 146
109 176 146
116 196 151
109 176 146
109 176 146
109 176 146
117 196 151
117 196 151
109 176 147
109 176 147
109 176 147
109 176 147
110 176 147
102 163 108
102 163 108
102 163 108
116 196 151
116 196 151
116 196 151
116 196 151
116 196 151
116 196 151
109 176 146
109 176 146
109 176 146
116 196 151
116 196 151
47 68 61
49 74 63
94 143 103
94 143 103
101 163 108
101 163 108
94 143 103
94 143 103
94 143 103
94 143 103
108 176 145
116 196 150
108 176 145
108 176 145
116 196 150
116 196 150
108 176 145
116 196 150
116 196 150
116 196 150
108 176 146
116 196 150
116 196 151
116 196 151
116 196 151
116 196 151
109 176 146
116 196 151
116 196 151
116 196 151
116 196 151
109 176 146
116 196 151
109 176 146
109 176 146
116 196 151
116 196 151
109 176 146
109 176 146
116 196 151
108 176 146
108 176 146
108 176 146
116 196 150
108 176 145
116 196 150
116 196 150
43 63 48
43 63 48
98 160 105
98 160 105
98 160 105
98 160 105
98 160 105
98 160 105
91 140 100
44 64 49
44 64 49
49 74 63
49 74 63
49 74 62
47 68 61
116 196 151
116 196 151
109 176 146
116 196 151
109 176 146
116 196 151
91 140 100
91 140 100
91 140 100
91 140 100
91 140 100
42 58 48
42 58 48
42 58 48
99 160 106
92 141 101
92 141 101
50 75 64
117 196 151
109 176 146
117 196 151
117 196 151
117 196 151
109 176 146
116 196 151
109 176 146
109 176 146
109 176 146
116 196 151
109 176 146
116 196 151
116 196 151
116 196 151
116 196 151
116 196 151
109 176 146
116 196 151
116 196 151
91 140 100
91 140 100
91 140 100
99 160 105
94 143 103
116 196 151
109 176 146
109 176 146
109 176 146
91 140 100
98 160 105
98 160 105
94 143 103
108 176 146
108 176 146
108 176 145
108 176 145
108 176 145
108 176 145
91 140 100
91 140 100
94 143 103
116 196 150
108 176 145
108 176 145
108 176 145
108 176 145
108 176 145
90 140 99
98 159 104
108 176 145
108 176 145
108 176 145
108 176 145
108 176 145
115 196 150
108 176 145
108 176 145
90 140 99
108 176 145
115 196 150
115 196 150
108 176 145
108 176 145
108 176 145
108 176 145
108 176 145
108 176 145
108 176 145
115 195 150
107 175 144
91 142 100
91 141 99
106 175 143
106 175 143
106 175 143
113 195 148
113 195 148
106 175 143
113 195 148
113 195 148
113 195 148
113 195 148
113 195 148
106 175 143
106 175 143
113 195 148
113 195 148
113 195 148
113 195 148
113 195 148
113 195 148
113 195 148
113 195 148
113 195 148
106 175 143
113 195 148
113 195 148
113 195 148
113 195 148
113 195 148
113 195 148
113 195 148
113 195 148
113 195 148
113 195 148
113 195 148
106 175 143
113 195 148
113 195 148
113 195 148
113 195 148
113 195 148
113 195 148
113 195 148
113 195 148
106 175 143
113 195 148
106 175 143
113 195 148
113 195 148
113 195 148
113 195 148
113 195 148
113 195 148
113 195 148
113 195 148
106 175 143
113 195 148
113 195 148
113 195 148
106 175 143
113 195 148
113 195 148
113 195 148
113 195 148
106 175 143
106 175 143
106 175 143
113 195 148
113 195 148
113 195 148
113 195 148
113 195 148
113 195 148
96 158 101
96 158 101
114 195 149
114 195 149
114 195 149
107 175 144
107 175 144
89 139 97
89 139 97
89 139 97
115 195 150
108 176 145
108 176 145
115 195 150
115 195 150
115 195 150
115 195 150
108 176 145
108 176 145
108 176 145
115 196 150
115 196 150
108 176 145
115 196 150
115 196 150
115 196 150
108 176 145
90 140 99
90 140 99
91 140 99
101 163 108
94 143 103
94 143 103
94 143 103
108 176 145
108 176 145
108 176 145
91 140 99
91 140 100
94 143 103
94 143 103
101 163 108
101 163 108
108 176 145
108 176 145
108 176 145
91 140 100
91 140 100
102 163 108
94 143 103
94 143 103
116 196 151
109 176 146
109 176 146
109 176 146
109 176 146
91 140 100
102 163 109
95 144 104
94 144 104
109 176 146
116 196 151
109 176 146
109 176 146
116 196 151
91 140 101
95 144 104
95 144 104
109 176 146
116 196 151
109 176 146
109 176 146
109 176 146
109 176 146
109 176 146
109 176 146
117 196 151
109 176 146
109 176 146
117 196 151
102 163 108
94 143 103
102 163 108
102 163 108
102 163 108
94 143 103
94 143 103
116 196 151
109 176 146
109 176 146
116 196 151
109 176 146
116 196 151
109 176 146
46 68 61
46 68 61
94 143 103
94 143 103
94 143 103
94 143 103
94 143 103
94 143 103
94 143 103
94 143 103
115 196 150
108 176 145
108 176 145
115 196 150
115 196 150
116 196 150
108 176 145
108 176 145
116 196 150
116 196 150
116 196 150
108 176 145
116 196 150
108 176 145
108 176 146
116 196 150
116 196 150
109 176 146
116 196 151
116 196 151
116 196 151
116 196 151
109 176 146
109 176 146
116 196 151
109 176 146
116 196 151
108 176 146
116 196 150
108 176 146
116 196 150
116 196 150
116 196 150
116 196 150
116 196 150
108 176 145
116 196 150
108 176 145
116 196 150
43 63 48
43 63 48
98 160 105
98 160 105
98 160 105
98 160 105
98 160 105
98 160 105
49 74 62
47 68 61
49 74 62
49 74 62
49 74 62
109 176 146
116 196 151
116 196 151
116 196 151
91 140 100
91 140 100
98 160 105
91 140 100
91 140 100
91 140 100
91 140 100
91 140 100
42 58 48
42 58 48
42 58 48
42 58 48
50 75 63
109 176 146
109 176 146
116 196 151
109 176 146
116 196 151
116 196 151
116 196 151
116 196 151
116 196 151
116 196 151
109 176 146
116 196 151
116 196 151
116 196 151
116 196 151
116 196 151
116 196 151
116 196 151
116 196 151
91 140 100
91 140 100
91 140 100
91 140 100
91 140 100
99 160 105
91 140 101
94 144 104
94 143 103
91 140 100
98 160 105
91 140 100
91 140 100
91 140 100
91 140 100
91 140 100
94 143 103
108 176 145
116 196 150
98 159 104
98 160 104
91 140 100
91 140 100
91 140 100
94 143 103
94 143 103
108 176 145
108 176 145
90 140 99
90 140 99
98 159 104
98 159 104
90 140 99
94 143 103
93 143 102
115 196 150
115 196 150
108 176 145
90 139 99
90 140 99
90 140 99
90 140 99
93 143 102
108 176 145
108 176 145
115 195 150
108 176 145
108 176 145
115 195 150
115 195 150
115 195 150
107 175 144
114 195 149
106 175 143
106 175 143
106 175 143
113 195 148
113 195 148
106 175 143
106 175 143
106 175 143
113 195 148
113 195 148
113 195 148
106 175 143
106 175 143
106 175 143
113 195 148
106 175 143
106 175 143
106 175 143
106 175 143
113 195 148
113 195 148
113 195 148
106 175 142
106 175 142
106 175 142
105 175 142
105 175 142
105 175 142
113 195 148
113 195 148
113 195 148
105 175 142
113 195 148
105 175 142
105 175 142
113 195 148
113 195 148
113 195 148
113 195 148
113 195 148
113 195 148
113 195 148
113 195 148
113 195 148
113 195 148
105 175 142
105 175 142
105 175 142
105 175 142
105 175 142
105 175 142
113 195 148
113 195 148
113 195 148
105 175 142
113 195 148
105 175 142
105 175 142
113 195 148
113 195 148
113 195 148
106 175 142
113 195 148
113 195 148
113 195 148
113 195 148
113 195 148
113 195 148
113 195 148
113 195 148
113 195 148
106 175 143
113 195 148
113 195 148
113 195 148
113 195 148
113 195 148
113 195 148
114 195 149
114 195 149
107 175 144
114 195 149
89 139 97
89 139 97
89 139 97
108 176 145
108 176 145
115 195 150
115 195 150
115 195 150
108 176 145
97 159 104
101 163 107
101 163 107
115 195 150
115 195 150
115 195 150
115 195 150
108 176 145
115 195 150
97 159 104
90 140 99
90 140 99
90 140 99
91 140 100
94 143 103
94 143 103
94 143 103
94 143 103
94 143 103
94 143 103
90 140 99
91 140 100
91 140 100
94 143 103
94 143 103
101 163 108
94 143 103
94 143 103
94 143 103
91 140 100
91 140 100
91 140 100
94 143 103
102 163 108
94 143 103
94 143 103
94 143 103
94 143 103
91 140 100
91 140 100
91 140 100
95 144 104
95 144 104
94 144 104
94 144 104
94 143 104
94 143 103
109 176 146
91 140 100
91 140 101
95 144 104
95 144 104
95 144 104
102 163 109
102 163 109
109 176 146
116 196 151
116 196 151
109 176 146
116 196 151
116 196 151
116 196 151
49 75 63
49 75 63
102 163 108
102 163 108
94 143 103
94 143 103
102 163 108
102 163 108
102 163 108
116 196 150
116 196 150
116 196 150
108 176 146
109 176 146
109 176 146
109 176 146
46 68 60
46 68 60
94 143 103
94 143 103
94 143 103
101 163 108
94 143 103
94 143 103
94 143 103
108 176 145
108 176 145
108 176 145
108 176 145
115 196 150
115 196 150
108 176 145
108 176 145
115 196 150
108 176 145
116 196 150
116 196 150
108 176 145
108 176 145
108 176 145
108 176 145
116 196 150
108 176 145
108 176 145
108 176 146
116 196 150
108 176 146
109 176 146
116 196 151
109 176 146
108 176 146
116 196 150
116 196 150
108 176 145
108 176 145
116 196 150
116 196 150
116 196 150
116 196 150
116 196 150
116 196 150
108 176 145
115 196 150
115 196 150
90 140 99
43 63 48
43 63 48
43 63 48
43 63 48
91 140 100
98 160 105
98 160 105
98 160 105
98 160 105
46 68 61
46 68 61
116 196 151
116 196 151
109 176 146
109 176 146
116 196 151
109 176 146
108 176 146
41 57 47
91 140 100
91 140 100
91 140 100
91 140 100
91 140 100
91 140 100
42 58 48
49 75 63
47 69 62
47 69 62
47 69 62
109 176 146
109 176 146
109 176 146
116 196 151
116 196 151
116 196 151
109 176 146
109 176 146
109 176 146
109 176 146
109 176 146
116 196 151
109 176 146
116 196 151
116 196 151
98 160 105
98 160 105
98 160 105
98 160 105
91 140 100
99 160 105
91 140 100
91 140 100
91 140 100
91 140 101
91 140 101
95 144 104
94 143 103
91 140 100
91 140 100
91 140 100
98 160 105
91 140 100
91 140 100
91 140 100
94 143 103
94 143 103
98 159 104
91 140 100
91 140 100
91 140 100
91 140 100
91 140 100
94 143 103
94 143 103
94 143 102
98 159 104
90 140 99
90 140 99
90 140 99
90 140 99
98 159 104
94 143 103
94 143 102
93 143 102
90 139 99
90 139 99
97 159 104
90 140 99
98 159 104
90 140 99
93 143 102
93 143 102
93 143 102
115 195 150
108 176 145
115 195 150
115 195 150
115 195 150
115 195 150
92 142 100
106 175 143
113 195 148
106 175 143
106 175 143
106 175 143
106 175 143
106 175 143
106 175 143
106 175 142
106 175 142
105 175 142
105 175 142
105 175 142
105 175 142
105 175 142
105 175 142
105 175 142
105 175 142
113 195 148
105 175 142
105 175 142
105 175 142
105 175 142
105 175 142
113 195 147
105 175 142
105 175 142
105 175 142
105 175 142
105 175 142
105 175 142
113 195 147
105 175 142
105 175 142
113 195 147
105 175 142
113 195 147
105 175 142
105 175 142
105 175 142
105 175 142
105 175 142
105 175 142
105 175 142
105 175 142
113 195 147
113 195 147
105 175 142
105 175 142
105 175 142
105 175 142
105 175 142
113 195 147
105 175 142
105 175 142
105 175 142
105 175 142
105 175 142
105 175 142
105 175 142
105 175 142
113 195 147
113 195 147
105 175 142
113 195 147
113 195 148
105 175 142
105 175 142
105 175 142
113 195 148
105 175 142
113 195 148
113 195 148
113 195 148
113 195 148
113 195 148
113 195 148
95 158 100
95 158 100
114 195 149
106 175 143
106 175 143
106 175 144
106 175 144
107 175 144
89 139 97
115 195 150
115 195 150
107 176 145
115 195 150
97 159 103
97 159 103
97 159 104
101 163 107
93 143 102
101 163 107
101 163 107
101 163 107
115 195 150
115 195 150
97 159 104
98 159 104
90 140 99
90 140 99
91 140 99
91 140 100
94 143 103
101 163 108
94 143 103
94 143 103
94 143 103
90 140 99
91 140 99
91 140 100
91 140 100
94 143 103
94 143 103
101 163 108
94 143 103
94 143 103
94 143 103
91 140 100
91 140 100
91 140 100
94 143 103
94 143 103
94 143 103
94 143 103
102 163 108
94 143 103
91 140 100
91 140 100
91 140 101
95 144 104
95 144 104
95 144 104
94 144 104
102 163 108
94 143 104
91 140 100
91 140 101
92 140 101
102 163 109
95 144 104
95 144 104
95 144 104
102 163 109
95 144 104
109 176 146
109 176 146
116 196 151
116 196 151
116 196 151
116 196 151
109 176 146
47 69 61
94 143 104
102 163 108
94 143 103
102 163 108
102 163 108
94 143 103
108 176 145
116 196 150
108 176 145
116 196 150
108 176 145
116 196 150
116 196 150
108 176 146
108 176 146
46 68 60
94 143 103
101 163 108
101 163 108
94 143 103
94 143 103
43 63 48
93 143 102
101 163 107
93 143 102
101 163 107
108 176 145
108 176 145
108 176 145
108 176 145
108 176 145
115 196 150
108 176 145
115 196 150
115 196 150
115 196 150
115 196 150
108 176 145
108 176 145
108 176 145
108 176 145
108 176 145
108 176 145
108 176 145
116 196 150
108 176 145
108 176 146
108 176 146
108 176 145
116 196 150
108 176 145
108 176 145
108 176 145
108 176 145
116 196 150
115 196 150
115 196 150
115 196 150
98 159 104
90 140 99
90 140 99
98 159 104
98 159 104
98 159 104
43 63 48
43 63 48
43 63 48
43 63 48
43 63 48
98 160 105
98 160 105
98 160 105
109 176 146
109 176 146
116 196 151
116 196 151
108 176 146
108 176 146
108 176 146
116 196 150
116 196 150
108 176 145
41 57 47
98 160 105
91 140 100
91 140 100
91 140 100
91 140 100
91 140 100
47 69 61
47 69 61
47 69 61
116 196 151
116 196 151
116 196 151
116 196 151
116 196 151
109 176 146
109 176 146
116 196 151
109 176 146
116 196 151
116 196 151
116 196 151
109 176 146
98 160 105
98 160 105
98 160 105
98 160 105
98 160 105
98 160 105
99 160 105
99 160 105
99 160 105
91 140 100
99 160 105
99 160 105
91 140 101
99 160 106
95 144 104
94 143 104
91 140 100
91 140 100
91 140 100
91 140 100
98 160 105
91 140 100
91 140 100
94 143 103
94 143 103
91 140 99
91 140 100
91 140 100
98 160 105
98 160 105
91 140 100
91 140 100
94 143 103
94 143 103
98 159 104
98 159 104
90 140 99
90 140 99
90 140 99
90 140 99
94 143 103
94 143 102
93 143 102
90 139 99
90 139 99
90 140 99
90 140 99
90 140 99
90 140 99
94 143 102
93 143 102
93 143 102
100 162 107
115 195 149
115 195 149
107 176 144
115 195 149
115 195 149
92 142 100
91 141 98
91 141 98
105 175 142
113 195 148
105 175 142
105 175 142
105 175 142
113 195 148
113 195 148
105 175 142
105 175 142
113 195 147
105 175 142
105 175 142
105 175 142
105 175 142
105 175 142
105 175 142
113 195 147
113 195 147
113 195 147
113 195 147
105 175 142
105 175 142
105 175 142
113 195 147
105 175 142
105 175 142
105 175 142
113 195 147
113 195 147
113 195 147
113 195 147
105 175 142
105 175 142
105 175 142
113 195 147
105 175 142
105 175 142
105 175 142
105 175 142
113 195 147
113 195 147
105 175 142
105 175 142
105 175 142
105 175 142
105 175 142
105 175 142
105 175 142
105 175 142
113 195 147
113 195 147
105 175 142
105 175 142
113 195 147
105 175 142
105 175 142
105 175 142
105 175 142
105 175 142
113 195 147
113 195 147
105 175 142
105 175 142
105 175 142
105 175 142
105 175 142
105 175 142
105 175 142
105 175 142
105 175 142
105 175 142
113 195 147
113 195 147
95 158 100
95 158 100
95 158 100
95 158 100
106 175 143
106 175 143
106 175 143
106 175 143
106 175 143
106 175 143
106 175 143
106 175 143
107 176 144
115 195 149
115 195 149
107 176 144
97 159 104
97 159 104
101 163 107
101 163 107
101 163 107
101 163 107
101 163 107
93 143 102
97 159 103
97 159 104
98 159 104
90 140 99
90 140 99
91 140 100
94 143 103
94 143 103
94 143 103
94 143 103
94 143 103
94 143 103
90 140 99
91 140 100
91 140 100
94 143 103
94 143 103
101 163 108
94 143 103
101 163 108
94 143 103
91 140 100
91 140 100
91 140 100
94 144 104
94 143 103
102 163 108
102 163 108
94 143 103
102 163 108
94 143 103
91 140 100
91 140 100
95 144 104
95 144 104
95 144 104
102 163 109
95 144 104
102 163 108
102 163 108
91 140 100
91 140 101
102 163 109
95 144 104
95 144 104
102 163 109
95 144 104
95 144 104
109 176 146
116 196 151
116 196 151
116 196 151
109 176 146
116 196 151
116 196 151
116 196 151
49 74 62
102 163 108
94 143 104
102 163 108
94 143 103
94 143 103
101 163 107
101 163 107
116 196 150
108 176 145
116 196 150
116 196 150
116 196 150
108 176 145
108 176 145
116 196 150
108 176 145
108 176 145
94 143 103
101 163 108
94 143 103
41 57 47
41 57 47
101 163 107
93 143 102
101 163 107
101 163 107
93 143 102
93 143 102
101 163 107
108 176 145
108 176 145
108 176 145
115 195 150
108 176 145
115 196 150
115 196 150
115 196 150
115 196 150
115 196 150
108 176 145
108 176 145
116 196 150
108 176 145
116 196 150
116 196 150
116 196 150
108 176 145
116 196 150
116 196 150
108 176 145
108 176 145
108 176 145
108 176 145
108 176 145
115 196 150
90 140 99
98 159 104
98 159 104
98 159 104
98 159 104
98 159 104
90 140 99
98 159 104
98 159 104
43 63 48
43 63 48
43 63 48
41 57 47
43 63 48
46 68 60
109 176 146
109 176 146
108 176 146
108 176 146
108 176 146
108 176 145
116 196 150
116 196 150
108 176 145
116 196 150
91 140 99
98 160 104
43 63 48
41 57 47
43 63 48
99 160 105
91 140 100
91 140 100
99 160 105
47 69 61
47 68 61
109 176 146
116 196 151
116 196 151
116 196 151
109 176 146
116 196 151
116 196 151
116 196 151
109 176 146
109 176 146
109 176 146
91 140 100
91 140 100
91 140 100
98 160 105
98 160 105
91 140 100
98 160 105
99 160 105
99 160 105
99 160 105
99 160 105
91 140 100
91 140 101
91 140 101
91 140 101
91 140 101
91 140 101
91 140 101
95 144 104
94 143 103
91 140 100
91 140 100
91 140 100
91 140 100
91 140 100
98 160 105
94 143 103
94 143 103
91 140 100
91 140 100
98 160 105
98 160 105
91 140 100
91 140 100
91 140 100
94 143 103
94 143 103
90 140 99
90 140 99
90 140 99
98 159 104
98 159 104
91 140 99
94 143 103
94 143 103
94 143 102
90 139 99
90 140 99
90 140 99
90 140 99
90 140 99
90 140 99
94 143 102
93 143 102
93 143 102
101 162 107
100 162 106
100 162 106
115 195 149
107 176 144
115 195 149
92 142 100
91 141 99
91 141 98
90 141 98
105 175 142
113 195 147
105 175 142
113 195 147
113 195 147
113 195 147
113 195 147
105 175 142
113 195 147
113 195 147
113 195 147
105 175 142
105 175 142
113 195 147
113 195 147
113 195 147
113 195 147
113 195 147
113 195 147
105 175 142
105 175 142
105 175 142
105 175 142
105 175 142
113 195 147
113 195 147
113 195 147
105 175 142
105 175 142
113 195 147
113 195 147
105 175 142
105 175 142
105 175 142
105 175 142
113 195 147
113 195 147
113 195 147
113 195 147
113 195 147
113 195 147
105 175 142
105 175 142
105 175 142
105 175 142
105 175 142
105 175 142
113 195 147
113 195 147
113 195 147
105 175 142
113 195 147
105 175 142
113 195 147
113 195 147
105 175 142
113 195 147
105 175 142
113 195 147
113 195 147
113 195 147
105 175 142
113 195 147
105 175 142
105 175 142
105 175 142
105 175 142
105 175 142
105 175 142
105 175 142
113 195 147
113 195 147
95 158 100
95 158 100
95 158 100
95 158 100
114 195 148
106 175 143
114 195 148
114 195 148
106 175 143
106 175 143
88 138 96
88 138 96
115 195 149
115 195 149
107 176 144
115 195 149
115 195 149
115 195 149
115 195 149
93 143 102
101 163 107
93 143 102
101 163 107
101 163 107
97 159 104
97 159 104
98 159 104
90 140 99
91 140 99
91 140 100
94 143 103
94 143 103
94 143 103
94 143 103
94 143 103
94 143 103
91 140 99
91 140 100
91 140 100
102 163 108
102 163 108
94 143 103
94 143 103
101 163 108
94 143 103
91 140 100
91 140 100
91 140 100
94 144 104
94 144 104
94 143 103
94 143 103
94 143 103
94 143 103
91 140 100
91 140 100
91 140 100
95 144 104
95 144 104
95 144 104
102 163 109
95 144 104
95 144 104
94 144 104
91 140 101
92 140 101
95 144 104
102 163 109
102 163 109
95 144 104
95 144 104
94 143 103
116 196 151
116 196 151
109 176 146
109 176 146
116 196 151
116 196 151
109 176 146
109 176 146
116 196 151
102 163 108
102 163 108
102 163 108
102 163 108
44 64 49
101 163 108
101 163 107
101 163 107
101 163 107
101 163 107
115 196 150
115 196 150
116 196 150
108 176 145
108 176 145
116 196 150
108 176 145
108 176 145
116 196 150
48 73 61
41 58 47
43 63 48
93 143 102
93 143 102
101 163 107
93 143 102
93 143 102
93 143 102
93 143 102
93 143 102
40 56 45
108 176 145
108 176 145
115 195 150
115 195 150
108 176 145
115 196 150
108 176 145
115 196 150
115 196 150
115 196 150
115 196 150
115 196 150
115 196 150
115 196 150
116 196 150
116 196 150
108 176 145
108 176 145
108 176 145
108 176 145
115 196 150
115 196 150
108 176 145
115 196 150
42 62 47
42 62 47
98 159 104
90 140 99
98 159 104
90 140 99
98 159 104
98 159 104
98 159 104
98 159 104
43 63 48
48 74 62
48 74 62
48 73 61
48 73 61
48 73 61
116 196 150
108 176 145
108 176 145
116 196 150
116 196 150
91 140 99
98 159 104
91 140 99
91 140 99
91 140 100
91 140 100
41 57 47
41 57 47
41 57 47
41 58 47
41 58 47
91 140 100
91 140 101
116 196 151
116 196 151
116 196 151
109 176 146
116 196 151
116 196 151
109 176 146
116 196 151
116 196 151
109 176 146
91 140 100
91 140 100
91 140 100
98 160 105
91 140 100
98 160 105
91 140 100
91 140 100
98 160 105
99 160 105
91 140 100
91 140 100
99 160 105
99 160 105
91 140 101
91 140 101
91 140 101
91 140 101
91 140 101
109 176 146
109 176 146
95 144 104
94 143 103
98 160 105
91 140 100
91 140 100
91 140 100
91 140 100
109 176 146
109 176 146
94 143 103
94 143 103
98 160 105
91 140 100
91 140 100
91 140 100
98 160 105
91 140 100
94 143 103
94 143 103
90 140 99
90 140 99
98 159 104
90 140 99
91 140 99
91 140 99
91 140 100
94 143 103
94 143 102
90 140 99
90 140 99
90 140 99
90 140 99
90 140 99
90 140 99
94 143 103
93 143 102
93 143 102
101 163 107
107 175 144
115 195 149
115 195 149
107 175 144
114 195 148
106 175 143
91 141 99
91 141 98
105 175 142
105 175 142
105 175 142
105 175 142
113 195 147
113 195 147
105 175 142
105 175 142
113 195 147
113 195 147
113 195 147
105 175 142
113 195 147
113 195 147
113 195 147
105 175 142
113 195 147
113 195 147
105 175 142
113 195 147
113 195 147
113 195 147
113 195 147
105 175 142
113 195 147
113 195 147
105 175 142
113 195 147
105 175 142
113 195 147
113 195 147
113 195 147
113 195 147
113 195 147
113 195 147
113 195 147
113 195 147
113 195 147
113 195 147
113 195 147
113 195 147
113 195 147
113 195 147
113 195 147
105 175 142
105 175 142
113 195 147
113 195 147
113 195 147
113 195 147
113 195 147
105 175 142
113 195 147
113 195 147
113 195 147
113 195 147
105 175 142
105 175 142
113 195 147
113 195 147
113 195 147
113 195 147
113 195 147
113 195 147
113 195 147
113 195 147
105 175 142
105 175 142
113 195 147
113 195 147
113 195 147
105 175 142
113 195 147
113 195 147
113 195 147
95 158 100
44 69 56
106 175 143
114 195 148
114 195 148
114 195 148
88 138 96
88 138 96
88 138 96
88 138 96
115 195 149
115 195 149
107 175 144
115 195 149
115 195 149
115 195 149
107 175 144
97 159 103
101 163 107
101 163 107
101 163 107
97 159 103
97 159 104
98 159 104
98 159 104
90 140 99
108 176 145
108 176 145
108 176 145
108 176 145
108 176 145
94 143 103
94 143 103
94 143 103
91 140 100
91 140 100
108 176 146
109 176 146
109 176 146
94 143 103
94 143 103
101 163 108
101 163 108
91 140 100
91 140 100
109 176 146
109 176 146
94 144 104
94 143 104
94 143 103
94 143 103
102 163 108
91 140 100
91 140 100
91 140 101
109 176 146
95 144 104
95 144 104
95 144 104
102 163 109
95 144 104
94 144 104
91 140 101
92 141 101
95 144 104
95 144 104
102 163 109
95 144 104
94 143 103
102 163 108
102 163 108
102 163 108
94 143 103
108 176 146
109 176 146
116 196 151
109 176 146
116 196 151
116 196 151
109 176 146
116 196 151
116 196 151
44 64 49
101 163 108
101 163 108
101 163 108
101 163 107
94 143 103
101 163 107
101 163 107
94 143 102
108 176 145
108 176 145
108 176 145
108 176 145
108 176 145
108 176 145
116 196 150
48 73 61
45 67 59
93 143 102
93 143 102
93 143 102
93 143 102
93 143 102
93 143 102
93 143 102
101 163 107
107 176 145
108 176 145
115 195 150
108 176 145
108 176 145
108 176 145
115 195 150
115 195 150
108 176 145
115 195 150
115 195 150
108 176 145
115 196 150
115 196 150
108 176 145
115 196 150
108 176 145
115 196 150
115 196 150
115 196 150
108 176 145
115 196 150
108 176 145
115 195 150
115 195 150
108 176 145
115 195 150
42 62 47
42 62 47
90 140 99
98 159 104
98 159 104
90 140 99
98 159 104
98 159 104
98 159 104
48 73 61
48 73 61
48 73 61
48 73 61
116 196 150
116 196 150
108 176 145
116 196 150
108 176 145
40 56 46
91 140 99
91 140 99
91 140 99
91 140 99
91 140 100
91 140 100
98 160 104
91 140 100
43 63 49
41 58 47
47 68 61
46 68 61
46 68 61
116 196 151
109 176 146
109 176 146
116 196 151
109 176 146
116 196 151
116 196 151
98 160 105
98 160 105
98 160 105
98 160 105
91 140 100
98 160 105
91 140 100
91 140 100
91 140 100
91 140 100
91 140 100
98 160 105
99 160 105
91 140 100
99 160 105
99 160 105
99 160 105
99 160 105
91 140 101
99 160 105
109 176 146
109 176 146
109 176 146
109 176 146
109 176 146
109 176 146
94 144 104
91 140 100
91 140 100
109 176 146
109 176 146
109 176 146
109 176 146
109 176 146
109 176 146
94 143 103
91 140 100
98 160 105
91 140 100
108 176 146
108 176 146
108 176 146
108 176 145
94 143 103
94 143 103
90 140 99
90 140 99
91 140 99
108 176 145
108 176 145
108 176 145
108 176 145
94 143 102
90 140 99
90 140 99
90 140 99
98 159 104
90 140 99
108 176 145
108 176 145
94 143 102
107 175 144
107 175 144
107 175 144
107 175 144
115 195 149
106 175 143
106 175 143
113 195 147
105 175 142
113 195 147
105 175 142
105 175 142
105 175 142
113 195 147
113 195 147
105 175 142
113 195 147
105 175 142
105 175 142
113 195 147
113 195 147
105 175 142
105 175 142
105 175 142
105 175 142
113 195 147
113 195 147
113 195 147
113 195 147
113 195 147
105 175 142
105 175 142
105 175 142
105 175 142
113 195 147
113 195 147
105 175 142
113 195 147
113 195 147
105 175 142
113 195 147
113 195 147
105 175 142
105 175 142
105 175 142
105 175 142
113 195 147
113 195 147
105 175 142
113 195 147
113 195 147
113 195 147
113 195 147
105 175 142
105 175 142
105 175 142
113 195 147
113 195 147
113 195 147
113 195 147
113 195 147
113 195 147
113 195 147
113 195 147
105 175 142
105 175 142
105 175 142
105 175 142
113 195 147
105 175 142
113 195 147
113 195 147
113 195 147
113 195 147
113 195 147
113 195 147
105 175 142
113 195 147
113 195 147
113 195 147
113 195 147
113 195 147
113 195 147
105 175 142
105 175 142
105 175 142
113 195 147
113 195 147
114 195 148
95 158 101
95 158 101
88 138 96
88 138 96
88 138 96
88 138 96
107 175 144
115 195 149
107 175 144
115 195 149
115 195 149
97 159 103
97 159 103
97 159 103
101 163 107
101 163 107
93 143 102
97 159 104
97 159 104
98 159 104
98 159 104
108 176 145
108 176 145
108 176 145
108 176 145
108 176 145
108 176 145
108 176 145
108 176 145
94 143 103
108 176 145
108 176 145
108 176 145
108 176 145
108 176 146
108 176 146
108 176 146
108 176 146
101 163 108
91 140 100
109 176 146
109 176 146
109 176 146
109 176 146
109 176 146
109 176 146
94 143 103
94 143 103
91 140 100
109 176 146
109 176 146
109 176 146
109 176 146
109 176 146
109 176 146
95 144 104
95 144 104
91 140 100
109 176 146
109 176 146
109 176 146
109 176 146
109 176 146
45 65 50
94 143 103
94 143 103
94 143 103
102 163 108
101 163 108
94 143 103
94 143 103
101 163 108
116 196 150
108 176 146
116 196 151
116 196 151
116 196 151
48 74 62
46 68 60
101 163 108
101 163 108
101 163 108
101 163 108
101 163 108
101 163 107
94 143 103
115 196 150
108 176 145
115 196 150
108 176 145
108 176 145
108 176 145
108 176 145
115 196 150
45 67 59
45 67 59
93 143 102
93 143 102
93 143 102
93 143 102
101 163 107
101 163 107
101 163 107
107 176 144
107 176 144
107 176 144
107 176 144
107 176 145
107 176 145
108 176 145
108 176 145
108 176 145
108 176 145
115 195 150
115 195 150
108 176 145
115 195 150
108 176 145
108 176 145
115 196 150
108 176 145
115 196 150
108 176 145
115 195 150
115 195 150
115 195 150
115 195 150
115 195 150
115 195 150
115 195 150
97 159 103
42 62 47
42 62 47
42 62 47
42 62 47
98 159 104
98 159 104
98 159 104
98 159 104
90 140 99
48 73 61
48 73 61
45 67 59
116 196 150
108 176 145
108 176 145
108 176 145
108 176 145
108 176 145
108 176 145
40 56 46
98 160 104
91 140 100
98 160 104
91 140 100
91 140 100
91 140 100
98 160 105
46 68 61
46 68 61
46 68 61
48 74 62
46 68 60
116 196 151
109 176 146
109 176 146
116 196 151
91 140 100
98 160 105
91 140 100
91 140 100
98 160 105
91 140 100
98 160 105
91 140 100
91 140 100
91 140 100
91 140 100
91 140 100
91 140 100
98 160 105
99 160 105
91 140 100
99 160 105
99 160 105
99 160 105
99 160 105
116 196 151
116 196 151
109 176 146
109 176 146
109 176 146
109 176 146
109 176 146
109 176 146
109 176 146
116 196 151
109 176 146
109 176 146
109 176 146
109 176 146
109 176 146
108 176 146
108 176 146
108 176 146
108 176 146
108 176 145
108 176 145
108 176 145
108 176 145
108 176 145
108 176 145
108 176 145
108 176 145
108 176 145
108 176 145
108 176 145
108 176 145
108 176 145
108 176 145
108 176 145
108 176 145
108 176 145
94 143 102
90 140 99
108 176 145
108 176 145
108 176 145
108 176 145
100 162 106
107 175 144
114 195 149
114 195 149
114 195 149
114 195 149
114 195 149
113 195 147
105 175 142
105 175 142
105 175 142
105 175 142
105 175 142
113 195 147
105 175 142
105 175 142
113 195 147
105 175 142
113 195 147
105 175 142
105 175 142
105 175 142
105 175 142
105 175 142
113 195 147
105 175 142
113 195 147
113 195 147
105 175 142
113 195 147
113 195 147
105 175 142
105 175 142
105 175 142
105 175 142
105 175 142
105 175 142
105 175 142
105 175 142
105 175 142
113 195 147
113 195 147
105 175 142
113 195 147
105 175 142
105 175 142
113 195 147
105 175 142
113 195 147
105 175 142
113 195 147
113 195 147
113 195 147
105 175 142
105 175 142
105 175 142
105 175 142
105 175 142
105 175 142
113 195 147
113 195 147
105 175 142
105 175 142
113 195 147
105 175 142
105 175 142
113 195 147
105 175 142
105 175 142
105 175 142
105 175 142
113 195 147
113 195 147
113 195 147
113 195 147
105 175 142
105 175 142
105 175 142
105 175 142
105 175 142
113 195 147
105 175 142
113 195 147
105 175 142
113 195 147
113 195 147
113 195 147
113 195 147
94 158 99
94 158 99
95 158 101
95 158 101
96 158 101
88 138 96
88 138 96
88 138 96
88 138 97
107 175 144
107 175 144
107 175 144
89 139 97
97 159 102
97 159 103
97 159 103
97 159 103
101 163 107
93 143 102
101 163 107
97 159 104
98 159 104
115 196 150
115 196 150
115 196 150
115 196 150
108 176 145
108 176 145
108 176 145
108 176 145
108 176 145
90 140 99
91 140 100
94 143 103
94 143 103
108 176 145
108 176 145
108 176 145
108 176 145
108 176 145
108 176 145
91 140 100
94 143 103
108 176 146
108 176 146
108 176 146
108 176 146
109 176 146
109 176 146
109 176 146
91 140 100
94 143 103
109 176 146
109 176 146
109 176 146
109 176 146
109 176 146
109 176 146
109 176 146
109 176 146
109 176 146
109 176 146
109 176 146
109 176 146
109 176 146
109 176 146
47 69 61
94 143 103
94 143 103
102 163 108
94 143 103
94 143 103
94 143 103
94 143 103
101 163 108
94 143 103
101 163 108
116 196 150
116 196 150
116 196 150
116 196 150
46 68 60
101 163 108
101 163 108
101 163 108
94 143 103
101 163 108
101 163 108
108 176 145
115 195 150
115 195 150
115 195 150
115 195 150
108 176 145
115 196 150
115 196 150
115 196 150
108 176 145
47 73 60
93 143 102
93 143 102
93 143 102
93 143 102
93 143 102
93 143 102
40 56 46
93 142 101
100 162 106
100 162 106
107 176 144
107 176 144
107 176 144
107 176 144
107 176 144
107 176 145
115 195 150
108 176 145
108 176 145
115 195 150
115 195 150
108 176 145
108 176 145
108 176 145
108 176 145
108 176 145
115 195 150
115 195 150
115 195 150
115 195 150
90 139 98
90 139 98
97 159 103
97 159 103
97 159 103
42 62 47
40 56 45
42 62 47
42 62 47
42 62 47
40 56 45
90 140 99
90 140 99
90 140 99
90 140 99
116 196 150
108 176 145
108 176 145
108 176 145
108 176 145
108 176 145
108 176 145
108 176 145
108 176 145
108 176 145
40 56 46
42 62 47
91 140 100
98 160 105
98 160 105
91 140 100
91 140 100
46 68 60
46 68 60
46 68 60
116 196 151
109 176 146
108 176 146
91 140 100
91 140 100
91 140 100
91 140 100
98 160 105
91 140 100
98 160 105
98 160 105
98 160 105
98 160 105
91 140 100
91 140 100
91 140 100
91 140 100
91 140 100
91 140 100
99 160 105
91 140 100
99 160 105
99 160 105
116 196 151
116 196 151
116 196 151
116 196 151
116 196 151
116 196 151
109 176 146
109 176 146
109 176 146
116 196 151
116 196 151
116 196 151
116 196 151
116 196 150
116 196 150
108 176 146
108 176 146
108 176 145
108 176 145
91 140 100
91 140 100
91 140 100
94 143 103
108 176 145
108 176 145
108 176 145
108 176 145
108 176 145
90 140 99
98 159 104
90 140 99
94 143 103
108 176 145
108 176 145
108 176 145
108 176 145
108 176 145
108 176 145
115 196 150
115 196 150
108 176 145
108 176 145
108 176 145
108 176 145
108 176 145
108 176 145
100 162 106
114 195 149
114 195 149
114 195 149
114 195 149
107 175 144
90 141 98
90 141 98
113 195 147
105 175 142
105 175 142
105 175 142
105 175 142
105 175 142
113 195 147
105 175 142
113 195 147
113 195 147
113 195 147
105 175 142
105 175 142
105 175 142
113 195 147
113 195 147
105 175 142
105 175 142
113 195 147
105 175 142
113 195 147
113 195 147
105 175 142
113 195 147
113 195 147
105 175 142
105 175 142
105 175 142
105 175 142
113 195 147
105 175 142
105 175 142
105 175 142
105 175 142
105 175 142
105 175 142
105 175 142
105 175 142
105 175 142
105 175 142
105 175 142
105 175 142
112 195 147
105 175 142
105 175 142
105 175 142
105 175 142
105 175 142
105 175 142
105 175 142
105 175 142
105 175 142
105 175 142
105 175 142
105 175 142
105 175 142
112 195 147
105 175 142
112 195 147
113 195 147
113 195 147
105 175 142
105 175 142
105 175 142
113 195 147
113 195 147
105 175 142
105 175 142
113 195 147
105 175 142
113 195 147
105 175 142
105 175 142
105 175 142
105 175 142
113 195 147
113 195 147
94 158 99
94 158 99
94 158 99
94 158 99
95 158 101
95 158 101
96 158 101
88 138 96
88 138 96
88 138 96
88 138 97
107 175 144
89 139 97
89 139 97
89 139 97
97 159 102
97 159 103
97 159 103
115 195 150
115 195 150
115 195 150
115 195 150
115 196 150
115 196 150
115 196 150
115 196 150
115 196 150
115 196 150
115 196 150
115 196 150
108 176 145
108 176 145
90 140 99
90 140 99
101 163 108
94 143 103
94 143 103
101 163 108
94 143 103
108 176 145
108 176 145
90 140 99
91 140 100
94 143 103
94 143 103
94 143 103
101 163 108
101 163 108
108 176 145
108 176 145
108 176 146
91 140 100
91 140 100
102 163 108
94 143 103
102 163 108
109 176 146
109 176 146
109 176 146
109 176 146
109 176 146
116 196 151
116 196 151
116 196 151
116 196 151
109 176 146
109 176 146
109 176 146
47 68 61
94 143 103
94 143 103
94 143 103
102 163 108
102 163 108
94 143 103
94 143 103
94 143 103
101 163 108
94 143 103
101 163 108
101 163 108
101 163 108
116 196 150
48 73 61
101 163 108
101 163 108
101 163 108
101 163 108
101 163 108
43 63 48
101 163 107
101 162 107
115 195 150
115 195 150
115 195 150
115 195 150
115 195 150
115 195 150
115 195 150
115 196 150
115 196 150
115 196 150
93 143 102
93 143 102
93 143 102
40 57 46
40 57 46
42 62 47
93 142 101
93 142 101
93 142 101
93 142 101
100 162 106
93 142 101
107 176 144
107 176 144
115 195 149
107 176 144
107 176 144
115 195 149
115 195 149
107 176 145
115 195 150
115 195 150
115 195 150
108 176 145
108 176 145
108 176 145
97 159 103
97 159 103
97 159 103
97 159 103
97 159 103
90 139 98
97 159 103
90 139 98
97 159 103
40 56 45
42 62 47
42 62 47
42 62 47
42 62 47
45 67 59
45 67 59
116 196 150
115 196 150
115 196 150
108 176 145
115 196 150
115 196 150
108 176 145
108 176 145
115 196 150
97 159 104
90 139 99
90 139 99
40 57 46
40 57 46
40 57 46
43 62 47
91 140 100
91 140 100
91 140 100
91 140 100
46 68 60
98 160 105
91 140 100
91 140 100
91 140 100
91 140 100
91 140 100
91 140 100
98 160 105
91 140 100
98 160 105
91 140 100
98 160 105
98 160 105
98 160 105
98 160 105
91 140 100
98 160 105
91 140 100
91 140 100
91 140 100
99 160 105
109 176 146
116 196 151
116 196 151
116 196 151
116 196 151
116 196 151
116 196 151
116 196 151
116 196 151
98 160 105
116 196 151
116 196 150
116 196 150
116 196 150
116 196 150
116 196 150
116 196 150
116 196 150
116 196 150
91 140 100
98 160 105
91 140 100
91 140 100
91 140 100
91 140 100
94 143 103
94 143 103
108 176 145
108 176 145
90 140 99
90 140 99
90 140 99
90 140 99
91 140 99
94 143 103
94 143 102
108 176 145
108 176 145
115 196 150
115 196 150
115 196 150
115 195 150
115 195 150
115 195 150
115 195 150
108 176 145
108 176 145
108 176 145
115 195 150
100 162 106
100 162 106
100 162 105
107 175 144
114 195 149
107 175 144
90 141 98
90 141 98
90 141 97
105 175 142
105 175 142
105 175 142
113 195 147
113 195 147
113 195 147
113 195 147
113 195 147
113 195 147
105 175 142
113 195 147
105 175 142
105 175 142
105 175 142
105 175 142
105 175 142
105 175 142
112 195 147
112 195 147
112 195 147
112 195 147
112 195 147
105 175 142
105 175 142
105 175 142
105 175 142
105 175 142
105 175 142
112 195 147
112 195 147
112 195 147
105 175 142
105 175 142
105 175 142
105 175 142
105 175 142
105 175 142
105 175 142
112 195 147
112 195 147
112 195 147
105 175 142
112 195 147
112 195 147
112 195 147
105 175 142
112 195 147
105 175 142
105 175 142
105 175 142
112 195 147
112 195 147
112 195 147
112 195 147
105 175 142
105 175 142
112 195 147
105 175 142
105 175 142
105 175 142
112 195 147
105 175 142
112 195 147
112 195 147
112 195 147
105 175 142
105 175 142
112 195 147
105 175 142
105 175 142
105 175 142
112 195 147
112 195 147
105 175 142
86 137 94
94 158 99
94 158 99
94 158 99
94 158 99
94 158 99
113 195 148
96 158 101
88 138 96
88 138 96
88 138 96
88 138 97
107 175 144
89 139 97
89 139 97
89 139 97
89 139 97
97 159 103
97 159 103
97 159 103
115 195 150
115 195 150
108 176 145
108 176 145
108 176 145
108 176 145
115 195 150
115 195 150
115 195 150
115 195 150
115 195 150
115 196 150
98 159 104
90 140 99
90 140 99
91 140 99
94 143 103
101 163 108
101 163 108
94 143 103
101 163 108
94 143 103
90 140 99
91 140 99
91 140 100
102 163 108
94 143 103
94 143 103
94 143 103
101 163 108
101 163 108
94 143 103
91 140 100
91 140 100
94 143 104
94 143 103
94 143 103
102 163 108
94 143 103
102 163 108
94 143 103
116 196 151
116 196 151
116 196 151
116 196 151
116 196 151
116 196 151
116 196 151
116 196 151
116 196 151
94 143 104
94 143 103
94 143 103
102 163 108
102 163 108
94 143 103
94 143 103
94 143 103
101 163 108
101 163 108
101 163 108
101 163 108
101 163 108
101 163 108
101 163 108
108 176 145
116 196 150
101 163 108
101 163 108
101 163 108
43 63 48
101 163 107
101 163 107
93 143 102
101 162 107
93 143 102
101 162 107
115 195 150
115 195 150
115 195 150
115 195 150
115 195 150
108 176 145
108 176 145
108 176 145
115 196 150
45 66 59
40 57 46
40 57 46
93 142 101
93 142 101
93 142 101
93 142 101
93 142 101
100 162 106
93 142 101
93 142 101
93 142 101
93 142 101
115 195 149
115 195 149
115 195 149
107 176 144
115 195 149
115 195 149
107 176 144
115 195 150
115 195 150
108 176 145
115 195 150
97 159 103
97 159 103
97 159 103
90 139 98
97 159 103
90 139 98
97 159 103
97 159 103
97 159 103
40 56 45
42 62 47
47 73 61
45 67 59
47 73 61
45 67 59
47 73 60
115 196 150
115 196 150
108 176 145
108 176 145
115 196 150
108 176 145
90 139 99
90 139 99
97 159 104
90 139 99
90 139 99
90 139 99
43 62 47
40 57 46
43 63 48
43 63 48
40 57 46
40 57 46
108 176 146
108 176 145
43 63 48
91 140 100
91 140 100
91 140 100
91 140 100
91 140 100
91 140 100
91 140 100
98 160 105
91 140 100
98 160 105
98 160 105
98 160 105
91 140 100
91 140 100
98 160 105
91 140 100
91 140 100
91 140 100
109 176 146
109 176 146
109 176 146
109 176 146
109 176 146
116 196 151
116 196 151
116 196 151
116 196 151
91 140 100
98 160 105
98 160 105
91 140 100
101 163 108
116 196 150
116 196 150
116 196 150
116 196 150
116 196 150
98 159 104
98 160 104
98 160 104
91 140 100
98 160 105
91 140 100
91 140 100
91 140 100
98 160 105
98 160 105
94 143 103
94 143 103
90 140 99
90 140 99
90 140 99
90 140 99
91 140 99
91 140 99
94 143 103
94 143 102
93 143 102
115 195 150
115 195 150
115 195 150
115 195 150
115 195 150
115 195 150
115 195 150
115 195 150
108 176 145
115 195 150
115 195 150
115 195 150
107 175 144
107 175 144
107 175 144
114 195 149
113 195 148
106 175 143
90 141 98
90 141 98
90 141 97
105 175 142
105 175 142
113 195 147
105 175 142
112 195 147
112 195 147
112 195 147
112 195 147
112 195 147
112 195 147
112 195 147
112 195 147
105 175 142
112 195 147
112 195 147
112 195 147
112 195 147
105 175 142
112 195 147
112 195 147
105 175 142
112 195 147
112 195 147
112 195 147
112 195 147
112 195 147
112 195 147
112 195 147
112 195 147
112 195 147
112 195 147
112 195 147
112 195 147
112 195 147
105 175 141
105 175 141
112 195 147
112 195 147
112 195 147
112 195 147
112 195 147
112 195 147
112 195 147
112 195 147
112 195 147
105 175 141
105 175 141
105 175 141
112 195 147
112 195 147
112 195 147
112 195 147
112 195 147
112 195 147
112 195 147
112 195 147
105 175 142
105 175 142
105 175 142
105 175 142
112 195 147
112 195 147
112 195 147
112 195 147
105 175 142
112 195 147
112 195 147
105 175 142
105 175 142
105 175 142
112 195 147
105 175 142
86 137 93
86 137 94
86 137 94
94 158 99
94 158 99
94 158 99
94 158 99
43 68 55
113 195 148
113 195 148
113 195 148
113 195 148
88 138 96
107 175 144
107 175 144
107 175 144
107 175 144
89 139 97
97 159 102
97 159 103
97 159 103
97 159 103
115 195 150
108 176 145
108 176 145
108 176 145
108 176 145
108 176 145
108 176 145
108 176 145
115 195 150
115 195 150
97 159 103
97 159 104
98 159 104
90 140 99
90 140 99
91 140 100
101 163 108
94 143 103
94 143 103
94 143 103
94 143 103
94 143 103
90 140 99
91 140 100
91 140 100
94 143 103
94 143 103
94 143 103
101 163 108
94 143 103
94 143 103
91 140 100
91 140 100
91 140 100
94 144 104
94 143 104
94 143 103
102 163 108
102 163 108
94 143 103
94 143 103
102 163 108
101 163 108
116 196 150
116 196 150
116 196 150
116 196 151
116 196 151
116 196 151
109 176 146
109 176 146
109 176 146
102 163 108
102 163 108
94 143 103
94 143 103
94 143 103
102 163 108
102 163 108
101 163 108
101 163 108
101 163 108
101 163 108
108 176 145
115 196 150
116 196 150
116 196 150
108 176 145
108 176 145
48 73 61
43 63 48
101 163 107
93 143 102
101 163 107
101 163 107
101 162 107
101 162 107
93 143 102
100 162 107
100 162 107
108 176 145
115 195 150
108 176 145
108 176 145
115 195 150
108 176 145
47 72 60
45 66 58
45 66 59
93 142 101
100 162 106
93 142 101
100 162 106
93 142 101
100 162 106
93 142 101
93 142 101
93 142 101
107 175 144
107 175 144
107 175 144
107 175 144
115 195 149
107 176 144
115 195 149
115 195 149
115 195 149
115 195 149
115 195 149
115 195 149
41 61 46
39 55 44
90 139 98
97 159 103
97 159 103
97 159 103
97 159 103
90 139 99
97 159 103
97 159 103
47 73 61
47 73 60
47 73 60
47 73 60
45 67 59
108 176 145
115 196 150
108 176 145
115 195 150
39 55 45
90 139 99
97 159 104
90 139 99
90 139 99
97 159 104
90 139 99
90 139 99
90 140 99
90 140 99
43 63 48
40 57 46
46 67 60
48 73 61
46 67 60
45 67 60
116 196 150
116 196 150
41 57 46
41 57 46
91 140 100
98 160 105
91 140 100
91 140 100
91 140 100
98 160 105
98 160 105
98 160 105
98 160 105
98 160 105
98 160 105
98 160 105
116 196 151
109 176 146
109 176 146
109 176 146
109 176 146
109 176 146
109 176 146
109 176 146
109 176 146
108 176 146
98 160 105
98 160 105
91 140 100
98 160 105
98 160 105
98 160 105
98 160 105
102 163 108
101 163 108
116 196 150
98 159 104
98 159 104
98 159 104
91 140 100
98 160 104
98 160 105
91 140 100
98 160 105
98 160 105
98 160 105
91 140 100
91 140 100
91 140 100
94 143 103
94 143 103
90 140 99
90 140 99
90 140 99
90 140 99
91 140 99
98 160 104
94 143 103
94 143 103
94 143 102
101 163 107
101 162 107
115 195 150
115 195 150
115 195 150
115 195 150
108 176 145
108 176 145
107 176 145
107 175 144
114 195 149
114 195 149
107 175 144
114 195 149
106 175 143
113 195 148
106 175 143
106 175 143
113 195 148
112 195 147
105 175 142
105 175 142
105 175 142
105 175 142
105 175 142
112 195 147
112 195 147
112 195 147
112 195 147
112 195 147
112 195 147
112 195 147
105 175 142
105 175 142
105 175 142
112 195 147
112 195 147
105 175 141
112 195 147
112 195 147
112 195 147
112 195 147
112 195 147
105 175 141
105 175 141
105 175 141
112 195 147
112 195 147
112 195 147
112 195 147
112 195 147
112 195 147
112 195 147
112 195 147
112 195 147
104 175 141
104 175 141
112 195 147
112 195 147
112 195 147
104 175 141
112 195 147
112 195 147
112 195 147
112 195 147
112 195 147
112 195 147
104 175 141
104 175 141
104 175 141
112 195 147
112 195 147
104 175 141
112 195 147
112 195 147
112 195 147
112 195 147
112 195 147
112 195 147
112 195 147
112 195 147
112 195 147
112 195 147
112 195 147
112 195 147
112 195 147
112 195 147
112 195 147
112 195 147
112 195 147
105 175 141
86 137 93
86 137 93
86 137 93
86 137 94
86 137 94
94 158 99
94 158 99
94 158 99
94 158 99
42 68 55
113 195 148
113 195 148
106 175 142
95 158 100
106 175 143
106 175 143
106 175 143
106 175 143
106 175 143
114 195 149
114 195 149
97 159 103
97 159 103
115 195 149
115 195 149
115 195 149
107 176 144
107 176 145
107 176 145
107 176 145
107 176 145
108 176 145
108 176 145
97 159 103
97 159 104
97 159 104
98 159 104
90 140 99
91 140 99
91 140 100
94 143 103
101 163 108
94 143 103
94 143 103
101 163 108
94 143 103
91 140 99
91 140 100
91 140 100
94 143 103
102 163 108
94 143 103
94 143 103
101 163 108
94 143 103
91 140 100
91 140 100
91 140 100
94 144 104
102 163 108
94 143 104
94 143 103
94 143 103
94 143 103
94 143 103
102 163 108
102 163 108
94 143 103
94 143 103
94 143 103
116 196 150
116 196 150
108 176 146
108 176 146
109 176 146
109 176 146
109 176 146
109 176 146
109 176 146
94 143 103
94 143 103
102 163 108
102 163 108
102 163 108
101 163 108
101 163 108
101 163 107
115 196 150
108 176 145
108 176 145
108 176 145
115 196 150
115 196 150
47 73 61
45 67 59
93 143 102
101 163 107
101 163 107
101 163 107
93 143 102
101 162 107
101 162 107
115 195 149
115 195 149
107 176 145
107 176 145
115 195 150
108 176 145
108 176 145
108 176 145
108 176 145
47 72 60
44 66 58
93 142 101
93 142 101
93 142 101
100 162 106
100 162 106
100 162 106
93 142 101
39 55 44
107 175 144
107 175 144
115 195 149
107 175 144
107 175 144
115 195 149
107 175 144
107 175 144
115 195 149
115 195 149
115 195 149
115 195 149
107 176 144
41 61 46
41 61 46
41 61 46
39 55 44
97 159 103
97 159 103
97 159 103
97 159 104
97 159 104
97 159 104
47 73 60
47 72 60
47 72 60
115 196 150
108 176 145
108 176 145
108 176 145
108 176 145
108 176 145
108 176 145
42 61 46
39 56 45
90 139 99
90 139 99
90 139 99
90 140 99
90 140 99
90 140 99
98 159 104
46 67 60
46 67 60
45 67 60
45 67 59
45 67 59
108 176 145
116 196 150
108 176 145
115 196 150
41 57 46
43 63 48
98 160 105
91 140 100
91 140 100
98 160 105
98 160 105
98 160 105
98 160 105
98 160 105
116 196 151
116 196 151
116 196 151
116 196 151
116 196 151
109 176 146
109 176 146
109 176 146
108 176 146
108 176 146
91 140 100
91 140 100
91 140 100
98 160 105
98 160 105
91 140 100
98 160 105
98 160 105
98 160 105
91 140 100
98 160 105
101 163 108
98 159 104
98 159 104
98 159 104
98 160 104
98 160 104
98 160 105
98 160 105
91 140 100
91 140 100
91 140 100
91 140 100
98 160 105
91 140 100
91 140 100
94 143 103
94 143 103
90 140 99
90 140 99
90 140 99
91 140 99
91 140 100
98 160 104
91 140 100
94 143 103
94 143 102
101 163 107
101 163 107
100 162 107
107 176 145
107 176 145
107 176 144
107 176 144
107 176 144
107 176 144
114 195 149
114 195 149
106 175 143
113 195 148
113 195 148
113 195 148
113 195 148
105 175 142
105 175 142
105 175 142
105 175 142
105 175 142
105 175 142
105 175 142
105 175 142
105 175 142
105 175 142
112 195 147
112 195 147
105 175 141
105 175 141
105 175 141
105 175 141
104 175 141
104 175 141
104 175 141
104 175 141
104 175 141
104 175 141
112 195 147
112 195 147
104 175 141
104 175 141
104 175 141
104 175 141
104 175 141
104 175 141
104 175 141
104 175 141
112 195 147
112 195 147
112 195 147
112 195 147
112 195 147
104 175 141
112 195 146
104 175 141
104 175 141
104 175 141
104 175 141
112 195 146
112 195 146
112 195 146
112 195 146
112 195 146
112 195 146
104 175 141
104 175 141
104 175 141
104 175 141
104 175 141
112 195 146
112 195 146
112 195 146
112 195 146
112 195 146
104 175 141
112 195 147
104 175 141
104 175 141
104 175 141
104 175 141
112 195 147
112 195 147
112 195 147
112 195 147
112 195 147
112 195 147
112 195 147
112 195 147
104 175 141
104 175 141
104 175 141
86 137 93
86 137 94
86 137 94
94 158 99
94 158 99
94 158 99
94 158 99
94 158 99
113 195 147
113 195 147
95 158 100
95 158 100
95 158 100
106 175 143
106 175 143
106 175 143
106 175 143
106 175 143
106 175 143
106 175 143
88 138 96
115 195 149
115 195 149
115 195 149
115 195 149
115 195 149
115 195 149
107 176 144
107 176 144
107 176 144
90 139 98
90 139 98
97 159 103
97 159 104
98 159 104
98 159 104
90 140 99
91 140 100
108 176 146
94 143 103
101 163 108
101 163 108
101 163 108
101 163 108
94 143 103
91 140 100
91 140 100
91 140 100
102 163 108
94 143 103
102 163 108
94 143 103
94 143 103
94 143 103
91 140 100
91 140 100
91 140 100
95 144 104
94 144 104
94 144 104
94 143 103
94 143 103
102 163 108
94 143 103
94 143 103
94 143 103
101 163 108
94 143 103
101 163 108
101 163 108
101 163 108
94 143 103
108 176 145
108 176 145
108 176 146
108 176 146
108 176 146
109 176 146
109 176 146
109 176 146
94 143 103
102 163 108
102 163 108
102 163 108
42 58 47
94 143 102
101 163 107
93 143 102
101 163 107
115 196 150
115 196 150
115 196 150
47 73 60
93 143 102
101 163 107
93 143 102
101 163 107
101 163 107
101 163 107
93 143 102
115 195 149
115 195 149
115 195 149
107 176 144
107 176 144
115 195 149
115 195 149
115 195 149
107 176 145
108 176 145
44 66 58
93 142 101
93 142 101
93 142 101
100 162 106
93 142 101
93 142 101
93 142 101
39 56 45
92 142 100
107 175 144
107 175 144
107 175 144
107 175 144
107 175 144
107 175 144
107 175 144
107 175 144
115 195 149
107 175 144
107 175 144
107 175 144
107 175 144
41 61 46
41 61 46
41 61 46
41 61 46
41 61 46
41 61 46
97 159 104
97 159 104
97 159 104
97 159 104
47 72 60
115 195 150
108 176 145
115 195 150
108 176 145
108 176 145
108 176 145
108 176 145
108 176 145
108 176 145
108 176 145
39 56 45
39 56 45
42 62 46
90 140 99
98 159 104
98 159 104
98 159 104
98 159 104
45 67 59
45 67 59
45 67 59
108 176 145
115 196 150
108 176 145
90 140 99
90 140 99
98 159 104
43 63 48
41 57 47
41 57 47
43 63 48
91 140 100
91 140 100
98 160 105
116 196 151
116 196 151
116 196 151
116 196 151
116 196 151
116 196 151
116 196 151
116 196 150
116 196 150
108 176 146
91 140 100
91 140 100
91 140 100
91 140 100
91 140 100
91 140 100
91 140 100
98 160 105
98 160 105
91 140 100
98 160 105
98 160 105
98 160 105
98 160 105
102 163 108
101 163 108
98 160 104
98 160 104
98 160 104
98 160 105
98 160 105
98 160 105
91 140 100
91 140 100
91 140 100
91 140 100
98 160 105
109 176 146
109 176 146
109 176 146
94 143 103
90 140 99
90 140 99
98 159 104
91 140 100
91 140 100
98 160 105
108 176 145
94 143 103
94 143 103
101 163 107
101 163 107
101 162 107
93 142 101
107 176 144
107 176 144
107 176 144
107 176 144
106 175 143
113 195 148
113 195 148
113 195 148
113 195 148
113 195 148
113 195 148
90 140 97
105 175 142
105 175 141
105 175 141
105 175 141
105 175 141
105 175 141
105 175 141
104 175 141
104 175 141
104 175 141
112 195 147
104 175 141
104 175 141
112 195 147
104 175 141
104 175 141
104 175 141
104 175 141
104 175 141
112 195 147
112 195 146
104 175 141
104 175 141
104 175 141
104 175 141
112 195 146
112 195 146
104 175 141
104 175 141
104 175 141
104 175 141
104 175 141
104 175 141
112 195 146
104 175 141
104 175 141
104 175 141
104 175 141
104 175 141
104 175 141
104 175 141
104 175 141
104 175 141
104 175 141
112 195 146
112 195 146
112 195 146
104 175 141
104 175 141
104 175 141
104 175 141
104 175 141
104 175 141
104 175 141
104 175 141
112 195 146
112 195 146
112 195 146
112 195 146
104 175 141
104 175 141
112 195 146
104 175 141
104 175 141
104 175 141
104 175 141
112 195 146
112 195 146
112 195 146
112 195 146
112 195 146
112 195 146
112 195 146
104 175 141
104 175 141
104 175 141
104 175 141
112 195 146
86 137 94
94 158 99
94 158 99
94 158 99
94 158 99
94 158 100
113 195 147
95 158 100
95 158 100
95 158 100
95 158 100
106 175 143
114 195 148
106 175 143
106 175 143
106 175 143
106 175 143
88 138 96
88 138 96
115 195 149
115 195 149
115 195 149
115 195 149
115 195 149
115 195 149
115 195 149
97 159 103
89 139 98
90 139 98
90 139 98
97 159 104
97 159 104
98 159 104
90 140 99
91 140 99
108 176 145
108 176 145
108 176 145
108 176 145
108 176 145
101 163 108
94 143 103
94 143 103
91 140 100
108 176 146
109 176 146
109 176 146
109 176 146
94 143 103
94 143 103
94 143 103
101 163 108
91 140 100
109 176 146
109 176 146
109 176 146
109 176 146
102 163 108
94 144 104
94 143 103
94 143 103
102 163 108
94 143 103
94 143 103
102 163 108
101 163 108
94 143 103
94 143 103
94 143 103
101 163 108
94 143 103
94 143 103
108 176 145
108 176 145
108 176 145
108 176 145
116 196 150
116 196 150
116 196 150
116 196 151
116 196 151
42 58 47
42 58 47
101 163 107
101 163 107
101 163 107
101 163 107
101 163 107
93 143 102
93 143 102
115 196 150
93 143 102
101 163 107
101 163 107
101 163 107
101 163 107
101 163 107
40 56 45
100 162 106
115 195 149
107 175 144
107 176 144
115 195 149
107 176 144
115 195 149
115 195 149
115 195 149
115 195 149
115 195 149
107 176 145
93 143 101
93 142 101
93 142 101
93 142 101
93 142 101
42 62 46
42 62 46
92 142 101
92 142 100
92 142 100
92 142 100
107 175 144
114 195 149
107 175 144
107 175 144
107 175 144
107 175 144
107 175 144
107 175 144
115 195 149
107 175 144
97 159 103
41 61 46
41 61 46
41 61 46
39 55 44
39 55 44
41 61 46
41 61 46
90 139 99
115 195 150
115 195 150
108 176 145
115 195 150
108 176 145
108 176 145
108 176 145
115 195 150
107 176 145
107 176 145
107 176 144
89 139 98
39 56 45
39 56 45
42 62 46
39 56 45
39 56 45
90 140 99
90 140 99
90 140 99
98 159 104
45 67 59
115 196 150
98 159 104
90 140 99
98 159 104
98 159 104
90 140 99
90 140 99
41 57 47
43 63 48
41 57 47
41 57 47
46 68 60
109 176 146
109 176 146
109 176 146
116 196 151
116 196 151
116 196 150
116 196 150
116 196 150
116 196 150
98 160 105
98 160 105
91 140 100
91 140 100
91 140 100
91 140 100
91 140 100
91 140 100
91 140 100
91 140 100
98 160 105
98 160 105
98 160 105
98 160 105
98 160 105
98 160 105
98 160 105
102 163 108
101 163 108
98 160 104
98 160 104
98 160 105
98 160 105
98 160 105
91 140 100
98 160 105
91 140 100
98 160 105
109 176 146
108 176 146
108 176 146
108 176 146
108 176 146
108 176 145
94 143 103
98 159 104
91 140 100
108 176 145
108 176 145
116 196 150
108 176 145
108 176 145
94 143 103
94 143 102
101 163 107
101 163 107
93 143 102
93 142 101
107 175 144
107 175 144
107 175 144
98 161 103
113 195 148
113 195 148
113 195 147
113 195 147
113 195 147
113 195 147
90 140 97
89 140 97
104 175 141
104 175 141
112 195 147
104 175 141
112 195 147
104 175 141
112 195 147
112 195 147
112 195 147
112 195 146
112 195 146
104 175 141
104 175 141
104 175 141
104 175 141
104 175 141
112 195 146
104 175 141
104 175 141
112 195 146
112 195 146
112 195 146
112 195 146
104 175 141
104 175 141
104 175 141
104 175 141
104 175 141
104 175 141
104 175 141
104 175 141
112 195 146
112 195 146
112 195 146
112 195 146
104 175 141
104 175 141
104 174 141
104 174 141
104 174 141
104 174 141
112 195 146
104 174 141
112 195 146
112 195 146
104 174 141
104 174 141
112 195 146
112 195 146
104 174 141
104 174 141
104 174 141
104 174 141
104 174 141
112 195 146
104 174 141
104 174 141
104 174 141
104 174 141
104 175 141
104 175 141
112 195 146
104 175 141
104 175 141
104 175 141
104 175 141
104 175 141
112 195 146
104 175 141
104 175 141
104 175 141
104 175 141
104 175 141
104 175 141
104 175 141
104 175 141
104 175 141
104 175 141
104 175 141
94 158 99
94 158 99
105 175 142
113 195 147
105 175 142
113 195 147
113 195 147
95 158 100
95 158 100
114 195 148
114 195 148
114 195 148
106 175 143
88 138 96
88 138 96
88 138 96
88 138 96
107 175 144
115 195 149
115 195 149
115 195 149
115 195 149
115 195 149
97 159 103
89 139 98
90 139 98
90 139 98
90 139 98
97 159 104
98 159 104
98 159 104
116 196 150
108 176 145
116 196 150
108 176 145
108 176 145
108 176 145
116 196 150
108 176 145
108 176 145
108 176 145
108 176 145
108 176 145
108 176 145
108 176 146
108 176 146
108 176 146
108 176 146
109 176 146
101 163 108
109 176 146
109 176 146
109 176 146
109 176 146
116 196 151
109 176 146
109 176 146
94 143 104
102 163 108
102 163 108
102 163 108
102 163 108
102 163 108
102 163 108
101 163 108
101 163 108
94 143 103
101 163 108
94 143 103
94 143 103
101 163 108
94 143 103
94 143 103
116 196 150
116 196 150
116 196 150
116 196 150
116 196 150
116 196 150
48 73 61
48 73 61
101 163 107
101 163 107
101 163 107
101 163 107
101 163 107
101 163 107
93 143 102
115 195 150
108 176 145
101 163 107
101 163 107
101 163 107
101 163 107
42 62 47
100 162 106
100 162 106
100 162 106
100 162 106
100 162 106
107 175 144
115 195 149
115 195 149
115 195 149
115 195 149
115 195 149
115 195 149
107 176 144
107 176 144
107 176 144
93 142 101
93 142 101
39 56 45
39 56 45
39 56 45
92 142 101
92 142 101
92 142 101
100 162 105
92 142 100
92 142 100
92 142 100
107 175 144
107 175 144
114 195 149
114 195 149
114 195 149
107 175 144
115 195 149
97 159 103
39 55 44
39 55 44
41 61 46
41 61 46
47 72 60
47 72 60
47 72 60
47 72 60
115 195 150
115 195 150
108 176 145
108 176 145
115 195 150
107 176 145
107 176 144
107 176 144
89 139 98
89 139 98
89 139 98
90 139 98
90 139 98
42 62 46
39 56 45
42 62 46
40 56 45
40 56 45
98 159 104
90 140 99
108 176 145
40 56 45
98 159 104
98 159 104
90 140 99
90 140 99
98 159 104
90 140 99
90 140 99
90 140 99
46 68 60
46 68 60
46 68 60
46 68 60
46 68 60
108 176 146
108 176 146
108 176 146
116 196 150
116 196 150
98 160 105
98 160 105
98 160 105
98 160 105
91 140 100
98 160 105
91 140 100
91 140 100
91 140 100
91 140 100
98 160 105
98 160 105
98 160 105
98 160 105
98 160 105
98 160 105
98 160 105
98 160 105
109 176 146
116 196 151
116 196 151
101 163 108
91 140 100
91 140 100
91 140 100
91 140 100
98 160 105
98 160 105
108 176 146
116 196 150
116 196 150
108 176 145
108 176 145
108 176 145
108 176 145
108 176 145
108 176 145
116 196 150
108 176 145
108 176 145
108 176 145
108 176 145
108 176 145
108 176 145
115 196 150
115 196 150
108 176 145
101 163 107
101 163 107
93 143 102
93 142 101
93 142 101
100 162 106
115 195 149
98 161 104
98 161 103
98 161 103
113 195 147
105 175 142
113 195 147
113 195 147
90 140 97
89 140 97
89 140 97
89 140 96
104 175 141
104 175 141
112 195 146
112 195 146
112 195 146
112 195 146
112 195 146
104 175 141
104 175 141
112 195 146
112 195 146
104 175 141
104 175 141
104 175 141
112 195 146
112 195 146
112 195 146
104 174 141
112 195 146
104 174 141
112 195 146
112 195 146
104 174 141
104 174 141
104 174 141
104 174 141
104 174 141
112 195 146
112 195 146
112 195 146
112 195 146
104 174 141
112 195 146
104 174 141
104 174 141
104 174 141
104 174 141
104 174 141
104 174 141
104 174 141
112 195 146
112 195 146
112 195 146
112 195 146
112 195 146
104 174 141
104 174 141
104 174 141
104 174 141
104 174 141
104 174 141
104 174 141
112 195 146
112 195 146
112 195 146
112 195 146
104 174 141
104 174 141
104 174 141
112 195 146
112 195 146
104 174 141
104 174 141
104 174 141
112 195 146
112 195 146
112 195 146
104 174 141
104 174 141
104 174 141
104 174 141
104 174 141
112 195 146
104 174 141
112 195 146
104 175 141
104 175 141
86 136 93
113 195 147
105 175 142
113 195 147
113 195 147
113 195 147
113 195 147
113 195 147
113 195 147
114 195 148
114 195 148
106 175 143
106 175 143
106 175 143
106 175 143
88 138 96
88 138 97
107 175 144
107 175 144
107 175 144
114 195 149
97 159 102
97 159 103
97 159 103
89 139 98
90 139 98
90 139 98
90 139 99
97 159 104
115 196 150
115 196 150
115 196 150
108 176 145
115 196 150
115 196 150
115 196 150
108 176 145
108 176 145
108 176 145
116 196 150
116 196 150
116 196 150
108 176 145
108 176 145
108 176 145
108 176 145
108 176 145
108 176 145
108 176 145
108 176 146
108 176 146
116 196 150
108 176 146
109 176 146
109 176 146
109 176 146
116 196 151
109 176 146
116 196 151
116 196 151
102 163 108
102 163 108
102 163 108
102 163 108
102 163 108
94 143 103
101 163 108
101 163 108
94 143 103
101 163 108
94 143 103
94 143 103
108 176 145
108 176 145
108 176 145
116 196 150
116 196 150
116 196 150
116 196 150
48 73 61
94 143 102
101 163 107
101 163 107
101 163 107
101 163 107
101 163 107
101 163 107
115 195 150
108 176 145
115 195 150
115 195 150
115 195 150
108 176 145
42 62 47
42 62 47
93 142 101
100 162 106
100 162 106
93 142 101
100 162 106
100 162 106
100 162 106
100 162 106
115 195 149
115 195 149
115 195 149
107 175 144
115 195 149
115 195 149
107 176 144
107 176 144
46 72 59
44 66 58
42 62 46
92 142 101
92 142 101
92 142 101
92 142 101
92 142 101
100 162 106
92 142 100
100 162 105
92 142 100
92 142 100
92 142 100
114 195 149
114 195 149
107 175 144
114 195 149
97 159 103
41 61 46
47 72 60
47 72 60
47 72 60
44 66 58
46 72 60
44 66 58
115 195 150
115 195 150
115 195 150
115 195 149
107 176 144
107 176 144
97 159 103
89 139 98
89 139 98
90 139 98
97 159 103
90 139 98
97 159 103
90 139 98
42 62 46
40 56 45
40 56 45
47 73 60
45 67 59
47 72 60
108 176 145
108 176 145
108 176 145
42 62 47
40 56 45
98 159 104
90 140 99
90 140 99
98 159 104
98 159 104
90 140 99
46 68 60
46 68 60
46 68 60
46 67 60
108 176 145
108 176 145
108 176 145
116 196 150
42 62 47
91 140 100
98 160 105
98 160 105
98 160 105
98 160 105
98 160 105
98 160 105
91 140 100
91 140 100
98 160 105
91 140 100
91 140 100
98 160 105
91 140 100
91 140 100
98 160 105
116 196 151
109 176 146
116 196 151
116 196 151
116 196 151
109 176 146
116 196 151
98 160 105
98 160 105
91 140 100
108 176 146
116 196 150
116 196 150
116 196 150
116 196 150
108 176 145
108 176 145
108 176 145
116 196 150
108 176 145
116 196 150
116 196 150
116 196 150
116 196 150
108 176 145
108 176 145
108 176 145
108 176 145
108 176 145
115 196 150
115 196 150
115 196 150
115 196 150
101 163 107
93 143 102
93 143 101
93 142 101
100 162 106
114 195 148
106 175 143
98 161 103
98 161 103
98 161 103
105 175 142
105 175 142
105 175 142
105 175 142
90 140 97
89 140 97
89 140 97
97 161 102
112 195 146
112 195 146
112 195 146
112 195 146
112 195 146
112 195 146
112 195 146
112 195 146
104 174 141
112 195 146
112 195 146
112 195 146
112 195 146
112 195 146
112 195 146
112 195 146
112 195 146
112 195 146
112 195 146
112 195 146
112 195 146
104 174 141
112 195 146
112 195 146
104 174 141
112 195 146
112 195 146
112 195 146
112 195 146
112 195 146
112 195 146
112 195 146
112 195 146
112 195 146
104 174 141
104 174 141
112 195 146
104 174 141
112 195 146
112 195 146
112 195 146
112 195 146
112 195 146
112 195 146
112 195 146
104 174 141
104 174 141
104 174 141
112 195 146
112 195 146
112 195 146
112 195 146
112 195 146
112 195 146
112 195 146
112 195 146
112 195 146
104 174 141
104 174 141
104 174 141
104 174 141
112 195 146
112 195 146
112 195 146
112 195 146
104 174 141
112 195 146
112 195 146
112 195 146
104 174 141
104 174 141
104 174 141
104 174 141
104 174 141
85 136 93
86 136 93
86 137 93
113 195 147
113 195 147
113 195 147
113 195 147
113 195 147
113 195 147
113 195 147
113 195 147
113 195 147
106 175 143
106 175 143
106 175 143
106 175 143
106 175 143
106 175 143
106 175 143
107 175 144
107 175 144
89 139 97
89 139 97
97 159 103
97 159 103
97 159 103
90 139 98
90 139 98
90 139 98
90 139 99
115 196 150
108 176 145
115 196 150
115 196 150
115 196 150
115 196 150
115 196 150
115 196 150
108 176 145
115 196 150
115 196 150
115 196 150
115 196 150
116 196 150
116 196 150
116 196 150
116 196 150
108 176 145
116 196 150
116 196 150
116 196 150
116 196 150
116 196 150
116 196 150
116 196 150
108 176 145
116 196 150
108 176 146
108 176 146
116 196 150
116 196 151
116 196 151
116 196 151
116 196 151
102 163 108
102 163 108
102 163 108
102 163 108
101 163 108
94 143 103
94 143 103
94 143 103
108 176 145
108 176 145
108 176 145
108 176 145
108 176 145
108 176 145
108 176 145
108 176 145
116 196 150
48 73 61
101 163 107
101 163 107
101 163 107
101 163 107
101 163 107
101 163 107
115 195 150
115 195 150
115 195 150
115 195 150
115 195 150
108 176 145
44 66 58
47 72 60
47 72 60
93 142 101
100 162 106
93 142 101
93 142 101
100 162 106
100 162 106
93 142 101
100 162 106
39 55 44
115 195 149
115 195 149
107 175 144
107 175 144
107 175 144
115 195 149
107 176 144
44 65 57
44 65 57
46 71 59
92 142 101
92 142 101
92 142 101
92 142 101
92 142 101
92 142 101
100 162 106
100 162 106
92 142 100
92 142 100
100 162 105
100 162 105
100 162 105
100 162 105
114 195 149
97 159 103
97 159 103
46 72 60
46 72 60
46 72 59
46 72 59
46 72 59
115 195 150
115 195 149
115 195 149
97 159 103
97 159 103
89 139 98
89 139 98
89 139 98
97 159 103
97 159 103
90 139 98
97 159 103
90 139 98
97 159 103
90 139 98
45 67 59
45 67 59
47 72 60
47 72 60
45 66 59
47 72 60
108 176 145
108 176 145
115 195 150
108 176 145
42 62 47
42 62 47
90 140 99
90 140 99
98 159 104
90 140 99
98 159 104
46 67 60
46 67 60
108 176 145
108 176 145
116 196 150
116 196 150
116 196 150
116 196 150
116 196 150
40 57 46
40 57 46
98 160 105
98 160 105
98 160 105
98 160 105
98 160 105
91 140 100
91 140 100
91 140 100
98 160 105
98 160 105
98 160 105
91 140 100
109 176 146
116 196 151
109 176 146
116 196 151
116 196 151
116 196 150
108 176 146
116 196 150
116 196 150
108 176 145
116 196 150
116 196 150
108 176 145
116 196 150
116 196 150
116 196 150
116 196 150
116 196 150
108 176 145
116 196 150
116 196 150
115 196 150
115 196 150
115 196 150
115 196 150
115 196 150
108 176 145
108 176 145
108 176 145
115 196 150
115 196 150
115 196 150
115 196 150
115 196 150
115 195 150
115 195 150
101 163 107
93 143 102
93 142 101
114 195 148
114 195 148
114 195 148
98 161 103
113 195 147
113 195 147
105 175 142
105 175 142
105 175 142
113 195 147
90 140 97
89 140 97
89 140 97
89 140 96
97 161 101
112 195 146
112 195 146
112 195 146
112 195 146
112 195 146
104 174 141
112 195 146
104 174 141
104 174 141
104 174 141
104 174 141
104 174 141
112 195 146
112 195 146
112 195 146
112 195 146
112 195 146
112 195 146
112 195 146
104 174 141
104 174 141
104 174 141
104 174 141
104 174 141
104 174 141
112 195 146
112 195 146
112 195 146
112 195 146
112 195 146
112 195 146
112 195 146
112 195 146
104 174 141
112 195 146
104 174 141
112 195 146
112 195 146
112 195 146
104 174 141
112 195 146
112 195 146
112 195 146
112 195 146
112 195 146
112 195 146
112 195 146
112 195 146
112 195 146
112 195 146
112 195 146
112 195 146
104 174 141
104 174 141
112 195 146
112 195 146
112 195 146
112 195 146
112 195 146
112 195 146
112 195 146
112 195 146
112 195 146
112 195 146
104 174 141
112 195 146
112 195 146
112 195 146
104 174 141
112 195 146
104 174 141
85 136 92
85 136 93
85 136 93
86 136 93
105 175 142
105 175 142
113 195 147
113 195 147
113 195 147
113 195 147
113 195 147
113 195 147
94 158 99
94 158 99
106 175 143
106 175 143
106 175 143
106 175 143
106 175 143
106 175 143
106 175 143
106 175 143
106 175 143
89 139 97
97 159 102
97 159 103
97 159 103
97 159 103
90 139 98
90 139 98
108 176 145
108 176 145
108 176 145
108 176 145
115 195 150
115 195 150
115 195 150
115 196 150
115 196 150
115 196 150
98 159 104
101 163 107
115 196 150
115 196 150
108 176 145
115 196 150
115 196 150
115 196 150
115 196 150
115 196 150
101 163 108
116 196 150
116 196 150
116 196 150
116 196 150
116 196 150
116 196 150
116 196 150
108 176 145
101 163 108
116 196 150
116 196 150
116 196 150
116 196 150
108 176 146
116 196 150
116 196 151
116 196 151
109 176 146
94 143 103
94 143 103
94 143 103
94 143 103
101 163 108
93 143 102
108 176 145
108 176 145
108 176 145
108 176 145
108 176 145
108 176 145
108 176 145
108 176 145
115 196 150
101 163 107
94 143 103
94 143 102
101 163 107
101 163 107
41 57 46
100 162 106
100 162 106
100 162 106
115 195 149
115 195 150
108 176 145
108 176 145
46 72 59
100 162 106
100 162 106
100 162 106
100 162 106
93 142 101
100 162 106
100 162 106
100 162 106
41 61 46
114 195 149
107 175 144
114 195 149
115 195 149
115 195 149
115 195 149
107 175 144
107 175 144
107 175 144
43 65 57
43 65 57
100 162 106
100 162 106
92 142 101
100 162 106
92 142 101
92 142 101
92 142 101
92 142 101
100 162 106
92 142 100
100 162 105
100 162 105
92 142 100
100 162 105
92 142 100
97 159 103
97 159 103
46 72 59
46 72 59
46 72 59
115 195 149
115 195 149
97 159 103
97 159 103
97 159 103
89 139 98
97 159 103
97 159 103
97 159 103
90 139 98
90 139 98
90 139 98
90 139 98
97 159 103
90 139 98
90 139 98
97 159 103
90 139 98
45 66 59
47 72 60
44 66 58
47 72 60
115 195 150
115 195 150
108 176 145
97 159 103
90 139 98
40 56 45
40 56 45
40 56 46
42 62 47
90 140 99
90 140 99
91 140 99
91 140 99
116 196 150
116 196 150
116 196 150
116 196 150
116 196 150
115 196 150
115 196 150
115 196 150
115 196 150
43 63 48
43 63 48
98 160 105
98 160 105
98 160 105
98 160 105
98 160 105
98 160 105
91 140 100
91 140 100
109 176 146
109 176 146
109 176 146
109 176 146
108 176 146
108 176 146
116 196 150
116 196 150
116 196 150
108 176 145
108 176 145
108 176 145
108 176 145
116 196 150
116 196 150
108 176 145
116 196 150
116 196 150
116 196 150
98 159 104
90 140 99
98 159 104
101 163 107
115 196 150
115 196 150
115 196 150
115 196 150
115 196 150
108 176 145
97 159 104
98 159 104
115 196 150
115 195 150
115 195 150
115 195 150
115 195 150
115 195 150
115 195 150
115 195 150
108 176 145
93 143 102
93 142 101
99 162 104
113 195 147
113 195 147
113 195 147
113 195 147
105 175 142
105 175 142
105 175 142
105 175 142
105 175 142
90 140 97
90 140 97
89 140 97
89 140 96
97 161 101
97 161 101
97 161 101
112 195 146
112 195 146
112 195 146
104 174 141
104 174 141
112 195 146
104 174 141
104 174 141
104 174 141
104 174 141
104 174 141
112 195 146
104 174 141
112 195 146
112 195 146
112 195 146
104 174 141
104 174 141
104 174 141
104 174 141
104 174 141
104 174 141
104 174 141
112 195 146
112 195 146
112 195 146
112 195 146
112 195 146
112 195 146
104 174 141
104 174 141
104 174 141
104 174 141
104 174 141
112 195 146
104 174 141
112 195 146
112 195 146
112 195 146
112 195 146
112 195 146
112 195 146
104 174 141
104 174 141
104 174 141
104 174 141
112 195 146
112 195 146
104 174 141
104 174 141
112 195 146
112 195 146
112 195 146
112 195 146
104 174 141
104 174 141
104 174 141
104 174 141
112 195 146
112 195 146
112 195 146
112 195 146
112 195 146
112 195 146
112 195 146
112 195 146
112 195 146
93 157 97
85 136 92
85 136 92
85 136 93
86 136 93
86 137 93
39 61 52
105 175 142
105 175 142
105 175 142
113 195 147
105 175 142
94 158 99
94 158 99
94 158 99
94 158 99
113 195 148
106 175 143
106 175 143
106 175 143
106 175 143
113 195 148
106 175 143
88 138 95
88 138 96
89 139 97
97 159 103
97 159 103
97 159 103
97 159 103
108 176 145
108 176 145
115 195 150
108 176 145
108 176 145
108 176 145
108 176 145
108 176 145
115 195 150
115 195 150
97 159 104
98 159 104
98 159 104
94 143 102
101 163 107
101 163 107
101 163 107
108 176 145
115 196 150
115 196 150
98 159 104
98 159 104
101 163 108
101 163 108
101 163 107
115 196 150
115 196 150
116 196 150
116 196 150
116 196 150
98 160 104
101 163 108
101 163 108
101 163 108
116 196 150
116 196 150
116 196 150
116 196 150
116 196 150
116 196 150
116 196 150
108 176 146
109 176 146
94 143 103
94 143 103
93 143 102
93 143 102
93 143 102
93 143 102
101 163 107
108 176 145
108 176 145
108 176 145
108 176 145
115 196 150
115 196 150
115 196 150
115 196 150
115 196 150
43 63 48
41 57 46
93 143 102
100 162 107
100 162 106
100 162 106
100 162 106
93 142 101
115 195 149
115 195 149
46 72 59
93 142 101
100 162 106
100 162 106
100 162 106
100 162 106
100 162 106
100 162 106
39 55 44
107 175 144
114 195 149
114 195 149
114 195 149
107 175 144
114 195 149
114 195 149
114 195 149
107 175 144
107 175 144
107 175 144
92 142 101
92 142 101
100 162 106
100 162 106
92 142 101
92 142 101
92 142 101
92 142 101
92 142 101
92 142 101
100 162 106
100 162 106
100 162 105
100 162 105
100 162 105
100 162 105
89 139 98
97 159 103
89 139 98
107 176 144
97 159 103
97 159 103
97 159 103
97 159 103
97 159 103
97 159 103
90 139 98
97 159 103
97 159 103
97 159 103
90 139 98
97 159 103
90 139 98
97 159 103
90 139 98
90 139 98
97 159 103
90 139 98
90 139 98
47 72 60
44 66 58
115 195 150
108 176 145
90 139 98
97 159 103
90 139 98
90 139 98
90 139 98
40 56 46
42 62 47
40 56 46
40 56 46
40 56 46
45 67 59
108 176 145
108 176 145
116 196 150
115 196 150
115 196 150
115 196 150
115 196 150
115 196 150
115 196 150
115 196 150
98 159 104
90 140 99
43 63 48
41 57 46
43 63 48
98 160 105
98 160 105
98 160 105
109 176 146
109 176 146
116 196 151
108 176 146
108 176 146
108 176 146
108 176 145
108 176 145
108 176 145
116 196 150
108 176 145
108 176 145
108 176 145
108 176 145
108 176 145
108 176 145
108 176 145
108 176 145
115 196 150
115 196 150
98 159 104
90 140 99
90 140 99
98 159 104
98 159 104
101 163 107
101 163 107
115 196 150
115 196 150
97 159 104
97 159 104
97 159 104
98 159 104
90 140 99
101 163 107
115 195 150
115 195 150
115 195 150
115 195 150
108 176 145
108 176 145
108 176 145
108 176 145
108 176 145
113 195 147
113 195 147
113 195 147
113 195 147
113 195 147
113 195 147
113 195 147
113 195 147
105 175 142
113 195 147
113 195 147
90 140 97
90 140 97
89 140 97
89 140 97
97 161 102
97 161 101
97 161 101
97 161 101
104 174 141
104 174 141
104 174 141
104 174 141
104 174 141
104 174 141
104 174 141
104 174 141
104 174 141
104 174 141
104 174 141
104 174 141
104 174 141
112 195 146
104 174 141
104 174 141
104 174 141
104 174 141
104 174 141
104 174 141
104 174 141
104 174 141
104 174 141
112 195 146
112 195 146
112 195 146
104 174 141
104 174 141
104 174 141
104 174 141
112 195 146
104 174 141
104 174 141
104 174 141
104 174 141
112 195 146
112 195 146
112 195 146
104 174 141
104 174 141
104 174 141
104 174 141
104 174 141
104 174 141
104 174 141
104 174 141
104 174 141
112 195 146
112 195 146
112 195 146
112 195 146
112 195 146
104 174 141
104 174 141
104 174 141
104 174 141
104 174 141
104 174 141
112 195 146
104 174 141
112 195 146
104 174 141
112 195 146
112 195 146
93 157 97
93 157 97
93 157 97
85 136 92
85 136 93
85 136 93
86 136 93
86 137 93
39 61 52
105 175 142
112 195 147
105 175 142
105 175 142
112 195 147
94 158 99
94 158 99
94 158 99
94 158 99
113 195 148
113 195 148
113 195 148
106 175 143
106 175 143
87 138 95
87 138 95
88 138 95
88 138 96
89 139 97
97 159 103
97 159 103
97 159 103
115 195 149
115 195 149
107 176 145
107 176 145
108 176 145
108 176 145
108 176 145
108 176 145
108 176 145
108 176 145
97 159 103
97 159 104
98 159 104
101 163 107
101 163 107
101 163 107
101 163 107
101 163 107
101 163 107
101 163 107
98 159 104
98 159 104
98 159 104
94 143 103
101 163 108
101 163 107
101 163 107
101 163 107
94 143 102
98 159 104
98 159 104
98 160 105
101 163 108
94 143 103
94 143 103
101 163 108
101 163 108
101 163 108
116 196 150
108 176 145
108 176 145
108 176 145
108 176 145
108 176 145
46 67 60
46 68 60
93 143 102
93 143 102
93 143 102
101 163 107
93 143 102
93 143 102
93 143 102
108 176 145
115 195 150
115 196 150
115 196 150
115 196 150
115 196 150
115 196 150
47 73 60
47 73 60
100 162 107
100 162 107
93 143 102
93 143 102
100 162 106
93 142 101
100 162 106
100 162 106
93 142 101
93 142 101
100 162 106
100 162 106
100 162 106
100 162 106
100 162 106
41 61 46
100 162 105
100 162 105
114 195 149
107 175 144
114 195 149
114 195 149
107 175 144
107 175 144
114 195 149
114 195 149
107 175 144
114 195 149
107 175 144
92 142 101
92 142 101
92 142 101
100 162 106
92 142 101
92 142 101
92 142 101
92 142 101
92 142 101
100 162 106
100 162 106
100 162 106
92 142 100
100 162 105
100 162 105
107 176 144
107 176 144
115 195 149
41 61 45
97 159 103
97 159 103
97 159 103
97 159 103
97 159 103
97 159 103
97 159 103
97 159 103
97 159 103
97 159 103
97 159 103
90 139 98
97 159 103
97 159 103
90 139 98
90 139 98
90 139 98
90 139 98
90 139 98
44 66 58
90 139 98
90 139 98
97 159 103
90 139 98
97 159 103
90 139 98
90 139 98
90 139 99
90 139 99
40 56 46
45 67 59
45 67 59
45 67 59
45 67 59
45 67 59
108 176 145
108 176 145
115 196 150
115 196 150
115 196 150
115 196 150
98 159 104
98 159 104
98 159 104
98 159 104
98 159 104
43 63 48
43 63 48
43 63 48
46 68 60
116 196 151
116 196 150
116 196 150
116 196 150
108 176 145
108 176 145
108 176 145
108 176 145
108 176 145
91 140 100
91 140 100
94 143 103
108 176 145
108 176 145
108 176 145
108 176 145
108 176 145
108 176 145
108 176 145
98 159 104
98 159 104
98 159 104
90 140 99
90 140 99
98 159 104
98 159 104
98 159 104
101 163 108
101 163 107
90 139 99
97 159 104
90 139 99
97 159 104
98 159 104
90 140 99
98 159 104
101 163 107
101 163 107
101 162 107
108 176 145
108 176 145
108 176 145
107 176 145
107 176 145
114 195 149
114 195 149
98 161 103
113 195 147
113 195 147
113 195 147
113 195 147
113 195 147
113 195 147
105 175 142
113 195 147
105 175 142
105 175 142
105 175 142
90 140 97
89 140 97
89 140 97
97 161 102
97 161 101
97 161 101
97 161 101
89 140 96
104 174 141
104 174 141
104 174 141
104 174 141
104 174 141
104 174 141
104 174 141
104 174 141
104 174 141
112 195 146
112 195 146
112 195 146
104 174 141
104 174 141
104 174 141
104 174 141
104 174 141
104 174 141
104 174 141
104 174 141
104 174 141
104 174 141
112 195 146
112 195 146
104 174 141
104 174 141
104 174 141
104 174 141
104 174 141
104 174 141
104 174 141
104 174 141
104 174 141
104 174 141
104 174 141
112 195 146
104 174 141
104 174 141
104 174 141
104 174 141
104 174 141
104 174 141
104 174 141
104 174 141
104 174 141
104 174 141
104 174 141
104 174 141
104 174 141
104 174 141
104 174 141
104 174 141
104 174 141
104 174 141
104 174 141
104 174 141
104 174 141
104 174 141
104 174 141
112 195 146
112 195 146
93 157 97
93 157 97
93 157 97
93 157 97
93 157 98
85 136 92
85 136 93
86 136 93
86 137 93
86 137 93
105 175 142
105 175 142
105 175 142
112 195 147
105 175 142
112 195 147
112 195 147
112 195 147
94 158 99
94 158 99
106 175 143
113 195 148
113 195 148
113 195 148
106 175 143
87 138 95
88 138 95
88 138 96
106 175 143
106 175 143
106 175 143
106 175 144
115 195 149
115 195 149
115 195 149
115 195 149
115 195 149
107 176 144
107 176 144
107 176 144
107 176 145
90 139 98
90 139 98
97 159 104
98 159 104
98 159 104
101 163 107
94 143 102
101 163 107
101 163 107
101 163 107
101 163 107
97 159 104
98 159 104
98 159 104
101 163 108
94 143 103
101 163 108
101 163 108
101 163 107
101 163 107
94 143 102
98 159 104
98 159 104
98 160 105
101 163 108
94 143 103
101 163 108
101 163 108
101 163 108
101 163 108
116 196 150
116 196 150
108 176 145
108 176 145
108 176 145
108 176 145
108 176 145
46 67 60
101 163 107
101 163 107
93 143 102
93 143 102
101 163 107
93 143 102
93 143 102
108 176 145
108 176 145
108 176 145
115 195 150
115 195 150
115 195 150
115 196 150
47 72 60
47 72 60
100 162 107
100 162 107
93 143 102
100 162 107
100 162 106
100 162 106
93 142 101
42 62 46
107 176 144
107 176 144
115 195 149
115 195 149
100 162 106
41 61 46
41 61 46
41 61 46
100 162 105
100 162 105
100 162 105
100 162 105
100 162 105
114 195 149
114 195 149
114 195 149
114 195 149
114 195 149
114 195 149
107 175 144
107 175 144
107 175 144
107 175 144
107 175 144
100 162 106
100 162 106
92 142 101
92 142 101
92 142 101
92 142 101
100 162 106
100 162 106
92 142 101
100 162 106
100 162 106
100 162 106
107 176 144
115 195 149
115 195 149
115 195 149
41 61 45
41 61 45
41 61 45
97 159 103
97 159 103
97 159 103
97 159 103
97 159 103
97 159 103
90 139 98
97 159 103
90 139 98
90 139 98
90 139 98
90 139 98
90 139 98
90 139 98
108 176 145
108 176 145
108 176 145
39 55 44
97 159 103
90 139 98
90 139 98
90 139 98
90 139 99
90 139 99
90 139 99
90 139 99
45 67 59
45 67 59
45 67 59
45 67 59
45 67 59
108 176 145
108 176 145
108 176 145
108 176 145
97 159 104
98 159 104
98 159 104
90 140 99
98 159 104
90 140 99
90 140 99
98 159 104
48 74 62
48 73 61
48 73 61
46 67 60
48 73 61
108 176 145
116 196 150
116 196 150
108 176 145
108 176 145
91 140 99
98 160 104
98 160 104
91 140 100
91 140 100
94 143 103
94 143 103
108 176 145
108 176 145
108 176 145
90 140 99
90 140 99
90 140 99
90 140 99
98 159 104
98 159 104
98 159 104
90 140 99
98 159 104
91 140 99
98 159 104
101 163 108
101 163 107
101 163 107
97 159 104
98 159 104
98 159 104
98 159 104
98 159 104
98 159 104
101 163 107
101 163 107
101 163 107
93 143 102
107 176 144
107 176 144
107 176 144
107 176 144
99 162 105
114 195 149
98 161 103
98 161 102
113 195 147
113 195 147
113 195 147
105 175 142
113 195 147
105 175 142
112 195 147
105 175 142
105 175 142
105 175 142
105 175 142
90 140 97
89 140 97
97 161 102
97 161 102
97 161 101
97 161 101
89 140 96
89 140 96
89 140 96
104 174 141
104 174 141
104 174 141
104 174 141
112 195 146
104 174 141
112 195 146
104 174 141
112 195 146
112 195 146
112 195 146
112 195 146
104 174 141
112 195 146
112 195 146
104 174 141
104 174 141
104 174 141
112 195 146
112 195 146
104 174 141
112 195 146
112 195 146
104 174 141
112 195 146
112 195 146
104 174 141
104 174 141
104 174 141
104 174 141
104 174 141
111 195 146
104 174 141
111 195 146
111 195 146
111 195 146
104 174 141
104 174 141
104 174 141
104 174 141
111 195 146
104 174 141
104 174 141
111 195 146
85 136 92
85 136 92
88 140 95
104 174 141
104 174 141
104 174 141
112 195 146
112 195 146
104 174 141
104 174 141
104 174 141
112 195 146
104 174 141
104 174 141
93 157 97
93 157 97
93 157 97
93 157 97
93 157 97
93 157 98
85 136 93
85 136 93
86 136 93
86 137 93
86 137 93
105 175 141
112 195 147
112 195 147
112 195 147
112 195 147
112 195 147
105 175 142
112 195 147
112 195 147
112 195 147
105 175 142
113 195 148
105 175 142
113 195 148
105 175 142
113 195 148
106 175 142
88 138 96
106 175 143
106 175 143
106 175 143
88 138 96
115 195 149
115 195 149
115 195 149
115 195 149
115 195 149
115 195 149
107 176 144
115 195 149
90 139 98
90 139 98
90 139 99
97 159 104
98 159 104
98 159 104
101 163 108
94 143 103
101 163 107
101 163 107
101 163 107
101 163 107
98 159 104
98 159 104
98 159 104
94 143 103
101 163 108
94 143 103
101 163 108
94 143 103
101 163 107
101 163 107
98 159 104
98 160 105
98 160 105
101 163 108
101 163 108
94 143 103
94 143 103
101 163 108
115 196 150
115 196 150
108 176 145
115 196 150
116 196 150
108 176 145
108 176 145
108 176 145
45 67 59
101 163 107
94 143 102
93 143 102
93 143 102
93 143 102
93 143 102
108 176 145
108 176 145
108 176 145
108 176 145
108 176 145
108 176 145
115 195 150
115 195 150
115 195 150
101 162 107
93 143 102
100 162 107
100 162 107
100 162 107
93 143 102
100 162 106
115 195 149
115 195 149
107 175 144
107 175 144
115 195 149
115 195 149
46 71 59
46 71 59
41 61 46
100 162 105
100 162 105
100 162 105
100 162 105
100 162 105
100 162 105
100 162 105
92 142 100
99 162 105
114 195 149
114 195 149
107 175 144
107 175 144
107 175 144
107 175 144
107 175 144
114 195 149
107 175 144
107 175 144
107 175 144
92 142 101
92 142 101
92 142 101
100 162 106
100 162 106
92 142 101
92 142 101
100 162 106
100 162 106
107 175 144
115 195 149
115 195 149
115 195 149
41 61 45
41 61 45
41 61 45
41 61 45
39 55 44
97 159 103
97 159 103
97 159 103
90 139 98
90 139 98
90 139 98
90 139 98
90 139 98
90 139 98
115 195 150
108 176 145
115 195 150
115 195 149
107 176 144
107 176 144
107 176 144
39 55 44
39 55 44
90 139 99
90 139 99
97 159 104
90 139 99
90 139 99
90 139 99
45 67 59
45 67 59
45 67 59
108 176 145
108 176 145
108 176 145
90 139 99
90 140 99
90 140 99
90 140 99
98 159 104
90 140 99
98 159 104
90 140 99
98 159 104
98 159 104
98 159 104
46 67 60
46 67 60
48 73 61
46 67 60
116 196 150
108 176 145
116 196 150
108 176 145
40 56 46
91 140 99
98 160 104
98 160 104
98 160 104
91 140 100
91 140 100
91 140 100
94 143 103
93 143 102
98 159 104
90 140 99
90 140 99
90 140 99
90 140 99
90 140 99
90 140 99
98 159 104
98 159 104
98 159 104
91 140 99
91 140 99
98 160 104
98 160 104
101 163 108
101 163 107
98 159 104
98 159 104
98 159 104
90 140 99
98 159 104
98 159 104
98 159 104
101 163 107
101 163 107
93 143 102
93 142 101
107 176 144
107 176 144
115 195 149
113 195 148
106 175 143
98 161 103
98 161 103
98 161 102
112 195 147
112 195 147
105 175 142
105 175 142
105 175 142
112 195 147
105 175 142
105 175 142
105 175 142
105 175 142
105 175 142
105 175 142
97 161 102
97 161 102
97 161 101
97 161 101
89 140 96
89 140 96
89 140 96
88 140 95
104 174 141
104 174 141
112 195 146
112 195 146
112 195 146
112 195 146
112 195 146
112 195 146
112 195 146
112 195 146
111 195 146
111 195 146
104 174 141
104 174 141
104 174 141
111 195 146
111 195 146
111 195 146
111 195 146
111 195 146
111 195 146
111 195 146
111 195 146
111 195 146
111 195 146
104 174 140
104 174 140
111 195 146
111 195 146
111 195 146
111 195 146
111 195 146
111 195 146
111 195 146
111 195 146
111 195 146
111 195 146
104 174 140
104 174 140
111 195 146
104 174 140
85 136 92
85 136 92
85 136 92
85 136 92
88 140 95
88 139 95
88 139 95
104 174 140
111 195 146
104 174 140
111 195 146
104 174 140
104 174 140
104 174 140
85 136 92
85 136 92
93 157 97
93 157 97
93 157 97
93 157 97
93 157 98
93 157 98
85 136 93
86 136 93
86 137 93
86 137 93
104 175 141
104 175 141
112 195 147
112 195 147
112 195 147
104 175 141
112 195 147
112 195 147
112 195 147
112 195 147
105 175 141
112 195 147
112 195 147
105 175 142
113 195 147
105 175 142
105 175 142
105 175 142
105 175 142
105 175 142
106 175 143
88 138 96
88 138 96
115 195 149
115 195 149
115 195 149
115 195 149
115 195 149
115 195 149
97 159 103
89 139 98
90 139 98
90 139 98
90 139 99
97 159 104
98 159 104
98 159 104
101 163 108
101 163 107
101 163 107
94 143 102
101 163 107
93 143 102
98 159 104
98 159 104
98 160 104
94 143 103
101 163 108
101 163 108
101 163 108
101 163 108
101 163 108
101 163 107
98 159 104
98 160 105
94 143 103
102 163 108
101 163 108
101 163 108
101 163 107
115 196 150
115 196 150
115 196 150
115 196 150
115 196 150
108 176 145
115 196 150
115 196 150
115 196 150
94 143 102
94 143 102
94 143 102
94 143 102
93 143 102
101 163 107
107 176 144
107 176 144
107 176 145
107 176 145
108 176 145
108 176 145
108 176 145
108 176 145
108 176 145
108 176 145
101 163 107
101 162 107
101 162 107
100 162 107
93 143 102
100 162 107
107 175 144
114 195 149
115 195 149
115 195 149
115 195 149
115 195 149
115 195 149
46 71 59
43 65 57
43 65 57
100 162 105
100 162 105
100 162 105
100 162 105
100 162 105
100 162 105
100 162 105
100 162 105
100 162 105
100 162 105
114 195 149
114 195 149
107 175 144
114 195 149
107 175 144
107 175 144
107 175 144
114 195 149
114 195 149
107 175 144
107 175 144
107 175 144
100 162 106
100 162 106
100 162 106
100 162 106
100 162 106
92 142 101
100 162 106
115 195 149
115 195 149
115 195 149
96 159 102
41 61 45
39 55 44
39 55 44
41 61 45
39 55 44
39 55 44
41 61 45
97 159 103
97 159 103
97 159 103
97 159 103
108 176 145
108 176 145
107 176 145
107 176 145
107 176 144
107 176 144
107 176 144
107 176 144
107 176 144
107 176 144
39 55 44
39 55 44
39 55 44
39 55 44
90 139 99
90 139 99
90 139 99
90 139 99
90 139 99
45 66 59
108 176 145
97 159 104
90 139 99
90 140 99
90 140 99
90 140 99
90 140 99
98 159 104
90 140 99
98 159 104
98 159 104
98 159 104
90 140 99
90 140 99
98 159 104
98 159 104
48 73 61
45 67 59
108 176 145
108 176 145
108 176 145
108 176 145
108 176 145
108 176 145
42 62 47
42 62 47
91 140 100
91 140 100
91 140 100
91 140 100
91 140 100
94 143 103
94 143 102
98 159 104
98 159 104
90 140 99
90 140 99
90 140 99
90 140 99
90 140 99
98 159 104
98 159 104
98 159 104
98 160 104
98 160 104
98 160 104
116 196 150
101 163 108
101 163 107
98 159 104
90 140 99
90 140 99
98 159 104
98 159 104
90 140 99
116 196 150
101 163 107
101 163 107
93 143 102
93 142 101
107 175 144
107 175 144
98 161 104
113 195 148
113 195 148
98 161 103
98 161 103
112 195 147
112 195 147
112 195 147
105 175 142
105 175 142
105 175 142
105 175 142
105 175 142
105 175 142
105 175 141
105 175 141
105 175 141
105 175 141
112 195 147
97 161 102
97 161 102
97 161 101
89 140 96
89 140 96
89 140 96
89 140 95
88 140 95
104 174 141
104 174 141
111 195 146
111 195 146
104 174 141
111 195 146
111 195 146
104 174 140
111 195 146
111 195 146
111 195 146
111 195 146
104 174 140
111 195 146
111 195 146
111 195 146
111 195 146
111 195 146
104 174 140
111 195 146
111 195 146
111 195 146
111 195 146
111 195 146
111 195 146
111 195 146
111 195 146
111 195 146
111 195 146
111 195 146
111 195 146
111 195 146
111 195 146
111 195 146
111 195 146
111 195 146
103 174 140
103 174 140
103 174 140
85 136 92
85 136 92
85 136 92
85 136 92
85 136 92
88 140 95
88 140 95
88 139 95
88 139 95
104 174 140
104 174 140
104 174 140
104 174 140
85 136 92
85 136 92
85 136 92
85 136 92
93 157 97
93 157 97
93 157 97
93 157 98
93 157 98
93 157 98
85 136 93
86 136 93
104 175 141
104 175 141
112 195 146
104 175 141
112 195 147
104 175 141
112 195 147
112 195 147
112 195 147
112 195 147
104 175 141
112 195 147
112 195 147
94 157 98
94 157 98
105 175 142
105 175 142
105 175 142
105 175 142
105 175 142
105 175 142
105 175 142
105 175 142
87 137 95
88 138 97
107 175 144
107 175 144
115 195 149
115 195 149
115 195 149
97 159 103
97 159 103
90 139 98
90 139 98
90 139 99
97 159 104
98 159 104
115 196 150
115 196 150
115 196 150
115 196 150
101 163 107
101 163 107
101 163 107
94 143 102
98 159 104
98 159 104
116 196 150
116 196 150
116 196 150
101 163 108
101 163 108
101 163 108
101 163 108
98 159 104
98 160 104
116 196 150
116 196 150
116 196 151
102 163 108
101 163 108
101 163 107
101 163 107
101 163 107
115 196 150
115 196 150
115 196 150
115 196 150
115 196 150
115 196 150
108 176 145
115 196 150
108 176 145
94 143 102
94 143 102
41 57 46
93 142 101
100 162 106
93 142 101
107 176 144
107 176 144
107 176 144
107 176 145
107 176 145
107 176 145
108 176 145
115 195 150
115 195 150
115 195 150
101 162 107
101 162 107
101 162 107
107 175 144
114 195 149
107 175 144
107 175 144
107 175 144
114 195 149
107 175 144
107 175 144
115 195 149
45 71 58
46 71 58
100 162 105
92 142 100
100 162 105
92 142 100
92 142 100
92 142 100
100 162 105
92 142 100
38 54 43
114 195 149
114 195 149
114 195 149
114 195 149
114 195 149
107 175 144
107 175 144
114 195 149
107 175 144
107 175 144
114 195 149
107 175 144
114 195 149
114 195 149
107 175 144
114 195 149
92 142 101
100 162 106
100 162 106
92 142 101
96 159 102
89 139 97
96 159 102
89 139 97
97 159 102
41 61 45
41 61 45
41 61 45
41 61 45
41 61 45
41 61 46
39 55 44
44 66 58
115 195 150
115 195 150
107 176 145
115 195 149
107 176 144
107 176 144
107 176 144
107 176 144
107 176 144
107 176 144
89 139 98
89 139 98
89 139 98
39 55 44
39 55 44
41 61 46
39 55 45
41 61 46
90 139 99
90 139 99
108 176 145
39 56 45
97 159 104
97 159 104
98 159 104
90 140 99
98 159 104
90 140 99
90 140 99
90 140 99
90 140 99
98 159 104
98 159 104
90 140 99
98 159 104
98 159 104
98 159 104
98 159 104
116 196 150
108 176 145
115 196 150
115 196 150
108 176 145
108 176 145
108 176 145
108 176 145
108 176 145
40 57 46
40 57 46
91 140 100
98 160 105
98 160 105
91 140 100
94 143 103
94 143 103
90 140 99
98 159 104
98 159 104
90 140 99
90 140 99
90 140 99
90 140 99
98 159 104
91 140 99
91 140 99
116 196 150
116 196 150
116 196 150
116 196 150
116 196 150
101 163 107
98 159 104
98 159 104
98 159 104
98 159 104
115 196 150
115 196 150
115 196 150
115 196 150
101 163 107
107 175 144
107 175 144
107 175 144
107 175 144
98 161 104
98 161 103
112 195 147
112 195 147
112 195 147
112 195 147
112 195 147
112 195 147
112 195 147
105 175 141
105 175 141
105 175 141
104 175 141
104 175 141
104 175 141
112 195 147
104 175 141
112 195 147
112 195 147
104 175 141
97 161 102
97 161 101
89 140 96
89 140 96
89 140 96
89 140 96
88 140 95
96 160 100
96 160 100
111 195 146
111 195 146
111 195 146
111 195 146
111 195 146
111 195 146
111 195 146
111 195 146
93 157 97
93 157 97
96 160 100
96 160 100
111 195 146
111 195 146
111 195 146
111 195 146
111 195 146
111 195 146
111 195 146
111 195 146
111 195 146
92 157 97
92 157 97
96 160 100
111 195 146
111 195 146
111 195 146
111 195 146
111 195 146
111 195 146
111 195 146
111 195 146
111 195 146
111 195 146
111 195 146
85 136 91
85 136 91
85 136 92
85 136 92
85 136 92
85 136 92
85 136 92
88 140 95
88 140 95
88 139 95
88 139 95
88 139 95
88 139 95
85 136 91
85 136 91
85 136 92
85 136 92
85 136 92
85 136 92
93 157 97
93 157 97
93 157 97
93 157 98
93 157 98
93 157 98
86 136 93
112 195 146
104 175 141
112 195 146
112 195 146
104 175 141
104 175 141
104 175 141
104 175 141
104 175 141
112 195 146
104 175 141
112 195 146
94 157 98
94 157 98
94 157 98
113 195 147
105 175 142
105 175 142
105 175 142
105 175 142
105 175 142
105 175 142
87 137 94
87 137 95
88 138 96
88 138 97
107 175 144
107 175 144
107 175 144
114 195 149
97 159 103
97 159 103
97 159 103
90 139 98
90 139 98
90 139 99
97 159 104
115 196 150
115 196 150
115 196 150
115 196 150
115 196 150
115 196 150
115 196 150
115 196 150
101 163 107
115 196 150
116 196 150
116 196 150
116 196 150
116 196 150
116 196 150
116 196 150
101 163 108
101 163 108
98 159 104
116 196 150
116 196 150
108 176 145
116 196 150
116 196 150
48 73 61
93 143 102
93 143 102
101 163 107
101 163 107
93 143 102
115 195 150
115 195 150
108 176 145
108 176 145
108 176 145
108 176 145
108 176 145
108 176 145
45 67 59
41 57 46
100 162 106
93 142 101
93 142 101
93 142 101
93 142 101
93 142 101
107 176 144
107 176 144
107 176 144
115 195 149
115 195 149
115 195 150
115 195 150
115 195 150
46 72 59
107 175 144
107 175 144
107 175 144
107 175 144
107 175 144
114 195 149
107 175 144
107 175 144
107 175 144
114 195 149
43 65 57
100 162 106
100 162 106
100 162 105
100 162 105
92 142 100
100 162 105
92 142 100
100 162 105
40 60 45
114 195 148
114 195 148
114 195 148
106 175 143
114 195 149
114 195 149
114 195 149
114 195 149
114 195 149
114 195 149
114 195 149
107 175 144
114 195 149
114 195 149
114 195 149
114 195 149
114 195 149
114 195 149
107 175 144
114 195 149
100 162 106
89 139 97
97 159 102
97 159 102
89 139 97
89 139 97
41 61 45
39 55 44
41 61 46
41 61 46
44 66 58
46 72 59
44 66 58
46 72 59
115 195 149
115 195 149
107 176 144
115 195 149
107 176 144
115 195 149
115 195 149
89 139 98
89 139 98
89 139 98
89 139 98
97 159 103
89 139 98
41 61 46
41 61 46
39 55 45
39 55 45
45 66 58
44 66 58
108 176 145
108 176 145
108 176 145
39 56 45
39 56 45
90 140 99
90 140 99
90 140 99
98 159 104
98 159 104
90 140 99
98 159 104
98 159 104
98 159 104
90 140 99
90 140 99
98 159 104
108 176 145
115 196 150
115 196 150
108 176 145
108 176 145
108 176 145
108 176 145
108 176 145
108 176 145
108 176 145
97 159 104
90 139 99
40 57 46
40 57 46
40 57 46
91 140 100
91 140 100
108 176 146
94 143 103
90 140 99
90 140 99
90 140 99
90 140 99
90 140 99
90 140 99
90 140 99
98 159 104
116 196 150
116 196 150
116 196 150
116 196 150
116 196 150
116 196 150
108 176 145
115 196 150
98 159 104
108 176 145
115 196 150
115 196 150
115 196 150
115 196 150
107 175 144
107 175 144
107 175 144
107 175 144
107 175 144
107 175 144
114 195 148
112 195 147
112 195 147
105 175 141
112 195 147
112 195 147
112 195 147
112 195 147
104 175 141
104 175 141
112 195 147
104 175 141
104 175 141
104 175 141
112 195 147
112 195 147
112 195 147
112 195 146
112 195 146
112 195 146
112 195 146
112 195 146
97 161 101
97 161 101
89 140 96
89 140 96
89 140 96
89 140 95
96 160 101
96 160 100
96 160 100
103 174 140
111 195 146
111 195 146
111 195 146
111 195 146
92 157 97
92 157 97
93 157 97
93 157 97
96 160 100
96 160 100
96 160 100
111 195 146
111 195 146
103 174 140
111 195 146
103 174 140
111 195 146
92 157 97
92 157 97
92 157 97
93 157 97
96 160 100
96 160 100
111 195 146
111 195 145
111 195 145
111 195 145
111 195 145
111 195 145
111 195 145
103 174 140
92 157 97
92 157 97
85 136 91
85 136 92
85 136 92
85 136 92
85 136 92
85 136 92
85 136 92
89 140 95
88 140 95
88 140 95
88 139 95
88 139 95
88 139 95
85 136 91
85 136 92
85 136 92
85 136 92
85 136 92
85 136 92
93 157 97
93 157 97
93 157 98
93 157 98
93 157 98
104 174 141
104 174 141
104 174 141
104 175 141
112 195 146
104 175 141
104 175 141
104 175 141
112 195 146
112 195 146
104 175 141
104 175 141
112 195 146
93 157 98
94 157 98
94 157 98
94 157 98
105 175 142
113 195 147
113 195 147
105 175 142
105 175 142
105 175 142
87 137 94
87 137 95
87 137 95
106 175 143
106 175 143
107 175 144
114 195 149
114 195 149
114 195 149
114 195 149
114 195 149
97 159 103
90 139 98
90 139 99
108 176 145
115 195 150
108 176 145
115 196 150
108 176 145
115 196 150
115 196 150
115 196 150
115 196 150
115 196 150
108 176 145
108 176 145
115 196 150
115 196 150
115 196 150
108 176 145
116 196 150
116 196 150
116 196 150
116 196 150
108 176 145
116 196 150
116 196 150
116 196 150
116 196 150
116 196 150
48 73 61
101 163 107
93 143 102
101 163 107
101 163 107
101 163 107
101 163 107
101 163 107
93 143 102
108 176 145
108 176 145
108 176 145
108 176 145
108 176 145
45 66 59
45 67 59
93 143 102
93 143 101
100 162 106
93 142 101
93 142 101
93 142 101
93 142 101
100 162 106
115 195 149
115 195 149
115 195 149
115 195 149
115 195 149
46 72 59
92 142 100
92 142 100
107 175 144
107 175 144
107 175 144
107 175 144
107 175 144
107 175 144
114 195 149
107 175 144
107 175 144
107 175 144
100 162 106
92 142 101
100 162 106
100 162 106
100 162 105
100 162 105
41 60 45
41 60 45
99 162 105
114 195 148
114 195 148
106 175 143
114 195 148
114 195 148
106 175 143
114 195 149
114 195 149
114 195 149
114 195 149
114 195 149
114 195 149
114 195 149
114 195 149
114 195 149
114 195 149
114 195 149
107 175 144
114 195 149
107 175 144
114 195 149
89 139 97
97 159 102
97 159 102
89 139 97
97 159 102
97 159 102
46 72 59
44 66 58
46 72 59
46 72 59
46 72 59
46 72 59
115 195 149
115 195 149
115 195 149
115 195 149
107 175 144
97 159 103
97 159 103
89 139 98
89 139 98
97 159 103
89 139 98
89 139 98
89 139 98
97 159 103
39 55 45
45 66 58
44 66 58
44 66 58
44 66 58
44 66 58
44 66 58
108 176 145
108 176 145
42 62 46
42 62 46
40 56 45
40 56 45
90 140 99
90 140 99
90 140 99
90 140 99
98 159 104
90 140 99
98 159 104
115 196 150
115 196 150
115 196 150
115 196 150
115 196 150
115 196 150
108 176 145
108 176 145
115 196 150
108 176 145
108 176 145
90 139 99
90 139 99
90 139 99
98 159 104
40 57 46
40 57 46
46 68 60
46 67 60
108 176 146
108 176 145
108 176 145
94 143 103
90 140 99
90 140 99
90 140 99
98 159 104
108 176 145
108 176 145
108 176 145
116 196 150
108 176 145
115 196 150
115 196 150
115 196 150
115 196 150
115 196 150
108 176 145
108 176 145
115 196 150
115 196 150
115 196 150
115 196 150
92 142 101
107 175 144
107 175 144
107 175 144
106 175 143
106 175 143
114 195 148
97 161 102
104 175 141
112 195 147
112 195 147
104 175 141
104 175 141
112 195 147
112 195 147
112 195 147
112 195 147
104 175 141
104 175 141
112 195 146
112 195 146
112 195 146
112 195 146
112 195 146
112 195 146
112 195 146
112 195 146
112 195 146
112 195 146
112 195 146
112 195 146
89 140 96
89 140 96
89 140 96
89 140 96
96 160 101
96 160 100
96 160 100
96 160 100
111 195 146
92 157 97
92 157 97
92 157 97
92 157 97
93 157 97
93 157 97
93 157 97
96 160 100
96 160 100
96 160 100
96 160 100
96 160 100
111 195 145
111 195 145
92 157 96
92 157 96
92 157 97
92 157 97
92 157 97
93 157 97
96 160 100
96 160 100
96 160 100
96 160 100
111 195 145
111 195 145
111 195 145
111 195 145
92 157 96
92 157 96
92 157 97
92 157 97
85 136 91
85 136 92
85 136 92
85 136 92
85 136 92
85 136 92
85 136 92
89 140 96
88 140 95
88 140 95
88 139 95
88 139 95
88 139 95
85 136 92
85 136 92
85 136 92
85 136 92
85 136 92
85 136 92
93 157 97
93 157 97
93 157 98
104 174 141
112 195 146
112 195 146
112 195 146
112 195 146
104 174 141
104 174 141
104 174 141
104 174 141
104 174 141
104 174 141
104 174 141
104 174 141
112 195 146
112 195 146
112 195 146
94 157 98
94 157 98
94 157 99
105 175 142
113 195 147
113 195 147
113 195 147
105 175 142
105 175 142
87 137 94
87 137 95
87 137 95
106 175 143
106 175 143
106 175 143
106 175 143
114 195 149
114 195 149
114 195 149
114 195 149
114 195 149
114 195 149
108 176 145
115 195 150
108 176 145
108 176 145
108 176 145
108 176 145
115 195 150
115 195 150
115 195 150
108 176 145
108 176 145
108 176 145
108 176 145
108 176 145
108 176 145
115 196 150
115 196 150
115 196 150
115 196 150
108 176 145
108 176 145
115 196 150
108 176 145
108 176 145
116 196 150
116 196 150
116 196 150
101 163 107
101 163 107
101 163 107
93 143 102
101 163 107
101 163 107
101 163 107
93 143 102
93 143 102
101 163 107
101 163 107
115 195 150
108 176 145
108 176 145
45 66 58
93 143 102
93 143 102
93 143 102
100 162 106
100 162 106
93 142 101
100 162 106
93 142 101
107 175 144
107 175 144
107 176 144
107 176 144
115 195 149
46 71 59
46 71 59
92 142 100
92 142 100
92 142 100
92 142 100
107 175 144
107 175 144
114 195 149
107 175 144
107 175 144
107 175 144
107 175 144
114 195 149
107 175 144
114 195 149
107 175 144
100 162 106
92 142 100
41 61 45
41 61 45
38 54 43
92 142 100
99 162 105
99 162 105
91 142 100
114 195 148
106 175 143
114 195 148
114 195 148
114 195 148
114 195 148
114 195 149
114 195 149
106 175 144
107 175 144
107 175 144
114 195 149
114 195 149
114 195 149
107 175 144
114 195 149
114 195 149
114 195 149
97 159 102
97 159 102
97 159 102
89 139 97
97 159 103
89 139 98
46 72 59
46 72 59
44 66 58
46 71 59
44 65 57
115 195 149
115 195 149
107 175 144
107 175 144
115 195 149
107 175 144
38 54 43
89 139 98
89 139 98
97 159 103
97 159 103
89 139 98
89 139 98
89 139 98
97 159 103
89 139 98
44 66 58
44 66 58
44 66 58
44 66 58
108 176 145
108 176 145
108 176 145
107 176 145
115 195 149
40 56 45
40 56 45
40 56 45
42 62 47
40 56 45
90 140 99
90 140 99
108 176 145
115 196 150
115 196 150
115 196 150
115 196 150
115 196 150
115 196 150
115 196 150
115 196 150
115 195 150
108 176 145
90 139 99
90 139 99
90 139 99
97 159 104
90 140 99
90 140 99
90 140 99
46 67 60
46 67 60
46 67 60
46 67 60
45 67 60
108 176 145
108 176 145
94 143 103
90 140 99
116 196 150
108 176 145
108 176 145
108 176 145
108 176 145
108 176 145
108 176 145
115 196 150
115 196 150
115 196 150
108 176 145
108 176 145
108 176 145
108 176 145
108 176 145
108 176 145
115 195 150
115 195 150
115 195 150
115 195 150
92 142 101
106 175 143
106 175 143
106 175 143
106 175 143
106 175 143
97 161 102
97 161 102
112 195 147
112 195 147
112 195 147
112 195 146
104 175 141
112 195 146
112 195 146
104 175 141
104 175 141
104 175 141
104 175 141
104 175 141
112 195 146
112 195 146
112 195 146
112 195 146
104 175 141
112 195 146
112 195 146
112 195 146
112 195 146
104 174 141
104 174 141
89 140 96
89 140 96
89 140 96
96 161 101
96 160 101
96 160 100
96 160 100
96 160 100
92 157 97
92 157 97
92 157 97
93 157 97
93 157 97
93 157 97
93 157 97
96 160 101
96 160 100
96 160 100
96 160 100
96 160 100
96 160 100
92 157 96
92 157 96
92 157 97
92 157 97
92 157 97
93 157 97
93 157 97
96 160 100
96 160 100
96 160 100
96 160 100
96 160 100
96 160 100
92 157 96
92 157 96
92 157 96
92 157 97
92 157 97
92 157 97
85 136 92
85 136 92
85 136 92
85 136 92
85 136 92
85 136 92
85 136 92
89 140 96
89 140 95
88 140 95
88 140 95
88 139 95
88 139 95
85 136 92
85 136 92
85 136 92
85 136 92
85 136 92
85 136 92
93 157 97
112 195 146
112 195 146
104 174 141
104 174 141
112 195 146
112 195 146
112 195 146
112 195 146
112 195 146
104 174 141
104 174 141
104 174 141
104 174 141
112 195 146
112 195 146
112 195 146
112 195 146
112 195 146
112 195 146
112 195 146
94 157 99
113 195 147
113 195 147
105 175 142
105 175 142
105 175 142
105 175 142
105 175 142
105 175 142
87 138 95
106 175 143
106 175 143
106 175 143
88 138 96
114 195 149
114 195 149
114 195 149
114 195 149
114 195 149
114 195 149
114 195 149
108 176 145
108 176 145
108 176 145
108 176 145
108 176 145
108 176 145
108 176 145
115 195 150
108 176 145
108 176 145
108 176 145
108 176 145
108 176 145
108 176 145
108 176 145
108 176 145
115 196 150
108 176 145
108 176 145
108 176 145
108 176 145
108 176 145
108 176 145
108 176 145
108 176 145
116 196 150
94 143 102
101 163 107
101 163 107
101 163 107
101 163 107
93 143 102
101 163 107
93 143 102
93 143 102
93 143 102
93 143 102
93 143 102
93 143 102
108 176 145
108 176 145
93 143 102
100 162 107
100 162 107
93 143 102
100 162 106
93 142 101
39 56 45
107 175 144
107 175 144
107 175 144
107 175 144
107 175 144
43 65 57
43 65 57
46 71 59
92 142 100
100 162 105
99 162 105
92 142 100
92 142 100
92 142 100
92 142 100
114 195 149
114 195 149
107 175 144
114 195 149
114 195 149
114 195 149
107 175 144
114 195 149
107 175 144
45 71 58
41 61 45
41 61 45
99 162 105
92 142 100
99 162 105
99 162 105
99 162 105
91 142 100
99 162 105
99 162 105
114 195 148
114 195 148
114 195 148
114 195 148
106 175 143
114 195 148
114 195 149
106 175 143
106 175 144
107 175 144
107 175 144
107 175 144
114 195 149
114 195 149
114 195 149
97 159 103
97 159 103
97 159 103
97 159 103
97 159 103
97 159 103
44 65 57
46 71 59
46 71 59
115 195 149
115 195 149
107 175 144
107 175 144
107 175 144
107 175 144
107 175 144
107 175 144
40 60 45
38 54 43
38 54 43
89 139 98
89 139 98
89 139 98
97 159 103
89 139 98
97 159 103
89 139 98
44 66 58
44 66 58
44 66 58
107 176 145
107 176 145
115 195 149
115 195 149
115 195 149
115 195 149
115 195 149
40 56 45
40 56 45
40 56 45
42 62 47
45 67 59
108 176 145
108 176 145
115 196 150
115 196 150
115 196 150
115 196 150
115 196 150
115 195 150
115 195 150
90 139 99
90 139 99
97 159 104
97 159 104
90 139 99
90 139 99
90 140 99
90 140 99
98 159 104
90 140 99
90 140 99
45 67 60
45 67 59
45 67 59
108 176 145
108 176 145
108 176 145
108 176 145
108 176 145
108 176 145
108 176 145
108 176 145
108 176 145
108 176 145
108 176 145
108 176 145
108 176 145
108 176 145
108 176 145
108 176 145
115 195 150
108 176 145
108 176 145
108 176 145
108 176 145
115 195 150
115 195 150
108 176 145
106 175 143
106 175 143
106 175 143
106 175 143
106 175 143
106 175 143
113 195 147
113 195 147
97 161 102
97 161 102
112 195 146
112 195 146
112 195 146
112 195 146
104 175 141
104 175 141
104 175 141
104 175 141
104 175 141
104 174 141
104 174 141
104 174 141
112 195 146
112 195 146
112 195 146
112 195 146
104 174 141
104 174 141
104 174 141
112 195 146
104 174 141
104 174 141
112 195 146
89 140 96
89 140 96
96 161 101
96 160 101
96 160 100
96 160 100
96 160 100
92 157 97
92 157 97
93 157 97
93 157 97
93 157 97
93 157 97
93 157 97
93 157 97
96 160 100
96 160 100
96 160 100
96 160 100
96 160 100
92 157 96
92 157 97
92 157 97
92 157 97
93 157 97
93 157 97
93 157 97
96 160 100
96 160 100
96 160 100
96 160 100
96 160 100
96 160 100
92 157 96
92 157 96
92 157 97
92 157 97
92 157 97
93 157 97
85 136 92
85 136 92
85 136 92
85 136 92
85 136 92
85 136 92
112 195 146
89 140 96
89 140 96
88 140 95
88 140 95
88 139 95
88 139 95
85 136 92
85 136 92
85 136 92
85 136 92
85 136 92
85 136 92
104 174 141
112 195 146
112 195 146
112 195 146
112 195 146
112 195 146
112 195 146
104 174 141
112 195 146
112 195 146
112 195 146
112 195 146
112 195 146
112 195 146
112 195 146
104 174 141
112 195 146
112 195 146
112 195 146
112 195 146
104 174 141
104 174 141
112 195 146
105 175 142
105 175 142
105 175 142
105 175 142
105 175 142
105 175 142
105 175 142
105 175 142
105 175 142
87 138 95
88 138 95
88 138 96
107 175 144
114 195 149
114 195 149
114 195 149
114 195 149
96 159 102
96 159 102
107 176 145
107 176 145
108 176 145
108 176 145
108 176 145
108 176 145
115 195 150
115 195 150
115 195 150
108 176 145
108 176 145
115 195 150
108 176 145
108 176 145
108 176 145
108 176 145
108 176 145
115 196 150
108 176 145
108 176 145
108 176 145
108 176 145
108 176 145
108 176 145
108 176 145
108 176 145
115 196 150
101 163 107
101 163 107
101 163 107
101 163 107
93 143 102
101 163 107
101 163 107
93 143 102
93 143 102
93 143 102
93 143 102
93 143 102
93 143 102
93 143 102
108 176 145
101 162 107
93 143 102
93 143 102
93 143 102
114 195 149
114 195 149
107 175 144
107 175 144
107 175 144
107 175 144
107 175 144
43 65 57
43 65 57
92 142 100
92 142 100
92 142 100
92 142 100
92 142 100
92 142 100
99 162 105
92 142 100
92 142 100
92 142 100
114 195 149
114 195 149
114 195 149
107 175 144
107 175 144
114 195 149
114 195 149
43 64 56
43 64 56
43 64 56
99 162 105
99 162 105
99 162 105
99 162 105
92 142 100
99 162 105
99 162 105
99 162 105
99 162 105
99 162 105
114 195 148
106 175 143
106 175 143
106 175 143
106 175 143
106 175 143
106 175 143
114 195 148
106 175 143
114 195 149
107 175 144
107 175 144
114 195 149
38 54 43
40 60 44
89 139 98
97 159 103
97 159 103
97 159 103
97 159 103
46 71 59
107 175 144
107 175 144
107 175 144
107 175 144
107 175 144
107 175 144
107 175 144
114 195 149
114 195 149
114 195 149
38 54 43
38 54 43
38 54 43
38 54 43
89 139 98
89 139 98
89 139 98
89 139 98
97 159 103
44 66 58
44 66 58
107 176 144
115 195 149
115 195 149
115 195 149
115 195 149
115 195 149
115 195 149
115 195 149
40 56 45
45 67 59
45 67 59
45 67 59
45 67 59
45 67 59
108 176 145
108 176 145
108 176 145
115 195 150
115 195 150
97 159 104
97 159 104
97 159 104
97 159 104
97 159 104
97 159 104
90 139 99
90 139 99
90 140 99
90 140 99
98 159 104
90 140 99
98 159 104
90 140 99
45 67 59
108 176 145
116 196 150
115 196 150
115 196 150
108 176 145
115 196 150
115 196 150
108 176 145
108 176 145
108 176 145
108 176 145
115 196 150
115 196 150
115 196 150
115 195 150
115 195 150
108 176 145
115 195 150
108 176 145
108 176 145
108 176 145
108 176 145
115 195 150
115 195 150
115 195 150
106 175 143
106 175 143
106 175 143
106 175 143
106 175 143
105 175 142
113 195 147
113 195 147
113 195 147
97 161 102
97 161 102
97 161 102
112 195 146
104 175 141
104 174 141
104 174 141
104 174 141
104 174 141
112 195 146
104 174 141
112 195 146
104 174 141
104 174 141
104 174 141
104 174 141
104 174 141
104 174 141
104 174 141
104 174 141
104 174 141
112 195 146
112 195 146
104 174 141
104 174 141
104 174 141
89 140 96
96 161 101
96 161 101
96 160 101
96 160 100
96 160 100
92 157 97
92 157 97
93 157 97
93 157 97
93 157 97
93 157 97
93 157 97
93 157 97
96 160 101
96 160 100
96 160 100
96 160 100
96 160 100
92 157 96
92 157 97
92 157 97
92 157 97
93 157 97
93 157 97
93 157 97
96 160 100
96 160 100
96 160 100
96 160 100
96 160 100
96 160 100
92 157 96
92 157 96
92 157 97
92 157 97
93 157 97
93 157 97
85 136 92
85 136 92
85 136 92
85 136 92
112 195 146
104 174 141
112 195 146
104 174 141
104 174 141
89 140 95
88 140 95
88 140 95
88 139 95
85 136 92
85 136 92
85 136 92
85 136 92
112 195 146
104 174 141
104 174 141
104 174 141
104 174 141
104 174 141
112 195 146
112 195 146
112 195 146
112 195 146
112 195 146
112 195 146
112 195 146
104 174 141
104 174 141
112 195 146
112 195 146
112 195 146
112 195 146
112 195 146
112 195 146
112 195 146
112 195 146
112 195 146
112 195 146
112 195 146
105 175 142
105 175 142
105 175 142
105 175 142
105 175 142
105 175 142
105 175 142
105 175 142
105 175 142
88 138 96
88 138 96
106 175 144
107 175 144
107 175 144
114 195 149
96 159 102
96 159 102
96 159 102
115 195 149
115 195 149
107 176 144
107 176 144
115 195 149
115 195 150
115 195 150
115 195 150
115 195 150
108 176 145
115 195 150
108 176 145
108 176 145
115 195 150
115 195 150
115 195 150
115 195 150
115 195 150
115 195 150
115 195 150
108 176 145
108 176 145
108 176 145
115 196 150
115 196 150
115 196 150
115 196 150
115 196 150
115 196 150
101 163 107
94 143 102
93 143 102
101 163 107
93 143 102
93 143 102
93 143 102
93 143 102
93 143 102
93 143 102
107 176 145
107 176 145
108 176 145
108 176 145
108 176 145
93 143 102
114 195 149
114 195 149
114 195 149
114 195 149
114 195 149
107 175 144
107 175 144
107 175 144
107 175 144
43 65 57
100 162 105
92 142 100
92 142 100
92 142 100
92 142 100
92 142 100
92 142 100
92 142 100
99 162 105
114 195 149
106 175 143
106 175 144
107 175 144
114 195 149
114 195 149
114 195 149
114 195 149
45 70 57
45 70 57
43 64 56
92 142 100
99 162 105
99 162 105
99 162 105
92 142 100
92 142 100
99 162 105
91 142 100
99 162 105
99 162 105
114 195 148
114 195 148
114 195 148
106 175 143
106 175 143
106 175 143
114 195 148
114 195 148
114 195 148
106 175 143
106 175 143
106 175 143
114 195 149
38 54 43
40 60 45
38 54 43
40 60 45
89 139 98
115 195 149
115 195 149
107 175 144
115 195 149
107 175 144
107 175 144
107 175 144
107 175 144
107 175 144
107 175 144
107 175 144
114 195 149
107 175 144
38 54 43
38 54 43
38 55 43
41 61 45
38 55 44
41 61 45
38 55 44
89 139 98
89 139 98
107 176 144
115 195 149
115 195 149
115 195 149
115 195 149
115 195 149
115 195 149
115 195 149
115 195 149
115 195 149
115 195 149
45 67 59
45 67 59
45 66 59
45 66 59
45 66 58
108 176 145
108 176 145
108 176 145
97 159 104
90 139 99
97 159 104
97 159 104
90 139 99
97 159 104
97 159 104
97 159 104
98 159 104
90 140 99
90 140 99
90 140 99
90 140 99
90 140 99
90 140 99
98 159 104
108 176 145
115 196 150
115 196 150
115 196 150
115 196 150
108 176 145
115 196 150
115 196 150
115 196 150
115 196 150
108 176 145
115 195 150
115 195 150
115 195 150
115 195 150
115 195 150
115 195 150
108 176 145
108 176 145
108 176 145
108 176 145
115 195 150
115 195 150
115 195 150
115 195 150
115 195 150
91 141 99
106 175 143
113 195 147
105 175 142
105 175 142
105 175 142
105 175 142
113 195 147
105 175 142
97 161 102
112 195 146
112 195 146
104 174 141
104 174 141
104 174 141
104 174 141
104 174 141
104 174 141
112 195 146
104 174 141
104 174 141
112 195 146
104 174 141
112 195 146
104 174 141
104 174 141
104 174 141
104 174 141
104 174 141
104 174 141
104 174 141
112 195 146
104 174 141
104 174 141
112 195 146
104 174 141
112 195 146
96 161 101
96 160 101
96 160 100
96 160 100
92 157 97
93 157 97
93 157 97
93 157 97
93 157 97
93 157 97
93 157 97
93 157 97
96 160 101
96 160 100
96 160 100
96 160 100
96 160 100
92 157 97
92 157 97
92 157 97
93 157 97
93 157 97
93 157 97
93 157 97
96 160 100
96 160 100
96 160 100
96 160 100
96 160 100
96 160 100
92 157 96
92 157 97
92 157 97
92 157 97
93 157 97
93 157 97
85 136 92
85 136 92
104 174 141
104 174 141
112 195 146
104 174 141
104 174 141
104 174 141
104 174 141
104 174 141
104 174 141
88 140 95
88 139 95
85 136 92
85 136 92
104 174 141
104 174 141
104 174 141
104 174 141
104 174 141
104 174 141
104 174 141
104 174 141
112 195 146
112 195 146
104 174 141
112 195 146
104 174 141
112 195 146
104 174 141
104 174 141
104 174 141
104 174 141
104 174 141
112 195 146
112 195 146
104 174 141
112 195 146
112 195 146
112 195 146
104 174 141
93 157 97
93 157 98
105 175 142
105 175 142
105 175 142
105 175 142
113 195 147
105 175 142
113 195 147
105 175 142
113 195 147
113 195 147
113 195 147
106 175 143
106 175 143
114 195 148
114 195 149
114 195 149
96 159 102
96 159 102
115 195 149
115 195 149
115 195 149
107 176 144
115 195 149
115 195 149
115 195 149
115 195 149
115 195 149
115 195 149
115 195 150
115 195 150
115 195 150
115 195 150
115 195 150
115 195 150
115 195 150
115 195 150
108 176 145
115 195 150
115 195 150
115 195 150
108 176 145
115 195 150
115 195 150
115 196 150
108 176 145
115 196 150
115 196 150
115 196 150
108 176 145
115 196 150
101 163 107
101 163 107
93 143 102
93 143 102
101 163 107
93 143 102
107 176 144
115 195 149
107 176 144
107 176 144
107 176 145
107 176 145
114 195 149
114 195 149
114 195 149
114 195 149
114 195 149
114 195 149
114 195 149
114 195 149
107 175 144
107 175 144
43 65 57
92 142 100
92 142 100
100 162 105
92 142 100
100 162 105
92 142 100
99 162 105
40 60 44
114 195 148
106 175 143
106 175 143
114 195 148
106 175 143
114 195 149
106 175 144
114 195 149
114 195 149
114 195 149
45 70 57
99 162 105
99 162 105
99 162 105
99 162 105
99 162 105
99 162 105
99 162 105
99 162 105
92 142 100
37 53 42
114 195 148
114 195 148
114 195 148
114 195 148
114 195 148
114 195 148
106 175 143
106 175 143
106 175 143
106 175 143
106 175 143
106 175 143
114 195 148
114 195 148
40 60 45
38 54 43
46 71 59
46 71 58
46 71 58
107 175 144
107 175 144
115 195 149
107 175 144
107 175 144
107 175 144
107 175 144
107 175 144
114 195 149
114 195 149
114 195 149
114 195 149
107 175 144
107 175 144
38 55 44
38 55 44
38 55 44
38 55 44
41 61 45
44 66 58
44 66 57
107 176 144
107 176 144
115 195 149
115 195 149
115 195 149
115 195 149
115 195 149
115 195 149
115 195 149
89 139 97
97 159 102
97 159 103
45 66 59
45 66 58
44 66 58
44 66 58
44 66 58
47 72 60
115 195 150
115 195 150
115 195 150
41 61 46
90 139 99
97 159 104
97 159 104
97 159 104
97 159 104
98 159 104
98 159 104
90 140 99
90 140 99
98 159 104
98 159 104
90 140 99
108 176 145
108 176 145
108 176 145
115 196 150
115 196 150
115 196 150
115 196 150
115 196 150
115 196 150
115 195 150
115 195 150
108 176 145
115 195 150
115 195 150
115 195 150
115 195 150
115 195 150
115 195 150
115 195 150
115 195 150
108 176 145
115 195 150
115 195 150
115 195 150
115 195 149
115 195 149
107 175 144
107 175 144
113 195 147
105 175 142
105 175 142
105 175 142
105 175 142
105 175 142
105 175 142
113 195 147
112 195 146
104 174 141
112 195 146
112 195 146
112 195 146
112 195 146
112 195 146
104 174 141
104 174 141
104 174 141
104 174 141
104 174 141
104 174 141
112 195 146
112 195 146
112 195 146
112 195 146
112 195 146
112 195 146
112 195 146
104 174 141
112 195 146
104 174 141
104 174 141
104 174 141
104 174 141
112 195 146
112 195 146
104 174 141
112 195 146
96 161 101
96 160 101
96 160 100
93 157 97
93 157 97
93 157 97
93 157 97
93 157 97
93 157 97
112 195 146
112 195 146
104 174 141
96 160 101
96 160 100
96 160 100
96 160 100
92 157 97
92 157 97
93 157 97
93 157 97
93 157 97
93 157 97
104 174 141
104 174 141
96 160 100
96 160 100
96 160 100
96 160 100
96 160 100
92 157 97
92 157 97
92 157 97
93 157 97
93 157 97
93 157 97
104 174 141
104 174 141
104 174 141
104 174 141
112 195 146
104 174 141
104 174 141
104 174 141
112 195 146
112 195 146
112 195 146
104 174 141
88 140 95
104 174 141
104 174 141
104 174 141
104 174 141
112 195 146
112 195 146
104 174 141
104 174 141
104 174 141
104 174 141
104 174 141
112 195 146
112 195 146
104 174 141
104 174 141
104 174 141
104 174 141
104 174 141
104 174 141
104 174 141
104 174 141
104 174 141
104 174 141
112 195 146
112 195 146
112 195 146
112 195 146
93 157 97
93 157 98
93 157 98
112 195 147
112 195 147
105 175 142
105 175 142
112 195 147
105 175 142
112 195 147
112 195 147
112 195 147
113 195 147
113 195 147
113 195 147
113 195 147
114 195 148
114 195 148
114 195 148
114 195 148
114 195 148
115 195 149
107 175 144
107 176 144
107 176 144
107 176 144
107 176 144
107 176 144
115 195 149
115 195 149
115 195 149
115 195 149
107 176 144
107 176 144
107 176 145
107 176 145
115 195 150
115 195 150
115 195 150
115 195 150
115 195 150
115 195 150
115 195 150
108 176 145
108 176 145
108 176 145
115 195 150
115 195 150
108 176 145
115 195 150
115 196 150
115 196 150
115 196 150
108 176 145
108 176 145
101 163 107
93 143 102
101 163 107
115 195 149
104 174 141
112 195 146
107 176 144
107 176 144
107 176 144
99 162 105
114 195 149
114 195 149
114 195 149
114 195 149
114 195 149
114 195 149
114 195 149
114 195 149
112 195 146
114 195 149
107 175 144
92 142 100
92 142 100
92 142 100
100 162 105
92 142 100
92 142 100
38 54 43
106 175 143
106 175 143
106 175 143
106 175 143
106 175 143
106 175 143
114 195 148
114 195 148
114 195 148
106 175 143
106 175 144
44 70 57
99 162 105
99 162 105
99 162 105
92 142 100
99 162 105
92 142 100
99 162 105
92 142 100
40 60 44
40 60 44
106 175 143
114 195 148
114 195 148
114 195 148
114 195 148
114 195 148
114 195 148
106 175 143
114 195 148
106 175 143
106 175 143
114 195 148
114 195 148
106 175 143
46 71 59
46 71 58
45 71 58
45 71 58
45 71 58
107 175 144
114 195 149
114 195 149
114 195 149
114 195 149
107 175 144
114 195 149
114 195 149
114 195 149
114 195 149
107 175 144
114 195 149
114 195 149
107 175 144
38 55 44
38 55 44
44 66 58
44 65 57
44 65 57
44 65 57
44 65 57
107 176 144
107 175 144
107 175 144
115 195 149
115 195 149
115 195 149
115 195 149
97 159 102
89 139 97
97 159 103
97 159 103
89 139 98
97 159 103
44 66 58
47 72 60
46 72 60
46 72 60
46 72 59
46 72 59
115 195 150
115 195 150
41 61 46
42 61 46
42 61 46
97 159 104
98 159 104
98 159 104
98 159 104
98 159 104
98 159 104
90 140 99
108 176 145
108 176 145
108 176 145
108 176 145
108 176 145
108 176 145
108 176 145
115 196 150
115 195 150
115 195 150
115 195 150
108 176 145
108 176 145
108 176 145
108 176 145
108 176 145
115 195 150
115 195 150
115 195 150
115 195 150
115 195 150
115 195 150
107 176 145
107 176 145
107 176 144
115 195 149
115 195 149
114 195 149
114 195 149
105 175 142
105 175 142
105 175 142
105 175 142
105 175 142
105 175 142
105 175 142
112 195 146
104 174 141
104 174 141
112 195 146
112 195 146
112 195 146
104 174 141
112 195 146
112 195 146
104 174 141
104 174 141
104 174 141
104 174 141
112 195 146
112 195 146
104 174 141
112 195 146
112 195 146
112 195 146
112 195 146
112 195 146
112 195 146
112 195 146
104 174 141
104 174 141
104 174 141
104 174 141
112 195 146
112 195 146
112 195 146
112 195 146
112 195 146
112 195 146
112 195 146
96 160 101
96 160 100
93 157 97
93 157 97
93 157 97
93 157 97
112 195 146
112 195 146
112 195 146
112 195 146
112 195 146
112 195 146
96 160 100
96 160 100
96 160 100
92 157 97
92 157 97
93 157 97
93 157 97
111 195 146
111 195 146
111 195 146
111 195 146
111 195 146
96 160 100
96 160 100
96 160 100
96 160 100
92 157 97
92 157 97
92 157 97
93 157 97
111 195 146
111 195 146
104 174 141
111 195 146
111 195 146
104 174 141
111 195 146
104 174 141
104 174 141
104 174 141
104 174 141
104 174 141
104 174 141
104 174 141
111 195 146
111 195 146
112 195 146
104 174 141
112 195 146
112 195 146
104 174 141
104 174 141
104 174 141
104 174 141
104 174 141
104 174 141
104 174 141
112 195 146
104 174 141
104 174 141
104 174 141
104 174 141
104 174 141
104 174 141
104 174 141
104 174 141
104 174 141
104 174 141
104 174 141
104 174 141
93 157 97
93 157 97
93 157 97
93 157 98
93 157 98
112 195 147
105 175 142
105 175 142
112 195 147
105 175 142
112 195 147
112 195 147
112 195 147
105 175 142
112 195 147
112 195 147
112 195 147
112 195 147
112 195 147
113 195 147
114 195 148
114 195 148
114 195 148
114 195 148
114 195 148
107 175 144
107 175 144
107 175 144
107 175 144
107 175 144
107 176 144
115 195 149
115 195 149
107 176 144
107 176 144
107 176 144
107 176 144
107 176 144
107 176 144
107 176 144
107 176 145
115 195 150
107 176 145
108 176 145
108 176 145
108 176 145
108 176 145
108 176 145
108 176 145
108 176 145
115 195 150
115 195 150
115 195 150
115 195 150
108 176 145
108 176 145
108 176 145
108 176 145
108 176 145
115 195 149
112 195 146
112 195 146
112 195 146
112 195 146
104 174 141
112 195 146
99 162 105
99 162 105
99 162 105
99 162 105
114 195 149
114 195 149
114 195 149
114 195 149
112 195 146
104 174 141
104 175 141
112 195 146
112 195 146
107 175 144
100 162 105
92 142 100
38 54 43
38 54 43
114 195 148
114 195 148
114 195 148
106 175 143
106 175 143
106 175 143
106 175 143
106 175 143
106 175 143
106 175 143
106 175 143
106 175 143
114 195 148
114 195 149
99 162 105
99 162 105
99 162 105
99 162 105
99 162 105
40 60 44
37 54 42
37 54 42
106 175 143
113 195 148
106 175 143
114 195 148
114 195 148
106 175 143
114 195 148
106 175 143
114 195 148
106 175 143
106 175 143
114 195 148
114 195 148
114 195 148
114 195 148
45 71 58
45 71 58
45 71 58
45 71 58
114 195 149
107 175 144
114 195 149
107 175 144
114 195 149
114 195 149
114 195 149
114 195 149
114 195 149
107 175 144
114 195 149
114 195 149
114 195 149
114 195 149
114 195 149
114 195 149
44 65 57
44 65 57
44 65 57
43 65 57
43 65 57
43 65 57
43 65 57
107 175 144
107 175 144
107 175 144
97 159 102
97 159 102
97 159 102
89 139 98
97 159 103
97 159 103
97 159 103
97 159 103
97 159 103
46 72 60
46 72 59
46 72 59
46 72 59
46 72 59
115 195 150
115 195 149
115 195 149
115 195 149
42 62 46
39 56 45
42 62 46
42 62 46
90 140 99
98 159 104
90 140 99
108 176 145
108 176 145
108 176 145
108 176 145
115 196 150
108 176 145
108 176 145
108 176 145
108 176 145
115 195 150
108 176 145
108 176 145
108 176 145
108 176 145
108 176 145
108 176 145
108 176 145
108 176 145
115 195 150
115 195 150
107 176 145
107 176 145
107 176 144
107 176 144
107 176 144
107 176 144
114 195 149
114 195 149
113 195 147
113 195 147
113 195 147
113 195 147
105 175 142
105 175 142
105 175 142
105 175 142
105 175 142
97 161 101
112 195 146
112 195 146
112 195 146
112 195 146
112 195 146
112 195 146
112 195 146
112 195 146
112 195 146
112 195 146
112 195 146
104 174 141
112 195 146
112 195 146
112 195 146
112 195 146
112 195 146
104 174 141
112 195 146
112 195 146
112 195 146
104 174 141
112 195 146
112 195 146
112 195 146
104 174 141
112 195 146
112 195 146
112 195 146
112 195 146
112 195 146
112 195 146
112 195 146
104 174 141
112 195 146
112 195 146
93 157 97
93 157 97
112 195 146
111 195 146
111 195 146
111 195 146
111 195 146
111 195 146
111 195 146
111 195 146
111 195 146
111 195 146
96 160 100
92 157 97
93 157 97
111 195 146
111 195 146
111 195 146
111 195 146
104 174 140
104 174 140
111 195 146
111 195 146
111 195 146
96 160 100
96 160 100
92 157 97
92 157 97
111 195 146
111 195 146
104 174 140
104 174 140
111 195 146
111 195 146
111 195 146
111 195 146
104 174 140
104 174 140
104 174 140
104 174 140
104 174 140
111 195 146
104 174 140
111 195 146
111 195 146
111 195 146
111 195 146
104 174 140
104 174 140
104 174 140
104 174 140
104 174 141
104 174 141
104 174 141
104 174 141
111 195 146
111 195 146
111 195 146
111 195 146
104 174 141
104 174 141
104 174 141
104 174 141
104 174 141
112 195 146
104 174 141
104 174 141
104 174 141
112 195 146
112 195 146
112 195 146
93 157 97
93 157 98
93 157 98
93 157 98
112 195 147
112 195 147
112 195 147
105 175 141
112 195 147
105 175 142
105 175 142
112 195 146
112 195 147
112 195 147
112 195 147
112 195 147
112 195 147
112 195 147
112 195 147
112 195 147
105 175 142
114 195 148
114 195 148
114 195 148
106 175 143
106 175 143
107 175 144
107 175 144
107 175 144
107 175 144
107 175 144
115 195 149
107 175 144
107 176 144
115 195 149
107 176 144
107 176 144
107 176 144
115 195 149
107 176 144
107 176 144
115 195 149
107 176 144
107 176 145
107 176 145
107 176 145
108 176 145
108 176 145
108 176 145
108 176 145
108 176 145
108 176 145
108 176 145
108 176 145
108 176 145
108 176 145
108 176 145
112 195 146
112 195 146
104 174 141
104 174 141
104 174 141
112 195 146
112 195 146
112 195 146
112 195 146
112 195 146
99 162 105
99 162 105
99 162 105
92 142 100
114 195 149
112 195 146
112 195 146
112 195 146
112 195 146
112 195 146
112 195 146
112 195 146
112 195 146
43 64 56
38 54 43
114 195 148
106 175 143
114 195 148
114 195 148
114 195 148
114 195 148
106 175 143
106 175 143
114 195 148
106 175 143
106 175 143
106 175 143
106 175 143
114 195 148
114 195 148
114 195 148
114 195 148
114 195 149
99 162 105
40 60 44
40 60 44
40 60 44
106 175 143
113 195 148
113 195 148
113 195 148
113 195 148
113 195 148
114 195 148
106 175 143
106 175 143
114 195 148
106 175 143
114 195 148
114 195 148
91 142 99
99 162 104
99 162 104
43 65 57
45 71 58
114 195 149
107 175 144
114 195 149
114 195 149
107 175 144
107 175 144
107 175 144
114 195 149
114 195 149
107 175 144
114 195 149
107 175 144
107 175 144
114 195 149
106 175 144
106 175 143
106 175 143
114 195 148
43 65 57
43 65 57
43 65 57
43 65 57
43 65 57
43 65 57
43 65 57
115 195 149
115 195 149
114 195 149
40 60 44
40 60 44
97 159 103
97 159 103
97 159 103
97 159 103
89 139 98
97 159 103
97 159 103
46 72 59
46 72 59
44 66 58
46 72 59
115 195 149
115 195 149
115 195 149
107 176 144
107 176 144
107 176 144
42 62 46
42 62 46
40 56 45
47 73 60
115 196 150
115 196 150
108 176 145
108 176 145
108 176 145
108 176 145
108 176 145
108 176 145
108 176 145
108 176 145
115 195 150
115 195 150
108 176 145
108 176 145
108 176 145
108 176 145
108 176 145
107 176 145
107 176 145
107 176 145
115 195 149
115 195 149
107 176 144
107 176 144
107 176 144
107 176 144
114 195 149
114 195 149
113 195 147
113 195 147
113 195 147
113 195 147
113 195 147
113 195 147
113 195 147
105 175 142
105 175 142
105 175 142
105 175 142
97 161 101
97 161 101
112 195 146
112 195 146
104 174 141
112 195 146
112 195 146
112 195 146
112 195 146
112 195 146
112 195 146
104 174 141
104 174 141
104 174 141
112 195 146
112 195 146
112 195 146
112 195 146
112 195 146
112 195 146
112 195 146
112 195 146
112 195 146
93 157 97
93 157 97
96 160 101
112 195 146
104 174 141
112 195 146
112 195 146
112 195 146
104 174 141
104 174 141
111 195 146
111 195 146
111 195 146
111 195 146
96 160 100
111 195 146
111 195 146
111 195 146
111 195 146
111 195 146
111 195 146
104 174 140
111 195 146
111 195 146
111 195 146
104 174 140
111 195 146
104 174 140
111 195 146
104 174 140
111 195 146
111 195 146
104 174 140
111 195 146
111 195 146
111 195 146
111 195 146
111 195 146
111 195 146
96 160 100
92 157 97
111 195 146
111 195 146
111 195 146
111 195 146
111 195 146
111 195 146
111 195 146
111 195 146
111 195 146
111 195 146
103 174 140
103 174 140
103 174 140
111 195 146
111 195 146
111 195 146
104 174 140
111 195 146
111 195 146
104 174 140
111 195 146
104 174 140
104 174 140
111 195 146
104 174 140
104 174 140
111 195 146
104 174 140
111 195 146
111 195 146
111 195 146
111 195 146
111 195 146
111 195 146
104 174 140
104 174 141
111 195 146
104 174 141
104 174 141
111 195 146
104 174 141
112 195 146
112 195 146
112 195 146
104 174 141
112 195 146
93 157 98
93 157 98
112 195 147
104 175 141
104 175 141
104 175 141
104 175 141
112 195 146
112 195 146
112 195 146
104 174 141
112 195 146
105 175 142
112 195 147
112 195 147
112 195 147
112 195 147
105 175 142
105 175 142
105 175 142
105 175 142
104 174 141
112 195 146
112 195 146
106 175 143
103 174 140
103 174 140
103 174 140
115 195 149
115 195 149
115 195 149
115 195 149
107 175 144
107 175 144
112 195 146
112 195 146
107 176 144
107 176 144
115 195 149
115 195 149
103 174 140
115 195 149
107 176 144
107 176 144
107 176 144
107 176 145
107 176 145
112 195 146
112 195 147
115 195 150
115 195 150
108 176 145
108 176 145
108 176 145
112 195 146
112 195 146
112 195 146
112 195 146
112 195 146
104 174 141
112 195 146
112 195 146
112 195 146
112 195 146
104 174 141
112 195 146
112 195 146
92 142 100
99 162 105
112 195 146
112 195 146
112 195 146
112 195 146
112 195 146
112 195 146
112 195 146
112 195 146
112 195 146
104 174 141
112 195 146
114 195 148
114 195 148
114 195 148
114 195 148
114 195 148
114 195 148
114 195 148
114 195 148
106 175 143
106 175 143
114 195 148
114 195 148
114 195 148
114 195 148
114 195 148
114 195 148
114 195 148
106 175 143
44 70 57
42 64 55
40 60 44
113 195 148
106 175 143
113 195 148
113 195 148
106 175 143
113 195 148
106 175 143
106 175 143
113 195 148
113 195 148
114 195 148
114 195 148
114 195 148
95 158 101
99 162 105
91 142 99
99 162 104
43 65 56
114 195 149
114 195 149
107 175 144
107 175 144
107 175 144
107 175 144
114 195 149
105 175 142
105 175 142
114 195 149
107 175 144
114 195 149
114 195 149
114 195 149
106 175 143
106 175 143
106 175 143
106 175 143
113 195 148
113 195 148
113 195 147
43 65 57
43 65 57
45 71 58
45 71 58
45 71 58
45 71 58
114 195 149
114 195 149
114 195 149
38 54 43
113 195 147
105 175 142
97 159 103
97 159 103
97 159 103
97 159 103
89 139 98
97 159 103
46 72 59
46 71 59
115 195 149
107 176 144
107 176 144
107 176 144
107 176 144
107 175 144
107 175 144
42 62 46
45 67 59
47 72 60
47 72 60
47 72 60
115 195 150
115 195 150
115 195 150
108 176 145
108 176 145
108 176 145
115 195 150
115 195 150
115 195 150
115 195 150
115 195 150
115 195 150
108 176 145
107 176 145
107 176 145
107 176 144
107 176 144
115 195 149
115 195 149
115 195 149
115 195 149
115 195 149
107 176 144
107 176 144
113 195 147
113 195 147
113 195 147
113 195 147
113 195 147
105 175 142
113 195 147
113 195 147
105 175 142
113 195 147
112 195 147
105 175 142
112 195 147
112 195 147
112 195 147
97 161 101
96 161 101
112 195 146
112 195 146
112 195 146
112 195 146
112 195 146
104 174 141
104 174 141
104 174 141
104 174 141
104 174 141
104 174 141
104 174 141
112 195 146
112 195 146
112 195 146
112 195 146
112 195 146
112 195 146
93 157 97
93 157 97
93 157 97
93 157 97
96 161 101
96 160 100
111 195 146
111 195 146
111 195 146
111 195 146
111 195 146
111 195 146
111 195 146
111 195 146
93 157 97
93 157 97
93 157 97
96 160 100
111 195 146
111 195 146
111 195 146
111 195 146
103 174 140
111 195 146
111 195 146
111 195 146
111 195 146
92 157 97
93 157 97
96 160 100
111 195 146
111 195 146
103 174 140
111 195 146
111 195 146
111 195 146
111 195 146
111 195 146
111 195 146
111 195 146
111 195 146
92 157 97
111 195 146
111 195 146
111 195 146
111 195 146
111 195 146
111 195 146
111 195 146
111 195 146
111 195 146
111 195 146
111 195 146
111 195 146
96 160 100
111 195 146
111 195 146
111 195 146
111 195 146
111 195 146
111 195 146
111 195 146
103 174 140
111 195 146
111 195 146
103 174 140
111 195 146
103 174 140
103 174 140
111 195 146
111 195 146
111 195 146
111 195 146
111 195 146
111 195 146
111 195 146
111 195 146
111 195 146
104 174 140
104 174 140
104 174 140
111 195 146
111 195 146
111 195 146
111 195 146
111 195 146
111 195 146
111 195 146
111 195 146
111 195 146
111 195 146
104 175 141
104 175 141
104 175 141
104 175 141
112 195 146
112 195 146
112 195 146
112 195 146
112 195 146
112 195 146
112 195 146
112 195 146
112 195 147
105 175 141
105 175 141
105 175 142
105 175 142
112 195 146
112 195 146
112 195 146
112 195 146
112 195 146
103 174 140
103 174 140
103 174 140
103 174 140
103 174 140
103 174 140
115 195 149
115 195 149
115 195 149
112 195 146
112 195 146
104 174 141
112 195 146
112 195 146
112 195 146
103 174 140
103 174 140
103 174 140
103 174 140
115 195 149
107 176 144
107 176 144
112 195 146
112 195 146
112 195 146
112 195 146
112 195 146
115 195 150
107 175 144
104 174 141
104 174 141
104 174 141
112 195 146
112 195 146
104 174 141
112 195 146
112 195 146
112 195 146
112 195 146
112 195 146
112 195 146
112 195 146
104 174 141
112 195 146
104 174 141
112 195 146
112 195 146
112 195 146
112 195 146
104 174 141
112 195 146
112 195 146
112 195 146
112 195 146
104 174 141
112 195 146
112 195 146
112 195 146
112 195 146
114 195 148
106 175 143
114 195 148
114 195 148
114 195 148
114 195 148
114 195 148
114 195 148
114 195 148
114 195 148
114 195 148
114 195 148
114 195 148
114 195 148
44 70 57
44 70 57
44 70 57
113 195 148
106 175 143
106 175 143
106 175 143
106 175 143
106 175 143
113 195 148
106 175 143
106 175 143
113 195 148
113 195 148
113 195 148
113 195 148
113 195 148
96 158 101
99 162 105
99 162 105
99 162 105
107 175 144
114 195 149
107 175 144
107 175 144
107 175 144
105 175 142
105 175 142
105 175 142
105 175 142
105 175 142
114 195 149
114 195 149
106 175 143
106 175 143
114 195 148
106 175 143
113 195 148
113 195 148
113 195 147
113 195 147
104 175 141
104 175 141
104 175 141
45 71 58
45 71 58
45 71 58
45 71 58
45 71 58
45 71 58
113 195 147
113 195 147
105 175 142
105 175 142
113 195 147
104 174 141
104 174 141
89 139 98
97 159 103
97 159 103
97 159 103
115 195 149
115 195 149
107 176 144
113 195 147
113 195 147
112 195 147
112 195 147
107 175 144
107 175 144
104 174 141
47 72 60
45 66 58
47 72 60
47 72 60
47 72 60
115 195 150
115 195 150
104 175 141
112 195 147
115 195 150
115 195 150
115 195 150
108 176 145
115 195 150
115 195 149
107 176 144
115 195 149
107 176 144
115 195 149
115 195 149
112 195 146
107 176 144
115 195 149
115 195 149
115 195 149
115 195 149
105 175 142
105 175 142
105 175 142
113 195 147
113 195 147
113 195 147
113 195 147
112 195 147
112 195 147
112 195 147
112 195 147
105 175 142
112 195 147
105 175 142
105 175 142
112 195 147
105 175 142
97 161 101
97 161 101
96 161 101
112 195 146
104 174 141
104 174 141
104 174 141
112 195 146
104 174 141
104 174 141
104 174 141
104 174 141
104 174 141
112 195 146
112 195 146
112 195 146
112 195 146
111 195 146
93 157 97
93 157 97
93 157 97
93 157 97
93 157 97
93 157 97
96 161 101
96 160 101
96 160 100
111 195 146
111 195 146
104 174 140
111 195 146
111 195 146
93 157 97
93 157 97
93 157 97
93 157 97
93 157 97
96 160 100
96 160 100
111 195 146
111 195 146
111 195 146
111 195 146
111 195 146
111 195 146
92 157 97
92 157 97
92 157 97
93 157 97
96 160 100
96 160 100
96 160 100
111 195 146
111 195 146
111 195 146
111 195 146
111 195 146
111 195 146
111 195 146
92 157 97
92 157 97
92 157 97
96 160 100
96 160 100
111 195 146
111 195 146
111 195 146
111 195 146
111 195 146
111 195 146
111 195 146
103 174 140
92 157 96
92 157 97
96 160 100
96 160 100
103 174 140
111 195 146
111 195 146
111 195 146
111 195 146
111 195 146
103 174 140
103 174 140
111 195 146
103 174 140
92 157 97
96 160 100
111 195 146
111 195 146
111 195 146
111 195 146
111 195 146
111 195 146
111 195 146
111 195 146
111 195 146
103 174 140
103 174 140
111 195 146
96 160 100
103 174 140
111 195 146
111 195 146
104 174 140
111 195 146
111 195 146
111 195 146
111 195 146
111 195 146
111 195 146
111 195 146
111 195 146
111 195 146
111 195 146
104 174 141
111 195 146
112 195 146
112 195 146
104 174 141
112 195 146
112 195 146
112 195 146
112 195 146
112 195 146
104 175 141
104 175 141
112 195 146
112 195 146
112 195 146
112 195 146
104 174 141
103 174 140
111 195 145
111 195 145
111 195 145
103 174 140
103 174 140
103 174 140
103 174 140
103 174 140
112 195 146
112 195 146
112 195 146
112 195 146
112 195 146
103 174 140
103 174 140
103 174 140
103 174 140
103 174 140
111 195 146
103 174 140
103 174 140
112 195 146
104 174 141
112 195 146
112 195 146
112 195 146
112 195 146
112 195 146
104 174 140
104 174 140
104 174 140
111 195 146
111 195 146
104 174 141
112 195 146
112 195 146
112 195 146
112 195 146
112 195 146
112 195 146
112 195 146
112 195 146
112 195 146
104 174 141
104 174 141
104 174 141
104 174 141
104 174 141
112 195 146
112 195 146
112 195 146
112 195 146
112 195 146
112 195 146
112 195 146
112 195 146
112 195 146
104 174 141
104 174 141
104 174 141
104 174 141
106 175 143
105 175 142
113 195 147
113 195 147
113 195 147
106 175 143
106 175 143
106 175 143
114 195 148
114 195 148
114 195 148
104 175 141
104 175 141
44 69 56
113 195 147
113 195 148
113 195 148
105 175 142
106 175 142
106 175 143
106 175 143
106 175 143
106 175 143
106 175 143
106 175 143
106 175 143
106 175 143
106 175 143
95 158 101
99 162 105
99 162 105
99 162 105
99 162 105
107 175 144
107 175 144
105 175 142
105 175 142
105 175 142
105 175 142
113 195 147
105 175 142
105 175 142
105 175 142
114 195 148
106 175 143
106 175 143
113 195 148
113 195 148
113 195 147
113 195 147
104 175 141
104 175 141
104 175 141
104 175 141
104 175 141
112 195 146
104 175 141
45 71 58
45 71 58
45 70 58
113 195 147
113 195 147
113 195 147
105 175 142
105 175 142
104 174 141
104 174 141
104 174 141
104 174 141
104 174 141
40 60 45
115 195 149
115 195 149
113 195 147
113 195 147
112 195 147
105 175 142
112 195 147
112 195 147
104 174 141
104 174 141
104 174 141
104 174 141
114 195 149
44 66 58
47 72 60
47 72 60
112 195 147
112 195 147
112 195 147
104 175 141
112 195 147
112 195 146
107 176 145
104 174 140
104 174 140
104 174 140
115 195 149
115 195 149
107 176 144
107 176 144
112 195 146
104 174 141
112 195 146
112 195 146
115 195 149
115 195 149
113 195 147
105 175 142
105 175 142
105 175 142
105 175 142
112 195 147
112 195 147
112 195 146
112 195 146
112 195 146
112 195 147
105 175 142
105 175 142
105 175 142
105 175 142
112 195 147
105 175 142
112 195 147
112 195 147
97 161 101
97 161 101
96 161 101
88 140 95
104 174 141
104 174 141
104 174 141
104 174 141
104 174 141
104 174 141
104 174 141
104 174 141
104 174 141
104 174 141
104 174 141
104 174 140
93 157 97
93 157 97
93 157 97
93 157 97
93 157 97
93 157 97
93 157 97
93 157 97
96 161 101
96 160 101
96 160 100
96 160 100
111 195 146
111 195 146
92 157 97
93 157 97
93 157 97
93 157 97
93 157 97
93 157 97
93 157 97
96 160 100
96 160 100
96 160 100
96 160 100
111 195 146
111 195 146
92 157 96
92 157 97
92 157 97
92 157 97
93 157 97
93 157 97
96 160 100
96 160 100
96 160 100
96 160 100
111 195 145
111 195 145
111 195 145
111 195 145
92 157 96
92 157 97
92 157 97
92 157 97
93 157 97
96 160 100
96 160 100
96 160 100
111 195 145
111 195 145
111 195 145
111 195 145
111 195 145
111 195 145
92 157 96
92 157 97
92 157 97
96 160 100
96 160 100
96 160 100
96 160 100
111 195 145
111 195 145
111 195 145
103 174 140
103 174 140
111 195 145
92 157 96
92 157 97
92 157 97
96 160 100
96 160 100
96 160 100
111 195 146
111 195 146
111 195 146
111 195 146
111 195 146
111 195 146
111 195 146
111 195 146
92 157 97
92 157 97
96 160 100
96 160 100
111 195 146
111 195 146
111 195 146
111 195 146
111 195 146
111 195 146
111 195 146
111 195 146
111 195 146
111 195 146
104 174 140
104 174 140
104 174 140
111 195 146
111 195 146
111 195 146
111 195 146
111 195 146
111 195 146
111 195 146
111 195 146
112 195 146
112 195 146
104 174 141
112 195 146
112 195 146
112 195 146
112 195 146
103 174 140
103 174 140
103 174 140
103 174 140
103 174 140
103 174 140
103 174 140
103 174 140
103 174 140
103 174 140
103 174 140
103 174 140
103 174 140
112 195 146
112 195 146
103 174 140
103 174 140
103 174 140
103 174 140
103 174 140
111 195 145
103 174 140
103 174 140
103 174 140
103 174 140
111 195 146
112 195 146
104 174 141
112 195 146
112 195 146
103 174 140
103 174 140
103 174 140
104 174 140
104 174 140
104 174 140
111 195 146
104 174 140
104 174 141
111 195 146
111 195 146
112 195 146
112 195 146
112 195 146
112 195 146
112 195 146
104 174 141
104 174 141
104 174 141
104 174 141
112 195 146
104 174 141
104 174 141
112 195 146
112 195 146
104 174 141
112 195 146
112 195 146
104 174 141
112 195 146
112 195 146
104 174 141
104 174 141
104 174 141
104 174 141
104 174 141
113 195 147
113 195 147
113 195 147
113 195 147
113 195 147
114 195 148
106 175 143
106 175 143
112 195 146
104 175 141
104 175 141
104 175 141
104 175 141
104 175 141
113 195 147
113 195 147
113 195 148
105 175 142
105 175 142
106 175 142
113 195 148
106 175 143
106 175 143
106 175 143
106 175 143
87 138 95
96 158 101
99 162 105
92 142 100
99 162 105
99 162 105
105 175 142
113 195 147
105 175 142
105 175 142
105 175 142
105 175 142
105 175 142
105 175 142
105 175 142
105 175 142
105 175 142
113 195 148
113 195 148
113 195 147
105 175 141
104 175 141
104 175 141
104 175 141
104 175 141
104 175 141
104 175 141
104 175 141
112 195 146
104 175 141
113 195 147
113 195 147
113 195 147
113 195 147
113 195 147
104 174 141
104 174 141
104 174 141
112 195 146
104 174 141
104 174 141
104 174 141
104 174 141
104 174 141
105 175 142
112 195 147
105 175 142
112 195 147
112 195 147
112 195 147
104 174 141
104 174 141
104 174 141
104 174 141
104 174 141
104 174 141
104 174 141
114 195 149
112 195 147
112 195 147
112 195 147
112 195 147
112 195 146
112 195 146
104 175 141
104 174 140
104 174 140
103 174 140
103 174 140
103 174 140
106 175 143
112 195 146
112 195 146
112 195 146
104 174 141
112 195 146
112 195 146
112 195 146
112 195 146
105 175 142
105 175 142
112 195 147
112 195 147
105 175 142
105 175 142
104 174 141
112 195 146
112 195 146
112 195 146
112 195 146
112 195 146
105 175 142
105 175 142
105 175 141
112 195 147
112 195 147
105 175 141
104 175 141
112 195 147
97 161 101
97 161 101
97 161 101
89 140 96
88 140 95
104 174 141
104 174 141
111 195 146
104 174 141
111 195 146
104 174 140
111 195 146
104 174 140
104 174 140
85 136 92
85 136 92
93 157 97
93 157 97
93 157 97
93 157 97
93 157 97
93 157 97
93 157 97
93 157 97
96 161 101
96 161 101
96 160 101
96 160 100
96 160 100
92 157 97
92 157 97
93 157 97
93 157 97
93 157 97
93 157 97
93 157 97
93 157 97
96 160 101
96 160 100
96 160 100
96 160 100
96 160 100
92 157 96
92 157 97
92 157 97
92 157 97
93 157 97
93 157 97
93 157 97
96 160 100
96 160 100
96 160 100
96 160 100
96 160 100
111 195 145
92 157 96
92 157 96
92 157 96
92 157 97
92 157 97
93 157 97
93 157 97
96 160 100
96 160 100
96 160 100
96 160 100
96 160 100
111 195 145
111 195 145
92 157 96
92 157 96
92 157 97
92 157 97
92 157 97
96 160 100
96 160 100
96 160 100
96 160 100
96 160 100
111 195 145
111 195 145
111 195 145
111 195 145
92 157 96
92 157 97
92 157 97
92 157 97
96 160 100
96 160 100
96 160 100
96 160 100
96 160 100
111 195 145
111 195 145
111 195 145
103 174 140
92 157 96
92 157 97
92 157 97
93 157 97
96 160 100
96 160 100
96 160 100
96 160 100
103 174 140
111 195 146
111 195 146
111 195 146
103 174 140
111 195 146
111 195 146
103 174 140
103 174 140
103 174 140
103 174 140
103 174 140
111 195 146
111 195 146
111 195 146
111 195 146
111 195 146
111 195 146
104 174 140
111 195 146
111 195 146
104 174 141
111 195 146
104 174 141
104 174 141
111 195 145
111 195 145
111 195 145
103 174 140
103 174 140
103 174 140
111 195 145
103 174 140
111 195 145
103 174 140
103 174 140
103 174 140
103 174 140
111 195 145
103 174 140
103 174 140
103 174 140
103 174 140
103 174 140
103 174 140
103 174 140
111 195 145
111 195 145
103 174 140
103 174 140
103 174 140
103 174 140
103 174 140
103 174 140
103 174 140
103 174 140
103 174 140
111 195 146
103 174 140
103 174 140
103 174 140
103 174 140
104 174 140
104 174 140
104 174 140
111 195 146
104 174 140
104 174 140
111 195 146
111 195 146
112 195 146
112 195 146
104 174 141
104 174 141
104 174 141
104 174 141
104 174 141
104 174 141
104 174 141
104 174 141
112 195 146
112 195 146
112 195 146
112 195 146
104 174 141
104 174 141
104 174 141
104 174 141
104 174 141
104 174 141
112 195 146
104 174 141
104 174 141
104 174 141
104 174 141
113 195 147
113 195 147
113 195 147
113 195 147
104 175 141
112 195 146
104 175 141
104 175 141
104 175 141
104 175 141
104 175 141
104 175 141
104 175 141
113 195 147
113 195 147
113 195 148
113 195 148
105 175 142
105 175 142
106 175 142
106 175 143
87 138 95
95 158 101
99 162 105
92 142 100
99 162 105
92 142 100
99 162 105
105 175 142
105 175 142
105 175 142
105 175 142
105 175 142
105 175 142
105 175 142
105 175 142
105 175 142
105 175 141
112 195 147
105 175 141
104 175 141
104 175 141
104 175 141
104 175 141
112 195 147
104 175 141
104 175 141
104 175 141
104 175 141
104 175 141
112 195 146
104 175 141
104 174 141
113 195 147
104 174 141
104 174 141
104 174 141
104 174 141
104 174 141
104 174 141
104 174 141
104 174 141
104 174 141
104 174 141
112 195 146
104 174 141
112 195 147
112 195 147
112 195 147
104 174 141
104 174 141
104 174 141
104 174 141
104 174 141
104 174 141
104 174 141
104 174 141
104 174 141
104 174 141
111 195 146
112 195 146
112 195 146
112 195 146
112 195 146
104 174 140
103 174 140
111 195 146
103 174 140
103 174 140
103 174 140
103 174 140
103 174 140
103 174 140
112 195 146
112 195 146
112 195 146
112 195 146
112 195 146
37 59 50
112 195 146
112 195 146
112 195 146
105 175 142
39 61 51
39 61 51
112 195 146
112 195 146
112 195 146
112 195 146
112 195 146
112 195 146
112 195 146
104 174 141
112 195 146
112 195 147
104 175 141
38 60 51
38 60 51
112 195 147
104 175 141
104 175 141
97 161 101
97 161 101
97 161 101
96 161 101
88 140 95
88 139 95
104 174 140
104 174 140
104 174 140
104 174 140
104 174 140
104 174 140
85 136 92
85 136 92
85 136 92
85 136 92
93 157 97
93 157 97
93 157 97
93 157 97
93 157 97
93 157 97
93 157 97
93 157 97
93 157 97
96 161 101
96 160 101
96 160 100
96 160 100
92 157 97
93 157 97
93 157 97
93 157 97
93 157 97
93 157 97
93 157 97
93 157 97
96 160 101
96 160 100
96 160 100
96 160 100
96 160 100
92 157 97
92 157 97
92 157 97
93 157 97
93 157 97
93 157 97
93 157 97
96 160 101
96 160 100
96 160 100
96 160 100
96 160 100
96 160 100
92 157 96
92 157 96
92 157 97
92 157 97
92 157 97
93 157 97
93 157 97
96 160 100
96 160 100
96 160 100
96 160 100
96 160 100
96 160 100
92 157 96
92 157 96
92 157 96
92 157 97
92 157 97
93 157 97
96 160 100
96 160 100
96 160 100
96 160 100
96 160 100
96 160 100
96 160 100
92 157 96
92 157 96
92 157 96
92 157 97
92 157 97
93 157 97
96 160 100
96 160 100
96 160 100
96 160 100
96 160 100
96 160 100
111 195 145
111 195 145
92 157 96
92 157 96
92 157 97
93 157 97
93 157 97
96 160 100
96 160 100
96 160 100
96 160 100
96 160 100
96 160 100
111 195 146
111 195 146
103 174 140
103 174 140
103 174 140
103 174 140
103 174 140
103 174 140
111 195 146
103 174 140
103 174 140
103 174 140
111 195 146
111 195 146
111 195 146
111 195 146
111 195 146
104 174 140
104 174 140
104 174 140
104 174 140
104 174 140
111 195 145
111 195 145
111 195 145
111 195 145
111 195 145
111 195 145
103 174 140
103 174 140
103 174 140
103 174 140
103 174 140
103 174 140
111 195 145
103 174 140
111 195 145
111 195 145
111 195 145
111 195 145
111 195 145
103 174 140
103 174 140
103 174 140
111 195 145
103 174 140
103 174 140
103 174 140
103 174 140
103 174 140
103 174 140
103 174 140
111 195 145
111 195 145
111 195 145
111 195 146
103 174 140
103 174 140
103 174 140
103 174 140
103 174 140
103 174 140
111 195 146
103 174 140
104 174 140
104 174 140
111 195 146
111 195 146
111 195 146
111 195 146
104 174 141
104 174 141
104 174 141
112 195 146
104 174 141
104 174 141
112 195 146
104 174 141
104 174 141
104 174 141
104 174 141
104 174 141
104 174 141
104 174 141
112 195 146
104 174 141
104 174 141
104 174 141
104 174 141
104 174 141
104 174 141
104 174 141
112 195 146
104 174 141
104 174 141
42 67 54
104 174 141
104 175 141
112 195 146
104 175 141
104 175 141
104 175 141
104 175 141
104 175 141
112 195 147
104 175 141
104 175 141
104 175 141
113 195 147
113 195 147
113 195 147
113 195 148
113 195 148
105 175 142
87 138 95
96 158 101
99 162 105
99 162 105
99 162 105
99 162 105
99 162 105
105 175 142
112 195 147
105 175 142
112 195 147
112 195 147
105 175 142
105 175 142
105 175 141
105 175 141
112 195 147
112 195 147
112 195 147
104 175 141
112 195 147
104 175 141
104 175 141
104 175 141
104 175 141
112 195 146
104 175 141
104 175 141
104 174 141
104 174 141
104 174 141
112 195 146
104 174 141
104 174 141
104 174 141
104 174 141
104 174 141
104 174 141
104 174 141
104 174 141
104 174 141
112 195 146
104 174 141
112 195 146
104 174 141
104 174 141
104 174 141
104 174 141
104 174 141
104 174 141
104 174 141
112 195 146
104 174 141
112 195 146
104 174 141
111 195 146
111 195 146
104 174 140
104 174 140
112 195 146
112 195 146
103 174 140
103 174 140
103 174 140
103 174 140
103 174 140
103 174 140
103 174 140
103 174 140
103 174 140
103 174 140
103 174 140
103 174 140
112 195 146
104 174 141
40 66 51
40 65 51
40 65 51
112 195 146
112 195 146
112 195 146
104 174 141
112 195 146
112 195 146
112 195 146
112 195 146
104 174 141
112 195 146
104 174 141
112 195 146
112 195 146
112 195 146
112 195 146
104 174 141
38 60 51
38 60 51
38 60 51
38 60 51
104 175 141
104 175 141
112 195 146
97 161 101
97 161 101
97 161 101
89 140 95
88 140 95
88 139 95
104 174 140
103 174 140
85 136 91
85 136 91
85 136 92
85 136 92
85 136 92
85 136 92
85 136 92
93 157 97
93 157 97
93 157 97
93 157 97
93 157 97
93 157 97
93 157 97
93 157 97
93 157 97
96 161 101
96 161 101
96 160 101
96 160 100
93 157 97
93 157 97
93 157 97
93 157 97
93 157 97
93 157 97
93 157 97
93 157 97
96 161 101
96 160 101
96 160 100
96 160 100
96 160 100
92 157 97
92 157 97
92 157 97
93 157 97
93 157 97
93 157 97
93 157 97
96 160 101
96 160 100
96 160 100
96 160 100
96 160 100
96 160 100
92 157 96
92 157 97
92 157 97
92 157 97
93 157 97
93 157 97
93 157 97
96 160 100
96 160 100
96 160 100
96 160 100
96 160 100
96 160 100
92 157 96
92 157 96
92 157 97
92 157 97
92 157 97
93 157 97
96 160 100
96 160 100
96 160 100
96 160 100
96 160 100
96 160 100
96 160 100
92 157 96
92 157 96
92 157 97
92 157 97
93 157 97
93 157 97
96 160 100
96 160 100
96 160 100
96 160 100
96 160 100
96 160 100
96 160 100
92 157 96
92 157 96
92 157 97
92 157 97
93 157 97
93 157 97
96 160 100
96 160 100
96 160 100
96 160 100
96 160 100
96 160 100
96 160 100
103 174 140
103 174 140
103 174 140
103 174 140
111 195 145
103 174 140
103 174 140
103 174 140
103 174 140
103 174 140
103 174 140
103 174 140
103 174 140
111 195 146
103 174 140
103 174 140
103 174 140
103 174 140
103 174 140
111 195 145
103 174 140
111 195 145
111 195 145
111 195 145
111 195 145
103 174 140
111 195 145
111 195 145
111 195 145
103 174 140
103 174 140
111 195 145
103 174 140
103 174 140
103 174 140
111 195 145
111 195 145
111 195 145
111 195 145
111 195 145
111 195 145
103 174 140
103 174 140
103 174 140
103 174 140
103 174 140
103 174 140
103 174 140
103 174 140
111 195 145
111 195 145
111 195 145
111 195 145
103 174 140
111 195 145
111 195 145
103 174 140
103 174 140
103 174 140
103 174 140
103 174 140
103 174 140
103 174 140
103 174 140
111 195 146
111 195 146
111 195 146
104 174 140
111 195 146
104 174 140
111 195 146
111 195 146
104 174 141
112 195 146
104 174 141
112 195 146
104 174 141
104 174 141
104 174 141
112 195 146
112 195 146
112 195 146
112 195 146
112 195 146
104 174 141
104 174 141
104 174 141
104 174 141
104 174 141
104 174 141
112 195 146
104 174 141
104 174 141
104 174 141
104 174 141
112 195 146
104 174 141
104 174 141
104 174 141
104 175 141
112 195 146
112 195 146
104 175 141
104 175 141
104 175 141
104 175 141
112 195 147
104 175 141
104 175 141
104 175 141
113 195 147
113 195 147
87 138 95
95 158 101
114 195 148
114 195 148
114 195 148
99 162 105
99 162 105
92 142 100
105 175 142
105 175 142
112 195 147
105 175 142
105 175 141
105 175 141
112 195 147
112 195 147
112 195 147
112 195 147
112 195 147
104 175 141
104 175 141
104 175 141
104 175 141
104 175 141
104 175 141
104 175 141
104 174 141
104 174 141
104 174 141
112 195 146
104 174 141
112 195 146
112 195 146
112 195 146
104 174 141
104 174 141
104 174 141
104 174 141
104 174 141
104 174 141
112 195 146
112 195 146
112 195 146
104 174 141
112 195 146
112 195 146
112 195 146
104 174 141
104 174 141
104 174 141
104 174 141
104 174 141
111 195 146
104 174 141
104 174 140
104 174 140
104 174 140
104 174 140
104 174 140
111 195 146
111 195 146
103 174 140
103 174 140
103 174 140
103 174 140
103 174 140
103 174 140
103 174 140
103 174 140
103 174 140
103 174 140
103 174 140
103 174 140
111 195 145
111 195 145
40 65 51
40 65 51
40 65 51
40 65 51
40 65 51
104 174 141
104 174 141
112 195 146
112 195 146
112 195 146
112 195 146
112 195 146
112 195 146
112 195 146
112 195 146
112 195 146
112 195 146
112 195 146
112 195 146
104 174 141
104 174 141
38 60 51
38 60 51
40 66 52
40 66 52
112 195 146
104 175 141
112 195 146
97 161 101
97 161 101
89 140 96
88 140 95
88 139 95
88 139 95
85 136 91
85 136 91
85 136 92
85 136 92
85 136 92
85 136 92
85 136 92
85 136 92
85 136 92
93 157 97
93 157 97
93 157 97
93 157 97
93 157 97
93 157 97
112 195 146
112 195 146
97 161 101
96 161 101
96 160 101
96 160 100
93 157 97
93 157 97
93 157 97
93 157 97
93 157 97
93 157 97
93 157 97
93 157 97
96 161 101
96 160 101
96 160 100
96 160 100
96 160 100
92 157 97
92 157 97
93 157 97
93 157 97
93 157 97
93 157 97
93 157 97
96 161 101
96 160 101
96 160 100
96 160 100
96 160 100
96 160 100
92 157 96
92 157 97
92 157 97
93 157 97
93 157 97
93 157 97
93 157 97
96 160 100
96 160 100
96 160 100
96 160 100
96 160 100
96 160 100
92 157 96
92 157 97
92 157 97
92 157 97
93 157 97
93 157 97
96 160 100
96 160 100
96 160 100
96 160 100
96 160 100
96 160 100
96 160 100
92 157 96
92 157 96
92 157 97
92 157 97
93 157 97
93 157 97
96 160 100
96 160 100
96 160 100
96 160 100
96 160 100
96 160 100
96 160 100
92 157 96
92 157 97
92 157 97
93 157 97
93 157 97
93 157 97
96 160 100
96 160 100
96 160 100
96 160 100
96 160 100
96 160 100
96 160 100
88 139 95
88 139 95
103 174 140
103 174 140
103 174 140
103 174 140
103 174 140
111 195 145
103 174 140
103 174 140
103 174 140
103 174 140
111 195 146
111 195 146
111 195 146
103 174 140
103 174 140
103 174 140
111 195 145
111 195 145
111 195 145
111 195 145
111 195 145
111 195 145
111 195 145
103 174 140
111 195 145
103 174 140
111 195 145
111 195 145
103 174 140
103 174 140
103 174 140
111 195 145
111 195 145
111 195 145
111 195 145
111 195 145
111 195 145
111 195 145
111 195 145
103 174 140
111 195 145
111 195 145
103 174 140
111 195 145
103 174 140
103 174 140
111 195 145
111 195 145
103 174 140
111 195 145
111 195 145
111 195 145
103 174 140
111 195 145
111 195 145
111 195 145
103 174 140
103 174 140
103 174 140
103 174 140
103 174 140
111 195 146
111 195 146
111 195 146
111 195 146
111 195 146
111 195 146
111 195 146
111 195 146
104 174 140
104 174 140
104 174 140
104 174 141
111 195 146
104 174 141
104 174 141
104 174 141
112 195 146
112 195 146
112 195 146
112 195 146
112 195 146
112 195 146
112 195 146
112 195 146
112 195 146
104 174 141
112 195 146
104 174 141
104 174 141
104 174 141
104 174 141
112 195 146
112 195 146
112 195 146
104 174 141
112 195 146
104 174 141
104 174 141
104 174 141
104 175 141
104 175 141
104 175 141
104 175 141
104 175 141
104 175 141
112 195 146
113 195 147
113 195 147
95 158 100
87 138 95
114 195 148
114 195 148
114 195 148
114 195 148
114 195 148
114 195 148
99 162 105
105 175 142
105 175 141
105 175 141
112 195 147
112 195 147
112 195 147
112 195 147
112 195 147
112 195 146
112 195 146
112 195 146
112 195 146
104 175 141
104 175 141
104 175 141
104 175 141
104 174 141
104 174 141
112 195 146
112 195 146
104 174 141
112 195 146
112 195 146
112 195 146
112 195 146
112 195 146
104 174 141
112 195 146
104 174 141
104 174 141
104 174 141
104 174 141
104 174 141
104 174 141
112 195 146
112 195 146
112 195 146
112 195 146
104 174 141
112 195 146
104 174 141
104 174 141
104 174 141
111 195 146
104 174 140
104 174 140
104 174 140
104 174 140
111 195 146
111 195 146
111 195 146
111 195 146
111 195 146
111 195 146
111 195 146
103 174 140
111 195 145
103 174 140
103 174 140
103 174 140
103 174 140
111 195 145
103 174 140
103 174 140
111 195 145
111 195 145
111 195 145
111 195 145
37 59 50
39 65 51
37 59 50
37 59 50
37 59 49
104 174 141
104 174 141
104 174 141
112 195 146
112 195 146
112 195 146
112 195 146
112 195 146
112 195 146
111 195 146
111 195 146
104 174 141
104 174 140
104 174 140
104 174 140
104 174 140
40 66 52
40 66 52
38 60 50
38 60 50
112 195 146
112 195 146
112 195 146
97 161 101
89 140 96
88 140 95
88 139 95
88 139 95
85 136 91
85 136 92
85 136 92
85 136 92
85 136 92
85 136 92
85 136 92
85 136 92
85 136 92
93 157 97
93 157 97
93 157 97
93 157 97
112 195 146
112 195 146
112 195 146
112 195 146
112 195 146
112 195 146
96 161 101
96 160 101
93 157 97
93 157 97
93 157 97
93 157 97
93 157 97
93 157 97
112 195 146
112 195 146
112 195 146
96 161 101
96 160 101
96 160 100
96 160 100
92 157 97
93 157 97
93 157 97
93 157 97
93 157 97
93 157 97
112 195 146
112 195 146
96 160 101
96 160 100
96 160 100
96 160 100
96 160 100
92 157 97
92 157 97
92 157 97
93 157 97
93 157 97
93 157 97
104 174 141
96 160 101
96 160 100
96 160 100
96 160 100
96 160 100
96 160 100
92 157 96
92 157 97
92 157 97
93 157 97
93 157 97
93 157 97
96 160 101
96 160 100
96 160 100
96 160 100
96 160 100
96 160 100
96 160 100
92 157 96
92 157 97
92 157 97
93 157 97
93 157 97
93 157 97
96 160 100
96 160 100
96 160 100
96 160 100
96 160 100
96 160 100
96 160 100
92 157 96
92 157 97
92 157 97
93 157 97
93 157 97
93 157 97
96 160 101
96 160 100
96 160 100
96 160 100
96 160 100
96 160 100
96 160 100
88 139 95
88 139 95
88 139 95
88 139 95
111 195 145
103 174 140
103 174 140
103 174 140
103 174 140
103 174 140
103 174 140
111 195 145
111 195 145
111 195 145
111 195 145
111 195 145
111 195 145
95 160 99
95 160 99
111 195 145
111 195 145
111 195 145
103 174 140
103 174 140
103 174 140
103 174 140
103 174 140
111 195 145
103 174 140
111 195 145
111 195 145
103 174 140
111 195 145
111 195 145
111 195 145
111 195 145
111 195 145
103 174 140
111 195 145
111 195 145
111 195 145
111 195 145
103 174 140
111 195 145
111 195 145
111 195 145
103 174 140
111 195 145
111 195 145
111 195 145
111 195 145
111 195 145
111 195 145
111 195 145
111 195 145
111 195 145
111 195 145
111 195 145
103 174 140
111 195 145
103 174 140
103 174 140
111 195 145
103 174 140
103 174 140
111 195 146
111 195 146
111 195 146
111 195 146
111 195 146
111 195 146
103 174 140
111 195 146
111 195 146
104 174 140
104 174 140
111 195 146
104 174 141
111 195 146
112 195 146
112 195 146
112 195 146
112 195 146
112 195 146
112 195 146
112 195 146
112 195 146
104 174 141
104 174 141
112 195 146
104 174 141
104 174 141
112 195 146
112 195 146
112 195 146
112 195 146
112 195 146
112 195 146
112 195 146
104 174 141
112 195 146
104 174 141
104 174 141
104 174 141
104 175 141
104 175 141
104 175 141
104 175 141
86 137 93
105 175 142
113 195 147
87 138 95
95 158 101
114 195 148
114 195 148
114 195 148
106 175 143
114 195 148
114 195 148
114 195 148
112 195 147
112 195 147
112 195 147
112 195 147
112 195 147
112 195 147
112 195 146
112 195 146
112 195 146
112 195 146
112 195 146
112 195 146
112 195 146
104 174 141
104 174 141
104 174 141
112 195 146
112 195 146
112 195 146
112 195 146
112 195 146
104 174 141
112 195 146
112 195 146
112 195 146
112 195 146
104 174 141
104 174 141
104 174 141
104 174 141
104 174 141
112 195 146
104 174 141
112 195 146
112 195 146
112 195 146
112 195 146
112 195 146
111 195 146
111 195 146
111 195 146
104 174 140
104 174 140
104 174 140
104 174 140
103 174 140
111 195 146
111 195 146
111 195 146
111 195 146
111 195 146
111 195 146
111 195 146
111 195 145
111 195 145
111 195 145
103 174 140
103 174 140
103 174 140
103 174 140
103 174 140
103 174 140
111 195 145
103 174 140
103 174 140
111 195 145
111 195 145
111 195 145
37 59 50
37 59 49
39 65 51
39 65 51
39 65 51
37 59 49
104 174 141
104 174 141
104 174 141
112 195 146
111 195 146
111 195 146
111 195 146
104 174 140
104 174 140
104 174 140
104 174 140
104 174 140
104 174 140
103 174 140
111 195 146
103 174 140
40 66 52
40 66 52
38 60 50
40 66 52
112 195 146
112 195 146
112 195 146
89 140 96
89 140 96
88 140 95
88 139 95
85 136 92
85 136 92
85 136 92
85 136 92
85 136 92
85 136 92
85 136 92
85 136 92
85 136 92
93 157 97
93 157 97
112 195 146
104 174 141
112 195 146
112 195 146
104 174 141
112 195 146
104 174 141
112 195 146
104 174 141
96 160 101
93 157 97
93 157 97
93 157 97
93 157 97
112 195 146
112 195 146
112 195 146
112 195 146
112 195 146
112 195 146
112 195 146
96 160 100
96 160 100
93 157 97
93 157 97
93 157 97
93 157 97
104 174 141
112 195 146
112 195 146
104 174 141
112 195 146
112 195 146
96 160 100
96 160 100
96 160 100
92 157 97
92 157 97
93 157 97
93 157 97
112 195 146
112 195 146
111 195 146
111 195 146
104 174 141
96 160 100
96 160 100
96 160 100
96 160 100
92 157 97
92 157 97
92 157 97
93 157 97
93 157 97
112 195 146
112 195 146
112 195 146
96 160 100
96 160 100
96 160 100
96 160 100
96 160 100
92 157 97
92 157 97
92 157 97
93 157 97
93 157 97
112 195 146
104 174 141
96 160 100
96 160 100
96 160 100
96 160 100
96 160 100
96 160 100
92 157 97
92 157 97
93 157 97
93 157 97
93 157 97
112 195 146
96 160 101
96 160 100
96 160 100
96 160 100
96 160 100
96 160 100
96 160 100
88 139 95
88 139 95
88 139 95
88 139 95
88 139 95
88 139 94
103 174 140
103 174 140
103 174 140
103 174 140
111 195 145
111 195 145
111 195 145
111 195 145
111 195 145
111 195 145
103 174 140
95 160 99
95 160 99
95 160 99
103 174 139
111 195 145
111 195 145
111 195 145
111 195 145
111 195 145
111 195 145
111 195 145
111 195 145
111 195 145
111 195 145
103 174 140
111 195 145
103 174 140
103 174 140
111 195 145
103 174 140
103 174 140
103 174 140
111 195 145
111 195 145
111 195 145
103 174 140
103 174 140
111 195 145
111 195 145
103 174 140
111 195 145
103 174 140
111 195 145
111 195 145
111 195 145
111 195 145
111 195 145
111 195 145
111 195 145
103 174 140
111 195 145
111 195 145
111 195 145
111 195 145
103 174 140
111 195 145
111 195 145
111 195 145
111 195 145
111 195 145
111 195 146
111 195 146
111 195 146
111 195 146
111 195 146
111 195 146
111 195 146
111 195 146
111 195 146
111 195 146
111 195 146
111 195 146
111 195 146
111 195 146
111 195 146
112 195 146
112 195 146
112 195 146
112 195 146
112 195 146
104 174 141
112 195 146
112 195 146
104 174 141
104 174 141
112 195 146
104 174 141
104 174 141
112 195 146
112 195 146
112 195 146
104 174 141
112 195 146
112 195 146
112 195 146
104 174 141
104 174 141
104 174 141
104 174 141
104 174 141
86 136 93
113 195 147
113 195 147
95 158 100
87 138 95
114 195 148
114 195 148
114 195 148
114 195 148
114 195 148
114 195 148
114 195 148
114 195 148
112 195 147
112 195 147
112 195 147
112 195 146
112 195 146
112 195 146
104 175 141
112 195 146
112 195 146
104 175 141
112 195 146
112 195 146
112 195 146
104 174 141
112 195 146
112 195 146
112 195 146
112 195 146
112 195 146
112 195 146
112 195 146
112 195 146
112 195 146
112 195 146
112 195 146
112 195 146
112 195 146
104 174 141
112 195 146
112 195 146
104 174 141
112 195 146
112 195 146
112 195 146
112 195 146
111 195 146
111 195 146
111 195 146
111 195 146
111 195 146
111 195 146
111 195 146
103 174 140
103 174 140
111 195 146
111 195 146
111 195 146
111 195 146
111 195 146
111 195 146
111 195 145
111 195 145
111 195 145
111 195 145
111 195 145
103 174 140
103 174 140
103 174 140
103 174 140
111 195 145
103 174 140
111 195 145
111 195 145
111 195 145
111 195 145
111 195 145
111 195 145
111 195 145
111 195 145
37 59 49
37 59 49
37 59 49
37 59 49
39 65 51
39 65 51
104 174 141
104 174 141
104 174 140
104 174 140
111 195 146
104 174 140
104 174 140
104 174 140
104 174 140
111 195 146
103 174 140
111 195 146
103 174 140
103 174 140
103 174 140
111 195 146
40 66 52
40 66 52
40 66 52
40 66 52
104 174 141
112 195 146
104 174 141
89 140 96
88 140 95
88 139 95
85 136 92
85 136 92
85 136 92
85 136 92
85 136 92
85 136 92
85 136 92
85 136 92
85 136 92
112 195 146
112 195 146
112 195 146
112 195 146
112 195 146
104 174 141
104 174 141
112 195 146
112 195 146
104 174 141
112 195 146
112 195 146
96 160 101
93 157 97
112 195 146
112 195 146
112 195 146
112 195 146
112 195 146
104 174 141
112 195 146
112 195 146
112 195 146
112 195 146
96 160 100
93 157 97
93 157 97
111 195 146
111 195 146
104 174 141
111 195 146
111 195 146
111 195 146
111 195 146
104 174 141
111 195 146
96 160 100
96 160 100
92 157 97
93 157 97
93 157 97
111 195 146
111 195 146
111 195 146
111 195 146
111 195 146
111 195 146
111 195 146
96 160 100
96 160 100
96 160 100
92 157 97
92 157 97
93 157 97
111 195 146
111 195 146
111 195 146
111 195 146
111 195 146
111 195 146
96 160 100
96 160 100
96 160 100
96 160 100
92 157 97
92 157 97
93 157 97
111 195 146
104 174 141
111 195 146
104 174 141
111 195 146
96 160 100
96 160 100
96 160 100
96 160 100
96 160 100
92 157 97
93 157 97
93 157 97
93 157 97
112 195 146
104 174 141
112 195 146
96 160 101
96 160 100
96 160 100
96 160 100
96 160 100
96 160 100
88 139 95
88 139 95
88 139 95
88 139 95
88 139 95
88 139 95
88 139 94
103 174 140
103 174 140
111 195 145
111 195 145
111 195 145
111 195 145
111 195 145
111 195 145
111 195 145
38 64 50
95 160 99
95 160 99
95 160 99
95 160 99
95 160 99
111 195 145
103 174 139
111 195 145
111 195 145
103 174 140
111 195 145
111 195 145
103 174 140
103 174 140
103 174 140
103 174 140
103 174 140
111 195 145
103 174 140
111 195 145
111 195 145
111 195 145
111 195 145
111 195 145
111 195 145
111 195 145
111 195 145
111 195 145
103 174 140
103 174 140
103 174 140
103 174 140
103 174 140
111 195 145
103 174 140
111 195 145
111 195 145
111 195 145
111 195 145
111 195 145
111 195 145
111 195 145
103 174 140
103 174 140
103 174 140
103 174 140
103 174 140
111 195 145
111 195 145
111 195 145
111 195 145
111 195 145
111 195 145
111 195 146
111 195 146
111 195 146
111 195 146
111 195 146
111 195 146
103 174 140
103 174 140
111 195 146
111 195 146
111 195 146
111 195 146
111 195 146
111 195 146
111 195 146
112 195 146
112 195 146
112 195 146
112 195 146
104 174 141
112 195 146
104 174 141
112 195 146
104 174 141
112 195 146
112 195 146
112 195 146
112 195 146
112 195 146
112 195 146
112 195 146
112 195 146
112 195 146
112 195 146
104 174 141
112 195 146
112 195 146
86 137 93
105 175 142
113 195 147
113 195 147
106 175 143
106 175 143
106 175 143
106 175 143
114 195 148
114 195 148
114 195 148
114 195 148
114 195 148
112 195 146
112 195 146
112 195 146
104 175 141
112 195 146
112 195 146
112 195 146
112 195 146
104 174 141
112 195 146
104 174 141
104 174 141
104 174 141
104 174 141
112 195 146
112 195 146
112 195 146
112 195 146
112 195 146
112 195 146
104 174 141
112 195 146
112 195 146
104 174 141
104 174 141
112 195 146
104 174 141
104 174 141
112 195 146
112 195 146
104 174 141
104 174 141
111 195 146
104 174 141
111 195 146
104 174 140
111 195 146
111 195 146
104 174 140
111 195 146
111 195 146
103 174 140
111 195 146
111 195 146
111 195 146
103 174 140
103 174 140
111 195 145
103 174 140
111 195 145
111 195 145
103 174 140
111 195 145
111 195 145
111 195 145
103 174 140
103 174 140
111 195 145
111 195 145
111 195 145
111 195 145
111 195 145
111 195 145
111 195 145
103 174 140
111 195 145
111 195 145
111 195 145
111 195 145
111 195 145
37 59 49
37 59 49
39 65 51
37 59 49
37 58 49
39 65 51
104 174 140
111 195 146
104 174 140
104 174 140
103 174 140
103 174 140
103 174 140
103 174 140
103 174 140
103 174 140
103 174 140
103 174 140
111 195 146
103 174 140
103 174 140
111 195 145
40 66 52
40 66 52
40 66 51
37 59 50
104 174 141
104 174 141
104 174 141
89 140 96
88 140 95
85 136 92
85 136 92
85 136 92
85 136 92
85 136 92
85 136 92
85 136 92
112 195 146
104 174 141
104 174 141
112 195 146
112 195 146
104 174 141
112 195 146
104 174 141
112 195 146
104 174 141
112 195 146
112 195 146
112 195 146
112 195 146
104 174 141
112 195 146
112 195 146
112 195 146
112 195 146
111 195 146
104 174 141
104 174 141
111 195 146
111 195 146
111 195 146
111 195 146
111 195 146
111 195 146
111 195 146
111 195 146
111 195 146
111 195 146
111 195 146
111 195 146
111 195 146
104 174 140
111 195 146
111 195 146
104 174 140
96 160 100
93 157 97
111 195 146
104 174 140
111 195 146
111 195 146
111 195 146
111 195 146
111 195 146
111 195 146
111 195 146
104 174 140
96 160 100
96 160 100
92 157 97
111 195 146
111 195 146
111 195 146
111 195 146
111 195 146
111 195 146
111 195 146
104 174 140
111 195 146
111 195 146
96 160 100
96 160 100
92 157 97
93 157 97
104 174 140
111 195 146
111 195 146
111 195 146
111 195 146
111 195 146
111 195 146
111 195 146
96 160 100
96 160 100
96 160 100
92 157 97
93 157 97
111 195 146
104 174 141
104 174 141
111 195 146
112 195 146
112 195 146
112 195 146
96 160 100
96 160 100
96 160 100
96 160 100
88 139 95
88 139 95
88 139 95
88 139 95
88 139 95
88 139 95
88 139 94
111 195 145
103 174 140
111 195 145
111 195 145
103 174 140
111 195 145
111 195 145
111 195 145
111 195 145
38 64 50
95 160 99
95 160 99
95 160 99
95 160 99
95 160 99
95 160 99
95 160 99
103 174 139
111 195 145
111 195 145
111 195 145
103 174 139
103 174 139
103 174 140
111 195 145
111 195 145
103 174 140
103 174 140
103 174 140
103 174 140
103 174 140
111 195 145
111 195 145
111 195 145
111 195 145
111 195 145
111 195 145
103 174 140
103 174 140
103 174 140
103 174 140
111 195 145
103 174 140
103 174 140
103 174 140
111 195 145
103 174 140
111 195 145
103 174 140
111 195 145
111 195 145
111 195 145
103 174 140
103 174 140
103 174 140
103 174 140
103 174 140
111 195 145
103 174 140
111 195 145
111 195 145
103 174 140
111 195 145
111 195 145
103 174 140
111 195 145
103 174 140
103 174 140
103 174 140
103 174 140
103 174 140
103 174 140
103 174 140
111 195 146
104 174 140
111 195 146
111 195 146
104 174 140
111 195 146
104 174 141
111 195 146
112 195 146
104 174 141
104 174 141
104 174 141
104 174 141
104 174 141
112 195 146
104 174 141
112 195 146
112 195 146
104 174 141
104 174 141
112 195 146
112 195 146
112 195 146
112 195 146
112 195 146
112 195 146
104 174 141
104 174 141
105 175 142
113 195 147
113 195 147
113 195 147
113 195 147
106 175 143
106 175 143
106 175 143
106 175 143
114 195 148
114 195 148
114 195 148
112 195 146
112 195 146
112 195 146
112 195 146
112 195 146
104 174 141
112 195 146
112 195 146
104 174 141
104 174 141
104 174 141
104 174 141
112 195 146
112 195 146
112 195 146
112 195 146
112 195 146
104 174 141
112 195 146
112 195 146
112 195 146
112 195 146
112 195 146
104 174 141
112 195 146
112 195 146
104 174 141
104 174 141
112 195 146
111 195 146
111 195 146
111 195 146
111 195 146
111 195 146
111 195 146
111 195 146
111 195 146
111 195 146
111 195 146
103 174 140
103 174 140
103 174 140
103 174 140
111 195 146
111 195 145
111 195 145
111 195 145
111 195 145
111 195 145
111 195 145
111 195 145
111 195 145
111 195 145
111 195 145
111 195 145
103 174 140
103 174 140
111 195 145
111 195 145
111 195 145
111 195 145
103 174 140
111 195 145
103 174 140
111 195 145
111 195 145
111 195 145
111 195 145
111 195 145
111 195 145
92 156 96
37 58 49
37 58 49
37 58 49
37 58 49
39 65 50
111 195 146
111 195 146
111 195 146
111 195 146
103 174 140
111 195 146
103 174 140
103 174 140
111 195 146
103 174 140
103 174 140
103 174 140
103 174 140
103 174 140
84 136 91
84 136 91
40 65 51
37 59 50
37 59 50
40 65 51
40 65 51
104 174 141
104 174 141
104 174 141
88 140 95
85 136 92
85 136 92
85 136 92
85 136 92
85 136 92
104 174 141
104 174 141
104 174 141
104 174 141
104 174 141
104 174 141
112 195 146
112 195 146
112 195 146
112 195 146
112 195 146
112 195 146
112 195 146
112 195 146
104 174 141
104 174 141
104 174 141
104 174 141
111 195 146
111 195 146
111 195 146
111 195 146
111 195 146
104 174 140
104 174 140
111 195 146
111 195 146
104 174 140
111 195 146
104 174 140
111 195 146
111 195 146
111 195 146
111 195 146
111 195 146
111 195 146
111 195 146
111 195 146
111 195 146
103 174 140
111 195 146
103 174 140
103 174 140
111 195 146
111 195 146
111 195 146
111 195 146
111 195 146
103 174 140
111 195 146
111 195 146
111 195 146
111 195 146
103 174 140
103 174 140
111 195 146
111 195 146
111 195 146
111 195 146
103 174 140
111 195 146
111 195 146
111 195 146
111 195 146
111 195 146
111 195 146
111 195 146
96 160 100
111 195 146
111 195 146
111 195 146
111 195 146
111 195 146
111 195 146
111 195 146
111 195 146
111 195 146
111 195 146
111 195 146
96 160 100
96 160 100
93 157 97
111 195 146
111 195 146
104 174 140
111 195 146
111 195 146
111 195 146
111 195 146
111 195 146
111 195 146
96 160 100
96 160 100
96 160 100
88 139 95
88 139 95
88 139 95
88 139 95
88 139 95
88 139 95
103 174 140
103 174 140
103 174 140
103 174 140
103 174 140
111 195 145
103 174 140
111 195 145
111 195 145
111 195 145
36 58 48
95 160 99
95 160 99
95 160 99
95 160 99
95 160 99
95 160 99
95 160 99
95 160 99
95 160 99
111 195 145
111 195 145
103 174 139
103 174 139
103 174 139
103 174 139
103 174 139
111 195 145
111 195 145
103 174 140
103 174 140
103 174 140
103 174 140
103 174 140
111 195 145
111 195 145
103 174 140
103 174 140
111 195 145
103 174 140
103 174 140
103 174 140
111 195 145
103 174 140
103 174 140
103 174 140
103 174 140
103 174 140
111 195 145
111 195 145
111 195 145
111 195 145
111 195 145
103 174 140
103 174 140
103 174 140
103 174 140
103 174 140
103 174 140
103 174 140
103 174 140
103 174 140
111 195 145
111 195 145
111 195 145
111 195 145
111 195 145
111 195 145
103 174 140
103 174 140
103 174 140
103 174 140
103 174 140
103 174 140
103 174 140
111 195 146
111 195 146
111 195 146
111 195 146
104 174 140
111 195 146
111 195 146
111 195 146
104 174 141
104 174 141
104 174 141
104 174 141
104 174 141
112 195 146
112 195 146
112 195 146
112 195 146
112 195 146
112 195 146
112 195 146
112 195 146
112 195 146
112 195 146
112 195 146
112 195 146
112 195 146
112 195 146
104 174 141
104 174 141
113 195 147
113 195 147
105 175 142
113 195 147
105 175 142
106 175 143
106 175 143
114 195 148
106 175 143
106 175 143
112 195 146
112 195 146
112 195 146
112 195 146
112 195 146
104 174 141
112 195 146
104 174 141
104 174 141
104 174 141
104 174 141
104 174 141
104 174 141
112 195 146
112 195 146
112 195 146
112 195 146
112 195 146
112 195 146
112 195 146
112 195 146
104 174 141
112 195 146
104 174 141
104 174 141
104 174 141
112 195 146
104 174 141
111 195 146
111 195 146
104 174 140
111 195 146
111 195 146
111 195 146
111 195 146
103 174 140
111 195 146
103 174 140
111 195 146
103 174 140
111 195 146
103 174 140
103 174 140
111 195 145
111 195 145
111 195 145
111 195 145
111 195 145
111 195 145
111 195 145
111 195 145
111 195 145
103 174 140
103 174 140
103 174 140
103 174 140
103 174 140
103 174 140
111 195 145
111 195 145
111 195 145
111 195 145
111 195 145
111 195 145
103 174 140
111 195 145
111 195 145
111 195 145
92 156 96
92 156 96
92 156 96
37 58 49
36 58 49
39 65 50
39 65 50
39 65 50
36 58 49
111 195 146
111 195 146
111 195 146
111 195 146
111 195 146
103 174 140
103 174 140
103 174 140
103 174 140
103 174 140
84 136 91
84 136 91
84 136 91
84 136 91
84 136 91
37 59 50
37 59 50
37 59 50
37 59 50
39 65 51
37 59 50
104 174 141
104 174 141
104 174 141
88 140 95
85 136 92
85 136 92
104 174 141
104 174 141
104 174 141
112 195 146
104 174 141
104 174 141
104 174 141
104 174 141
104 174 141
112 195 146
111 195 146
111 195 146
111 195 146
111 195 146
104 174 141
104 174 140
104 174 140
104 174 140
111 195 146
104 174 140
111 195 146
111 195 146
111 195 146
111 195 146
111 195 146
111 195 146
111 195 146
111 195 146
103 174 140
111 195 146
103 174 140
103 174 140
103 174 140
111 195 146
103 174 140
111 195 146
111 195 146
111 195 146
111 195 146
103 174 140
111 195 146
103 174 140
103 174 140
111 195 146
103 174 140
103 174 140
111 195 146
111 195 146
111 195 146
111 195 146
111 195 146
111 195 146
111 195 146
103 174 140
111 195 146
92 157 97
92 157 97
96 160 100
103 174 140
111 195 146
111 195 146
111 195 146
111 195 146
111 195 146
111 195 146
111 195 146
111 195 146
111 195 146
103 174 140
103 174 140
111 195 146
111 195 146
103 174 140
111 195 146
111 195 146
111 195 146
111 195 146
103 174 140
111 195 146
111 195 146
111 195 146
111 195 146
111 195 146
111 195 146
111 195 146
111 195 146
111 195 146
111 195 146
111 195 146
111 195 146
111 195 146
104 174 140
111 195 146
104 174 140
111 195 146
96 160 100
88 139 95
88 139 95
88 139 95
88 139 95
103 174 140
103 174 140
103 174 140
103 174 140
103 174 140
103 174 140
111 195 145
111 195 145
103 174 140
111 195 145
111 195 145
111 195 145
38 64 49
95 160 99
95 160 99
95 160 99
95 160 99
95 160 99
95 160 99
95 160 99
95 160 99
110 195 145
110 195 145
110 195 145
103 174 139
103 174 139
103 174 139
103 174 139
103 174 139
103 174 139
103 174 139
103 174 139
103 174 139
103 174 139
103 174 140
103 174 140
111 195 145
111 195 145
103 174 140
103 174 140
111 195 145
103 174 140
103 174 140
111 195 145
103 174 140
103 174 140
103 174 140
103 174 140
103 174 140
103 174 140
103 174 140
111 195 145
111 195 145
103 174 140
103 174 140
103 174 140
103 174 140
103 174 140
111 195 145
103 174 140
103 174 140
103 174 140
103 174 140
103 174 140
103 174 140
103 174 140
111 195 145
111 195 145
111 195 145
103 174 140
103 174 140
103 174 140
111 195 145
103 174 140
103 174 140
111 195 146
103 174 140
103 174 140
103 174 140
111 195 146
103 174 140
111 195 146
111 195 146
111 195 146
111 195 146
111 195 146
111 195 146
111 195 146
104 174 141
112 195 146
104 174 141
104 174 141
104 174 141
104 174 141
104 174 141
112 195 146
112 195 146
112 195 146
112 195 146
112 195 146
104 174 141
112 195 146
112 195 146
104 174 141
104 174 141
104 174 141
112 195 146
112 195 146
104 174 141
113 195 147
113 195 147
113 195 147
113 195 147
113 195 147
106 175 143
106 175 143
104 174 141
112 195 146
104 174 141
104 174 141
104 174 141
104 174 141
104 174 141
112 195 146
104 174 141
112 195 146
104 174 141
104 174 141
104 174 141
104 174 141
104 174 141
112 195 146
104 174 141
112 195 146
104 174 141
104 174 141
104 174 141
104 174 141
104 174 141
104 174 141
104 174 141
104 174 141
104 174 140
104 174 140
111 195 146
111 195 146
104 174 140
103 174 140
111 195 146
111 195 146
103 174 140
103 174 140
103 174 140
103 174 140
103 174 140
111 195 145
111 195 145
103 174 140
111 195 145
111 195 145
111 195 145
111 195 145
111 195 145
111 195 145
111 195 145
111 195 145
103 174 140
103 174 140
103 174 140
103 174 140
103 174 140
103 174 140
103 174 140
103 174 140
111 195 145
111 195 145
111 195 145
111 195 145
111 195 145
111 195 145
111 195 145
111 195 145
92 156 96
92 156 96
92 156 96
92 156 96
92 157 96
36 58 49
39 65 50
39 65 50
39 64 50
36 58 49
39 64 50
39 64 50
111 195 146
111 195 145
111 195 145
103 174 140
103 174 140
103 174 140
111 195 145
84 136 91
84 136 91
84 136 91
84 136 91
84 136 91
84 136 91
84 136 91
37 59 50
37 59 50
37 59 50
37 59 50
37 59 49
104 174 141
104 174 141
104 174 141
112 195 146
104 174 141
104 174 141
104 174 141
104 174 141
104 174 141
104 174 141
104 174 141
112 195 146
111 195 146
104 174 141
104 174 141
104 174 141
104 174 140
111 195 146
104 174 140
104 174 140
111 195 146
104 174 140
104 174 140
104 174 140
104 174 140
104 174 140
104 174 140
111 195 146
103 174 140
111 195 146
111 195 146
111 195 146
103 174 140
103 174 140
111 195 146
111 195 146
103 174 140
103 174 140
103 174 140
103 174 140
103 174 140
103 174 140
111 195 146
111 195 146
103 174 140
111 195 146
103 174 140
103 174 140
103 174 140
111 195 146
103 174 140
103 174 140
103 174 140
103 174 140
111 195 146
103 174 140
111 195 146
111 195 146
111 195 146
111 195 146
92 157 96
92 157 97
92 157 97
93 157 97
96 160 100
96 160 100
96 160 100
111 195 146
111 195 146
111 195 146
103 174 140
111 195 146
111 195 146
111 195 146
103 174 140
103 174 140
111 195 146
103 174 140
103 174 140
111 195 146
111 195 146
103 174 140
111 195 146
111 195 146
111 195 146
111 195 146
111 195 146
111 195 146
103 174 140
103 174 140
111 195 146
103 174 140
111 195 146
103 174 140
111 195 146
111 195 146
111 195 146
111 195 146
103 174 140
111 195 146
111 195 146
104 174 140
104 174 140
104 174 140
88 139 95
88 139 95
103 174 140
103 174 140
103 174 140
103 174 140
103 174 140
103 174 140
111 195 145
111 195 145
103 174 140
103 174 140
103 174 140
111 195 145
111 195 145
95 160 99
95 160 99
95 160 99
95 160 99
95 160 99
95 160 99
95 160 99
95 160 99
110 195 145
110 195 145
110 195 145
102 174 139
110 195 145
102 174 139
110 195 145
103 174 139
103 174 139
103 174 139
103 174 139
103 174 139
111 195 145
111 195 145
103 174 139
103 174 139
111 195 145
111 195 145
103 174 140
111 195 145
111 195 145
103 174 140
103 174 140
103 174 140
103 174 140
103 174 140
103 174 140
103 174 140
111 195 145
103 174 140
103 174 140
103 174 140
111 195 145
111 195 145
103 174 140
103 174 140
103 174 140
103 174 140
103 174 140
103 174 140
103 174 140
103 174 140
103 174 140
103 174 140
103 174 140
103 174 140
103 174 140
103 174 140
103 174 140
103 174 140
111 195 145
103 174 140
111 195 145
111 195 145
103 174 140
111 195 145
111 195 145
103 174 140
103 174 140
103 174 140
103 174 140
103 174 140
103 174 140
111 195 146
111 195 146
111 195 146
104 174 140
104 174 140
104 174 140
104 174 140
104 174 141
104 174 141
104 174 141
104 174 141
112 195 146
104 174 141
104 174 141
112 195 146
112 195 146
104 174 141
104 174 141
104 174 141
104 174 141
104 174 141
104 174 141
104 174 141
112 195 146
104 174 141
104 174 141
104 174 141
104 174 141
105 175 142
113 195 147
113 195 147
113 195 147
113 195 147
112 195 146
104 174 141
104 174 141
104 174 141
104 174 141
104 174 141
104 174 141
104 174 141
104 174 141
104 174 141
104 174 141
104 174 141
104 174 141
104 174 141
104 174 141
104 174 141
104 174 141
104 174 141
104 174 141
104 174 141
104 174 141
104 174 141
104 174 141
104 174 140
104 174 140
104 174 140
104 174 140
104 174 140
103 174 140
111 195 146
111 195 146
103 174 140
103 174 140
103 174 140
103 174 140
103 174 140
103 174 140
103 174 140
103 174 140
103 174 140
103 174 140
103 174 140
103 174 140
103 174 140
111 195 145
111 195 145
111 195 145
103 174 140
103 174 140
111 195 145
111 195 145
103 174 140
103 174 140
103 174 140
103 174 140
111 195 145
103 174 140
103 174 140
111 195 145
111 195 145
103 174 140
111 195 145
111 195 145
92 156 96
92 156 96
92 156 96
92 156 96
92 156 96
92 156 96
92 157 96
92 157 96
39 64 50
39 64 50
39 64 50
39 64 50
39 64 50
39 64 50
111 195 145
111 195 145
103 174 140
111 195 145
103 174 140
103 174 140
84 136 91
84 136 91
84 136 91
84 136 91
84 136 91
84 136 91
84 136 91
84 136 91
85 136 91
85 136 91
37 59 49
37 59 49
37 59 49
104 174 141
112 195 146
104 174 141
104 174 141
112 195 146
112 195 146
112 195 146
104 174 141
104 174 141
104 174 141
111 195 146
104 174 141
104 174 140
104 174 140
111 195 146
104 174 140
104 174 140
104 174 140
111 195 146
104 174 140
104 174 140
103 174 140
103 174 140
103 174 140
103 174 140
111 195 146
103 174 140
103 174 140
103 174 140
103 174 140
111 195 146
103 174 140
103 174 140
103 174 140
103 174 140
103 174 140
111 195 146
103 174 140
111 195 146
103 174 140
111 195 146
103 174 140
103 174 140
103 174 140
111 195 145
103 174 140
103 174 140
103 174 140
103 174 140
103 174 140
103 174 140
103 174 140
103 174 140
103 174 140
111 195 145
103 174 140
103 174 140
111 195 145
111 195 145
92 157 96
92 157 96
92 157 97
92 157 97
93 157 97
93 157 97
96 160 100
96 160 100
96 160 100
96 160 100
111 195 145
111 195 145
111 195 145
111 195 145
111 195 145
103 174 140
103 174 140
103 174 140
103 174 140
103 174 140
103 174 140
103 174 140
111 195 145
103 174 140
111 195 145
111 195 146
111 195 146
111 195 146
111 195 146
103 174 140
111 195 146
103 174 140
111 195 146
103 174 140
103 174 140
111 195 146
111 195 146
111 195 146
103 174 140
111 195 146
111 195 146
111 195 146
103 174 140
111 195 146
103 174 140
103 174 140
103 174 140
103 174 140
103 174 140
103 174 140
103 174 140
103 174 140
103 174 140
103 174 140
103 174 140
103 174 140
103 174 140
103 174 140
103 174 140
103 174 140
111 195 145
95 160 99
95 160 99
95 160 99
95 160 99
95 160 99
95 160 99
95 160 99
110 195 145
110 195 145
102 174 139
110 195 145
110 195 145
110 195 145
110 195 145
110 195 145
102 174 139
102 174 139
110 195 145
102 174 139
103 174 139
103 174 139
103 174 139
103 174 139
111 195 145
103 174 139
111 195 145
111 195 145
111 195 145
111 195 145
103 174 140
103 174 140
103 174 140
103 174 140
103 174 140
111 195 145
103 174 140
111 195 145
103 174 140
103 174 140
111 195 145
111 195 145
111 195 145
111 195 145
103 174 140
103 174 140
111 195 145
103 174 140
103 174 140
111 195 145
103 174 140
103 174 140
103 174 140
103 174 140
111 195 145
111 195 145
111 195 145
111 195 145
111 195 145
103 174 140
103 174 140
103 174 140
103 174 140
111 195 145
111 195 145
103 174 140
103 174 140
103 174 140
103 174 140
103 174 140
103 174 140
103 174 140
111 195 146
111 195 146
103 174 140
103 174 140
111 195 146
104 174 140
104 174 140
104 174 140
104 174 140
104 174 140
104 174 141
104 174 141
104 174 141
104 174 141
104 174 141
104 174 141
104 174 141
112 195 146
104 174 141
104 174 141
104 174 141
104 174 141
104 174 141
104 174 141
104 174 141
104 174 141
104 174 141
104 174 141
104 174 141
104 174 141
113 195 147
113 195 147
113 195 147
112 195 146
112 195 146
104 174 141
104 174 141
104 174 141
104 174 141
104 174 141
104 174 141
104 174 141
104 174 141
104 174 141
104 174 141
104 174 141
112 195 146
112 195 146
112 195 146
104 174 141
112 195 146
104 174 141
104 174 141
104 174 141
104 174 140
104 174 140
104 174 140
104 174 140
103 174 140
103 174 140
103 174 140
103 174 140
103 174 140
103 174 140
103 174 140
103 174 140
103 174 140
103 174 140
103 174 140
103 174 140
111 195 145
103 174 140
103 174 140
103 174 140
103 174 140
103 174 140
103 174 140
103 174 140
103 174 140
103 174 140
103 174 140
103 174 140
103 174 140
103 174 140
103 174 140
103 174 140
103 174 140
103 174 140
111 195 145
103 174 140
103 174 140
103 174 140
103 174 140
111 195 145
92 156 96
92 156 96
92 156 96
92 156 96
92 156 96
92 156 96
92 157 96
92 157 96
92 157 96
92 157 96
92 157 96
39 64 50
38 64 50
36 58 48
38 64 50
111 195 145
111 195 145
111 195 145
111 195 145
111 195 145
111 195 145
103 174 140
30 46 34
84 136 91
84 136 91
84 136 91
84 136 91
84 136 91
85 136 91
85 136 91
85 136 91
85 136 91
37 59 49
39 65 51
104 174 141
112 195 146
104 174 141
112 195 146
104 174 141
111 195 146
111 195 146
111 195 146
104 174 140
104 174 140
104 174 140
104 174 140
104 174 140
104 174 140
104 174 140
104 174 140
104 174 140
103 174 140
111 195 146
111 195 146
103 174 140
103 174 140
103 174 140
103 174 140
103 174 140
103 174 140
103 174 140
111 195 146
103 174 140
103 174 140
103 174 140
84 136 91
85 136 91
88 139 95
103 174 140
103 174 140
103 174 140
103 174 140
103 174 140
103 174 140
103 174 140
103 174 140
103 174 140
103 174 140
111 195 145
84 136 91
103 174 140
103 174 140
103 174 140
103 174 140
103 174 140
103 174 140
103 174 140
103 174 140
103 174 140
103 174 140
103 174 140
111 195 145
103 174 140
92 157 96
92 157 96
92 157 97
92 157 97
92 157 97
93 157 97
93 157 97
96 160 100
96 160 100
96 160 100
96 160 100
96 160 100
111 195 145
103 174 140
103 174 140
103 174 140
103 174 140
103 174 140
103 174 140
103 174 140
103 174 140
103 174 140
103 174 140
111 195 145
103 174 140
111 195 145
103 174 140
111 195 145
103 174 140
103 174 140
103 174 140
103 174 140
103 174 140
103 174 140
103 174 140
103 174 140
103 174 140
111 195 146
111 195 146
103 174 140
111 195 146
111 195 146
103 174 140
111 195 146
103 174 140
103 174 140
103 174 140
103 174 140
87 139 94
87 139 94
103 174 140
103 174 140
103 174 140
103 174 140
103 174 140
103 174 140
103 174 140
111 195 145
103 174 140
103 174 140
111 195 145
111 195 145
111 195 145
95 160 99
95 160 99
95 160 99
95 160 99
95 160 99
110 195 144
110 195 144
102 174 139
110 195 145
110 195 145
110 195 145
110 195 145
110 195 145
102 174 139
110 195 145
110 195 145
102 174 139
102 174 139
102 174 139
102 174 139
110 195 145
110 195 145
110 195 145
110 195 145
111 195 145
111 195 145
111 195 145
111 195 145
111 195 145
111 195 145
103 174 139
103 174 140
103 174 140
111 195 145
103 174 140
103 174 140
103 174 140
111 195 145
111 195 145
111 195 145
111 195 145
111 195 145
111 195 145
103 174 140
111 195 145
103 174 140
103 174 140
111 195 145
103 174 140
103 174 140
103 174 140
103 174 140
103 174 140
111 195 145
111 195 145
111 195 145
111 195 145
111 195 145
111 195 145
103 174 140
103 174 140
111 195 145
103 174 140
103 174 140
103 174 140
111 195 145
103 174 140
103 174 140
103 174 140
111 195 145
111 195 145
111 195 146
103 174 140
111 195 146
103 174 140
103 174 140
103 174 140
103 174 140
104 174 140
104 174 140
104 174 140
104 174 140
104 174 141
104 174 141
104 174 141
112 195 146
112 195 146
112 195 146
104 174 141
104 174 141
104 174 141
112 195 146
104 174 141
104 174 141
104 174 141
104 174 141
104 174 141
104 174 141
104 174 141
104 174 141
104 174 141
112 195 146
112 195 146
112 195 146
104 174 141
104 174 141
104 174 141
104 174 141
104 174 141
112 195 146
104 174 141
104 174 141
104 174 141
112 195 146
112 195 146
112 195 146
112 195 146
112 195 146
112 195 146
104 174 141
104 174 141
104 174 140
111 195 146
104 174 140
104 174 140
104 174 140
103 174 140
103 174 140
103 174 140
111 195 146
111 195 146
111 195 146
111 195 146
103 174 140
103 174 140
103 174 140
103 174 140
103 174 140
103 174 140
103 174 140
103 174 140
103 174 140
103 174 140
103 174 140
103 174 140
103 174 140
111 195 145
111 195 145
111 195 145
103 174 140
103 174 140
103 174 140
103 174 140
103 174 140
103 174 140
103 174 140
103 174 140
103 174 140
103 174 140
103 174 140
103 174 140
103 174 140
111 195 145
32 52 34
92 156 96
92 156 96
92 156 96
92 156 96
92 156 96
92 157 96
92 157 96
92 157 96
92 157 96
92 157 96
92 157 96
38 64 50
36 58 48
38 64 50
111 195 145
103 174 140
111 195 145
111 195 145
103 174 140
103 174 140
103 174 140
103 174 140
103 174 140
30 46 34
30 46 34
84 136 91
84 136 91
85 136 91
85 136 91
85 136 91
85 136 91
85 136 91
37 59 49
104 174 141
104 174 141
111 195 146
111 195 146
111 195 146
111 195 146
104 174 140
111 195 146
111 195 146
104 174 140
111 195 146
111 195 146
104 174 140
111 195 146
103 174 140
111 195 146
111 195 146
111 195 146
111 195 146
111 195 146
111 195 146
111 195 146
103 174 140
103 174 140
103 174 140
103 174 140
103 174 140
103 174 140
103 174 140
103 174 140
84 136 91
84 136 91
85 136 91
85 136 91
88 139 95
88 139 95
103 174 140
103 174 140
103 174 140
111 195 145
103 174 140
103 174 140
103 174 140
103 174 140
84 136 91
84 136 91
84 136 91
88 139 95
111 195 145
103 174 140
111 195 145
103 174 140
111 195 145
103 174 140
103 174 140
103 174 140
111 195 145
111 195 145
84 136 91
84 136 91
92 157 96
92 157 97
92 157 97
92 157 97
93 157 97
93 157 97
93 157 97
96 160 100
96 160 100
96 160 100
96 160 100
96 160 100
96 160 100
88 139 95
111 195 145
111 195 145
103 174 140
103 174 140
103 174 140
111 195 145
103 174 140
111 195 145
103 174 140
111 195 145
103 174 140
103 174 140
111 195 145
111 195 145
103 174 140
103 174 140
103 174 140
103 174 140
103 174 140
103 174 140
103 174 140
103 174 140
103 174 140
103 174 140
103 174 140
103 174 140
111 195 145
103 174 140
103 174 140
103 174 140
103 174 140
103 174 140
103 174 140
103 174 140
87 139 94
87 139 94
87 139 94
87 139 94
103 174 140
111 195 145
103 174 140
103 174 140
103 174 140
103 174 140
103 174 140
103 174 140
103 174 140
111 195 145
111 195 145
111 195 145
111 195 145
95 160 99
110 195 144
110 195 144
102 174 139
110 195 144
110 195 144
110 195 144
110 195 144
110 195 144
110 195 145
110 195 145
110 195 145
110 195 145
102 174 139
110 195 145
110 195 145
102 174 139
110 195 145
110 195 145
110 195 145
102 174 139
110 195 145
110 195 145
110 195 145
110 195 145
103 174 139
111 195 145
111 195 145
111 195 145
111 195 145
103 174 139
103 174 139
103 174 140
103 174 140
111 195 145
111 195 145
111 195 145
111 195 145
111 195 145
111 195 145
111 195 145
111 195 145
111 195 145
111 195 145
111 195 145
103 174 140
111 195 145
103 174 140
103 174 140
103 174 140
111 195 145
111 195 145
111 195 145
111 195 145
111 195 145
111 195 145
111 195 145
111 195 145
111 195 145
103 174 140
103 174 140
103 174 140
103 174 140
103 174 140
111 195 145
103 174 140
111 195 145
103 174 140
111 195 145
111 195 145
103 174 140
103 174 140
111 195 146
103 174 140
103 174 140
103 174 140
103 174 140
103 174 140
104 174 140
104 174 140
104 174 140
111 195 146
111 195 146
111 195 146
111 195 146
112 195 146
112 195 146
112 195 146
112 195 146
104 174 141
104 174 141
104 174 141
104 174 141
104 174 141
112 195 146
104 174 141
104 174 141
104 174 141
112 195 146
104 174 141
112 195 146
104 174 141
104 174 141
104 174 141
112 195 146
104 174 141
104 174 141
112 195 146
104 174 141
112 195 146
112 195 146
112 195 146
112 195 146
112 195 146
104 174 141
111 195 146
111 195 146
111 195 146
104 174 140
104 174 140
104 174 140
103 174 140
103 174 140
103 174 140
103 174 140
111 195 146
111 195 146
111 195 146
111 195 145
111 195 145
111 195 145
111 195 145
111 195 145
103 174 140
103 174 140
103 174 140
103 174 140
103 174 140
103 174 140
103 174 140
103 174 140
111 195 145
111 195 145
111 195 145
111 195 145
103 174 140
103 174 140
103 174 140
103 174 140
103 174 140
103 174 140
103 174 140
103 174 140
103 174 140
103 174 140
111 195 145
103 174 140
103 174 140
111 195 145
111 195 145
111 195 145
111 195 145
32 52 34
32 52 34
92 156 96
92 157 96
92 157 96
92 157 96
92 157 96
92 157 96
92 157 96
92 157 96
92 157 96
36 58 48
38 64 50
111 195 145
111 195 145
111 195 145
103 174 140
103 174 140
103 174 140
103 174 140
103 174 140
103 174 140
103 174 140
103 174 140
31 47 34
31 47 34
31 47 34
85 136 91
85 136 91
85 136 91
85 136 92
85 136 92
37 59 49
111 195 146
111 195 146
111 195 146
104 174 140
111 195 146
111 195 146
111 195 146
111 195 146
103 174 140
103 174 140
111 195 146
111 195 146
103 174 140
111 195 146
111 195 146
111 195 146
111 195 146
111 195 146
111 195 146
103 174 140
111 195 146
111 195 146
111 195 146
111 195 145
111 195 145
103 174 140
103 174 140
103 174 140
84 136 91
84 136 91
84 136 91
85 136 91
85 136 91
85 136 91
88 139 95
88 139 95
88 139 95
103 174 140
103 174 140
103 174 140
103 174 140
103 174 140
84 136 91
84 136 91
84 136 91
84 136 91
84 136 91
88 139 95
88 139 95
88 139 94
103 174 140
103 174 140
103 174 140
103 174 140
103 174 140
103 174 140
84 136 91
84 136 91
84 136 91
84 136 91
92 157 96
92 157 97
92 157 97
93 157 97
93 157 97
93 157 97
93 157 97
96 160 100
96 160 100
96 160 100
96 160 100
96 160 100
96 160 100
88 139 95
88 139 94
103 174 140
103 174 140
103 174 140
103 174 140
103 174 140
103 174 140
103 174 140
103 174 140
103 174 140
103 174 140
84 136 91
88 139 95
88 139 95
111 195 145
103 174 140
103 174 140
103 174 140
103 174 140
103 174 140
103 174 140
103 174 140
103 174 140
103 174 140
111 195 145
111 195 145
103 174 140
103 174 140
111 195 145
103 174 140
111 195 145
103 174 140
103 174 140
111 195 145
87 139 94
87 139 94
87 139 94
87 139 94
87 139 94
103 174 140
103 174 140
103 174 140
103 174 140
103 174 140
103 174 140
111 195 145
111 195 145
111 195 145
111 195 145
103 174 140
111 195 145
102 174 139
102 174 139
102 174 139
110 195 144
110 195 144
110 195 144
102 174 139
110 195 144
110 195 144
102 174 139
110 195 144
110 195 144
110 195 144
110 195 145
110 195 145
110 195 145
102 174 139
102 174 139
110 195 145
102 174 139
110 195 145
102 174 139
102 174 139
110 195 145
102 174 139
110 195 145
110 195 145
110 195 145
111 195 145
111 195 145
111 195 145
111 195 145
103 174 139
111 195 145
111 195 145
111 195 145
111 195 145
111 195 145
111 195 145
111 195 145
111 195 145
111 195 145
111 195 145
103 174 140
111 195 145
111 195 145
103 174 140
103 174 140
103 174 140
111 195 145
111 195 145
111 195 145
111 195 145
111 195 145
111 195 145
103 174 140
103 174 140
103 174 140
111 195 145
111 195 145
111 195 145
111 195 145
103 174 140
103 174 140
103 174 140
111 195 145
111 195 145
111 195 145
111 195 145
111 195 145
111 195 145
111 195 145
111 195 145
111 195 145
111 195 146
111 195 146
103 174 140
103 174 140
103 174 140
103 174 140
103 174 140
111 195 146
111 195 146
111 195 146
111 195 146
111 195 146
111 195 146
104 174 141
112 195 146
112 195 146
112 195 146
112 195 146
104 174 141
104 174 141
104 174 141
104 174 141
104 174 141
112 195 146
112 195 146
104 174 141
104 174 141
112 195 146
112 195 146
112 195 146
104 174 141
104 174 141
112 195 146
112 195 146
112 195 146
112 195 146
112 195 146
112 195 146
111 195 146
111 195 146
111 195 146
111 195 146
111 195 146
111 195 146
104 174 140
103 174 140
103 174 140
103 174 140
103 174 140
111 195 146
103 174 140
103 174 140
111 195 145
111 195 145
103 174 140
111 195 145
111 195 145
111 195 145
111 195 145
111 195 145
103 174 140
103 174 140
103 174 140
111 195 145
103 174 140
111 195 145
103 174 140
111 195 145
111 195 145
111 195 145
111 195 145
111 195 145
103 174 140
111 195 145
103 174 140
103 174 140
111 195 145
103 174 140
103 174 140
103 174 140
103 174 140
111 195 145
111 195 145
111 195 145
111 195 145
111 195 145
111 195 145
111 195 145
111 195 145
32 52 34
32 52 34
32 52 34
92 157 96
92 157 96
92 157 96
92 157 96
92 157 96
92 157 96
92 157 96
36 58 48
103 174 140
103 174 140
111 195 145
111 195 145
103 174 140
103 174 140
103 174 140
103 174 140
103 174 140
103 174 140
111 195 145
103 174 140
103 174 140
31 47 34
31 47 34
31 47 34
31 47 34
85 136 92
85 136 92
104 174 140
104 174 140
104 174 140
111 195 146
111 195 146
111 195 146
111 195 146
111 195 146
111 195 146
111 195 146
111 195 146
103 174 140
111 195 146
103 174 140
96 160 100
111 195 146
111 195 146
111 195 146
103 174 140
111 195 145
103 174 140
111 195 145
111 195 145
111 195 145
111 195 145
111 195 145
111 195 145
103 174 140
84 136 91
84 136 91
84 136 91
84 136 91
85 136 91
85 136 91
85 136 91
85 136 92
88 139 95
88 139 95
88 139 95
88 139 95
103 174 140
111 195 145
103 174 140
84 136 91
84 136 91
84 136 91
84 136 91
84 136 91
85 136 91
88 139 95
88 139 95
88 139 95
88 139 94
103 174 140
103 174 140
103 174 140
103 174 140
84 136 91
84 136 91
84 136 91
84 136 91
84 136 91
92 157 97
92 157 97
92 157 97
93 157 97
93 157 97
93 157 97
112 195 146
96 160 101
96 160 100
96 160 100
96 160 100
96 160 100
96 160 100
88 139 95
88 139 95
88 139 94
111 195 145
103 174 140
103 174 140
103 174 140
103 174 140
103 174 140
103 174 140
84 136 91
84 136 91
84 136 91
88 139 95
88 139 95
88 139 94
103 174 140
103 174 140
103 174 140
111 195 145
103 174 140
103 174 140
103 174 140
103 174 140
111 195 145
111 195 145
111 195 145
111 195 145
111 195 145
111 195 145
103 174 140
103 174 140
103 174 140
103 174 140
88 139 94
87 139 94
87 139 94
87 139 94
87 139 94
87 139 94
87 139 94
87 139 94
111 195 145
103 174 140
111 195 145
111 195 145
103 174 140
103 174 140
111 195 145
103 174 140
111 195 145
102 174 139
102 174 139
102 174 139
110 195 144
110 195 144
102 174 139
110 195 144
110 195 144
110 195 144
110 195 144
110 195 144
110 195 144
110 195 144
110 195 144
110 195 144
102 174 139
102 174 139
102 174 139
102 174 139
102 174 139
110 195 145
110 195 145
110 195 145
110 195 145
110 195 145
102 174 139
102 174 139
110 195 145
102 174 139
110 195 145
110 195 145
110 195 145
111 195 145
103 174 139
103 174 139
111 195 145
111 195 145
103 174 139
111 195 145
111 195 145
111 195 145
111 195 145
111 195 145
111 195 145
111 195 145
111 195 145
111 195 145
111 195 145
111 195 145
103 174 140
111 195 145
111 195 145
103 174 140
111 195 145
111 195 145
111 195 145
103 174 140
111 195 145
111 195 145
103 174 140
111 195 145
111 195 145
103 174 140
103 174 140
111 195 145
103 174 140
111 195 145
111 195 145
111 195 145
103 174 140
111 195 145
111 195 145
111 195 145
111 195 145
103 174 140
111 195 145
111 195 145
103 174 140
103 174 140
103 174 140
103 174 140
103 174 140
111 195 146
111 195 146
111 195 146
111 195 146
111 195 146
111 195 146
111 195 146
111 195 146
104 174 141
112 195 146
112 195 146
112 195 146
104 174 141
104 174 141
104 174 141
104 174 141
112 195 146
112 195 146
112 195 146
112 195 146
112 195 146
112 195 146
112 195 146
112 195 146
104 174 141
112 195 146
112 195 146
112 195 146
112 195 146
111 195 146
104 174 141
111 195 146
111 195 146
104 174 140
111 195 146
111 195 146
111 195 146
111 195 146
103 174 140
103 174 140
103 174 140
111 195 146
111 195 145
111 195 145
111 195 145
111 195 145
111 195 145
111 195 145
111 195 145
111 195 145
111 195 145
111 195 145
103 174 140
103 174 140
111 195 145
111 195 145
103 174 140
111 195 145
111 195 145
111 195 145
111 195 145
111 195 145
111 195 145
111 195 145
111 195 145
111 195 145
111 195 145
103 174 140
103 174 140
103 174 140
111 195 145
111 195 145
111 195 145
111 195 145
111 195 145
111 195 145
111 195 145
111 195 145
111 195 145
111 195 145
111 195 145
111 195 145
32 52 34
32 52 34
32 52 34
32 52 34
32 52 35
32 52 35
92 157 96
92 157 96
92 157 96
92 157 96
111 195 145
103 174 140
111 195 145
111 195 145
103 174 140
103 174 140
103 174 140
103 174 140
103 174 140
103 174 140
103 174 140
103 174 140
103 174 140
103 174 140
103 174 140
31 47 34
31 47 34
31 47 34
37 58 49
111 195 146
104 174 140
104 174 140
103 174 140
111 195 146
111 195 146
111 195 146
103 174 140
111 195 146
103 174 140
111 195 146
111 195 146
111 195 146
92 157 97
92 157 97
92 157 97
96 160 100
103 174 140
111 195 145
111 195 145
111 195 145
111 195 145
111 195 145
111 195 145
111 195 145
103 174 140
111 195 145
92 157 96
92 157 96
84 136 91
84 136 91
84 136 91
85 136 91
85 136 91
85 136 91
85 136 92
85 136 92
88 139 95
88 139 95
88 139 95
88 139 95
88 139 94
84 136 91
84 136 91
84 136 91
84 136 91
84 136 91
84 136 91
85 136 91
85 136 91
88 139 95
88 139 95
88 139 95
88 139 94
88 139 94
103 174 140
84 135 91
84 136 91
84 136 91
84 136 91
84 136 91
84 136 91
84 136 91
92 157 97
92 157 97
93 157 97
93 157 97
93 157 97
112 195 146
112 195 146
112 195 146
96 160 101
96 160 100
96 160 100
96 160 100
96 160 100
88 139 95
88 139 95
88 139 95
88 139 94
88 139 94
103 174 140
103 174 140
111 195 145
103 174 140
84 136 91
84 136 91
84 136 91
84 136 91
88 139 95
88 139 95
88 139 95
88 139 94
88 139 94
103 174 140
103 174 140
103 174 140
103 174 140
103 174 140
111 195 145
111 195 145
111 195 145
111 195 145
111 195 145
111 195 145
111 195 145
111 195 145
111 195 145
103 174 140
103 174 140
88 139 94
88 139 94
87 139 94
87 139 94
87 139 94
87 139 94
87 139 94
87 139 94
87 139 94
111 195 145
111 195 145
103 174 140
103 174 140
111 195 145
111 195 145
111 195 145
110 195 144
102 174 139
102 174 139
102 174 139
102 174 139
102 174 139
102 174 139
102 174 139
110 195 144
110 195 144
110 195 144
110 195 144
110 195 144
110 195 144
110 195 144
110 195 144
110 195 144
102 174 139
102 174 139
102 174 139
102 174 139
110 195 144
110 195 145
110 195 145
110 195 145
102 174 139
110 195 145
110 195 145
110 195 145
102 174 139
110 195 145
110 195 145
102 174 139
110 195 145
102 174 139
103 174 139
103 174 139
103 174 139
111 195 145
103 174 139
111 195 145
111 195 145
111 195 145
111 195 145
111 195 145
111 195 145
111 195 145
111 195 145
111 195 145
103 174 140
103 174 140
103 174 140
111 195 145
111 195 145
111 195 145
103 174 140
111 195 145
111 195 145
111 195 145
111 195 145
111 195 145
111 195 145
111 195 145
111 195 145
111 195 145
111 195 145
111 195 145
111 195 145
103 174 140
103 174 140
103 174 140
111 195 145
111 195 145
111 195 145
111 195 145
111 195 145
111 195 145
111 195 145
111 195 145
111 195 145
103 174 140
111 195 146
111 195 146
111 195 146
111 195 146
111 195 146
111 195 146
111 195 146
111 195 146
104 174 140
111 195 146
111 195 146
104 174 141
111 195 146
112 195 146
104 174 141
112 195 146
104 174 141
104 174 141
112 195 146
112 195 146
112 195 146
112 195 146
104 174 141
104 174 141
104 174 141
112 195 146
112 195 146
112 195 146
111 195 146
111 195 146
111 195 146
104 174 140
111 195 146
111 195 146
111 195 146
111 195 146
111 195 146
111 195 146
111 195 146
103 174 140
103 174 140
111 195 146
111 195 145
111 195 145
103 174 140
111 195 145
111 195 145
111 195 145
111 195 145
111 195 145
111 195 145
111 195 145
111 195 145
111 195 145
111 195 145
111 195 145
111 195 145
111 195 145
111 195 145
111 195 145
111 195 145
111 195 145
111 195 145
111 195 145
111 195 145
111 195 145
111 195 145
111 195 145
111 195 145
111 195 145
103 174 140
103 174 140
111 195 145
111 195 145
111 195 145
111 195 145
111 195 145
111 195 145
103 174 140
111 195 145
111 195 145
111 195 145
111 195 145
111 195 145
111 195 145
32 52 34
32 52 35
32 52 35
32 52 35
32 52 35
32 52 35
32 52 35
111 195 145
111 195 145
111 195 145
111 195 145
111 195 145
103 174 140
103 174 140
103 174 140
111 195 145
103 174 140
103 174 140
103 174 140
103 174 140
103 174 140
103 174 140
103 174 140
84 135 90
31 47 34
39 65 50
36 58 49
36 58 49
36 58 49
103 174 140
111 195 146
103 174 140
103 174 140
103 174 140
111 195 146
111 195 146
103 174 140
111 195 146
111 195 146
92 157 96
92 157 97
92 157 97
92 157 97
92 157 97
96 160 100
96 160 100
103 174 140
111 195 145
111 195 145
111 195 145
111 195 145
111 195 145
111 195 145
111 195 145
92 157 96
92 157 96
92 157 96
84 136 91
84 136 91
84 136 91
85 136 91
85 136 91
85 136 92
85 136 92
85 136 92
88 139 95
88 139 95
88 139 95
88 139 95
88 139 95
84 136 91
84 136 91
84 136 91
84 136 91
84 136 91
85 136 91
85 136 91
85 136 91
88 139 95
88 139 95
88 139 95
88 139 95
88 139 94
88 139 94
84 136 91
84 136 91
84 136 91
84 136 91
84 136 91
84 136 91
85 136 91
92 157 97
93 157 97
93 157 97
112 195 146
112 195 146
112 195 146
112 195 146
112 195 146
112 195 146
96 160 100
96 160 100
96 160 100
96 160 100
88 139 95
88 139 95
88 139 95
88 139 94
88 139 94
88 139 94
103 174 140
84 135 91
84 136 91
84 136 91
84 136 91
84 136 91
84 136 91
88 139 95
88 139 95
88 139 95
88 139 95
88 139 94
88 139 94
103 174 140
103 174 140
103 174 140
111 195 145
111 195 145
111 195 145
111 195 145
103 174 140
111 195 145
111 195 145
103 174 140
111 195 145
103 174 140
103 174 140
111 195 145
88 139 94
88 139 94
88 139 94
87 139 94
87 139 94
87 139 94
87 139 94
87 139 94
103 174 139
103 174 139
111 195 145
111 195 145
111 195 145
111 195 145
102 174 139
102 174 139
102 174 139
110 195 144
102 174 139
102 174 139
102 174 139
102 174 139
102 174 139
102 174 139
102 174 139
102 174 139
110 195 144
110 195 144
110 195 144
110 195 144
110 195 144
102 174 139
102 174 139
102 174 139
110 195 144
102 174 139
102 174 139
102 174 139
102 174 139
110 195 144
102 174 139
102 174 139
110 195 145
110 195 145
110 195 145
102 174 139
110 195 145
110 195 145
110 195 145
102 174 139
102 174 139
110 195 145
102 174 139
102 174 139
103 174 139
103 174 139
111 195 145
111 195 145
111 195 145
111 195 145
111 195 145
111 195 145
111 195 145
111 195 145
103 174 140
103 174 140
103 174 140
111 195 145
103 174 140
103 174 140
103 174 140
111 195 145
111 195 145
111 195 145
111 195 145
111 195 145
111 195 145
111 195 145
111 195 145
111 195 145
111 195 145
103 174 140
103 174 140
103 174 140
103 174 140
103 174 140
111 195 145
111 195 145
111 195 145
111 195 145
111 195 145
111 195 145
111 195 145
111 195 145
111 195 145
111 195 145
103 174 140
103 174 140
103 174 140
103 174 140
111 195 146
111 195 146
111 195 146
103 174 140
111 195 146
111 195 146
111 195 146
111 195 146
104 174 140
111 195 146
111 195 146
111 195 146
104 174 141
112 195 146
104 174 141
104 174 141
112 195 146
112 195 146
112 195 146
104 174 141
104 174 141
104 174 141
112 195 146
104 174 141
111 195 146
111 195 146
111 195 146
104 174 140
111 195 146
111 195 146
111 195 146
111 195 146
111 195 146
103 174 140
103 174 140
103 174 140
103 174 140
103 174 140
111 195 145
111 195 145
103 174 140
111 195 145
111 195 145
111 195 145
111 195 145
111 195 145
111 195 145
111 195 145
111 195 145
111 195 145
103 174 140
111 195 145
103 174 140
111 195 145
111 195 145
103 174 140
111 195 145
111 195 145
111 195 145
111 195 145
103 174 140
103 174 140
111 195 145
111 195 145
111 195 145
111 195 145
103 174 140
111 195 145
111 195 145
111 195 145
111 195 145
111 195 145
111 195 145
103 174 139
111 195 145
111 195 145
111 195 145
111 195 145
111 195 145
103 174 139
110 195 145
110 195 145
110 195 145
32 52 35
32 52 35
32 52 35
32 52 35
38 64 49
36 58 48
36 58 48
111 195 145
111 195 145
111 195 145
103 174 140
103 174 140
111 195 145
103 174 140
111 195 145
103 174 140
111 195 145
103 174 140
103 174 140
84 135 90
84 135 90
84 135 90
84 135 91
39 65 50
36 58 49
36 58 49
36 58 49
36 58 49
36 58 49
103 174 140
103 174 140
103 174 140
103 174 140
111 195 146
111 195 145
111 195 145
92 157 96
92 157 96
92 157 97
92 157 97
92 157 97
92 157 97
92 157 97
96 160 100
96 160 100
96 160 100
103 174 140
111 195 145
103 174 140
111 195 145
111 195 145
92 157 96
92 157 96
92 157 96
92 157 96
92 157 96
84 136 91
84 136 91
85 136 91
85 136 91
85 136 91
85 136 92
85 136 92
85 136 92
88 140 95
88 139 95
88 139 95
88 139 95
88 139 95
84 136 91
84 136 91
84 136 91
84 136 91
84 136 91
85 136 91
85 136 91
85 136 92
88 139 95
88 139 95
88 139 95
88 139 95
88 139 95
88 139 94
84 136 91
84 136 91
84 136 91
84 136 91
84 136 91
85 136 91
85 136 91
93 157 97
93 157 97
111 195 146
111 195 146
111 195 146
111 195 146
111 195 146
111 195 146
111 195 146
111 195 146
111 195 146
96 160 100
96 160 100
88 139 95
88 139 95
88 139 95
88 139 95
88 139 94
88 139 94
88 139 94
84 135 91
84 136 91
84 136 91
84 136 91
84 136 91
85 136 91
88 139 95
88 139 95
88 139 95
88 139 95
88 139 94
88 139 94
88 139 94
103 174 140
111 195 145
103 174 140
111 195 145
111 195 145
111 195 145
111 195 145
103 174 140
103 174 140
103 174 140
111 195 145
111 195 145
111 195 145
111 195 145
88 139 94
88 139 94
88 139 94
87 139 94
87 139 94
87 139 94
103 174 139
103 174 139
103 174 139
103 174 139
103 174 139
103 174 139
103 174 139
102 174 139
102 174 139
102 174 139
110 195 144
102 174 139
102 174 139
102 174 139
102 174 139
110 195 144
102 174 139
102 174 139
102 174 139
102 174 139
102 174 139
110 195 144
110 195 144
110 195 144
102 174 139
110 195 144
102 174 139
102 174 139
102 174 139
102 174 139
102 174 139
110 195 144
110 195 144
102 174 139
102 174 139
102 174 139
102 174 139
110 195 144
110 195 144
110 195 145
102 174 139
102 174 139
110 195 145
102 174 139
102 174 139
102 174 139
110 195 145
102 174 139
102 174 139
110 195 145
102 174 139
103 174 139
103 174 139
111 195 145
111 195 145
111 195 145
111 195 145
103 174 139
111 195 145
103 174 140
103 174 140
103 174 140
103 174 140
103 174 140
111 195 145
103 174 140
103 174 140
111 195 145
111 195 145
111 195 145
111 195 145
103 174 140
111 195 145
111 195 145
103 174 140
103 174 140
103 174 140
103 174 140
103 174 140
103 174 140
111 195 145
103 174 140
111 195 145
111 195 145
111 195 145
111 195 145
111 195 145
111 195 145
111 195 145
111 195 145
103 174 140
111 195 145
103 174 140
103 174 140
103 174 140
103 174 140
103 174 140
111 195 146
111 195 146
111 195 146
111 195 146
103 174 140
111 195 146
111 195 146
104 174 140
111 195 146
111 195 146
104 174 141
111 195 146
104 174 141
104 174 141
104 174 141
112 195 146
104 174 141
111 195 146
104 174 141
104 174 140
111 195 146
111 195 146
104 174 140
104 174 140
111 195 146
111 195 146
111 195 146
111 195 146
103 174 140
103 174 140
103 174 140
103 174 140
103 174 140
103 174 140
103 174 140
111 195 145
111 195 145
111 195 145
111 195 145
111 195 145
111 195 145
111 195 145
111 195 145
103 174 140
103 174 140
103 174 140
111 195 145
103 174 140
103 174 140
103 174 140
111 195 145
111 195 145
103 174 140
111 195 145
111 195 145
111 195 145
111 195 145
111 195 145
111 195 145
111 195 145
111 195 145
103 174 140
111 195 145
103 174 140
103 174 140
111 195 145
103 174 140
111 195 145
111 195 145
111 195 145
103 174 139
103 174 139
111 195 145
103 174 139
110 195 145
110 195 145
110 195 145
110 195 145
91 156 95
91 156 95
32 52 35
32 52 35
38 64 49
38 64 49
38 64 49
38 64 49
38 64 49
111 195 145
111 195 145
111 195 145
111 195 145
103 174 140
103 174 140
103 174 140
103 174 140
111 195 145
111 195 145
84 135 90
84 135 90
84 135 90
84 135 90
84 135 91
84 135 91
36 58 49
36 58 49
36 58 49
36 58 49
39 64 50
103 174 140
103 174 140
103 174 140
103 174 140
103 174 140
111 195 145
92 157 96
92 157 96
92 157 96
92 157 97
92 157 97
92 157 97
92 157 97
92 157 97
93 157 97
96 160 100
96 160 100
96 160 100
96 160 100
111 195 145
111 195 145
92 157 96
92 157 96
92 157 96
92 157 96
92 157 96
92 157 96
92 157 96
84 136 91
85 136 91
85 136 91
85 136 91
85 136 92
85 136 92
85 136 92
104 174 141
104 174 141
88 139 95
88 139 95
88 139 95
88 139 95
84 136 91
84 136 91
84 136 91
84 136 91
85 136 91
85 136 91
85 136 92
104 174 140
104 174 140
88 139 95
88 139 95
88 139 95
88 139 95
88 139 94
84 136 91
84 136 91
84 136 91
84 136 91
84 136 91
85 136 91
85 136 91
111 195 146
111 195 146
111 195 146
111 195 146
111 195 146
111 195 146
111 195 146
111 195 146
111 195 146
111 195 146
111 195 146
111 195 146
96 160 100
88 139 95
88 139 95
88 139 95
88 139 95
88 139 94
88 139 94
88 139 94
84 136 91
84 136 91
84 136 91
84 136 91
84 136 91
85 136 91
88 139 95
88 139 95
88 139 95
88 139 95
88 139 95
88 139 94
103 174 140
103 174 140
103 174 140
103 174 140
111 195 145
103 174 140
111 195 145
103 174 140
111 195 145
111 195 145
111 195 145
111 195 145
103 174 140
111 195 145
103 174 140
103 174 140
88 139 94
88 139 94
88 139 94
87 139 94
102 174 139
102 174 139
102 174 139
103 174 139
103 174 139
103 174 139
103 174 139
103 174 139
86 138 92
110 195 144
102 174 139
102 174 139
102 174 139
102 174 139
102 174 139
102 174 139
102 174 139
102 174 139
102 174 139
102 174 139
102 174 139
110 195 144
102 174 139
102 174 139
110 195 144
102 174 139
102 174 139
102 174 139
102 174 139
110 195 144
102 174 139
102 174 139
102 174 139
102 174 139
110 195 144
102 174 139
102 174 139
102 174 139
102 174 139
102 174 139
102 174 139
102 174 139
102 174 139
102 174 139
102 174 139
102 174 139
110 195 145
102 174 139
102 174 139
102 174 139
102 174 139
102 174 139
102 174 139
102 174 139
102 174 139
110 195 145
103 174 139
103 174 139
111 195 145
111 195 145
103 174 139
103 174 139
103 174 139
111 195 145
111 195 145
103 174 140
103 174 140
111 195 145
103 174 140
103 174 140
111 195 145
111 195 145
111 195 145
111 195 145
103 174 140
103 174 140
103 174 140
111 195 145
103 174 140
103 174 140
103 174 140
103 174 140
103 174 140
111 195 145
103 174 140
111 195 145
103 174 140
111 195 145
111 195 145
111 195 145
111 195 145
103 174 140
103 174 140
103 174 140
103 174 140
103 174 140
103 174 140
103 174 140
103 174 140
103 174 140
111 195 146
111 195 146
111 195 146
111 195 146
111 195 146
111 195 146
104 174 140
104 174 140
104 174 140
104 174 140
104 174 140
104 174 141
111 195 146
104 174 141
104 174 141
104 174 140
104 174 140
104 174 140
111 195 146
111 195 146
111 195 146
111 195 146
111 195 146
103 174 140
111 195 146
103 174 140
103 174 140
103 174 140
111 195 145
103 174 140
103 174 140
103 174 140
103 174 140
103 174 140
111 195 145
111 195 145
111 195 145
111 195 145
111 195 145
111 195 145
103 174 140
103 174 140
103 174 140
103 174 140
103 174 140
103 174 140
111 195 145
103 174 140
111 195 145
111 195 145
111 195 145
111 195 145
111 195 145
103 174 140
111 195 145
111 195 145
111 195 145
103 174 140
103 174 140
103 174 140
103 174 140
103 174 140
103 174 140
103 174 139
111 195 145
111 195 145
103 174 139
103 174 139
103 174 139
110 195 145
110 195 145
110 195 145
110 195 145
110 195 145
91 156 95
91 156 95
91 156 95
91 156 95
38 64 49
38 64 49
38 64 49
38 64 49
38 64 49
38 64 49
38 64 49
38 64 49
111 195 145
111 195 145
111 195 145
103 174 140
103 174 140
103 174 140
103 174 140
84 135 90
84 135 90
84 135 90
84 135 90
84 135 90
84 135 91
84 135 91
84 135 91
84 135 91
36 58 49
36 58 48
39 64 50
36 58 48
103 174 140
103 174 140
103 174 140
103 174 140
111 195 145
111 195 145
33 53 35
92 157 96
92 157 97
92 157 97
92 157 97
92 157 97
92 157 97
93 157 97
93 157 97
96 160 100
96 160 100
96 160 100
96 160 100
92 157 96
92 157 96
92 157 96
92 157 96
92 157 96
92 157 96
92 157 96
92 157 96
92 157 97
85 136 91
85 136 91
85 136 91
85 136 92
85 136 92
104 174 141
104 174 141
104 174 141
104 174 141
104 174 140
88 139 95
88 139 95
88 139 95
84 136 91
84 136 91
84 136 91
85 136 91
85 136 91
85 136 92
104 174 140
104 174 140
104 174 140
104 174 140
88 139 95
88 139 95
88 139 95
88 139 95
84 136 91
84 136 91
84 136 91
84 136 91
85 136 91
103 174 140
103 174 140
103 174 140
111 195 146
111 195 146
111 195 146
111 195 146
111 195 146
111 195 146
111 195 146
111 195 146
111 195 146
111 195 146
111 195 146
103 174 140
88 139 95
88 139 95
88 139 95
88 139 95
88 139 95
88 139 94
88 139 94
84 136 91
84 136 91
84 136 91
84 136 91
85 136 91
85 136 91
88 139 95
88 139 95
88 139 95
88 139 95
103 174 140
103 174 140
103 174 140
103 174 140
103 174 140
103 174 140
103 174 140
111 195 145
111 195 145
111 195 145
111 195 145
111 195 145
111 195 145
103 174 140
111 195 145
103 174 140
103 174 140
111 195 145
103 174 140
111 195 145
88 139 94
102 174 139
102 174 139
102 174 139
102 174 139
110 195 145
102 174 139
102 174 139
110 195 145
35 56 47
86 138 92
86 138 92
86 138 92
102 174 139
102 174 139
110 195 144
102 174 139
102 174 139
102 174 139
110 195 144
102 174 139
102 174 139
102 174 139
102 174 139
110 195 144
110 195 144
110 195 144
110 195 144
102 174 139
102 174 139
102 174 139
102 174 139
110 195 144
110 195 144
102 174 139
102 174 139
102 174 139
102 174 139
102 174 139
102 174 139
102 174 139
110 195 144
102 174 139
102 174 139
102 174 139
102 174 139
102 174 139
102 174 139
102 174 139
102 174 139
102 174 139
102 174 139
102 174 139
102 174 139
102 174 139
102 174 139
102 174 139
102 174 139
110 195 145
103 174 139
103 174 139
111 195 145
103 174 139
103 174 139
103 174 139
103 174 139
111 195 145
103 174 140
103 174 140
103 174 140
103 174 140
103 174 140
103 174 140
103 174 140
103 174 140
103 174 140
111 195 145
103 174 140
111 195 145
103 174 140
103 174 140
103 174 140
103 174 140
111 195 145
103 174 140
103 174 140
103 174 140
103 174 140
103 174 140
111 195 145
111 195 145
111 195 145
103 174 140
103 174 140
111 195 145
103 174 140
111 195 145
103 174 140
103 174 140
103 174 140
103 174 140
103 174 140
103 174 140
103 174 140
111 195 146
103 174 140
111 195 146
111 195 146
111 195 146
103 174 140
103 174 140
104 174 140
104 174 140
111 195 146
104 174 140
104 174 141
104 174 140
104 174 140
104 174 140
103 174 140
103 174 140
111 195 146
111 195 146
103 174 140
103 174 140
111 195 146
103 174 140
103 174 140
103 174 140
103 174 140
103 174 140
103 174 140
111 195 145
103 174 140
111 195 145
103 174 140
111 195 145
111 195 145
111 195 145
111 195 145
103 174 140
103 174 140
103 174 140
103 174 140
103 174 140
103 174 140
103 174 140
103 174 140
111 195 145
103 174 140
103 174 140
111 195 145
103 174 140
111 195 145
111 195 145
111 195 145
111 195 145
103 174 140
103 174 140
103 174 140
103 174 140
103 174 140
103 174 139
103 174 139
103 174 139
103 174 139
103 174 139
111 195 145
110 195 145
103 174 139
110 195 145
110 195 145
110 195 145
102 174 139
91 156 95
91 156 95
91 156 95
91 156 95
91 156 95
91 156 95
91 156 95
38 64 49
38 64 49
38 64 49
38 64 49
38 64 49
38 64 49
111 195 145
103 174 140
111 195 145
111 195 145
111 195 145
111 195 145
84 135 90
84 135 90
84 135 90
84 135 90
84 135 90
84 135 90
84 135 91
84 135 91
84 135 91
84 135 91
84 135 91
36 58 48
36 58 48
36 58 48
103 174 140
103 174 140
103 174 140
111 195 145
111 195 145
103 174 140
111 195 145
111 195 145
33 53 35
33 53 36
92 157 97
92 157 97
92 157 97
93 157 97
93 157 97
93 157 97
96 160 100
96 160 100
96 160 100
96 160 100
96 160 100
92 157 96
92 157 96
92 157 96
92 157 96
92 157 96
92 157 96
92 157 97
92 157 97
85 136 91
85 136 91
85 136 92
104 174 140
104 174 140
104 174 140
104 174 140
104 174 140
104 174 140
104 174 140
104 174 140
88 139 95
88 139 95
84 136 91
84 136 91
85 136 91
85 136 91
104 174 140
103 174 140
103 174 140
103 174 140
103 174 140
103 174 140
103 174 140
88 139 95
88 139 95
88 139 95
84 136 91
84 136 91
84 136 91
85 136 91
103 174 140
103 174 140
103 174 140
103 174 140
103 174 140
111 195 146
111 195 146
111 195 146
111 195 146
111 195 146
111 195 146
111 195 146
111 195 146
111 195 146
103 174 140
103 174 140
103 174 140
103 174 140
88 139 95
88 139 95
88 139 95
88 139 95
84 136 91
84 136 91
84 136 91
84 136 91
85 136 91
103 174 140
103 174 140
103 174 140
88 139 95
88 139 95
103 174 140
103 174 140
103 174 140
111 195 145
103 174 140
103 174 140
103 174 140
111 195 145
103 174 140
103 174 140
111 195 145
111 195 145
111 195 145
103 174 140
103 174 140
103 174 140
103 174 140
103 174 140
103 174 140
111 195 145
110 195 145
110 195 145
110 195 145
110 195 145
102 174 139
102 174 139
102 174 139
102 174 139
102 174 139
102 174 139
35 56 46
86 138 93
86 138 92
86 138 92
86 138 92
86 138 92
102 174 139
102 174 139
102 174 139
102 174 139
110 195 144
102 174 139
102 174 139
102 174 139
110 195 144
110 195 144
110 195 144
110 195 144
110 195 144
110 195 144
110 195 144
102 174 139
102 174 139
102 174 139
102 174 139
102 174 139
102 174 139
102 174 139
102 174 139
102 174 139
102 174 139
110 195 144
110 195 144
110 195 144
102 174 139
102 174 139
102 174 139
102 174 139
102 174 139
102 174 139
102 174 139
102 174 139
102 174 139
102 174 139
102 174 139
110 195 145
102 174 139
102 174 139
110 195 145
102 174 139
110 195 145
102 174 139
102 174 139
110 195 145
103 174 139
103 174 139
103 174 139
103 174 139
103 174 139
103 174 139
103 174 139
103 174 140
103 174 140
103 174 140
103 174 140
111 195 145
111 195 145
103 174 140
103 174 140
103 174 140
111 195 145
103 174 140
103 174 140
111 195 145
111 195 145
103 174 140
103 174 140
103 174 140
103 174 140
103 174 140
103 174 140
111 195 145
103 174 140
103 174 140
103 174 140
103 174 140
103 174 140
103 174 140
111 195 145
103 174 140
103 174 140
103 174 140
103 174 140
103 174 140
103 174 140
103 174 140
103 174 140
111 195 146
111 195 146
103 174 140
103 174 140
103 174 140
103 174 140
103 174 140
104 174 140
104 174 140
104 174 140
104 174 140
103 174 140
103 174 140
103 174 140
111 195 146
111 195 146
103 174 140
103 174 140
103 174 140
103 174 140
103 174 140
103 174 140
111 195 145
103 174 140
103 174 140
111 195 145
103 174 140
103 174 140
103 174 140
103 174 140
111 195 145
111 195 145
103 174 140
111 195 145
103 174 140
103 174 140
103 174 140
103 174 140
103 174 140
103 174 140
103 174 140
103 174 140
103 174 140
103 174 140
103 174 140
103 174 140
111 195 145
111 195 145
103 174 140
103 174 140
103 174 140
103 174 140
103 174 140
103 174 139
103 174 139
103 174 139
111 195 145
103 174 139
103 174 139
103 174 139
103 174 139
110 195 145
110 195 145
110 195 145
110 195 145
91 156 95
91 156 95
91 156 95
91 156 95
91 156 95
91 156 95
91 156 95
91 156 95
91 156 95
91 156 95
38 64 49
38 64 49
38 64 49
38 64 49
35 57 47
111 195 145
111 195 145
111 195 145
111 195 145
111 195 145
103 174 140
103 174 140
30 45 33
30 46 33
84 135 90
84 135 90
84 135 91
84 135 91
84 135 91
84 135 91
84 135 91
84 135 91
84 135 91
36 58 48
38 64 50
103 174 140
103 174 140
111 195 145
111 195 145
103 174 140
111 195 145
111 195 145
103 174 140
103 174 140
111 195 145
33 53 36
33 53 36
33 53 36
93 157 97
93 157 97
93 157 97
93 157 97
93 157 97
96 160 100
96 160 100
96 160 100
96 160 100
92 157 96
92 157 96
92 157 96
92 157 96
92 157 96
92 157 97
92 157 97
92 157 97
92 157 97
104 174 140
104 174 140
104 174 140
104 174 140
104 174 140
104 174 140
104 174 140
104 174 140
103 174 140
103 174 140
103 174 140
103 174 140
88 139 95
85 136 91
103 174 140
103 174 140
103 174 140
103 174 140
103 174 140
103 174 140
103 174 140
103 174 140
103 174 140
103 174 140
88 139 95
88 139 95
84 136 91
84 136 91
103 174 140
103 174 140
103 174 140
103 174 140
103 174 140
103 174 140
103 174 140
103 174 140
103 174 140
111 195 146
111 195 146
111 195 146
111 195 146
111 195 146
103 174 140
103 174 140
103 174 140
103 174 140
103 174 140
103 174 140
103 174 140
88 139 95
88 139 95
88 139 95
84 136 91
84 136 91
84 136 91
84 136 91
103 174 140
103 174 140
103 174 140
103 174 140
103 174 140
103 174 140
103 174 140
103 174 140
111 195 145
103 174 140
103 174 140
111 195 145
103 174 140
103 174 140
103 174 140
103 174 140
111 195 145
103 174 140
111 195 145
111 195 145
103 174 140
103 174 140
103 174 140
103 174 140
103 174 140
110 195 144
110 195 145
110 195 145
110 195 145
102 174 139
102 174 139
102 174 139
102 174 139
102 174 139
102 174 139
102 174 139
86 138 93
86 138 93
86 138 93
86 138 92
86 138 92
86 138 92
86 138 92
110 195 144
102 174 139
110 195 144
102 174 139
102 174 139
110 195 144
110 195 144
110 195 144
110 195 144
110 195 144
110 195 144
110 195 144
110 195 144
110 195 144
102 174 139
110 195 144
102 174 139
110 195 144
102 174 139
102 174 139
102 174 139
110 195 144
110 195 144
110 195 144
102 174 139
110 195 144
110 195 144
110 195 144
110 195 144
110 195 144
110 195 144
102 174 139
102 174 139
110 195 144
102 174 139
102 174 139
102 174 139
102 174 139
110 195 145
102 174 139
102 174 139
110 195 145
110 195 145
110 195 145
110 195 145
110 195 145
102 174 139
110 195 145
102 174 139
103 174 139
103 174 139
103 174 139
103 174 139
111 195 145
103 174 139
103 174 139
103 174 139
111 195 145
111 195 145
111 195 145
111 195 145
111 195 145
103 174 140
103 174 140
103 174 140
103 174 140
111 195 145
103 174 140
103 174 140
103 174 140
103 174 140
103 174 140
103 174 140
103 174 140
111 195 145
111 195 145
103 174 140
103 174 140
111 195 145
103 174 140
103 174 140
103 174 140
103 174 140
103 174 140
103 174 140
103 174 140
103 174 140
103 174 140
103 174 140
103 174 140
103 174 140
103 174 140
111 195 146
103 174 140
111 195 146
103 174 140
103 174 140
103 174 140
103 174 140
104 174 140
103 174 140
103 174 140
111 195 146
111 195 146
111 195 146
103 174 140
103 174 140
103 174 140
103 174 140
103 174 140
103 174 140
103 174 140
103 174 140
111 195 145
111 195 145
103 174 140
103 174 140
103 174 140
103 174 140
111 195 145
111 195 145
111 195 145
103 174 140
103 174 140
103 174 140
111 195 145
103 174 140
103 174 140
111 195 145
103 174 140
103 174 140
103 174 140
111 195 145
103 174 140
111 195 145
103 174 140
111 195 145
103 174 140
103 174 140
103 174 140
103 174 140
103 174 139
103 174 139
103 174 139
103 174 139
111 195 145
103 174 139
103 174 139
102 174 139
102 174 139
110 195 145
102 174 139
102 174 139
91 156 95
91 156 95
91 156 95
91 156 95
91 156 95
91 156 95
91 156 95
91 156 95
91 156 95
91 156 95
91 156 95
91 156 95
38 64 49
38 64 49
38 64 49
35 57 47
111 195 145
111 195 145
111 195 145
111 195 145
103 174 140
103 174 140
111 195 145
111 195 145
103 174 140
30 46 33
30 46 33
30 46 33
84 135 91
84 135 91
84 135 91
84 135 91
84 135 91
84 135 91
84 136 91
36 58 48
111 195 145
111 195 145
103 174 140
111 195 145
111 195 145
111 195 145
103 174 140
111 195 145
103 174 140
103 174 140
111 195 145
111 195 145
33 53 36
33 53 36
33 53 36
33 53 36
93 157 97
112 195 146
111 195 146
111 195 146
96 160 100
96 160 100
96 160 100
92 157 96
92 157 96
92 157 96
92 157 96
92 157 97
92 157 97
92 157 97
92 157 97
111 195 146
104 174 140
104 174 140
103 174 140
103 174 140
103 174 140
103 174 140
103 174 140
103 174 140
103 174 140
103 174 140
103 174 140
103 174 140
103 174 140
103 174 140
103 174 140
103 174 140
103 174 140
103 174 140
103 174 140
103 174 140
103 174 140
103 174 140
103 174 140
103 174 140
103 174 140
88 139 95
84 136 91
103 174 140
103 174 140
103 174 140
103 174 140
103 174 140
103 174 140
103 174 140
103 174 140
103 174 140
103 174 140
103 174 140
111 195 146
111 195 146
111 195 146
103 174 140
103 174 140
103 174 140
103 174 140
103 174 140
103 174 140
103 174 140
103 174 140
103 174 140
88 139 95
88 139 95
84 136 91
84 136 91
103 174 140
103 174 140
103 174 140
103 174 140
103 174 140
103 174 140
87 139 94
103 174 140
103 174 140
103 174 140
103 174 140
103 174 140
103 174 140
103 174 140
103 174 140
103 174 140
103 174 140
103 174 140
103 174 140
103 174 140
103 174 140
103 174 140
103 174 140
103 174 140
103 174 140
103 174 140
102 174 139
102 174 139
102 174 139
110 195 144
110 195 144
110 195 144
110 195 144
102 174 139
102 174 139
110 195 145
102 174 139
102 174 139
86 138 93
86 138 93
86 138 93
86 138 93
86 138 92
86 138 92
86 138 92
86 138 92
86 138 92
102 174 139
102 174 139
110 195 144
110 195 144
110 195 144
110 195 144
110 195 144
110 195 144
110 195 144
110 195 144
110 195 144
110 195 144
110 195 144
110 195 144
110 195 144
102 174 139
102 174 139
102 174 139
102 174 139
102 174 139
110 195 144
102 174 139
110 195 144
110 195 144
102 174 139
110 195 144
102 174 139
110 195 144
110 195 144
102 174 139
110 195 144
110 195 144
102 174 139
110 195 144
102 174 139
102 174 139
102 174 139
110 195 144
110 195 144
110 195 145
110 195 145
110 195 145
110 195 145
110 195 145
110 195 145
110 195 145
102 174 139
110 195 145
102 174 139
102 174 139
110 195 145
103 174 139
111 195 145
103 174 139
103 174 139
111 195 145
103 174 139
111 195 145
111 195 145
103 174 140
111 195 145
111 195 145
103 174 140
111 195 145
111 195 145
111 195 145
103 174 140
103 174 140
103 174 140
111 195 145
103 174 140
103 174 140
103 174 140
111 195 145
111 195 145
103 174 140
103 174 140
103 174 140
103 174 140
111 195 145
111 195 145
103 174 140
111 195 145
103 174 140
111 195 145
111 195 145
103 174 140
103 174 140
103 174 140
111 195 145
111 195 145
111 195 145
111 195 145
103 174 140
103 174 140
111 195 146
103 174 140
103 174 140
111 195 146
111 195 146
111 195 146
111 195 145
111 195 145
111 195 145
103 174 140
103 174 140
111 195 145
103 174 140
103 174 140
103 174 140
103 174 140
103 174 140
103 174 140
103 174 140
111 195 145
111 195 145
111 195 145
111 195 145
111 195 145
111 195 145
103 174 140
103 174 140
103 174 140
103 174 140
111 195 145
103 174 140
103 174 140
103 174 140
103 174 140
103 174 140
103 174 140
103 174 140
111 195 145
111 195 145
111 195 145
103 174 140
111 195 145
103 174 139
103 174 139
103 174 139
103 174 139
103 174 139
103 174 139
103 174 139
102 174 139
110 195 145
102 174 139
102 174 139
102 174 139
102 174 139
31 51 33
91 156 95
91 156 95
91 156 95
91 156 95
91 156 95
91 156 95
91 156 95
91 156 95
91 156 95
91 156 95
91 156 95
91 156 95
38 63 49
38 63 49
38 63 49
111 195 145
111 195 145
111 195 145
103 174 140
103 174 140
103 174 140
103 174 140
103 174 140
103 174 140
111 195 145
111 195 145
30 46 33
30 46 33
30 46 33
30 46 33
84 135 91
84 135 91
84 135 91
84 136 91
84 136 91
84 136 91
111 195 145
111 195 145
103 174 140
111 195 145
111 195 145
111 195 145
111 195 145
111 195 145
111 195 145
111 195 145
111 195 145
111 195 145
111 195 145
33 53 36
33 53 36
39 65 51
39 65 51
111 195 146
111 195 146
111 195 146
111 195 146
96 160 100
96 160 100
92 157 96
92 157 96
92 157 96
92 157 97
92 157 97
92 157 97
111 195 146
111 195 146
111 195 146
111 195 146
103 174 140
103 174 140
103 174 140
103 174 140
103 174 140
103 174 140
103 174 140
103 174 140
103 174 140
103 174 140
84 136 91
85 136 91
88 139 95
103 174 140
103 174 140
103 174 140
103 174 140
103 174 140
103 174 140
103 174 140
103 174 140
103 174 140
103 174 140
103 174 140
84 136 91
103 174 140
103 174 140
103 174 140
103 174 140
103 174 140
103 174 140
103 174 140
103 174 140
103 174 140
103 174 140
103 174 140
103 174 140
103 174 140
103 174 140
103 174 140
103 174 140
103 174 140
103 174 140
103 174 140
103 174 140
103 174 140
103 174 140
103 174 140
103 174 140
103 174 140
103 174 140
84 136 91
103 174 140
103 174 140
103 174 140
103 174 140
103 174 140
103 174 140
103 174 140
87 139 94
87 139 94
103 174 140
103 174 140
111 195 145
103 174 140
103 174 140
111 195 145
103 174 140
103 174 140
103 174 140
103 174 140
103 174 140
111 195 145
111 195 145
103 174 140
103 174 140
103 174 140
110 195 144
110 195 144
110 195 144
102 174 139
110 195 144
102 174 139
110 195 144
110 195 144
110 195 144
110 195 144
102 174 139
102 174 139
102 174 139
102 174 139
86 138 93
86 138 93
86 138 93
86 138 93
86 138 92
86 138 92
86 138 92
86 138 92
86 138 92
86 138 92
110 195 144
110 195 144
110 195 144
110 195 144
110 195 144
110 195 144
110 195 144
102 174 139
110 195 144
110 195 144
110 195 144
102 174 139
102 174 139
110 195 144
110 195 144
110 195 144
102 174 139
102 174 139
102 174 139
102 174 139
102 174 139
110 195 144
110 195 144
110 195 144
110 195 144
110 195 144
102 174 139
110 195 144
102 174 139
110 195 144
110 195 144
110 195 144
102 174 139
102 174 139
102 174 139
110 195 144
110 195 144
102 174 139
110 195 144
102 174 139
110 195 145
110 195 145
110 195 145
110 195 145
110 195 145
110 195 145
110 195 145
102 174 139
102 174 139
110 195 145
102 174 139
103 174 139
103 174 139
111 195 145
111 195 145
103 174 139
103 174 139
111 195 145
111 195 145
111 195 145
111 195 145
111 195 145
103 174 140
103 174 140
111 195 145
103 174 140
103 174 140
103 174 140
103 174 140
103 174 140
111 195 145
111 195 145
111 195 145
111 195 145
111 195 145
103 174 140
111 195 145
111 195 145
103 174 140
103 174 140
103 174 140
103 174 140
103 174 140
103 174 140
103 174 140
103 174 140
103 174 140
111 195 145
111 195 145
111 195 145
111 195 145
111 195 145
111 195 145
111 195 145
103 174 140
103 174 140
103 174 140
111 195 146
111 195 145
103 174 140
111 195 145
103 174 140
111 195 145
103 174 140
103 174 140
103 174 140
103 174 140
103 174 140
103 174 140
103 174 140
103 174 140
111 195 145
111 195 145
111 195 145
111 195 145
103 174 140
111 195 145
111 195 145
103 174 140
103 174 140
103 174 140
103 174 140
103 174 140
103 174 140
103 174 140
103 174 140
103 174 140
103 174 140
111 195 145
103 174 140
111 195 145
111 195 145
111 195 145
111 195 145
111 195 145
103 174 139
103 174 139
103 174 139
103 174 139
103 174 139
102 174 139
102 174 139
102 174 139
102 174 139
110 195 145
102 174 139
110 195 145
102 174 139
110 195 145
110 195 145
31 51 33
31 51 33
31 51 33
91 156 95
91 156 95
91 156 95
91 156 95
91 156 95
91 156 95
91 156 95
92 156 95
92 156 95
92 156 95
38 63 49
111 195 145
111 195 145
111 195 145
103 174 140
103 174 140
103 174 140
103 174 140
103 174 140
111 195 145
111 195 145
103 174 139
111 195 145
103 174 139
30 46 33
30 46 33
30 46 33
30 46 33
30 46 33
30 46 33
84 136 91
111 195 145
103 174 140
103 174 140
111 195 145
111 195 145
111 195 145
103 174 140
111 195 145
103 174 140
103 174 140
111 195 145
103 174 140
103 174 140
111 195 145
103 174 140
92 157 96
39 65 51
39 65 51
39 65 51
39 65 51
111 195 146
111 195 146
111 195 146
96 160 100
96 160 100
92 157 96
92 157 96
92 157 97
92 157 97
111 195 146
111 195 146
111 195 146
111 195 146
111 195 146
111 195 146
111 195 146
103 174 140
103 174 140
103 174 140
103 174 140
103 174 140
103 174 140
103 174 140
84 136 91
84 136 91
85 136 91
85 136 91
88 139 95
88 139 95
103 174 140
103 174 140
103 174 140
103 174 140
103 174 140
103 174 140
103 174 140
103 174 140
84 136 91
84 136 91
84 136 91
88 139 95
88 139 95
103 174 140
103 174 140
103 174 140
103 174 140
103 174 140
103 174 140
103 174 140
103 174 140
103 174 140
84 136 91
84 136 91
88 139 95
103 174 140
103 174 140
103 174 140
103 174 140
103 174 140
103 174 140
103 174 140
103 174 140
103 174 140
103 174 140
103 174 140
103 174 140
111 195 145
103 174 140
103 174 140
103 174 140
103 174 140
103 174 140
103 174 140
103 174 140
87 139 94
87 139 94
87 139 94
103 174 140
103 174 140
103 174 140
103 174 140
103 174 140
103 174 140
111 195 145
103 174 140
111 195 145
111 195 145
111 195 145
103 174 140
111 195 145
111 195 145
110 195 144
102 174 139
110 195 144
102 174 139
110 195 144
110 195 144
110 195 144
110 195 144
110 195 144
110 195 144
110 195 144
102 174 139
102 174 139
110 195 144
102 174 139
87 138 93
86 138 93
86 138 93
86 138 93
86 138 93
86 138 92
86 138 92
86 138 92
86 138 92
86 138 92
110 195 144
110 195 144
110 195 144
110 195 144
102 174 139
110 195 144
102 174 139
110 195 144
110 195 144
102 174 139
110 195 144
110 195 144
110 195 144
102 174 139
110 195 144
110 195 144
110 195 144
102 174 139
110 195 144
110 195 144
110 195 144
110 195 144
110 195 144
110 195 144
110 195 144
110 195 144
110 195 144
110 195 144
110 195 144
102 174 139
110 195 144
110 195 144
110 195 144
102 174 139
110 195 144
110 195 144
110 195 144
102 174 139
102 174 139
110 195 144
110 195 144
110 195 144
110 195 144
110 195 145
110 195 145
110 195 145
110 195 145
110 195 145
110 195 145
102 174 139
102 174 139
102 174 139
110 195 145
110 195 145
110 195 145
111 195 145
111 195 145
111 195 145
111 195 145
111 195 145
111 195 145
111 195 145
111 195 145
111 195 145
103 174 140
103 174 140
111 195 145
103 174 140
103 174 140
111 195 145
111 195 145
111 195 145
103 174 140
111 195 145
111 195 145
111 195 145
111 195 145
111 195 145
111 195 145
111 195 145
103 174 140
103 174 140
103 174 140
103 174 140
103 174 140
103 174 140
103 174 140
111 195 145
103 174 140
111 195 145
111 195 145
111 195 145
111 195 145
111 195 145
103 174 140
111 195 145
103 174 140
111 195 145
103 174 140
111 195 145
111 195 145
111 195 145
103 174 140
103 174 140
111 195 145
103 174 140
103 174 140
103 174 140
103 174 140
111 195 145
111 195 145
111 195 145
111 195 145
111 195 145
111 195 145
111 195 145
111 195 145
111 195 145
111 195 145
103 174 140
103 174 140
103 174 140
103 174 140
103 174 140
103 174 140
103 174 140
103 174 140
111 195 145
103 174 140
111 195 145
103 174 139
111 195 145
111 195 145
111 195 145
111 195 145
103 174 139
103 174 139
103 174 139
102 174 139
110 195 145
102 174 139
102 174 139
102 174 139
110 195 145
110 195 145
110 195 145
110 195 145
110 195 145
110 195 144
102 174 139
110 195 144
31 51 33
31 51 33
31 51 33
31 51 33
31 51 33
91 156 95
91 156 95
91 156 95
92 156 95
92 156 95
92 156 95
92 156 95
37 63 49
111 195 145
103 174 140
103 174 140
103 174 140
103 174 140
103 174 140
103 174 140
103 174 139
103 174 139
103 174 139
103 174 139
111 195 145
103 174 139
30 46 33
30 46 33
30 46 33
30 46 33
30 46 33
36 58 48
36 58 48
103 174 140
103 174 140
103 174 140
111 195 145
111 195 145
111 195 145
103 174 140
111 195 145
111 195 145
103 174 140
111 195 145
111 195 145
103 174 140
92 157 96
92 157 96
92 157 96
39 65 50
39 65 50
39 65 50
39 65 50
39 65 50
111 195 146
111 195 146
111 195 146
96 160 100
92 157 96
92 157 97
111 195 146
111 195 146
111 195 146
111 195 146
111 195 146
111 195 146
111 195 146
111 195 146
111 195 146
111 195 146
103 174 140
103 174 140
103 174 140
103 174 140
84 136 91
84 136 91
84 136 91
85 136 91
85 136 91
85 136 92
88 139 95
88 139 95
88 139 95
103 174 140
103 174 140
103 174 140
103 174 140
103 174 140
103 174 140
84 136 91
84 136 91
84 136 91
85 136 91
88 139 95
88 139 95
88 139 95
103 174 140
103 174 140
103 174 140
103 174 140
103 174 140
103 174 140
103 174 140
84 136 91
84 136 91
84 136 91
88 139 95
88 139 95
88 139 95
103 174 140
103 174 140
103 174 140
103 174 140
103 174 140
103 174 140
103 174 140
103 174 140
111 195 145
111 195 145
111 195 145
111 195 145
103 174 140
103 174 140
103 174 140
103 174 140
103 174 140
87 139 94
87 139 94
87 139 94
87 139 94
87 139 94
87 139 94
103 174 140
103 174 140
111 195 145
103 174 140
103 174 140
111 195 145
111 195 145
111 195 145
111 195 145
103 174 140
111 195 145
110 195 144
102 174 139
110 195 144
110 195 144
110 195 144
110 195 144
110 195 144
102 174 139
110 195 144
102 174 139
110 195 144
102 174 139
110 195 144
110 195 144
110 195 144
102 174 139
87 138 93
87 138 93
86 138 93
86 138 93
86 138 93
86 138 93
86 138 92
86 138 92
102 174 139
102 174 139
102 174 139
102 174 139
102 174 139
110 195 144
102 174 139
110 195 144
110 195 144
110 195 144
110 195 144
110 195 144
110 195 144
110 195 144
110 195 144
110 195 144
110 195 144
110 195 144
102 174 139
102 174 139
102 174 139
110 195 144
102 174 139
110 195 144
110 195 144
110 195 144
110 195 144
102 174 139
110 195 144
110 195 144
110 195 144
110 195 144
102 174 139
110 195 144
110 195 144
102 174 139
110 195 144
110 195 144
102 174 139
110 195 144
102 174 139
110 195 144
102 174 139
110 195 144
110 195 144
110 195 144
102 174 139
110 195 144
110 195 145
110 195 145
110 195 145
110 195 145
102 174 139
110 195 145
110 195 145
110 195 145
102 174 139
110 195 145
110 195 145
110 195 145
103 174 139
111 195 145
111 195 145
111 195 145
111 195 145
111 195 145
111 195 145
103 174 140
111 195 145
103 174 140
111 195 145
111 195 145
111 195 145
111 195 145
111 195 145
111 195 145
111 195 145
111 195 145
111 195 145
111 195 145
111 195 145
111 195 145
111 195 145
111 195 145
103 174 140
103 174 140
103 174 140
103 174 140
103 174 140
111 195 145
111 195 145
111 195 145
111 195 145
111 195 145
103 174 140
111 195 145
111 195 145
103 174 140
111 195 145
111 195 145
111 195 145
111 195 145
111 195 145
111 195 145
111 195 145
111 195 145
103 174 140
103 174 140
111 195 145
111 195 145
103 174 140
111 195 145
111 195 145
111 195 145
111 195 145
103 174 140
111 195 145
103 174 140
111 195 145
111 195 145
111 195 145
111 195 145
103 174 140
103 174 140
111 195 145
103 174 140
103 174 140
111 195 145
103 174 140
111 195 145
111 195 145
103 174 139
111 195 145
111 195 145
111 195 145
111 195 145
110 195 145
102 174 139
102 174 139
102 174 139
102 174 139
102 174 139
102 174 139
102 174 139
110 195 145
110 195 145
110 195 145
110 195 145
110 195 144
102 174 139
110 195 144
110 195 144
110 195 144
31 51 33
31 51 33
31 51 33
31 51 34
31 51 34
31 51 34
32 51 34
92 156 95
92 156 95
92 156 95
92 156 95
103 174 140
111 195 145
103 174 140
103 174 140
103 174 140
103 174 140
103 174 139
103 174 139
103 174 139
103 174 139
103 174 139
111 195 145
103 174 139
111 195 145
110 195 145
103 174 139
30 46 33
30 46 33
36 58 48
36 58 48
36 58 48
38 64 49
103 174 140
103 174 140
103 174 140
103 174 140
111 195 145
111 195 145
111 195 145
111 195 145
111 195 145
111 195 145
111 195 145
92 157 96
92 157 96
92 157 96
92 157 96
92 157 96
39 65 50
39 65 50
39 65 50
39 65 50
111 195 146
111 195 146
111 195 146
111 195 146
111 195 146
92 157 97
111 195 146
111 195 146
111 195 146
111 195 146
111 195 146
111 195 146
111 195 145
111 195 145
111 195 145
111 195 145
111 195 145
111 195 145
103 174 140
103 174 140
84 136 91
84 136 91
84 136 91
85 136 91
85 136 91
85 136 91
85 136 92
88 139 95
88 139 95
88 139 95
88 139 95
103 174 140
103 174 140
103 174 140
84 136 91
84 136 91
84 136 91
84 136 91
85 136 91
85 136 91
88 139 95
88 139 95
88 139 95
88 139 95
103 174 140
103 174 140
103 174 140
103 174 140
84 136 91
84 136 91
84 136 91
84 136 91
84 136 91
88 139 95
88 139 95
88 139 95
88 139 94
103 174 140
103 174 140
103 174 140
103 174 140
103 174 140
103 174 140
111 195 145
111 195 145
111 195 145
111 195 145
111 195 145
111 195 145
111 195 145
103 174 140
103 174 140
103 174 140
88 139 94
87 139 94
87 139 94
87 139 94
87 139 94
87 139 94
87 139 94
103 174 139
103 174 140
103 174 140
103 174 140
111 195 145
111 195 145
103 174 140
111 195 145
103 174 140
111 195 145
95 160 98
94 160 98
110 195 144
110 195 144
110 195 144
102 174 139
110 195 144
110 195 144
102 174 139
110 195 144
102 174 139
110 195 144
110 195 144
110 195 144
110 195 144
102 174 139
102 174 139
87 138 93
87 138 93
86 138 93
86 138 93
86 138 93
86 138 93
102 174 138
102 174 138
102 174 138
102 174 138
102 174 139
110 195 144
102 174 139
102 174 139
110 195 144
110 195 144
110 195 144
110 195 144
110 195 144
110 195 144
110 195 144
110 195 144
102 174 139
110 195 144
102 174 139
110 195 144
102 174 139
102 174 139
110 195 144
110 195 144
110 195 144
110 195 144
110 195 144
110 195 144
110 195 144
110 195 144
110 195 144
110 195 144
110 195 144
110 195 144
110 195 144
110 195 144
102 174 139
102 174 139
102 174 139
102 174 139
110 195 144
102 174 139
102 174 139
110 195 144
110 195 144
110 195 144
110 195 144
110 195 144
110 195 144
110 195 144
110 195 144
110 195 145
110 195 145
102 174 139
102 174 139
102 174 139
110 195 145
110 195 145
102 174 139
110 195 145
110 195 145
110 195 145
110 195 145
111 195 145
111 195 145
111 195 145
111 195 145
111 195 145
111 195 145
111 195 145
111 195 145
103 174 140
103 174 140
111 195 145
103 174 140
103 174 140
111 195 145
111 195 145
111 195 145
111 195 145
111 195 145
103 174 140
111 195 145
103 174 140
111 195 145
111 195 145
111 195 145
111 195 145
103 174 140
111 195 145
111 195 145
111 195 145
111 195 145
103 174 140
111 195 145
111 195 145
111 195 145
111 195 145
111 195 145
111 195 145
111 195 145
111 195 145
111 195 145
111 195 145
111 195 145
111 195 145
111 195 145
111 195 145
111 195 145
111 195 145
103 174 140
111 195 145
111 195 145
103 174 140
103 174 140
103 174 140
111 195 145
111 195 145
111 195 145
111 195 145
111 195 145
111 195 145
111 195 145
111 195 145
103 174 140
111 195 145
111 195 145
111 195 145
111 195 145
111 195 145
111 195 145
111 195 145
111 195 145
111 195 145
103 174 139
110 195 145
110 195 145
110 195 145
110 195 145
102 174 139
102 174 139
102 174 139
110 195 145
102 174 139
110 195 145
110 195 145
110 195 144
110 195 144
110 195 144
110 195 144
110 195 144
102 174 139
110 195 144
110 195 144
110 195 144
31 51 34
31 51 34
31 51 34
32 51 34
32 51 34
32 52 34
32 52 34
32 52 34
111 195 145
103 174 140
111 195 145
111 195 145
103 174 140
103 174 139
103 174 139
103 174 139
103 174 139
103 174 139
103 174 139
103 174 139
103 174 139
110 195 145
103 174 139
102 174 139
83 135 90
83 135 90
38 64 49
36 58 48
36 58 48
36 58 48
38 64 49
36 57 48
36 57 48
103 174 140
103 174 140
103 174 140
103 174 140
111 195 145
111 195 145
111 195 145
111 195 145
92 156 96
92 157 96
92 157 96
92 157 96
92 157 96
92 157 96
92 157 96
39 65 50
39 65 50
39 65 50
111 195 146
111 195 146
111 195 146
111 195 146
111 195 146
103 174 140
103 174 140
111 195 146
111 195 145
111 195 145
111 195 145
111 195 145
111 195 145
111 195 145
111 195 145
111 195 145
111 195 145
111 195 145
111 195 145
92 157 96
84 136 91
84 136 91
84 136 91
85 136 91
85 136 91
85 136 91
85 136 92
85 136 92
88 139 95
88 139 95
88 139 95
88 139 95
88 139 95
84 136 91
84 136 91
84 136 91
84 136 91
84 136 91
85 136 91
85 136 91
85 136 91
88 139 95
88 139 95
88 139 95
88 139 95
88 139 94
103 174 140
103 174 140
84 136 91
84 136 91
84 136 91
84 136 91
84 136 91
85 136 91
88 139 95
88 139 95
88 139 95
88 139 95
88 139 94
103 174 140
103 174 140
103 174 140
111 195 145
111 195 145
111 195 145
111 195 145
111 195 145
111 195 145
111 195 145
111 195 145
111 195 145
111 195 145
103 174 140
103 174 140
88 139 94
88 139 94
87 139 94
87 139 94
87 139 94
87 139 94
87 139 94
87 139 94
103 174 139
111 195 145
111 195 145
111 195 145
103 174 139
111 195 145
111 195 145
111 195 145
111 195 145
95 160 98
95 160 98
94 160 98
110 195 144
110 195 144
110 195 144
110 195 144
110 195 144
102 174 139
110 195 144
110 195 144
110 195 144
110 195 144
110 195 144
102 174 139
110 195 144
102 174 139
102 174 139
87 138 93
87 138 93
86 138 93
86 138 93
102 174 138
102 174 138
102 174 138
102 174 138
102 174 138
102 174 138
102 174 138
102 174 138
102 174 139
110 195 144
110 195 144
110 195 144
110 195 144
110 195 144
110 195 144
110 195 144
110 195 144
110 195 144
102 174 139
102 174 139
102 174 139
102 174 139
102 174 139
102 174 139
102 174 139
102 174 139
102 174 139
110 195 144
110 195 144
102 174 139
110 195 144
110 195 144
110 195 144
110 195 144
110 195 144
110 195 144
102 174 139
110 195 144
110 195 144
102 174 139
102 174 139
102 174 139
102 174 139
110 195 144
110 195 144
110 195 144
110 195 144
110 195 144
110 195 144
102 174 139
110 195 144
110 195 144
110 195 144
102 174 139
102 174 139
102 174 139
102 174 139
110 195 145
102 174 139
110 195 145
110 195 145
110 195 145
110 195 145
110 195 145
110 195 145
110 195 145
111 195 145
111 195 145
111 195 145
111 195 145
103 174 139
103 174 139
103 174 140
103 174 140
103 174 140
111 195 145
111 195 145
103 174 140
111 195 145
111 195 145
111 195 145
111 195 145
111 195 145
111 195 145
111 195 145
111 195 145
111 195 145
103 174 140
111 195 145
111 195 145
111 195 145
111 195 145
111 195 145
111 195 145
111 195 145
111 195 145
111 195 145
111 195 145
111 195 145
103 174 140
111 195 145
111 195 145
111 195 145
111 195 145
111 195 145
111 195 145
103 174 140
103 174 140
111 195 145
111 195 145
111 195 145
111 195 145
111 195 145
111 195 145
111 195 145
103 174 140
111 195 145
111 195 145
111 195 145
111 195 145
103 174 140
111 195 145
111 195 145
103 174 140
111 195 145
111 195 145
111 195 145
111 195 145
111 195 145
111 195 145
111 195 145
103 174 139
103 174 139
110 195 145
110 195 145
110 195 145
110 195 145
110 195 145
110 195 145
110 195 145
102 174 139
110 195 145
110 195 145
102 174 139
110 195 145
102 174 139
110 195 144
110 195 144
110 195 144
110 195 144
110 195 144
110 195 144
110 195 144
110 195 144
110 195 144
110 195 144
31 51 34
31 51 34
32 51 34
32 52 34
32 52 34
32 52 34
37 63 49
37 63 49
35 57 47
111 195 145
111 195 145
111 195 145
111 195 145
103 174 139
103 174 139
103 174 139
103 174 139
111 195 145
110 195 145
103 174 139
110 195 145
102 174 139
83 135 90
83 135 90
83 135 90
83 135 90
83 135 90
36 57 48
36 57 48
36 57 48
36 57 48
38 64 49
35 57 48
103 174 140
111 195 145
111 195 145
103 174 140
103 174 140
111 195 145
92 156 96
92 157 96
92 157 96
92 157 96
92 157 96
92 157 96
92 157 96
92 157 96
92 157 96
39 64 50
39 64 50
39 64 50
111 195 146
111 195 146
111 195 146
103 174 140
103 174 140
103 174 140
103 174 140
103 174 140
111 195 145
111 195 145
111 195 145
111 195 145
111 195 145
111 195 145
111 195 145
111 195 145
111 195 145
92 157 96
92 157 96
92 157 96
84 136 91
84 136 91
85 136 91
85 136 91
85 136 91
85 136 92
85 136 92
85 136 92
88 139 95
88 139 95
88 139 95
88 139 95
88 139 95
84 136 91
84 136 91
84 136 91
84 136 91
84 136 91
85 136 91
85 136 91
85 136 92
88 139 95
88 139 95
88 139 95
88 139 95
88 139 95
88 139 94
84 136 91
84 136 91
84 136 91
84 136 91
84 136 91
85 136 91
85 136 91
88 139 95
88 139 95
88 139 95
88 139 95
88 139 95
88 139 94
103 174 140
111 195 145
111 195 145
111 195 145
111 195 145
111 195 145
111 195 145
111 195 145
111 195 145
111 195 145
111 195 145
111 195 145
111 195 145
103 174 140
88 139 94
88 139 94
87 139 94
87 139 94
87 139 94
87 139 94
87 139 94
87 139 94
95 160 99
95 160 99
111 195 145
111 195 145
111 195 145
111 195 145
111 195 145
111 195 145
111 195 145
95 160 98
95 160 98
95 160 98
94 160 98
94 160 98
110 195 144
102 174 139
110 195 144
110 195 144
110 195 144
110 195 144
110 195 144
102 174 139
102 174 139
102 174 139
102 174 139
110 195 144
102 174 139
102 174 139
110 195 144
86 138 93
102 174 138
102 174 138
102 174 138
102 174 138
110 195 144
102 174 138
102 174 138
110 195 144
102 174 138
102 174 138
102 174 138
102 174 138
110 195 144
110 195 144
110 195 144
110 195 144
110 195 144
110 195 144
102 174 139
102 174 139
102 174 139
102 174 139
110 195 144
102 174 139
110 195 144
102 174 139
110 195 144
102 174 139
102 174 139
110 195 144
110 195 144
110 195 144
110 195 144
110 195 144
102 174 139
102 174 139
102 174 139
102 174 139
110 195 144
102 174 139
102 174 139
102 174 139
102 174 139
110 195 144
102 174 139
102 174 139
110 195 144
110 195 144
110 195 144
110 195 144
110 195 144
110 195 144
110 195 144
102 174 139
102 174 139
102 174 139
102 174 139
102 174 139
102 174 139
102 174 139
102 174 139
102 174 139
110 195 145
110 195 145
110 195 145
110 195 145
110 195 145
110 195 145
110 195 145
110 195 145
103 174 139
111 195 145
111 195 145
103 174 139
103 174 139
103 174 139
103 174 140
103 174 140
111 195 145
111 195 145
111 195 145
103 174 140
111 195 145
111 195 145
111 195 145
111 195 145
111 195 145
111 195 145
111 195 145
103 174 140
103 174 140
103 174 140
103 174 140
103 174 140
111 195 145
111 195 145
111 195 145
111 195 145
111 195 145
111 195 145
111 195 145
111 195 145
111 195 145
111 195 145
103 174 140
103 174 140
103 174 140
103 174 140
111 195 145
103 174 140
111 195 145
111 195 145
103 174 140
111 195 145
111 195 145
111 195 145
111 195 145
103 174 140
111 195 145
111 195 145
111 195 145
111 195 145
103 174 140
103 174 140
103 174 140
103 174 140
111 195 145
111 195 145
111 195 145
111 195 145
103 174 139
111 195 145
110 195 145
102 174 139
110 195 145
110 195 145
110 195 145
102 174 139
110 195 145
110 195 145
102 174 139
102 174 139
110 195 145
110 195 145
110 195 144
110 195 144
110 195 144
110 195 144
110 195 144
110 195 144
110 195 144
110 195 144
110 195 144
110 195 144
110 195 144
102 174 139
110 195 144
110 195 144
32 51 34
32 52 34
32 52 34
37 63 49
37 63 49
37 63 49
37 63 48
37 63 48
37 63 48
111 195 145
111 195 145
103 174 139
111 195 145
103 174 139
110 195 145
103 174 139
102 174 139
110 195 145
102 174 139
83 135 90
83 135 90
83 135 90
83 135 90
83 135 90
83 135 90
83 135 90
36 57 48
35 57 48
35 57 48
35 57 48
38 64 49
103 174 140
111 195 145
103 174 140
103 174 140
111 195 145
84 135 90
92 156 96
92 157 96
92 157 96
92 157 96
92 157 96
92 157 96
92 157 96
92 157 96
92 157 96
92 157 96
39 64 50
39 64 50
111 195 145
111 195 145
103 174 140
103 174 140
103 174 140
103 174 140
103 174 140
103 174 140
103 174 140
103 174 140
111 195 145
111 195 145
111 195 145
111 195 145
111 195 145
111 195 145
111 195 145
92 157 96
92 157 96
92 157 96
92 157 96
84 136 91
85 136 91
85 136 91
85 136 91
85 136 92
85 136 92
85 136 92
85 136 92
88 140 95
88 139 95
88 139 95
88 139 95
88 139 95
84 136 91
84 136 91
84 136 91
84 136 91
85 136 91
85 136 91
85 136 92
85 136 92
88 139 95
88 139 95
88 139 95
88 139 95
88 139 95
88 139 94
84 136 91
84 136 91
84 136 91
84 136 91
85 136 91
85 136 91
85 136 92
88 139 95
88 139 95
88 139 95
88 139 95
88 139 95
88 139 94
96 160 100
96 160 100
111 195 145
111 195 145
111 195 145
111 195 145
111 195 145
111 195 145
111 195 145
111 195 145
111 195 145
111 195 145
111 195 145
111 195 145
103 174 140
88 139 94
88 139 94
87 139 94
87 139 94
87 139 94
87 139 94
87 139 94
95 160 99
95 160 99
95 160 99
111 195 145
103 174 139
103 174 139
111 195 145
111 195 145
111 195 145
95 160 98
95 160 98
95 160 98
94 160 98
94 160 98
94 160 98
110 195 144
110 195 144
110 195 144
110 195 144
110 195 144
102 174 139
102 174 139
110 195 144
110 195 144
102 174 139
102 174 139
102 174 139
102 174 139
102 174 139
102 174 138
102 174 138
102 174 138
102 174 138
102 174 138
102 174 138
102 174 138
102 174 138
102 174 138
102 174 138
102 174 138
102 174 138
110 195 144
102 174 138
102 174 138
102 174 138
110 195 144
102 174 139
110 195 144
102 174 139
102 174 139
102 174 139
110 195 144
102 174 139
102 174 139
102 174 139
102 174 139
102 174 139
102 174 139
110 195 144
102 174 139
102 174 139
110 195 144
110 195 144
110 195 144
110 195 144
102 174 139
102 174 139
102 174 139
102 174 139
102 174 139
102 174 139
102 174 139
102 174 139
102 174 139
102 174 139
102 174 139
102 174 139
110 195 144
102 174 139
110 195 144
110 195 144
110 195 144
110 195 144
102 174 139
102 174 139
102 174 139
102 174 139
102 174 139
102 174 139
102 174 139
102 174 139
102 174 139
102 174 139
102 174 139
110 195 145
110 195 145
102 174 139
110 195 145
110 195 145
110 195 145
110 195 145
103 174 139
103 174 139
111 195 145
103 174 139
103 174 139
103 174 139
103 174 139
103 174 140
103 174 140
111 195 145
111 195 145
111 195 145
111 195 145
111 195 145
111 195 145
103 174 140
111 195 145
103 174 140
103 174 140
111 195 145
111 195 145
103 174 140
103 174 140
103 174 140
103 174 140
111 195 145
111 195 145
111 195 145
111 195 145
111 195 145
111 195 145
103 174 140
103 174 140
103 174 140
103 174 140
103 174 140
103 174 140
103 174 140
103 174 140
111 195 145
111 195 145
111 195 145
111 195 145
111 195 145
111 195 145
111 195 145
111 195 145
103 174 140
111 195 145
103 174 140
111 195 145
103 174 140
111 195 145
103 174 139
103 174 139
111 195 145
111 195 145
111 195 145
111 195 145
110 195 145
110 195 145
102 174 139
110 195 145
110 195 145
110 195 145
110 195 145
110 195 145
102 174 139
102 174 139
102 174 139
102 174 139
110 195 144
102 174 139
102 174 139
102 174 139
110 195 144
110 195 144
110 195 144
102 174 139
110 195 144
110 195 144
110 195 144
110 195 144
110 195 144
110 195 144
91 156 94
91 156 94
32 52 34
37 63 49
37 63 49
37 63 49
37 63 48
37 63 48
35 57 47
37 63 48
35 57 47
111 195 145
111 195 145
111 195 145
110 195 145
102 174 139
102 174 139
102 174 139
102 174 139
83 135 90
83 135 90
83 135 90
83 135 90
83 135 90
83 135 90
83 135 90
83 135 90
84 135 90
35 57 48
38 64 49
35 57 48
38 64 49
111 195 145
111 195 145
103 174 140
103 174 140
84 135 90
84 135 90
84 135 90
92 157 96
92 157 96
92 157 96
92 157 96
92 157 96
92 157 96
92 157 96
92 157 96
92 157 96
92 157 96
92 157 96
111 195 145
103 174 140
103 174 140
103 174 140
103 174 140
103 174 140
103 174 140
103 174 140
103 174 140
103 174 140
103 174 140
103 174 140
111 195 145
111 195 145
111 195 145
111 195 145
92 157 96
92 157 96
92 157 96
92 157 96
92 157 96
92 157 97
85 136 91
85 136 91
85 136 91
85 136 92
85 136 92
85 136 92
104 174 141
104 174 141
104 174 141
88 140 95
88 139 95
88 139 95
88 139 95
84 136 91
84 136 91
84 136 91
85 136 91
85 136 91
85 136 92
85 136 92
111 195 146
111 195 146
88 139 95
88 139 95
88 139 95
88 139 95
88 139 95
84 136 91
84 136 91
84 136 91
84 136 91
85 136 91
85 136 91
85 136 92
88 139 95
88 139 95
88 139 95
88 139 95
88 139 95
88 139 95
96 160 100
96 160 100
96 160 99
111 195 145
111 195 145
111 195 145
111 195 145
111 195 145
111 195 145
111 195 145
111 195 145
111 195 145
103 174 140
103 174 140
103 174 140
103 174 140
88 139 94
88 139 94
87 139 94
87 139 94
87 139 94
87 139 94
95 160 99
95 160 99
95 160 99
95 160 99
95 160 99
110 195 145
110 195 145
103 174 139
111 195 145
95 160 98
95 160 98
95 160 98
95 160 98
94 160 98
94 160 98
94 160 98
94 160 98
110 195 144
110 195 144
102 174 139
110 195 144
102 174 139
102 174 139
102 174 139
102 174 139
110 195 144
110 195 144
102 174 139
36 62 47
86 138 92
86 138 92
110 195 144
101 174 138
102 174 138
102 174 138
102 174 138
110 195 144
110 195 144
102 174 138
110 195 144
102 174 138
102 174 138
110 195 144
110 195 144
102 174 138
102 174 138
110 195 144
102 174 138
102 174 138
102 174 139
110 195 144
102 174 139
102 174 139
102 174 139
102 174 139
102 174 139
102 174 139
102 174 139
102 174 139
102 174 139
102 174 139
102 174 139
102 174 139
110 195 144
110 195 144
102 174 139
102 174 139
102 174 139
102 174 139
102 174 139
110 195 144
102 174 139
102 174 139
102 174 139
102 174 139
102 174 139
102 174 139
110 195 144
102 174 139
110 195 144
110 195 144
110 195 144
102 174 139
102 174 139
102 174 139
102 174 139
102 174 139
102 174 139
110 195 144
110 195 144
102 174 139
102 174 139
102 174 139
102 174 139
102 174 139
110 195 145
110 195 145
110 195 145
110 195 145
110 195 145
102 174 139
102 174 139
102 174 139
103 174 139
103 174 139
103 174 139
103 174 139
103 174 139
103 174 139
103 174 139
111 195 145
103 174 140
111 195 145
111 195 145
111 195 145
103 174 140
111 195 145
111 195 145
103 174 140
103 174 140
103 174 140
103 174 140
103 174 140
103 174 140
103 174 140
103 174 140
103 174 140
103 174 140
111 195 145
111 195 145
111 195 145
111 195 145
103 174 140
103 174 140
103 174 140
103 174 140
103 174 140
103 174 140
103 174 140
103 174 140
111 195 145
111 195 145
111 195 145
111 195 145
111 195 145
111 195 145
111 195 145
111 195 145
111 195 145
103 174 140
111 195 145
111 195 145
103 174 139
111 195 145
103 174 139
103 174 139
111 195 145
110 195 145
110 195 145
110 195 145
110 195 145
102 174 139
110 195 145
110 195 145
110 195 145
110 195 145
110 195 145
102 174 139
102 174 139
102 174 139
102 174 139
102 174 139
102 174 139
110 195 144
102 174 139
110 195 144
110 195 144
102 174 139
110 195 144
102 174 139
110 195 144
110 195 144
102 174 139
110 195 144
91 156 94
91 156 94
91 156 94
91 156 94
91 156 95
37 63 48
37 63 48
37 63 48
37 63 48
37 63 48
37 63 48
37 63 48
111 195 145
103 174 139
110 195 145
110 195 145
110 195 145
110 195 145
102 174 139
83 135 90
83 135 90
83 135 90
83 135 90
83 135 90
83 135 90
83 135 90
83 135 90
83 135 90
84 135 90
84 135 90
35 57 47
38 64 49
35 57 47
111 195 145
103 174 140
103 174 140
103 174 140
84 135 90
84 135 90
84 135 90
84 135 90
84 135 91
92 157 96
92 157 96
92 157 96
92 157 96
92 157 96
92 157 96
92 157 96
92 157 96
92 157 96
92 157 96
103 174 140
103 174 140
103 174 140
103 174 140
103 174 140
103 174 140
103 174 140
103 174 140
103 174 140
103 174 140
103 174 140
103 174 140
103 174 140
111 195 145
92 157 96
92 157 96
92 157 96
92 157 96
92 157 96
92 157 96
92 157 97
92 157 97
85 136 91
85 136 91
85 136 92
85 136 92
85 136 92
104 174 141
104 174 141
104 174 141
104 174 141
104 174 141
104 174 141
88 139 95
88 139 95
88 139 95
84 136 91
85 136 91
85 136 91
85 136 92
104 174 140
104 174 140
104 174 140
104 174 140
104 174 140
88 139 95
88 139 95
88 139 95
88 139 95
84 136 91
84 136 91
84 136 91
85 136 91
85 136 91
104 174 140
104 174 140
104 174 140
88 139 95
88 139 95
88 139 95
88 139 95
88 139 95
96 160 100
96 160 100
96 160 100
95 160 99
111 195 145
111 195 145
111 195 145
111 195 145
111 195 145
111 195 145
111 195 145
103 174 140
103 174 140
103 174 140
103 174 140
103 174 140
103 174 140
88 139 94
87 139 94
87 139 94
87 139 94
87 139 94
95 160 99
95 160 99
95 160 99
95 160 99
95 160 99
95 160 99
110 195 145
110 195 145
95 160 98
95 160 98
95 160 98
95 160 98
95 160 98
95 160 98
94 160 98
94 160 98
94 160 98
94 160 98
102 174 139
102 174 139
102 174 139
102 174 139
102 174 139
102 174 139
102 174 139
102 174 139
102 174 139
102 174 139
34 56 46
86 138 92
86 138 92
86 138 92
101 174 138
101 174 138
101 174 138
110 195 144
102 174 138
102 174 138
102 174 138
102 174 138
102 174 138
102 174 138
102 174 138
102 174 138
110 195 144
110 195 144
110 195 144
110 195 144
102 174 138
102 174 138
102 174 138
102 174 138
110 195 144
102 174 139
102 174 139
102 174 139
102 174 139
102 174 139
102 174 139
110 195 144
102 174 139
102 174 139
102 174 139
110 195 144
102 174 139
102 174 139
110 195 144
102 174 139
102 174 139
102 174 139
102 174 139
102 174 139
110 195 144
102 174 139
102 174 139
110 195 144
110 195 144
102 174 139
102 174 139
102 174 139
102 174 139
110 195 144
102 174 139
102 174 139
110 195 144
102 174 139
110 195 144
102 174 139
102 174 139
102 174 139
102 174 139
102 174 139
102 174 139
102 174 139
102 174 139
102 174 139
102 174 139
110 195 145
110 195 145
102 174 139
102 174 139
102 174 139
110 195 145
102 174 139
102 174 139
103 174 139
103 174 139
103 174 139
103 174 139
103 174 139
103 174 139
111 195 145
103 174 140
111 195 145
111 195 145
103 174 140
111 195 145
103 174 140
103 174 140
103 174 140
103 174 140
103 174 140
103 174 140
103 174 140
103 174 140
103 174 140
103 174 140
103 174 140
103 174 140
103 174 140
111 195 145
103 174 140
103 174 140
111 195 145
103 174 140
103 174 140
103 174 140
103 174 140
103 174 140
103 174 140
103 174 140
111 195 145
111 195 145
111 195 145
111 195 145
103 174 140
111 195 145
103 174 140
103 174 140
111 195 145
103 174 139
103 174 139
103 174 139
111 195 145
103 174 139
103 174 139
103 174 139
110 195 145
110 195 145
110 195 145
102 174 139
110 195 145
110 195 145
102 174 139
110 195 145
102 174 139
102 174 139
102 174 139
102 174 139
102 174 139
102 174 139
102 174 139
102 174 139
110 195 144
110 195 144
110 195 144
110 195 144
110 195 144
110 195 144
110 195 144
110 195 144
110 195 144
91 156 94
91 156 94
91 156 94
91 156 94
91 156 94
91 156 95
91 156 95
37 63 48
37 63 48
37 63 48
37 63 48
37 63 48
35 57 47
37 63 48
110 195 145
110 195 145
102 174 139
110 195 145
102 174 139
102 174 139
83 135 90
83 135 90
83 135 90
83 135 90
83 135 90
83 135 90
83 135 90
83 135 90
83 135 90
84 135 90
84 135 90
84 135 90
84 135 90
35 57 47
35 57 47
111 195 145
103 174 140
84 135 90
84 135 90
84 135 90
84 135 90
84 135 91
84 135 91
84 135 91
92 157 96
92 157 96
92 157 96
92 157 96
92 157 96
92 157 96
92 157 96
92 157 96
111 195 145
111 195 145
111 195 145
103 174 140
103 174 140
103 174 140
103 174 140
103 174 140
103 174 140
103 174 140
103 174 140
103 174 140
103 174 140
103 174 140
103 174 140
84 136 91
92 157 96
92 157 96
92 157 96
92 157 96
92 157 96
92 157 97
92 157 97
92 157 97
85 136 91
85 136 92
85 136 92
104 174 141
104 174 141
104 174 141
104 174 141
104 174 140
104 174 140
104 174 140
104 174 140
104 174 140
88 139 95
88 139 95
85 136 91
85 136 91
85 136 91
104 174 140
104 174 140
104 174 140
104 174 140
104 174 140
104 174 140
104 174 140
88 139 95
88 139 95
88 139 95
84 136 91
84 136 91
85 136 91
85 136 91
104 174 140
104 174 140
104 174 140
104 174 140
104 174 140
104 174 140
88 139 95
88 139 95
88 139 95
96 160 100
96 160 100
96 160 100
96 160 100
95 160 99
111 195 145
111 195 145
111 195 145
111 195 145
111 195 145
103 174 140
103 174 140
103 174 140
103 174 140
103 174 140
103 174 140
103 174 140
103 174 140
103 174 140
87 139 94
87 139 94
87 139 94
95 160 99
95 160 99
95 160 99
95 160 99
95 160 99
95 160 99
95 160 99
110 195 145
95 160 98
95 160 98
95 160 98
95 160 98
95 160 98
95 160 98
95 160 98
94 160 98
94 160 98
110 195 144
110 195 144
110 195 144
102 174 139
102 174 139
110 195 144
102 174 139
102 174 139
102 174 139
102 174 139
102 174 139
86 138 92
86 138 92
86 138 92
86 138 92
86 138 92
86 138 92
101 174 138
101 174 138
101 174 138
101 174 138
101 174 138
101 174 138
102 174 138
102 174 138
102 174 138
102 174 138
102 174 138
110 195 144
102 174 138
110 195 144
110 195 144
102 174 138
110 195 144
102 174 138
102 174 138
110 195 144
102 174 138
110 195 144
102 174 139
102 174 139
102 174 139
102 174 139
102 174 139
102 174 139
110 195 144
110 195 144
110 195 144
110 195 144
102 174 139
110 195 144
102 174 139
102 174 139
102 174 139
102 174 139
102 174 139
110 195 144
102 174 139
102 174 139
102 174 139
110 195 144
102 174 139
102 174 139
110 195 144
110 195 144
110 195 144
102 174 139
102 174 139
102 174 139
102 174 139
102 174 139
102 174 139
102 174 139
102 174 139
102 174 139
102 174 139
102 174 139
102 174 139
102 174 139
102 174 139
110 195 145
110 195 145
110 195 145
102 174 139
102 174 139
102 174 139
102 174 139
102 174 139
102 174 139
102 174 139
103 174 139
103 174 139
103 174 139
111 195 145
103 174 139
103 174 139
103 174 139
111 195 145
103 174 140
103 174 140
103 174 140
103 174 140
103 174 140
103 174 140
103 174 140
103 174 140
103 174 140
103 174 140
103 174 140
103 174 140
103 174 140
103 174 140
103 174 140
103 174 140
103 174 140
111 195 145
103 174 140
103 174 140
103 174 140
111 195 145
103 174 140
103 174 140
103 174 140
103 174 140
111 195 145
111 195 145
103 174 140
103 174 140
103 174 140
103 174 140
103 174 139
103 174 139
111 195 145
103 174 139
111 195 145
103 174 139
103 174 139
102 174 139
110 195 145
102 174 139
102 174 139
110 195 145
110 195 145
110 195 145
110 195 145
102 174 139
102 174 139
102 174 139
102 174 139
102 174 139
102 174 139
102 174 139
102 174 139
102 174 139
110 195 144
110 195 144
102 174 139
102 174 139
110 195 144
110 195 144
110 195 144
110 195 144
110 195 144
91 156 94
91 156 94
91 156 94
91 156 94
91 156 94
91 156 95
91 156 95
91 156 95
91 156 95
37 63 48
37 63 48
37 63 48
35 57 47
37 63 48
37 63 48
110 195 145
110 195 145
102 174 139
102 174 139
110 195 145
91 156 95
91 156 95
91 156 95
83 135 90
83 135 90
83 135 90
83 135 90
83 135 90
83 135 90
84 135 90
84 135 90
84 135 90
84 135 90
84 135 90
84 135 90
35 57 47
103 174 140
84 135 90
84 135 90
84 135 90
84 135 90
84 135 90
84 135 91
84 135 91
84 135 91
84 135 91
92 157 96
92 157 96
92 157 96
92 157 96
92 157 96
92 157 96
111 195 145
111 195 145
111 195 145
111 195 145
111 195 145
111 195 145
103 174 140
103 174 140
103 174 140
103 174 140
103 174 140
103 174 140
103 174 140
103 174 140
103 174 140
84 136 91
84 136 91
84 136 91
92 157 96
92 157 96
92 157 96
92 157 96
92 157 96
92 157 97
92 157 97
92 157 97
85 136 92
104 174 140
104 174 140
104 174 140
104 174 140
104 174 140
104 174 140
104 174 140
104 174 140
104 174 140
104 174 140
104 174 140
104 174 140
88 139 95
85 136 91
104 174 140
104 174 140
104 174 140
104 174 140
103 174 140
103 174 140
103 174 140
103 174 140
103 174 140
103 174 140
88 139 95
88 139 95
84 136 91
85 136 91
103 174 140
103 174 140
103 174 140
103 174 140
103 174 140
103 174 140
103 174 140
103 174 140
103 174 140
88 139 95
88 139 95
96 160 100
96 160 100
96 160 100
96 160 100
96 160 99
95 160 99
95 160 99
111 195 145
103 174 140
103 174 140
103 174 140
103 174 140
103 174 140
103 174 140
103 174 140
103 174 140
103 174 140
103 174 140
103 174 140
103 174 140
87 139 94
87 139 94
95 160 99
95 160 99
95 160 99
95 160 99
95 160 99
95 160 99
95 160 99
95 160 99
110 195 145
95 160 98
95 160 98
95 160 98
95 160 98
95 160 98
95 160 98
110 195 144
110 195 144
110 195 144
110 195 144
110 195 144
102 174 139
102 174 139
102 174 139
102 174 139
102 174 139
102 174 139
102 174 139
102 174 139
86 138 92
86 138 92
86 138 92
86 138 92
86 138 92
86 138 92
86 138 92
110 195 144
101 174 138
110 195 144
101 174 138
110 195 144
110 195 144
101 174 138
101 174 138
110 195 144
110 195 144
110 195 144
110 195 144
102 174 138
110 195 144
110 195 144
110 195 144
110 195 144
102 174 138
102 174 138
110 195 144
102 174 138
102 174 138
102 174 138
102 174 139
102 174 139
102 174 139
110 195 144
102 174 139
110 195 144
110 195 144
102 174 139
110 195 144
110 195 144
102 174 139
102 174 139
102 174 139
102 174 139
110 195 144
102 174 139
102 174 139
102 174 139
102 174 139
102 174 139
102 174 139
110 195 144
110 195 144
110 195 144
110 195 144
110 195 144
110 195 144
102 174 139
102 174 139
102 174 139
102 174 139
110 195 144
102 174 139
110 195 144
110 195 144
102 174 139
102 174 139
102 174 139
102 174 139
110 195 144
110 195 144
110 195 144
110 195 145
102 174 139
102 174 139
102 174 139
102 174 139
102 174 139
102 174 139
102 174 139
110 195 145
102 174 139
103 174 139
103 174 139
111 195 145
103 174 139
111 195 145
103 174 139
111 195 145
111 195 145
103 174 140
103 174 140
103 174 140
103 174 140
103 174 140
111 195 145
103 174 140
111 195 145
103 174 140
103 174 140
103 174 140
103 174 140
103 174 140
111 195 145
103 174 140
103 174 140
103 174 140
103 174 140
103 174 140
103 174 140
111 195 145
103 174 140
103 174 140
103 174 140
103 174 140
103 174 140
103 174 140
103 174 139
103 174 139
111 195 145
103 174 139
111 195 145
103 174 139
103 174 139
102 174 139
102 174 139
110 195 145
102 174 139
110 195 145
102 174 139
102 174 139
102 174 139
102 174 139
102 174 139
102 174 139
110 195 144
110 195 144
102 174 139
102 174 139
102 174 139
102 174 139
102 174 139
102 174 139
102 174 139
102 174 139
102 174 139
102 174 139
110 195 144
110 195 144
91 156 94
91 156 94
91 156 94
91 156 94
91 156 94
91 156 94
91 156 95
91 156 95
91 156 95
91 156 95
91 156 95
91 156 95
91 156 95
37 63 48
35 56 47
37 63 48
37 63 48
110 195 145
110 195 145
110 195 145
110 195 145
91 156 95
91 156 95
91 156 95
91 156 95
91 156 95
83 135 90
83 135 90
83 135 90
83 135 90
83 135 90
84 135 90
84 135 90
84 135 90
84 135 90
84 135 90
84 135 90
84 135 90
84 135 90
84 135 90
84 135 90
84 135 90
84 135 90
84 135 90
84 135 91
84 135 91
84 135 91
84 135 91
84 135 91
92 157 96
92 157 96
92 157 96
92 157 96
111 195 145
111 195 145
111 195 145
111 195 145
111 195 145
111 195 145
111 195 145
111 195 145
103 174 140
103 174 140
103 174 140
103 174 140
103 174 140
103 174 140
103 174 140
84 135 91
84 136 91
84 136 91
84 136 91
84 136 91
92 157 96
92 157 96
92 157 96
92 157 96
92 157 97
92 157 97
92 157 97
93 157 97
111 195 146
104 174 140
104 174 140
104 174 140
104 174 140
104 174 140
104 174 140
104 174 140
104 174 140
103 174 140
103 174 140
103 174 140
103 174 140
103 174 140
111 195 146
103 174 140
103 174 140
103 174 140
103 174 140
103 174 140
111 195 146
103 174 140
111 195 146
103 174 140
103 174 140
103 174 140
88 139 95
85 136 91
103 174 140
111 195 146
103 174 140
103 174 140
103 174 140
103 174 140
103 174 140
103 174 140
103 174 140
103 174 140
111 195 146
88 139 95
96 160 100
96 160 100
96 160 100
96 160 100
96 160 100
95 160 99
95 160 99
87 139 94
103 174 140
103 174 140
103 174 140
103 174 140
103 174 140
103 174 140
103 174 140
103 174 140
103 174 140
103 174 140
103 174 140
103 174 140
103 174 140
87 139 94
95 160 99
95 160 99
95 160 99
95 160 99
95 160 99
95 160 99
95 160 99
102 174 139
110 195 145
110 195 145
95 160 98
95 160 98
95 160 98
95 160 98
110 195 144
102 174 139
102 174 139
110 195 144
110 195 144
110 195 144
110 195 144
110 195 144
102 174 139
102 174 139
102 174 139
102 174 139
102 174 139
102 174 139
86 138 92
86 138 92
86 138 92
86 138 92
86 138 92
86 138 92
86 138 92
86 138 92
86 138 92
101 174 138
101 174 138
101 174 138
101 174 138
110 195 144
110 195 144
101 174 138
110 195 144
110 195 144
110 195 144
102 174 138
110 195 144
110 195 144
110 195 144
110 195 144
110 195 144
102 174 138
102 174 138
102 174 138
102 174 138
102 174 138
110 195 144
102 174 138
110 195 144
102 174 139
110 195 144
110 195 144
110 195 144
110 195 144
102 174 139
110 195 144
110 195 144
110 195 144
110 195 144
110 195 144
102 174 139
102 174 139
102 174 139
102 174 139
102 174 139
102 174 139
110 195 144
110 195 144
110 195 144
110 195 144
110 195 144
110 195 144
110 195 144
110 195 144
102 174 139
102 174 139
102 174 139
102 174 139
102 174 139
102 174 139
102 174 139
102 174 139
102 174 139
102 174 139
102 174 139
110 195 144
110 195 144
102 174 139
110 195 144
110 195 144
110 195 145
102 174 139
102 174 139
110 195 145
102 174 139
110 195 145
102 174 139
110 195 145
102 174 139
102 174 139
103 174 139
103 174 139
103 174 139
111 195 145
103 174 139
111 195 145
111 195 145
111 195 145
103 174 140
103 174 140
103 174 140
103 174 140
103 174 140
103 174 140
103 174 140
103 174 140
103 174 140
103 174 140
103 174 140
103 174 140
103 174 140
103 174 140
103 174 140
103 174 140
111 195 145
103 174 140
103 174 140
111 195 145
103 174 140
111 195 145
103 174 140
103 174 139
111 195 145
103 174 139
103 174 139
111 195 145
111 195 145
103 174 139
102 174 139
102 174 139
102 174 139
102 174 139
102 174 139
110 195 145
102 174 139
110 195 145
102 174 139
102 174 139
102 174 139
102 174 139
102 174 139
102 174 139
102 174 139
110 195 144
102 174 139
102 174 139
102 174 139
102 174 139
102 174 139
102 174 139
102 174 139
102 174 139
102 174 139
91 156 94
91 156 94
91 156 94
91 156 94
91 156 94
91 156 94
91 156 94
91 156 95
91 156 95
91 156 95
91 156 95
91 156 95
91 156 95
91 156 95
91 156 95
37 63 48
37 63 48
37 63 48
110 195 145
110 195 145
102 174 139
91 156 95
91 156 95
91 156 95
91 156 95
91 156 95
91 156 95
91 156 95
83 135 90
83 135 90
83 135 90
83 135 90
84 135 90
84 135 90
84 135 90
84 135 90
84 135 90
84 135 90
103 174 140
103 174 140
103 174 140
30 46 33
30 46 33
84 135 90
84 135 90
84 135 91
84 135 91
84 135 91
84 135 91
84 135 91
84 135 91
92 157 96
92 157 96
111 195 145
111 195 145
111 195 145
111 195 145
111 195 145
111 195 145
111 195 145
111 195 145
111 195 145
111 195 145
111 195 145
103 174 140
103 174 140
103 174 140
103 174 140
84 135 91
84 135 91
84 136 91
84 136 91
84 136 91
84 136 91
84 136 91
92 157 96
92 157 96
92 157 96
92 157 97
92 157 97
92 157 97
111 195 146
111 195 146
111 195 146
111 195 146
103 174 140
103 174 140
103 174 140
103 174 140
103 174 140
103 174 140
103 174 140
103 174 140
103 174 140
103 174 140
111 195 146
111 195 146
111 195 146
103 174 140
103 174 140
111 195 146
103 174 140
103 174 140
103 174 140
103 174 140
103 174 140
103 174 140
103 174 140
103 174 140
111 195 146
103 174 140
111 195 146
103 174 140
103 174 140
103 174 140
103 174 140
103 174 140
103 174 140
103 174 140
103 174 140
103 174 140
103 174 140
111 195 146
96 160 100
96 160 100
96 160 100
96 160 100
96 160 100
96 160 100
95 160 99
87 139 94
87 139 94
103 174 140
103 174 140
103 174 140
103 174 140
103 174 140
103 174 140
103 174 140
103 174 140
103 174 140
103 174 140
103 174 140
103 174 140
111 195 145
111 195 145
95 160 99
95 160 99
95 160 99
95 160 99
110 195 145
110 195 145
110 195 145
102 174 139
110 195 145
110 195 145
95 160 98
95 160 98
110 195 144
102 174 139
110 195 144
110 195 144
102 174 139
110 195 144
110 195 144
110 195 144
110 195 144
110 195 144
110 195 144
110 195 144
102 174 139
102 174 139
110 195 144
86 138 92
86 138 92
86 138 92
86 138 92
86 138 92
86 138 92
86 138 92
86 138 92
86 138 92
86 138 92
101 174 138
101 174 138
109 195 144
110 195 144
110 195 144
110 195 144
110 195 144
110 195 144
110 195 144
110 195 144
110 195 144
110 195 144
102 174 138
110 195 144
110 195 144
110 195 144
110 195 144
110 195 144
102 174 138
102 174 138
110 195 144
110 195 144
110 195 144
102 174 138
110 195 144
110 195 144
110 195 144
110 195 144
110 195 144
110 195 144
110 195 144
110 195 144
110 195 144
102 174 139
102 174 139
102 174 139
102 174 139
102 174 139
110 195 144
110 195 144
110 195 144
110 195 144
110 195 144
102 174 139
110 195 144
110 195 144
110 195 144
110 195 144
110 195 144
110 195 144
102 174 139
102 174 139
102 174 139
102 174 139
102 174 139
102 174 139
102 174 139
102 174 139
110 195 144
110 195 144
102 174 139
110 195 144
110 195 144
110 195 144
110 195 144
110 195 144
110 195 145
110 195 145
102 174 139
102 174 139
110 195 145
102 174 139
102 174 139
102 174 139
102 174 139
102 174 139
110 195 145
111 195 145
103 174 139
111 195 145
111 195 145
103 174 139
111 195 145
111 195 145
103 174 140
111 195 145
103 174 140
103 174 140
103 174 140
111 195 145
103 174 140
103 174 140
103 174 140
103 174 140
103 174 140
103 174 140
103 174 140
103 174 140
111 195 145
111 195 145
111 195 145
111 195 145
111 195 145
103 174 139
103 174 139
103 174 139
103 174 139
103 174 139
103 174 139
110 195 145
102 174 139
102 174 139
102 174 139
102 174 139
110 195 145
102 174 139
102 174 139
110 195 145
110 195 145
110 195 145
110 195 144
102 174 139
102 174 139
110 195 144
102 174 139
110 195 144
102 174 139
110 195 144
102 174 139
102 174 139
102 174 139
102 174 139
102 174 139
110 195 144
102 174 139
110 195 144
110 195 144
102 174 139
30 50 32
30 50 32
91 156 94
91 156 94
91 156 95
91 156 95
91 156 95
91 156 95
91 156 95
91 156 95
91 156 95
91 156 95
91 156 95
91 156 95
37 63 48
34 56 46
102 174 139
110 195 145
91 156 95
91 156 95
91 156 95
91 156 95
91 156 95
91 156 95
91 156 95
91 156 95
91 156 95
91 156 95
83 135 90
84 135 90
84 135 90
84 135 90
84 135 90
84 135 90
84 135 90
103 174 140
103 174 140
103 174 140
103 174 140
103 174 140
103 174 140
30 46 33
30 46 33
30 46 33
30 46 33
84 135 91
84 135 91
84 135 91
84 136 91
84 136 91
84 136 91
111 195 145
111 195 145
111 195 145
111 195 145
111 195 145
111 195 145
111 195 145
111 195 145
111 195 145
111 195 145
111 195 145
111 195 145
111 195 145
103 174 140
103 174 140
84 135 91
84 135 91
84 136 91
84 136 91
84 136 91
84 136 91
84 136 91
84 136 91
92 157 96
92 157 96
92 157 97
92 157 97
111 195 146
111 195 146
111 195 146
111 195 146
111 195 146
103 174 140
111 195 146
103 174 140
103 174 140
103 174 140
103 174 140
103 174 140
103 174 140
103 174 140
103 174 140
111 195 146
111 195 146
111 195 146
111 195 146
103 174 140
111 195 146
103 174 140
103 174 140
103 174 140
103 174 140
103 174 140
103 174 140
103 174 140
103 174 140
103 174 140
111 195 146
103 174 140
111 195 146
103 174 140
103 174 140
111 195 146
111 195 146
103 174 140
103 174 140
111 195 146
111 195 146
103 174 140
103 174 140
111 195 146
103 174 140
96 160 100
96 160 100
96 160 100
96 160 100
96 160 100
95 160 99
88 139 94
87 139 94
87 139 94
103 174 140
103 174 140
103 174 140
103 174 140
103 174 140
103 174 140
103 174 140
103 174 140
103 174 140
111 195 145
111 195 145
111 195 145
111 195 145
111 195 145
95 160 99
95 160 99
110 195 144
102 174 139
102 174 139
110 195 144
110 195 144
110 195 144
110 195 144
110 195 145
110 195 144
110 195 144
110 195 144
102 174 139
110 195 144
102 174 139
102 174 139
102 174 139
102 174 139
110 195 144
110 195 144
102 174 139
110 195 144
102 174 139
102 174 139
36 62 47
86 138 92
86 138 92
86 138 92
86 138 92
86 138 92
86 138 92
86 138 92
86 138 92
86 138 92
86 138 92
86 138 92
101 174 138
101 174 138
109 195 144
101 174 138
109 195 144
110 195 144
110 195 144
110 195 144
110 195 144
101 174 138
110 195 144
101 174 138
110 195 144
110 195 144
110 195 144
110 195 144
110 195 144
110 195 144
102 174 138
110 195 144
110 195 144
110 195 144
102 174 138
102 174 138
110 195 144
110 195 144
102 174 138
110 195 144
110 195 144
110 195 144
102 174 139
110 195 144
110 195 144
110 195 144
110 195 144
102 174 139
102 174 139
102 174 139
110 195 144
110 195 144
110 195 144
110 195 144
110 195 144
110 195 144
110 195 144
110 195 144
102 174 139
110 195 144
110 195 144
102 174 139
110 195 144
102 174 139
102 174 139
110 195 144
102 174 139
102 174 139
110 195 144
110 195 144
110 195 144
102 174 139
110 195 144
102 174 139
110 195 144
110 195 144
110 195 144
110 195 144
110 195 144
110 195 145
102 174 139
102 174 139
102 174 139
102 174 139
110 195 145
102 174 139
102 174 139
110 195 145
110 195 145
103 174 139
110 195 145
111 195 145
111 195 145
111 195 145
111 195 145
111 195 145
111 195 145
103 174 140
103 174 140
103 174 140
103 174 140
103 174 140
103 174 140
103 174 140
103 174 140
103 174 140
103 174 140
111 195 145
111 195 145
111 195 145
111 195 145
111 195 145
111 195 145
111 195 145
111 195 145
103 174 139
103 174 139
110 195 145
103 174 139
110 195 145
102 174 139
102 174 139
102 174 139
102 174 139
102 174 139
102 174 139
102 174 139
102 174 139
110 195 144
102 174 139
110 195 144
110 195 144
102 174 139
102 174 139
102 174 139
102 174 139
102 174 139
102 174 139
102 174 139
102 174 139
102 174 139
102 174 139
102 174 139
102 174 139
110 195 144
110 195 144
110 195 144
110 195 144
110 195 144
31 50 32
31 50 32
31 51 32
31 51 32
31 51 33
91 156 95
91 156 95
91 156 95
91 156 95
91 156 95
91 156 95
91 156 95
91 156 95
91 156 95
91 156 95
110 195 145
91 156 95
91 156 95
91 156 95
91 156 95
91 156 95
91 156 95
91 156 95
91 156 95
91 156 95
91 156 95
91 156 95
91 156 95
84 135 90
84 135 90
84 135 90
84 135 90
84 135 90
103 174 140
103 174 140
103 174 140
111 195 145
111 195 145
103 174 140
103 174 140
103 174 140
30 46 33
30 46 33
30 46 33
30 46 33
30 46 33
30 46 33
84 136 91
84 136 91
103 174 140
103 174 140
111 195 145
111 195 145
111 195 145
111 195 145
111 195 145
111 195 145
111 195 145
111 195 145
111 195 145
111 195 145
111 195 145
111 195 145
111 195 145
92 157 96
84 135 91
84 135 91
84 136 91
84 136 91
84 136 91
84 136 91
84 136 91
84 136 91
84 136 91
92 157 96
92 157 97
92 157 97
111 195 146
111 195 146
111 195 146
111 195 146
111 195 146
111 195 146
111 195 146
111 195 146
111 195 146
103 174 140
103 174 140
103 174 140
103 174 140
103 174 140
111 195 146
111 195 146
111 195 146
103 174 140
111 195 146
111 195 146
111 195 146
111 195 145
111 195 145
103 174 140
103 174 140
103 174 140
103 174 140
103 174 140
103 174 140
111 195 145
111 195 145
111 195 145
111 195 145
111 195 145
111 195 145
103 174 140
103 174 140
103 174 140
103 174 140
103 174 140
103 174 140
103 174 140
103 174 140
111 195 145
111 195 145
111 195 145
111 195 145
111 195 145
96 160 100
96 160 100
96 160 100
96 160 100
88 139 94
87 139 94
87 139 94
87 139 94
87 139 94
103 174 140
103 174 140
103 174 140
103 174 140
103 174 140
103 174 140
111 195 145
111 195 145
111 195 145
111 195 145
111 195 145
111 195 145
111 195 145
110 195 144
110 195 144
110 195 144
110 195 144
110 195 144
110 195 144
110 195 144
110 195 144
110 195 144
110 195 144
110 195 144
110 195 144
110 195 144
110 195 144
110 195 144
110 195 144
110 195 144
110 195 144
102 174 139
110 195 144
102 174 139
110 195 144
110 195 144
110 195 144
33 55 45
86 138 92
86 138 92
86 138 92
86 138 92
86 138 92
86 138 92
86 138 92
86 138 92
86 138 92
86 138 92
101 174 138
101 174 138
109 195 144
109 195 144
109 195 144
109 195 144
109 195 144
109 195 144
109 195 144
110 195 144
110 195 144
110 195 144
101 174 138
110 195 144
110 195 144
101 174 138
110 195 144
110 195 144
110 195 144
102 174 138
102 174 138
102 174 138
110 195 144
110 195 144
102 174 138
110 195 144
110 195 144
102 174 138
110 195 144
110 195 144
110 195 144
110 195 144
102 174 139
110 195 144
110 195 144
110 195 144
110 195 144
102 174 139
110 195 144
110 195 144
102 174 139
110 195 144
110 195 144
102 174 139
102 174 139
110 195 144
110 195 144
110 195 144
110 195 144
110 195 144
110 195 144
110 195 144
110 195 144
110 195 144
102 174 139
102 174 139
110 195 144
110 195 144
110 195 144
110 195 144
110 195 144
110 195 144
110 195 144
110 195 144
110 195 144
110 195 144
110 195 144
110 195 144
110 195 144
110 195 144
110 195 144
110 195 145
110 195 145
102 174 139
102 174 139
110 195 145
110 195 145
110 195 145
110 195 145
110 195 145
110 195 145
103 174 139
111 195 145
111 195 145
111 195 145
111 195 145
111 195 145
103 174 140
103 174 140
103 174 140
103 174 140
103 174 140
103 174 140
103 174 140
111 195 145
111 195 145
111 195 145
111 195 145
103 174 140
111 195 145
111 195 145
111 195 145
111 195 145
111 195 145
110 195 145
110 195 145
102 174 139
102 174 139
102 174 139
102 174 139
102 174 139
102 174 139
110 195 145
110 195 145
110 195 145
110 195 144
110 195 144
102 174 139
110 195 144
110 195 144
110 195 144
110 195 144
110 195 144
102 174 139
102 174 139
110 195 144
110 195 144
102 174 139
102 174 139
110 195 144
102 174 139
110 195 144
110 195 144
110 195 144
110 195 144
110 195 144
110 195 144
110 195 144
110 195 144
31 51 32
31 51 33
31 51 33
31 51 33
31 51 33
31 51 33
31 51 33
91 156 95
91 156 95
91 156 95
91 156 95
91 156 95
91 156 95
110 195 145
31 51 33
91 156 95
91 156 95
91 156 95
91 156 95
91 156 95
91 156 95
91 156 95
91 156 95
91 156 95
91 156 95
91 156 95
91 156 95
84 135 90
84 135 90
84 135 90
84 135 90
103 174 140
111 195 145
111 195 145
103 174 140
103 174 140
103 174 140
103 174 140
103 174 139
103 174 139
103 174 139
30 46 33
30 46 33
30 46 33
30 46 33
30 46 33
36 58 48
36 58 48
103 174 140
103 174 140
103 174 140
111 195 145
111 195 145
111 195 145
111 195 145
111 195 145
111 195 145
111 195 145
111 195 145
111 195 145
111 195 145
92 157 96
92 157 96
92 157 96
84 135 91
84 136 91
84 136 91
84 136 91
84 136 91
84 136 91
84 136 91
84 136 91
84 136 91
92 157 97
103 174 140
111 195 146
111 195 146
103 174 140
111 195 146
111 195 146
111 195 146
111 195 146
111 195 146
111 195 146
111 195 146
111 195 146
103 174 140
103 174 140
103 174 140
111 195 145
111 195 145
111 195 145
111 195 145
111 195 145
111 195 145
111 195 145
111 195 145
111 195 145
111 195 145
103 174 140
103 174 140
103 174 140
111 195 145
111 195 145
111 195 145
103 174 140
111 195 145
111 195 145
111 195 145
111 195 145
111 195 145
111 195 145
103 174 140
103 174 140
103 174 140
103 174 140
103 174 140
111 195 145
111 195 145
111 195 145
111 195 145
111 195 145
111 195 145
111 195 145
103 174 140
96 160 100
96 160 100
96 160 100
88 139 94
88 139 94
87 139 94
87 139 94
87 139 94
87 139 94
103 174 140
103 174 140
103 174 140
103 174 140
111 195 145
111 195 145
111 195 145
111 195 145
111 195 145
111 195 145
111 195 145
110 195 144
110 195 144
102 174 139
102 174 139
110 195 144
110 195 144
110 195 144
110 195 144
110 195 144
94 159 97
94 159 97
110 195 144
110 195 144
102 174 139
102 174 139
110 195 144
110 195 144
102 174 139
110 195 144
110 195 144
110 195 144
102 174 139
110 195 144
110 195 144
110 195 144
102 174 139
86 138 92
86 138 92
86 138 92
86 138 92
86 138 92
86 138 92
86 138 92
86 138 92
86 138 92
101 174 138
101 174 138
101 174 138
101 174 138
101 174 138
101 174 138
101 174 138
109 195 144
109 195 144
109 195 144
109 195 144
109 195 144
109 195 144
110 195 144
110 195 144
110 195 144
101 174 138
110 195 144
110 195 144
101 174 138
102 174 138
102 174 138
102 174 138
110 195 144
110 195 144
110 195 144
110 195 144
110 195 144
110 195 144
110 195 144
110 195 144
110 195 144
110 195 144
110 195 144
102 174 139
110 195 144
110 195 144
110 195 144
102 174 139
102 174 139
110 195 144
110 195 144
110 195 144
102 174 139
110 195 144
110 195 144
110 195 144
102 174 139
110 195 144
110 195 144
110 195 144
110 195 144
110 195 144
110 195 144
110 195 144
110 195 144
110 195 144
102 174 139
110 195 144
102 174 139
110 195 144
110 195 144
102 174 139
110 195 144
102 174 139
110 195 144
102 174 139
110 195 144
110 195 144
110 195 144
110 195 144
102 174 139
110 195 144
110 195 144
102 174 139
110 195 145
110 195 145
110 195 145
110 195 145
110 195 145
110 195 145
110 195 145
110 195 145
110 195 145
110 195 145
111 195 145
111 195 145
111 195 145
111 195 145
111 195 145
103 174 140
103 174 140
103 174 140
103 174 140
111 195 145
103 174 140
111 195 145
111 195 145
111 195 145
111 195 145
111 195 145
111 195 145
111 195 145
110 195 145
103 174 139
110 195 145
102 174 139
102 174 139
102 174 139
102 174 139
102 174 139
110 195 145
110 195 145
110 195 145
110 195 144
110 195 144
110 195 144
110 195 144
110 195 144
110 195 144
110 195 144
110 195 144
110 195 144
102 174 139
102 174 139
102 174 139
110 195 144
102 174 139
110 195 144
102 174 139
110 195 144
110 195 144
110 195 144
110 195 144
110 195 144
110 195 144
102 174 139
110 195 144
110 195 144
102 174 139
31 51 33
31 51 33
31 51 33
31 51 33
31 51 33
31 51 33
31 51 33
31 51 33
31 51 33
31 51 33
31 51 33
110 195 145
110 195 145
110 195 144
110 195 144
31 51 33
31 51 33
31 51 33
91 156 95
91 156 95
91 156 95
91 156 95
91 156 95
91 156 95
91 156 95
92 156 95
92 156 95
84 135 90
84 135 90
103 174 140
103 174 140
103 174 140
103 174 140
103 174 140
103 174 140
103 174 139
103 174 139
103 174 139
111 195 145
103 174 139
111 195 145
103 174 139
30 46 33
30 46 33
36 58 48
36 58 48
36 58 48
36 58 48
103 174 140
103 174 140
103 174 140
103 174 140
111 195 145
111 195 145
111 195 145
111 195 145
111 195 145
111 195 145
111 195 145
111 195 145
92 157 96
92 157 96
92 157 96
92 157 96
84 136 91
84 136 91
84 136 91
84 136 91
84 136 91
84 136 91
84 136 91
84 136 91
84 136 91
103 174 140
111 195 146
111 195 146
111 195 146
111 195 146
111 195 146
111 195 146
111 195 146
103 174 140
111 195 145
111 195 145
111 195 145
111 195 145
111 195 145
111 195 145
111 195 145
111 195 145
111 195 145
111 195 145
111 195 145
111 195 145
111 195 145
111 195 145
111 195 145
111 195 145
111 195 145
111 195 145
103 174 140
103 174 140
103 174 140
111 195 145
111 195 145
111 195 145
111 195 145
103 174 140
111 195 145
111 195 145
111 195 145
111 195 145
111 195 145
103 174 140
103 174 140
103 174 140
111 195 145
111 195 145
111 195 145
111 195 145
111 195 145
111 195 145
103 174 140
111 195 145
111 195 145
111 195 145
96 160 100
96 160 100
88 139 94
88 139 94
88 139 94
87 139 94
87 139 94
87 139 94
87 139 94
103 174 140
111 195 145
111 195 145
111 195 145
111 195 145
111 195 145
111 195 145
111 195 145
111 195 145
95 160 98
110 195 144
110 195 144
110 195 144
110 195 144
110 195 144
110 195 144
102 174 139
110 195 144
110 195 144
94 159 97
94 159 97
94 159 97
110 195 144
110 195 144
110 195 144
110 195 144
102 174 139
102 174 139
110 195 144
110 195 144
102 174 139
110 195 144
110 195 144
102 174 139
102 174 139
110 195 144
110 195 144
102 174 139
86 138 92
86 138 92
86 138 92
86 138 92
86 138 92
28 44 31
101 174 138
101 174 138
101 174 138
101 174 138
101 174 138
101 174 138
101 174 138
101 174 138
109 195 144
109 195 144
109 195 144
109 195 144
101 174 138
109 195 144
109 195 144
109 195 144
101 174 138
110 195 144
110 195 144
101 174 138
101 174 138
101 174 138
101 174 138
101 174 138
102 174 138
110 195 144
110 195 144
110 195 144
110 195 144
110 195 144
110 195 144
102 174 138
110 195 144
102 174 138
110 195 144
110 195 144
110 195 144
110 195 144
102 174 139
102 174 139
102 174 139
102 174 139
110 195 144
110 195 144
102 174 139
110 195 144
110 195 144
110 195 144
110 195 144
110 195 144
102 174 139
102 174 139
110 195 144
110 195 144
102 174 139
110 195 144
110 195 144
102 174 139
102 174 139
110 195 144
110 195 144
110 195 144
110 195 144
102 174 139
102 174 139
110 195 144
110 195 144
110 195 144
110 195 144
110 195 144
110 195 144
110 195 144
110 195 144
102 174 139
110 195 144
110 195 144
110 195 144
110 195 145
102 174 139
110 195 145
110 195 145
110 195 145
110 195 145
110 195 145
110 195 145
110 195 145
103 174 139
110 195 145
111 195 145
103 174 139
111 195 145
111 195 145
111 195 145
103 174 140
103 174 140
103 174 140
111 195 145
111 195 145
111 195 145
111 195 145
111 195 145
111 195 145
110 195 145
110 195 145
110 195 145
110 195 145
110 195 145
102 174 139
110 195 145
102 174 139
110 195 145
102 174 139
110 195 145
102 174 139
102 174 139
110 195 144
102 174 139
110 195 144
110 195 144
102 174 139
110 195 144
110 195 144
110 195 144
110 195 144
110 195 144
102 174 139
102 174 139
102 174 139
102 174 139
110 195 144
102 174 139
110 195 144
110 195 144
110 195 144
110 195 144
110 195 144
110 195 144
110 195 144
110 195 144
102 174 139
110 195 144
110 195 144
31 51 33
31 51 33
31 51 33
31 51 33
31 51 33
31 51 33
31 51 33
31 51 33
37 63 48
37 63 48
110 195 144
110 195 144
110 195 144
102 174 139
31 51 33
31 51 33
31 51 33
31 51 33
31 51 33
31 51 33
31 51 34
91 156 95
91 156 95
92 156 95
92 156 95
92 156 95
103 174 140
103 174 140
111 195 145
103 174 140
103 174 140
111 195 145
111 195 145
103 174 139
111 195 145
103 174 139
103 174 139
111 195 145
103 174 139
103 174 139
110 195 145
103 174 139
36 58 48
36 58 48
36 58 48
36 58 48
36 57 48
36 57 48
103 174 140
103 174 140
103 174 140
103 174 140
111 195 145
111 195 145
111 195 145
111 195 145
111 195 145
92 157 96
92 157 96
92 157 96
92 157 96
92 157 96
92 157 96
84 136 91
84 136 91
84 136 91
84 136 91
84 136 91
84 136 91
84 136 91
103 174 140
103 174 140
103 174 140
103 174 140
111 195 146
111 195 146
111 195 145
111 195 145
111 195 145
111 195 145
111 195 145
111 195 145
111 195 145
111 195 145
92 157 96
92 157 96
96 160 100
111 195 145
103 174 140
111 195 145
111 195 145
111 195 145
111 195 145
111 195 145
111 195 145
111 195 145
111 195 145
111 195 145
111 195 145
92 157 96
111 195 145
111 195 145
111 195 145
111 195 145
111 195 145
111 195 145
111 195 145
111 195 145
111 195 145
111 195 145
111 195 145
111 195 145
111 195 145
103 174 140
111 195 145
111 195 145
111 195 145
103 174 140
111 195 145
111 195 145
111 195 145
111 195 145
111 195 145
111 195 145
111 195 145
111 195 145
96 160 100
88 139 94
88 139 94
88 139 94
87 139 94
87 139 94
87 139 94
87 139 94
103 174 140
111 195 145
111 195 145
111 195 145
111 195 145
111 195 145
111 195 145
111 195 145
111 195 145
95 160 98
95 160 98
95 160 98
110 195 144
110 195 144
110 195 144
110 195 144
102 174 139
110 195 144
94 160 98
94 159 98
94 159 97
94 159 97
94 159 97
110 195 144
102 174 138
110 195 144
110 195 144
110 195 144
110 195 144
110 195 144
110 195 144
110 195 144
110 195 144
102 174 139
102 174 139
102 174 139
102 174 139
110 195 144
110 195 144
86 138 92
86 138 92
86 138 92
28 44 31
101 174 138
101 174 138
109 195 143
101 174 138
101 174 138
101 174 138
101 174 138
101 174 138
101 174 138
101 174 138
109 195 144
109 195 144
109 195 144
101 174 138
109 195 144
109 195 144
101 174 138
109 195 144
109 195 144
101 174 138
101 174 138
101 174 138
110 195 144
101 174 138
110 195 144
101 174 138
101 174 138
101 174 138
110 195 144
102 174 138
110 195 144
110 195 144
110 195 144
110 195 144
102 174 138
110 195 144
110 195 144
110 195 144
102 174 138
102 174 138
110 195 144
102 174 139
110 195 144
102 174 139
110 195 144
110 195 144
102 174 139
102 174 139
110 195 144
110 195 144
102 174 139
110 195 144
110 195 144
102 174 139
110 195 144
110 195 144
110 195 144
102 174 139
102 174 139
102 174 139
102 174 139
102 174 139
102 174 139
110 195 144
110 195 144
110 195 144
110 195 144
110 195 144
102 174 139
110 195 144
110 195 144
110 195 144
110 195 144
102 174 139
110 195 144
110 195 144
102 174 139
102 174 139
102 174 139
110 195 144
110 195 145
102 174 139
110 195 145
110 195 145
110 195 145
110 195 145
110 195 145
110 195 145
110 195 145
103 174 139
110 195 145
111 195 145
103 174 139
111 195 145
111 195 145
103 174 139
111 195 145
111 195 145
103 174 139
111 195 145
111 195 145
110 195 145
110 195 145
110 195 145
102 174 139
110 195 145
110 195 145
110 195 145
110 195 145
102 174 139
110 195 145
110 195 145
110 195 144
110 195 144
110 195 144
110 195 144
110 195 144
110 195 144
110 195 144
110 195 144
110 195 144
102 174 139
110 195 144
110 195 144
110 195 144
110 195 144
102 174 139
102 174 139
110 195 144
110 195 144
110 195 144
110 195 144
110 195 144
110 195 144
110 195 144
110 195 144
110 195 144
110 195 144
102 174 139
110 195 144
110 195 144
110 195 144
110 195 144
31 51 33
31 51 33
31 51 33
31 51 33
31 51 33
31 51 33
34 56 46
37 63 48
37 63 48
34 56 46
37 62 48
110 195 144
110 195 144
110 195 144
110 195 144
31 51 33
31 51 33
31 51 33
31 51 33
31 51 34
31 51 34
32 51 34
32 52 34
32 52 34
111 195 145
111 195 145
103 174 140
103 174 140
103 174 139
103 174 139
103 174 139
103 174 139
103 174 139
103 174 139
103 174 139
103 174 139
111 195 145
103 174 139
103 174 139
102 174 139
83 135 90
83 135 90
36 58 48
36 57 48
36 57 48
36 57 48
36 57 48
36 57 48
103 174 140
103 174 140
103 174 140
103 174 140
103 174 140
111 195 145
111 195 145
92 156 96
92 157 96
92 157 96
92 157 96
92 157 96
92 157 96
92 157 96
92 157 96
84 136 91
84 136 91
84 136 91
84 136 91
84 136 91
103 174 140
103 174 140
103 174 140
103 174 140
103 174 140
103 174 140
103 174 140
111 195 145
111 195 145
111 195 145
111 195 145
111 195 145
111 195 145
111 195 145
111 195 145
92 157 96
92 157 96
92 157 96
96 160 100
96 160 100
111 195 145
111 195 145
111 195 145
111 195 145
111 195 145
111 195 145
111 195 145
103 174 140
103 174 140
103 174 140
92 157 96
92 157 96
96 160 100
111 195 145
111 195 145
111 195 145
111 195 145
103 174 140
111 195 145
111 195 145
111 195 145
111 195 145
111 195 145
111 195 145
92 157 96
96 160 100
111 195 145
111 195 145
111 195 145
111 195 145
111 195 145
111 195 145
111 195 145
111 195 145
103 174 140
103 174 140
111 195 145
111 195 145
111 195 145
88 139 94
88 139 94
88 139 94
88 139 94
87 139 94
87 139 94
103 174 139
103 174 139
103 174 139
111 195 145
111 195 145
111 195 145
111 195 145
111 195 145
111 195 145
111 195 145
95 160 98
95 160 98
95 160 98
95 160 98
110 195 144
102 174 139
102 174 139
102 174 139
110 195 144
94 160 98
94 159 98
94 159 98
94 159 97
94 159 97
94 159 97
94 159 97
110 195 144
110 195 144
102 174 138
102 174 138
110 195 144
110 195 144
110 195 144
102 174 138
102 174 138
102 174 139
110 195 144
110 195 144
102 174 139
102 174 139
102 174 139
36 62 46
28 44 31
101 173 138
101 173 138
101 173 138
101 173 138
101 174 138
101 174 138
101 174 138
109 195 143
101 174 138
101 174 138
101 174 138
101 174 138
101 174 138
101 174 138
109 195 144
109 195 144
109 195 144
109 195 144
109 195 144
101 174 138
101 174 138
101 174 138
101 174 138
101 174 138
101 174 138
101 174 138
101 174 138
101 174 138
101 174 138
101 174 138
101 174 138
110 195 144
110 195 144
110 195 144
110 195 144
110 195 144
102 174 138
110 195 144
102 174 138
102 174 138
102 174 138
102 174 138
110 195 144
102 174 138
102 174 139
110 195 144
102 174 139
102 174 139
110 195 144
110 195 144
102 174 139
110 195 144
110 195 144
110 195 144
110 195 144
110 195 144
102 174 139
110 195 144
102 174 139
102 174 139
102 174 139
102 174 139
102 174 139
102 174 139
102 174 139
110 195 144
110 195 144
110 195 144
110 195 144
110 195 144
110 195 144
110 195 144
110 195 144
102 174 139
110 195 144
110 195 144
102 174 139
102 174 139
102 174 139
102 174 139
102 174 139
102 174 139
110 195 144
110 195 145
110 195 145
102 174 139
110 195 145
110 195 145
110 195 145
110 195 145
102 174 139
110 195 145
110 195 145
110 195 145
111 195 145
111 195 145
111 195 145
103 174 139
111 195 145
111 195 145
110 195 145
110 195 145
110 195 145
110 195 145
102 174 139
110 195 145
110 195 145
102 174 139
110 195 145
102 174 139
102 174 139
110 195 144
110 195 144
110 195 144
110 195 144
110 195 144
110 195 144
110 195 144
110 195 144
110 195 144
110 195 144
110 195 144
110 195 144
110 195 144
110 195 144
110 195 144
110 195 144
110 195 144
110 195 144
110 195 144
110 195 144
110 195 144
110 195 144
110 195 144
110 195 144
110 195 144
110 195 144
110 195 144
110 195 144
110 195 144
110 195 144
110 195 144
110 195 144
110 195 144
110 195 144
31 51 33
31 51 33
31 51 33
37 63 48
37 63 48
34 56 46
37 62 48
37 62 48
37 62 48
36 62 48
110 195 144
110 195 144
102 174 139
110 195 144
31 51 33
31 51 33
31 51 34
31 51 34
31 51 34
32 51 34
32 52 34
37 63 49
37 63 49
103 174 140
103 174 140
111 195 145
111 195 145
103 174 139
103 174 139
111 195 145
103 174 139
103 174 139
103 174 139
103 174 139
103 174 139
102 174 139
102 174 139
102 174 139
83 135 90
83 135 90
83 135 90
36 57 48
36 57 48
36 57 48
35 57 48
35 57 48
35 57 48
103 174 140
103 174 140
103 174 140
103 174 140
103 174 140
111 195 145
92 156 96
92 157 96
92 157 96
92 157 96
92 157 96
92 157 96
92 157 96
92 157 96
92 157 96
92 157 96
84 136 91
84 136 91
84 136 91
103 174 140
111 195 145
103 174 140
103 174 140
103 174 140
103 174 140
103 174 140
103 174 140
103 174 140
111 195 145
111 195 145
111 195 145
111 195 145
111 195 145
92 157 96
92 157 96
92 157 96
92 157 96
92 157 97
96 160 100
96 160 100
96 160 100
111 195 145
103 174 140
111 195 145
111 195 145
111 195 145
111 195 145
111 195 145
92 157 96
92 157 96
92 157 96
92 157 96
96 160 100
96 160 100
111 195 145
111 195 145
111 195 145
111 195 145
111 195 145
111 195 145
111 195 145
111 195 145
111 195 145
92 157 96
92 157 96
96 160 100
96 160 100
111 195 145
111 195 145
111 195 145
111 195 145
111 195 145
111 195 145
111 195 145
111 195 145
111 195 145
111 195 145
103 174 140
103 174 140
103 174 140
103 174 140
88 139 94
88 139 94
88 139 94
103 174 139
103 174 139
103 174 139
103 174 139
103 174 139
103 174 139
111 195 145
111 195 145
111 195 145
111 195 145
111 195 145
95 160 98
95 160 98
95 160 98
95 160 98
94 160 98
110 195 144
110 195 144
110 195 144
110 195 144
94 160 98
94 160 98
94 159 98
94 159 98
94 159 97
94 159 97
94 159 97
94 159 97
102 174 138
110 195 144
110 195 144
110 195 144
102 174 138
102 174 138
102 174 138
102 174 138
102 174 138
102 174 138
102 174 138
102 174 139
102 174 139
33 55 45
33 55 45
101 173 138
101 173 138
101 173 138
101 173 138
109 195 143
109 195 143
109 195 143
109 195 143
101 174 138
101 174 138
101 174 138
101 174 138
101 174 138
101 174 138
101 174 138
109 195 143
109 195 143
109 195 144
109 195 144
109 195 144
101 174 138
101 174 138
101 174 138
101 174 138
101 174 138
109 195 144
109 195 144
109 195 144
101 174 138
101 174 138
101 174 138
101 174 138
101 174 138
101 174 138
110 195 144
110 195 144
102 174 138
110 195 144
102 174 138
102 174 138
102 174 138
102 174 138
102 174 138
102 174 138
102 174 138
102 174 138
102 174 138
110 195 144
110 195 144
102 174 139
102 174 139
110 195 144
110 195 144
110 195 144
110 195 144
110 195 144
110 195 144
110 195 144
102 174 139
102 174 139
102 174 139
102 174 139
102 174 139
102 174 139
102 174 139
102 174 139
102 174 139
102 174 139
102 174 139
110 195 144
110 195 144
110 195 144
110 195 144
110 195 144
110 195 144
110 195 144
110 195 144
102 174 139
102 174 139
102 174 139
102 174 139
102 174 139
102 174 139
102 174 139
102 174 139
110 195 144
102 174 139
110 195 145
102 174 139
102 174 139
110 195 145
110 195 145
102 174 139
110 195 145
110 195 145
110 195 145
103 174 139
103 174 139
103 174 139
110 195 145
110 195 145
110 195 145
110 195 145
110 195 145
110 195 145
110 195 145
110 195 145
102 174 139
102 174 139
110 195 145
102 174 139
110 195 144
110 195 144
102 174 139
102 174 139
110 195 144
102 174 139
110 195 144
110 195 144
110 195 144
110 195 144
110 195 144
110 195 144
110 195 144
102 174 139
110 195 144
110 195 144
102 174 139
102 174 139
110 195 144
110 195 144
110 195 144
110 195 144
110 195 144
110 195 144
110 195 144
110 195 144
102 174 139
110 195 144
102 174 139
110 195 144
110 195 144
110 195 144
110 195 144
102 174 139
90 156 94
31 51 33
37 63 48
37 63 48
37 63 48
34 56 46
37 62 48
37 62 48
36 62 48
36 62 48
34 56 46
110 195 144
110 195 144
110 195 144
102 174 139
110 195 144
31 51 34
31 51 34
32 51 34
32 52 34
37 63 49
35 57 47
35 57 47
37 63 48
35 57 47
103 174 139
111 195 145
111 195 145
111 195 145
103 174 139
103 174 139
103 174 139
103 174 139
102 174 139
102 174 139
110 195 145
102 174 139
83 135 90
83 135 90
83 135 90
83 135 90
83 135 90
83 135 90
35 57 48
35 57 48
35 57 48
35 57 48
103 174 140
103 174 140
103 174 140
103 174 140
103 174 140
84 135 90
84 135 90
92 157 96
92 157 96
92 157 96
92 157 96
92 157 96
92 157 96
92 157 96
92 157 96
92 157 96
92 157 96
84 136 91
103 174 140
103 174 140
111 195 145
111 195 145
103 174 140
103 174 140
103 174 140
103 174 140
103 174 140
103 174 140
103 174 140
111 195 145
103 174 140
111 195 145
111 195 145
92 157 96
92 157 96
92 157 96
92 157 96
92 157 97
92 157 97
96 160 100
96 160 100
96 160 100
96 160 100
111 195 145
111 195 145
111 195 145
111 195 145
111 195 145
92 157 96
92 157 96
92 157 96
92 157 96
92 157 97
96 160 100
96 160 100
96 160 100
111 195 145
111 195 145
111 195 145
111 195 145
111 195 145
111 195 145
92 157 96
92 157 96
92 157 96
92 157 96
96 160 100
96 160 100
96 160 100
111 195 145
111 195 145
111 195 145
111 195 145
111 195 145
111 195 145
111 195 145
111 195 145
103 174 140
103 174 140
103 174 140
103 174 140
103 174 140
103 174 140
103 174 139
103 174 139
103 174 139
103 174 139
103 174 139
103 174 139
103 174 139
103 174 139
103 174 139
111 195 145
111 195 145
111 195 145
111 195 145
95 160 98
95 160 98
95 160 98
95 160 98
95 160 98
94 160 98
110 195 144
110 195 144
110 195 144
94 160 98
94 160 98
94 160 98
94 159 98
94 159 97
94 159 97
94 159 97
94 159 97
94 159 97
110 195 144
102 174 138
102 174 138
102 174 138
102 174 138
102 174 138
110 195 144
102 174 138
102 174 138
102 174 138
110 195 144
102 174 138
33 55 45
85 137 91
101 173 138
101 173 138
101 173 138
109 195 143
101 173 138
101 173 138
101 173 138
101 173 138
101 173 138
101 173 138
109 195 143
101 174 138
101 174 138
101 174 138
109 195 143
101 174 138
101 174 138
109 195 143
101 174 138
101 174 138
101 174 138
101 174 138
101 174 138
101 174 138
101 174 138
101 174 138
101 174 138
101 174 138
109 195 144
101 174 138
110 195 144
101 174 138
101 174 138
110 195 144
101 174 138
110 195 144
110 195 144
102 174 138
102 174 138
102 174 138
102 174 138
102 174 138
102 174 138
110 195 144
102 174 138
102 174 138
102 174 138
102 174 138
102 174 138
102 174 139
110 195 144
110 195 144
110 195 144
102 174 139
110 195 144
110 195 144
110 195 144
102 174 139
110 195 144
102 174 139
102 174 139
102 174 139
102 174 139
102 174 139
102 174 139
102 174 139
102 174 139
102 174 139
102 174 139
102 174 139
110 195 144
110 195 144
102 174 139
102 174 139
110 195 144
110 195 144
102 174 139
110 195 144
102 174 139
102 174 139
102 174 139
110 195 144
102 174 139
110 195 144
110 195 144
102 174 139
102 174 139
110 195 144
102 174 139
102 174 139
110 195 145
110 195 145
110 195 145
110 195 145
110 195 145
102 174 139
102 174 139
103 174 139
103 174 139
102 174 139
110 195 145
110 195 145
110 195 145
102 174 139
102 174 139
110 195 145
102 174 139
102 174 139
102 174 139
102 174 139
110 195 144
102 174 139
102 174 139
110 195 144
110 195 144
110 195 144
110 195 144
110 195 144
110 195 144
110 195 144
110 195 144
110 195 144
110 195 144
110 195 144
102 174 139
102 174 139
102 174 139
102 174 139
110 195 144
102 174 139
102 174 139
110 195 144
110 195 144
110 195 144
110 195 144
110 195 144
110 195 144
110 195 144
110 195 144
110 195 144
102 174 139
102 174 139
110 195 144
90 156 94
90 156 94
90 156 94
91 156 94
37 62 48
37 62 48
37 62 48
34 56 46
34 56 46
34 56 46
34 56 46
34 56 46
36 62 47
110 195 144
110 195 144
110 195 144
110 195 144
110 195 144
110 195 144
32 51 34
37 63 49
37 63 49
35 57 47
37 63 48
37 63 48
37 63 48
37 63 48
37 63 48
111 195 145
103 174 139
103 174 139
110 195 145
103 174 139
102 174 139
102 174 139
110 195 145
102 174 139
83 135 90
83 135 90
83 135 90
83 135 90
83 135 90
83 135 90
83 135 90
84 135 90
35 57 48
35 57 48
35 57 47
103 174 140
103 174 140
103 174 140
103 174 140
84 135 90
84 135 90
84 135 90
84 135 91
92 157 96
92 157 96
92 157 96
92 157 96
92 157 96
92 157 96
92 157 96
92 157 96
92 157 96
111 195 145
103 174 140
111 195 145
103 174 140
103 174 140
103 174 140
103 174 140
103 174 140
103 174 140
103 174 140
103 174 140
103 174 140
103 174 140
103 174 140
103 174 140
92 157 96
92 157 96
92 157 96
92 157 96
92 157 96
92 157 97
92 157 97
92 157 97
96 160 100
96 160 100
96 160 100
96 160 100
96 160 100
111 195 145
111 195 145
92 157 96
92 157 96
92 157 96
92 157 96
92 157 96
92 157 96
92 157 97
96 160 100
96 160 100
96 160 100
96 160 100
111 195 145
111 195 145
111 195 145
111 195 145
92 157 96
92 157 96
92 157 96
92 157 96
92 157 96
96 160 100
96 160 100
96 160 100
96 160 100
96 160 100
103 174 140
111 195 145
111 195 145
111 195 145
111 195 145
103 174 140
103 174 140
103 174 140
103 174 140
103 174 140
103 174 140
103 174 139
103 174 139
103 174 139
103 174 139
103 174 139
103 174 139
103 174 139
103 174 139
103 174 139
103 174 139
103 174 139
111 195 145
111 195 145
111 195 145
95 160 98
95 160 98
95 160 98
95 160 98
95 160 98
95 160 98
94 160 98
94 160 98
110 195 144
94 160 98
94 160 98
94 160 98
94 160 98
94 159 98
94 159 97
94 159 97
94 159 97
94 159 97
94 159 97
102 174 138
110 195 144
102 174 138
110 195 144
102 174 138
110 195 144
102 174 138
102 174 138
110 195 144
102 174 138
102 174 138
33 55 45
85 138 91
85 137 91
85 137 91
101 173 138
109 195 143
101 173 138
109 195 143
101 173 138
101 173 138
101 173 138
101 173 138
109 195 143
101 173 138
101 173 138
101 173 138
101 174 138
101 174 138
101 174 138
109 195 143
109 195 143
101 174 138
109 195 143
101 174 138
101 174 138
109 195 144
101 174 138
101 174 138
101 174 138
101 174 138
101 174 138
101 174 138
101 174 138
101 174 138
101 174 138
101 174 138
110 195 144
101 174 138
110 195 144
101 174 138
101 174 138
102 174 138
102 174 138
102 174 138
102 174 138
110 195 144
110 195 144
102 174 138
110 195 144
102 174 138
102 174 138
102 174 138
102 174 138
102 174 138
102 174 139
110 195 144
110 195 144
110 195 144
110 195 144
110 195 144
102 174 139
102 174 139
102 174 139
102 174 139
102 174 139
102 174 139
102 174 139
102 174 139
102 174 139
110 195 144
102 174 139
110 195 144
102 174 139
110 195 144
110 195 144
110 195 144
110 195 144
102 174 139
102 174 139
102 174 139
102 174 139
102 174 139
110 195 144
102 174 139
102 174 139
102 174 139
102 174 139
110 195 144
102 174 139
102 174 139
102 174 139
110 195 144
110 195 145
110 195 145
102 174 139
110 195 145
102 174 139
102 174 139
102 174 139
102 174 139
110 195 145
110 195 145
110 195 145
110 195 145
102 174 139
102 174 139
102 174 139
110 195 145
102 174 139
102 174 139
110 195 144
102 174 139
102 174 139
102 174 139
110 195 144
110 195 144
110 195 144
110 195 144
110 195 144
110 195 144
110 195 144
110 195 144
102 174 139
110 195 144
102 174 139
102 174 139
110 195 144
102 174 139
102 174 139
102 174 139
102 174 139
102 174 139
110 195 144
110 195 144
110 195 144
110 195 144
110 195 144
110 195 144
110 195 144
110 195 144
110 195 144
110 195 144
102 174 139
90 156 94
90 156 94
90 156 94
90 156 94
91 156 94
91 156 94
37 62 48
37 62 48
36 62 48
34 56 46
34 56 46
36 62 47
36 62 47
36 62 47
110 195 144
110 195 144
110 195 144
110 195 144
102 174 139
110 195 144
91 156 94
35 57 47
37 63 48
35 57 47
37 63 48
37 63 48
37 63 48
37 63 48
37 63 48
37 63 48
110 195 145
103 174 139
110 195 145
110 195 145
102 174 139
102 174 139
110 195 145
83 135 90
83 135 90
83 135 90
83 135 90
83 135 90
83 135 90
83 135 90
83 135 90
84 135 90
84 135 90
35 57 47
35 57 47
35 57 47
103 174 140
103 174 140
84 135 90
84 135 90
84 135 90
84 135 90
84 135 91
84 135 91
92 157 96
92 157 96
92 157 96
92 157 96
92 157 96
92 157 96
92 157 96
92 157 96
111 195 145
111 195 145
111 195 145
103 174 140
103 174 140
103 174 140
103 174 140
103 174 140
103 174 140
103 174 140
103 174 140
103 174 140
111 195 145
103 174 140
103 174 140
84 136 91
92 157 96
92 157 96
92 157 96
92 157 96
92 157 97
92 157 97
92 157 97
93 157 97
93 157 97
96 160 100
96 160 100
96 160 100
96 160 100
96 160 100
92 157 96
92 157 96
92 157 96
92 157 96
92 157 96
92 157 96
92 157 97
92 157 97
96 160 100
96 160 100
96 160 100
96 160 100
96 160 100
111 195 145
111 195 145
92 157 96
92 157 96
92 157 96
92 157 96
92 157 96
92 157 96
96 160 100
96 160 100
96 160 100
96 160 100
96 160 100
96 160 100
111 195 145
111 195 145
103 174 140
103 174 140
103 174 140
103 174 140
103 174 140
103 174 140
103 174 140
102 174 139
102 174 139
102 174 139
102 174 139
102 174 139
102 174 139
102 174 139
103 174 139
103 174 139
103 174 139
103 174 139
103 174 139
103 174 139
111 195 145
111 195 145
95 160 99
95 160 98
95 160 98
95 160 98
95 160 98
95 160 98
95 160 98
94 160 98
94 160 98
94 160 98
94 160 98
94 160 98
94 160 98
94 160 98
94 159 98
94 159 97
94 159 97
94 159 97
110 195 144
110 195 144
102 174 138
102 174 138
102 174 138
102 174 138
102 174 138
102 174 138
110 195 144
102 174 138
102 174 138
102 174 138
33 55 45
85 138 91
85 138 91
85 137 91
85 137 91
101 173 138
109 195 143
109 195 143
109 195 143
101 173 138
101 173 138
101 173 138
101 173 138
101 173 138
101 173 138
101 173 138
101 173 138
101 173 138
109 195 143
109 195 143
109 195 143
109 195 143
109 195 143
101 174 138
101 174 138
101 174 138
101 174 138
101 174 138
101 174 138
101 174 138
109 195 144
101 174 138
109 195 144
109 195 144
101 174 138
109 195 144
101 174 138
101 174 138
110 195 144
110 195 144
101 174 138
101 174 138
101 174 138
101 174 138
102 174 138
102 174 138
102 174 138
102 174 138
102 174 138
102 174 138
102 174 138
110 195 144
102 174 138
102 174 138
102 174 138
102 174 138
102 174 139
102 174 139
102 174 139
110 195 144
102 174 139
102 174 139
110 195 144
102 174 139
102 174 139
102 174 139
102 174 139
102 174 139
102 174 139
102 174 139
102 174 139
102 174 139
102 174 139
102 174 139
102 174 139
102 174 139
110 195 144
102 174 139
102 174 139
110 195 144
102 174 139
102 174 139
102 174 139
102 174 139
102 174 139
102 174 139
102 174 139
102 174 139
102 174 139
102 174 139
102 174 139
110 195 144
102 174 139
110 195 144
102 174 139
110 195 145
102 174 139
102 174 139
102 174 139
102 174 139
102 174 139
110 195 145
102 174 139
102 174 139
102 174 139
102 174 139
102 174 139
102 174 139
102 174 139
102 174 139
102 174 139
110 195 144
102 174 139
102 174 139
110 195 144
110 195 144
110 195 144
110 195 144
110 195 144
110 195 144
110 195 144
110 195 144
102 174 139
102 174 139
110 195 144
102 174 139
110 195 144
102 174 139
102 174 139
110 195 144
110 195 144
110 195 144
102 174 139
110 195 144
110 195 144
110 195 144
110 195 144
110 195 144
110 195 144
110 195 144
110 195 144
90 156 94
90 156 94
90 156 94
90 156 94
91 156 94
91 156 94
91 156 94
91 156 94
36 62 48
34 56 46
36 62 47
34 56 46
36 62 47
36 62 47
36 62 47
102 174 139
102 174 139
110 195 144
110 195 144
110 195 144
91 156 94
91 156 94
91 156 94
35 57 47
37 63 48
35 57 47
37 63 48
37 63 48
37 63 48
35 57 47
37 63 48
110 195 145
110 195 145
102 174 139
110 195 145
110 195 145
110 195 145
102 174 139
83 135 90
83 135 90
83 135 90
83 135 90
83 135 90
83 135 90
83 135 90
84 135 90
84 135 90
84 135 90
84 135 90
35 57 47
35 57 47
103 174 140
103 174 140
84 135 90
84 135 90
84 135 90
84 135 90
84 135 91
84 135 91
84 135 91
92 157 96
92 157 96
92 157 96
92 157 96
92 157 96
92 157 96
111 195 145
111 195 145
111 195 145
111 195 145
111 195 145
103 174 140
103 174 140
103 174 140
103 174 140
111 195 145
103 174 140
103 174 140
103 174 140
103 174 140
103 174 140
84 136 91
84 136 91
84 136 91
92 157 96
92 157 96
92 157 96
92 157 97
92 157 97
92 157 97
93 157 97
93 157 97
111 195 146
96 160 100
96 160 100
96 160 100
96 160 100
96 160 100
92 157 96
92 157 96
92 157 96
92 157 96
92 157 96
92 157 97
92 157 97
93 157 97
96 160 100
96 160 100
96 160 100
96 160 100
96 160 100
96 160 100
92 157 96
92 157 96
92 157 96
92 157 96
92 157 96
92 157 96
92 157 97
96 160 100
96 160 100
96 160 100
96 160 100
96 160 100
96 160 100
95 160 99
103 174 140
103 174 140
103 174 140
103 174 140
103 174 140
103 174 140
103 174 140
87 139 93
102 174 139
102 174 139
102 174 139
102 174 139
102 174 139
102 174 139
102 174 139
102 174 139
102 174 139
102 174 139
102 174 139
102 174 139
102 174 139
102 174 139
110 195 145
95 160 99
95 160 99
95 160 98
95 160 98
95 160 98
95 160 98
95 160 98
95 160 98
102 174 139
102 174 139
94 160 98
94 160 98
94 160 98
94 160 98
94 159 98
94 159 98
94 159 97
110 195 144
110 195 144
101 174 138
101 174 138
110 195 144
110 195 144
102 174 138
102 174 138
110 195 144
102 174 138
102 174 138
102 174 138
102 174 138
33 55 44
85 138 91
85 138 91
85 137 91
85 137 91
85 137 91
101 173 138
101 173 138
101 173 138
109 195 143
101 173 138
101 173 138
101 173 138
101 173 138
109 195 143
109 195 143
101 173 138
109 195 143
109 195 143
109 195 143
109 195 143
101 174 138
109 195 143
109 195 143
109 195 143
101 174 138
101 174 138
101 174 138
101 174 138
109 195 143
101 174 138
101 174 138
109 195 144
101 174 138
101 174 138
101 174 138
109 195 144
109 195 144
101 174 138
110 195 144
110 195 144
101 174 138
101 174 138
110 195 144
110 195 144
101 174 138
102 174 138
102 174 138
102 174 138
110 195 144
102 174 138
102 174 138
102 174 138
102 174 138
102 174 138
102 174 138
110 195 144
110 195 144
110 195 144
102 174 139
102 174 139
102 174 139
102 174 139
102 174 139
102 174 139
102 174 139
102 174 139
102 174 139
102 174 139
110 195 144
110 195 144
102 174 139
110 195 144
102 174 139
102 174 139
110 195 144
110 195 144
110 195 144
102 174 139
102 174 139
102 174 139
102 174 139
102 174 139
102 174 139
102 174 139
102 174 139
102 174 139
102 174 139
102 174 139
102 174 139
110 195 144
102 174 139
102 174 139
102 174 139
102 174 139
110 195 144
102 174 139
102 174 139
102 174 139
102 174 139
102 174 139
102 174 139
102 174 139
102 174 139
102 174 139
102 174 139
110 195 144
102 174 139
110 195 144
102 174 139
102 174 139
102 174 139
102 174 139
102 174 139
102 174 139
110 195 144
110 195 144
110 195 144
110 195 144
110 195 144
102 174 139
102 174 139
110 195 144
110 195 144
102 174 139
102 174 139
102 174 139
110 195 144
110 195 144
102 174 139
110 195 144
102 174 139
102 174 139
102 174 139
110 195 144
110 195 144
110 195 144
110 195 144
110 195 144
90 156 94
90 156 94
90 156 94
90 156 94
91 156 94
91 156 94
91 156 94
91 156 94
91 156 94
91 156 94
91 156 94
36 62 47
36 62 47
36 62 47
36 62 47
36 62 47
102 174 139
102 174 139
102 174 139
102 174 139
91 156 94
91 156 94
91 156 94
91 156 94
91 156 94
91 156 94
37 63 48
37 63 48
37 63 48
37 63 48
37 63 48
37 63 48
110 195 145
110 195 145
110 195 145
102 174 139
110 195 145
102 174 139
102 174 139
102 174 139
29 45 32
83 135 90
83 135 90
83 135 90
83 135 90
83 135 90
84 135 90
84 135 90
84 135 90
84 135 90
84 135 90
35 57 47
103 174 140
84 135 90
84 135 90
84 135 90
84 135 90
84 135 91
84 135 91
84 135 91
84 135 91
84 135 91
92 157 96
92 157 96
92 157 96
92 157 96
92 157 96
111 195 145
111 195 145
111 195 145
111 195 145
111 195 145
111 195 145
111 195 145
111 195 145
103 174 140
103 174 140
103 174 140
103 174 140
111 195 145
103 174 140
103 174 140
84 136 91
84 136 91
84 136 91
84 136 91
92 157 96
92 157 96
92 157 97
92 157 97
92 157 97
93 157 97
93 157 97
111 195 146
111 195 146
104 174 140
96 160 100
96 160 100
96 160 100
96 160 100
92 157 96
92 157 96
92 157 96
92 157 96
92 157 97
92 157 97
92 157 97
111 195 146
111 195 146
96 160 100
96 160 100
96 160 100
96 160 100
96 160 100
92 157 96
92 157 96
92 157 96
92 157 96
92 157 96
92 157 97
92 157 97
96 160 100
96 160 100
96 160 100
96 160 100
96 160 100
96 160 100
111 195 145
111 195 145
103 174 140
111 195 145
103 174 140
103 174 140
103 174 140
103 174 140
87 139 93
87 139 93
87 139 93
102 174 139
102 174 139
102 174 139
102 174 139
102 174 139
102 174 139
102 174 139
102 174 139
102 174 139
102 174 139
102 174 139
110 195 145
110 195 145
110 195 145
95 160 99
95 160 99
95 160 98
95 160 98
95 160 98
110 195 144
110 195 144
102 174 139
110 195 144
110 195 144
110 195 144
94 160 98
94 160 98
94 160 98
31 51 33
110 195 144
110 195 144
110 195 144
110 195 144
101 174 138
110 195 144
110 195 144
101 174 138
110 195 144
102 174 138
102 174 138
102 174 138
102 174 138
102 174 138
33 55 44
85 138 91
85 138 91
85 138 91
85 137 91
85 137 91
85 137 91
85 137 91
101 173 138
101 173 138
101 173 138
101 173 138
109 195 143
109 195 143
109 195 143
101 173 138
109 195 143
101 173 138
109 195 143
109 195 143
101 173 138
109 195 143
109 195 143
109 195 143
109 195 143
109 195 143
101 174 138
101 174 138
101 174 138
101 174 138
101 174 138
101 174 138
101 174 138
101 174 138
101 174 138
101 174 138
109 195 144
109 195 144
109 195 144
101 174 138
109 195 144
109 195 144
101 174 138
101 174 138
110 195 144
101 174 138
110 195 144
101 174 138
102 174 138
102 174 138
102 174 138
102 174 138
110 195 144
102 174 138
102 174 138
102 174 138
110 195 144
110 195 144
110 195 144
110 195 144
110 195 144
102 174 139
102 174 139
102 174 139
102 174 139
102 174 139
102 174 139
102 174 139
110 195 144
102 174 139
102 174 139
102 174 139
102 174 139
110 195 144
110 195 144
102 174 139
110 195 144
110 195 144
110 195 144
110 195 144
102 174 139
102 174 139
102 174 139
102 174 139
102 174 139
102 174 139
102 174 139
102 174 139
102 174 139
102 174 139
102 174 139
102 174 139
102 174 139
110 195 144
102 174 139
110 195 144
110 195 144
102 174 139
102 174 139
102 174 139
102 174 139
102 174 139
102 174 139
102 174 139
102 174 139
102 174 139
102 174 139
110 195 144
102 174 139
110 195 144
102 174 139
102 174 139
102 174 139
102 174 139
110 195 144
110 195 144
110 195 144
102 174 139
102 174 139
102 174 139
102 174 139
110 195 144
102 174 139
102 174 139
102 174 139
102 174 139
102 174 139
102 174 139
102 174 139
110 195 144
102 174 139
110 195 144
102 174 139
102 174 139
110 195 144
110 195 144
110 195 144
90 156 94
90 156 94
90 156 94
90 156 94
91 156 94
91 156 94
91 156 94
91 156 94
91 156 94
91 156 94
91 156 94
91 156 94
91 156 94
36 62 47
36 62 47
34 56 46
34 56 46
110 195 144
110 195 144
110 195 144
91 156 94
91 156 94
91 156 94
91 156 94
91 156 94
91 156 94
91 156 95
91 156 95
37 63 48
37 63 48
37 63 48
37 63 48
37 63 48
110 195 145
110 195 145
110 195 145
102 174 139
110 195 145
102 174 139
102 174 139
102 174 139
102 174 139
29 45 32
29 45 32
29 45 32
29 45 32
29 45 32
84 135 90
84 135 90
84 135 90
84 135 90
84 135 90
84 135 90
103 174 140
84 135 90
84 135 90
84 135 90
84 135 90
84 135 91
84 135 91
84 135 91
84 135 91
84 135 91
84 136 91
84 136 91
92 157 96
92 157 96
111 195 145
111 195 145
111 195 145
111 195 145
111 195 145
111 195 145
111 195 145
111 195 145
111 195 145
103 174 140
111 195 145
103 174 140
103 174 140
103 174 140
103 174 140
84 136 91
84 136 91
84 136 91
84 136 91
84 136 91
84 136 91
92 157 96
92 157 97
92 157 97
92 157 97
93 157 97
111 195 146
111 195 146
111 195 146
111 195 146
111 195 146
111 195 146
96 160 100
96 160 100
96 160 100
92 157 96
92 157 96
92 157 96
92 157 97
92 157 97
92 157 97
111 195 146
111 195 146
111 195 146
111 195 146
96 160 100
96 160 100
96 160 100
96 160 100
92 157 96
92 157 96
92 157 96
92 157 96
92 157 97
92 157 97
111 195 146
111 195 146
96 160 100
96 160 100
96 160 100
96 160 100
111 195 145
111 195 145
111 195 145
111 195 145
111 195 145
103 174 140
103 174 140
103 174 140
103 174 140
87 139 93
87 139 93
87 139 93
87 139 93
102 174 139
102 174 139
102 174 139
102 174 139
102 174 139
102 174 139
102 174 139
102 174 139
102 174 139
110 195 145
110 195 145
110 195 145
110 195 145
110 195 145
95 160 99
95 160 98
95 160 98
110 195 144
110 195 144
110 195 144
110 195 144
110 195 144
110 195 144
110 195 144
110 195 144
94 160 98
31 51 33
109 195 144
109 195 144
109 195 144
110 195 144
110 195 144
110 195 144
110 195 144
101 174 138
110 195 144
110 195 144
101 174 138
101 174 138
101 174 138
101 174 138
102 174 138
85 138 91
85 138 91
85 138 91
85 138 91
85 138 91
85 137 91
85 137 91
85 137 91
85 137 91
101 173 138
109 195 143
101 173 138
101 173 138
101 173 138
101 173 138
109 195 143
109 195 143
109 195 143
109 195 143
109 195 143
109 195 143
109 195 143
101 173 138
109 195 143
109 195 143
101 173 138
109 195 143
101 174 138
109 195 143
109 195 143
101 174 138
101 174 138
101 174 138
101 174 138
101 174 138
109 195 144
109 195 144
109 195 144
109 195 144
109 195 144
109 195 144
109 195 144
109 195 144
101 174 138
110 195 144
101 174 138
101 174 138
101 174 138
110 195 144
101 174 138
102 174 138
110 195 144
102 174 138
102 174 138
102 174 138
110 195 144
110 195 144
110 195 144
110 195 144
110 195 144
110 195 144
110 195 144
110 195 144
102 174 139
102 174 139
102 174 139
102 174 139
102 174 139
110 195 144
102 174 139
110 195 144
102 174 139
110 195 144
102 174 139
102 174 139
110 195 144
110 195 144
110 195 144
110 195 144
110 195 144
102 174 139
102 174 139
102 174 139
102 174 139
102 174 139
102 174 139
102 174 139
110 195 144
102 174 139
102 174 139
110 195 144
102 174 139
110 195 144
102 174 139
110 195 144
110 195 144
110 195 144
110 195 144
110 195 144
110 195 144
102 174 139
102 174 139
102 174 139
102 174 139
102 174 139
102 174 139
102 174 139
102 174 139
102 174 139
102 174 139
102 174 139
102 174 139
102 174 139
110 195 144
102 174 139
102 174 139
102 174 139
102 174 139
102 174 139
102 174 139
102 174 139
110 195 144
102 174 139
102 174 139
102 174 139
110 195 144
110 195 144
102 174 139
102 174 139
102 174 139
102 174 139
102 174 139
102 174 139
102 174 139
102 174 139
90 156 94
90 156 94
90 156 94
90 156 94
91 156 94
91 156 94
91 156 94
91 156 94
91 156 94
91 156 94
91 156 94
91 156 94
91 156 94
91 156 94
91 156 94
34 56 46
36 62 47
36 62 47
102 174 139
110 195 144
110 195 144
91 156 94
91 156 94
91 156 94
91 156 94
91 156 94
91 156 94
91 156 95
91 156 95
91 156 95
37 63 48
37 63 48
35 56 47
35 56 46
110 195 145
110 195 145
102 174 139
110 195 145
102 174 139
102 174 139
102 174 139
102 174 139
102 174 139
110 195 145
102 174 139
29 45 32
29 45 32
29 45 32
29 45 32
29 45 32
29 45 32
29 45 32
84 135 90
84 135 90
103 174 140
103 174 140
30 46 33
30 46 33
30 46 33
84 135 91
84 135 91
84 135 91
84 135 91
84 135 91
84 136 91
84 136 91
84 136 91
111 195 145
111 195 145
111 195 145
103 174 140
111 195 145
111 195 145
111 195 145
111 195 145
111 195 145
111 195 145
111 195 145
103 174 140
111 195 145
103 174 140
103 174 140
103 174 140
84 136 91
84 136 91
84 136 91
84 136 91
84 136 91
84 136 91
84 136 91
92 157 97
92 157 97
92 157 97
93 157 97
111 195 146
111 195 146
104 174 140
111 195 146
111 195 146
111 195 146
111 195 146
111 195 146
96 160 100
96 160 100
92 157 96
92 157 96
92 157 97
92 157 97
111 195 146
111 195 146
103 174 140
111 195 146
111 195 146
111 195 146
111 195 146
96 160 100
96 160 100
96 160 100
92 157 96
92 157 96
92 157 96
92 157 97
92 157 97
111 195 146
111 195 146
111 195 146
111 195 146
111 195 146
111 195 145
111 195 145
111 195 145
111 195 145
111 195 145
111 195 145
111 195 145
103 174 140
103 174 140
103 174 140
103 174 140
87 139 94
87 139 93
87 139 93
87 139 93
87 138 93
102 174 139
102 174 139
102 174 139
102 174 139
102 174 139
102 174 139
102 174 139
110 195 145
110 195 145
110 195 145
110 195 145
110 195 145
110 195 145
110 195 145
95 160 99
110 195 144
110 195 144
110 195 144
110 195 144
110 195 144
110 195 144
110 195 144
110 195 144
102 174 139
36 62 47
109 195 144
109 195 144
109 195 144
101 174 138
101 174 138
109 195 144
109 195 144
110 195 144
110 195 144
110 195 144
110 195 144
110 195 144
110 195 144
101 174 138
110 195 144
110 195 144
86 138 91
85 138 91
85 138 91
85 138 91
85 138 91
85 138 91
85 137 91
85 137 91
85 137 91
85 137 91
85 137 91
101 173 138
101 173 138
101 173 138
101 173 138
109 195 143
109 195 143
101 173 138
109 195 143
101 173 138
101 173 138
109 195 143
109 195 143
109 195 143
101 173 138
109 195 143
109 195 143
109 195 143
109 195 143
101 174 138
101 174 138
101 174 138
109 195 143
109 195 143
109 195 143
109 195 143
109 195 143
101 174 138
109 195 144
109 195 144
109 195 144
109 195 144
109 195 144
109 195 144
109 195 144
101 174 138
101 174 138
101 174 138
101 174 138
101 174 138
101 174 138
101 174 138
102 174 138
102 174 138
110 195 144
102 174 138
110 195 144
110 195 144
110 195 144
110 195 144
110 195 144
102 174 138
110 195 144
110 195 144
110 195 144
102 174 139
102 174 139
102 174 139
110 195 144
102 174 139
102 174 139
102 174 139
102 174 139
102 174 139
110 195 144
102 174 139
102 174 139
110 195 144
110 195 144
110 195 144
102 174 139
110 195 144
102 174 139
102 174 139
102 174 139
102 174 139
102 174 139
102 174 139
102 174 139
102 174 139
102 174 139
102 174 139
102 174 139
102 174 139
110 195 144
110 195 144
110 195 144
110 195 144
110 195 144
110 195 144
102 174 139
102 174 139
102 174 139
102 174 139
102 174 139
102 174 139
102 174 139
102 174 139
102 174 139
102 174 139
102 174 139
102 174 139
102 174 139
110 195 144
110 195 144
110 195 144
102 174 139
102 174 139
102 174 139
102 174 139
102 174 139
102 174 139
102 174 139
102 174 139
102 174 139
102 174 139
102 174 139
110 195 144
102 174 139
102 174 139
110 195 144
102 174 139
102 174 139
110 195 144
30 50 31
90 156 94
90 156 94
90 156 94
91 156 94
91 156 94
91 156 94
91 156 94
91 156 94
91 156 94
91 156 94
91 156 94
91 156 94
91 156 94
91 156 94
91 156 94
91 156 94
36 62 47
110 195 144
102 174 139
91 156 94
91 156 94
91 156 94
91 156 94
91 156 94
91 156 94
91 156 95
91 156 95
91 156 95
91 156 95
91 156 95
91 156 95
37 63 48
34 56 46
34 56 46
102 174 139
102 174 139
110 195 145
102 174 139
102 174 139
110 195 145
110 195 145
102 174 139
102 174 139
102 174 139
102 174 139
110 195 144
29 45 32
29 45 32
29 45 32
29 45 32
29 45 32
29 45 32
35 57 47
103 174 140
103 174 140
103 174 140
103 174 140
30 46 33
30 46 33
30 46 33
30 46 33
30 46 33
84 135 91
84 136 91
84 136 91
84 136 91
103 174 140
111 195 145
111 195 145
103 174 140
111 195 145
111 195 145
103 174 140
111 195 145
111 195 145
103 174 140
111 195 145
111 195 145
111 195 145
111 195 145
111 195 145
84 135 91
84 136 91
84 136 91
84 136 91
84 136 91
84 136 91
84 136 91
84 136 91
84 136 91
92 157 97
92 157 97
111 195 146
104 174 140
111 195 146
111 195 146
111 195 146
111 195 146
111 195 146
111 195 146
111 195 146
111 195 146
111 195 146
96 160 100
92 157 96
92 157 97
92 157 97
111 195 146
103 174 140
111 195 146
103 174 140
111 195 146
111 195 146
111 195 146
111 195 146
111 195 146
96 160 100
96 160 100
92 157 96
92 157 96
92 157 96
111 195 146
111 195 146
111 195 146
103 174 140
111 195 146
111 195 146
111 195 145
103 174 140
111 195 145
111 195 145
111 195 145
111 195 145
111 195 145
111 195 145
111 195 145
103 174 140
103 174 140
103 174 140
87 139 94
87 139 94
87 139 93
87 139 93
87 139 93
87 138 93
102 174 139
102 174 139
102 174 139
102 174 139
102 174 139
110 195 145
110 195 145
110 195 145
110 195 145
110 195 145
110 195 145
110 195 145
110 195 145
110 195 144
110 195 144
110 195 144
110 195 144
110 195 144
110 195 144
110 195 144
102 174 139
110 195 144
109 195 144
109 195 144
109 195 144
109 195 144
109 195 144
109 195 144
109 195 144
109 195 144
109 195 144
101 174 138
109 195 144
109 195 144
101 174 138
110 195 144
110 195 144
101 174 138
101 174 138
101 174 138
86 138 91
86 138 91
85 138 91
85 138 91
85 138 91
85 138 91
85 138 91
85 137 91
85 137 91
85 137 91
85 137 91
85 137 91
101 173 138
109 195 143
109 195 143
109 195 143
109 195 143
109 195 143
109 195 143
109 195 143
109 195 143
109 195 143
109 195 143
109 195 143
109 195 143
101 173 138
109 195 143
109 195 143
101 173 138
109 195 143
109 195 143
101 174 138
101 174 138
109 195 143
109 195 143
109 195 143
109 195 143
109 195 143
109 195 143
101 174 138
109 195 144
109 195 144
109 195 144
109 195 144
109 195 144
109 195 144
101 174 138
101 174 138
101 174 138
101 174 138
101 174 138
101 174 138
101 174 138
101 174 138
102 174 138
102 174 138
110 195 144
110 195 144
110 195 144
110 195 144
110 195 144
110 195 144
110 195 144
110 195 144
110 195 144
110 195 144
102 174 139
110 195 144
102 174 139
102 174 139
102 174 139
102 174 139
102 174 139
102 174 139
102 174 139
110 195 144
110 195 144
110 195 144
110 195 144
110 195 144
110 195 144
110 195 144
110 195 144
102 174 139
102 174 139
102 174 139
102 174 139
102 174 139
102 174 139
102 174 139
110 195 144
102 174 139
102 174 139
102 174 139
110 195 144
110 195 144
110 195 144
110 195 144
110 195 144
110 195 144
110 195 144
102 174 139
102 174 139
110 195 144
102 174 139
110 195 144
102 174 139
102 174 139
102 174 139
110 195 144
110 195 144
110 195 144
102 174 139
110 195 144
110 195 144
110 195 144
110 195 144
102 174 139
102 174 139
102 174 139
102 174 139
102 174 139
102 174 139
102 174 139
102 174 139
102 174 139
102 174 139
102 174 139
102 174 139
110 195 144
102 174 139
110 195 144
110 195 144
110 195 144
30 50 31
30 50 32
30 50 32
30 50 32
30 50 32
91 156 94
91 156 94
91 156 94
91 156 94
91 156 94
91 156 94
91 156 94
91 156 94
91 156 94
91 156 94
91 156 94
91 156 94
36 62 47
91 156 94
91 156 94
91 156 94
91 156 94
91 156 94
91 156 94
91 156 95
91 156 95
91 156 95
91 156 95
91 156 95
91 156 95
91 156 95
91 156 95
37 63 48
37 63 48
102 174 139
110 195 145
102 174 139
102 174 139
102 174 139
102 174 139
102 174 139
110 195 144
102 174 139
102 174 139
102 174 139
102 174 139
102 174 139
29 45 32
29 45 32
29 45 32
29 45 32
35 57 47
35 57 47
35 57 47
35 57 47
103 174 140
103 174 140
103 174 140
103 174 140
30 46 33
30 46 33
30 46 33
30 46 33
30 46 33
30 46 33
36 58 48
103 174 140
103 174 140
103 174 140
111 195 145
111 195 145
111 195 145
111 195 145
111 195 145
103 174 140
111 195 145
111 195 145
111 195 145
111 195 145
111 195 145
92 157 96
92 157 96
84 136 91
84 136 91
84 136 91
84 136 91
84 136 91
84 136 91
84 136 91
84 136 91
85 136 91
85 136 91
111 195 146
103 174 140
111 195 146
111 195 146
111 195 146
111 195 146
111 195 146
111 195 146
111 195 146
111 195 146
111 195 146
111 195 146
111 195 146
92 157 97
111 195 146
111 195 146
111 195 146
103 174 140
111 195 146
111 195 146
111 195 146
111 195 146
111 195 146
111 195 146
103 174 140
111 195 146
96 160 100
92 157 96
92 157 96
111 195 146
111 195 146
103 174 140
111 195 146
111 195 146
111 195 146
111 195 145
111 195 145
111 195 145
111 195 145
111 195 145
111 195 145
111 195 145
111 195 145
103 174 140
111 195 145
103 174 140
111 195 145
103 174 140
87 139 94
87 139 94
87 139 93
87 139 93
87 139 93
87 139 93
87 138 93
102 174 139
102 174 139
110 195 144
110 195 145
110 195 145
110 195 145
110 195 145
110 195 145
110 195 145
110 195 145
110 195 145
110 195 144
102 174 139
110 195 144
110 195 144
110 195 144
110 195 144
110 195 144
110 195 144
102 174 139
110 195 144
109 195 144
109 195 144
109 195 144
109 195 144
109 195 144
109 195 144
109 195 144
109 195 144
109 195 144
109 195 144
101 174 138
101 174 138
109 195 144
109 195 144
109 195 144
109 195 144
110 195 144
101 174 138
86 138 92
86 138 91
86 138 91
85 138 91
85 138 91
85 138 91
85 138 91
85 138 91
85 137 91
85 137 91
85 137 91
85 137 91
27 43 29
101 173 138
109 195 143
109 195 143
109 195 143
109 195 143
109 195 143
109 195 143
109 195 143
109 195 143
101 173 138
101 173 138
109 195 143
109 195 143
109 195 143
109 195 143
101 173 138
109 195 143
101 173 138
109 195 143
101 173 138
101 173 138
109 195 143
109 195 143
109 195 143
109 195 143
101 174 138
109 195 143
109 195 143
109 195 144
101 174 138
109 195 144
109 195 144
109 195 144
101 174 138
109 195 144
109 195 144
101 174 138
101 174 138
101 174 138
101 174 138
110 195 144
110 195 144
110 195 144
110 195 144
110 195 144
110 195 144
110 195 144
110 195 144
110 195 144
110 195 144
110 195 144
110 195 144
102 174 138
110 195 144
102 174 138
102 174 139
102 174 139
102 174 139
102 174 139
110 195 144
110 195 144
110 195 144
102 174 139
110 195 144
110 195 144
110 195 144
110 195 144
110 195 144
110 195 144
110 195 144
110 195 144
110 195 144
102 174 139
102 174 139
102 174 139
102 174 139
110 195 144
102 174 139
110 195 144
110 195 144
110 195 144
110 195 144
110 195 144
110 195 144
110 195 144
102 174 139
110 195 144
110 195 144
102 174 139
102 174 139
102 174 139
102 174 139
102 174 139
102 174 139
102 174 139
102 174 139
110 195 144
110 195 144
110 195 144
110 195 144
110 195 144
110 195 144
110 195 144
102 174 139
102 174 139
110 195 144
102 174 139
102 174 139
110 195 144
102 174 139
102 174 139
102 174 139
110 195 144
102 174 139
110 195 144
102 174 139
110 195 144
102 174 139
110 195 144
102 174 138
110 195 144
102 174 138
30 50 32
30 50 32
30 50 32
30 50 32
30 50 32
30 50 32
30 50 32
30 50 32
91 156 94
91 156 94
91 156 94
91 156 94
91 156 94
91 156 94
91 156 94
110 195 144
110 195 144
30 50 32
30 50 32
91 156 94
91 156 94
91 156 94
91 156 95
91 156 95
91 156 95
91 156 95
91 156 95
91 156 95
91 156 95
91 156 95
91 156 95
37 63 48
110 195 145
102 174 139
102 174 139
102 174 139
110 195 144
102 174 139
110 195 144
110 195 144
102 174 139
102 174 139
102 174 139
102 174 139
102 174 139
102 174 139
110 195 144
29 45 32
29 45 32
35 57 47
35 57 47
35 57 47
35 57 47
35 57 47
35 57 47
103 174 140
103 174 140
103 174 140
103 174 139
30 46 33
30 46 33
30 46 33
36 58 48
36 58 48
36 58 48
111 195 145
111 195 145
111 195 145
103 174 140
111 195 145
111 195 145
111 195 145
103 174 140
111 195 145
111 195 145
111 195 145
111 195 145
111 195 145
92 157 96
92 157 96
92 157 96
84 136 91
84 136 91
84 136 91
84 136 91
84 136 91
84 136 91
84 136 91
85 136 91
111 195 146
103 174 140
103 174 140
111 195 146
103 174 140
111 195 146
111 195 146
111 195 146
111 195 146
111 195 146
111 195 146
111 195 146
111 195 146
111 195 146
111 195 146
103 174 140
111 195 146
111 195 146
111 195 146
111 195 146
111 195 146
111 195 146
111 195 146
111 195 146
103 174 140
111 195 146
111 195 146
111 195 146
111 195 146
111 195 146
103 174 140
111 195 146
111 195 146
111 195 146
111 195 146
111 195 146
111 195 145
111 195 145
111 195 145
111 195 145
111 195 145
111 195 145
111 195 145
111 195 145
111 195 145
111 195 145
111 195 145
111 195 145
111 195 145
111 195 145
87 139 94
87 139 94
87 139 94
87 139 93
87 139 93
87 139 93
87 138 93
87 138 93
110 195 144
110 195 144
110 195 144
110 195 144
110 195 144
110 195 144
110 195 144
110 195 144
110 195 144
94 159 98
110 195 144
110 195 144
110 195 144
102 174 139
110 195 144
110 195 144
102 174 139
102 174 139
110 195 144
36 62 47
94 159 97
94 159 97
109 195 143
101 174 138
109 195 144
109 195 144
109 195 144
109 195 144
109 195 144
101 174 138
101 174 138
109 195 144
101 174 138
109 195 144
109 195 144
101 174 138
109 195 144
109 195 144
109 195 144
86 138 92
86 138 91
86 138 91
85 138 91
85 138 91
85 138 91
85 138 91
85 138 91
85 137 91
85 137 91
27 43 29
109 195 143
101 173 138
101 173 138
109 195 143
101 173 138
109 195 143
109 195 143
109 195 143
101 173 138
109 195 143
109 195 143
109 195 143
109 195 143
109 195 143
109 195 143
109 195 143
109 195 143
109 195 143
101 173 138
109 195 143
101 173 138
109 195 143
109 195 143
101 173 138
109 195 143
109 195 143
101 174 138
109 195 143
109 195 143
109 195 143
101 174 138
109 195 144
109 195 144
109 195 144
109 195 144
109 195 144
101 174 138
101 174 138
109 195 144
101 174 138
110 195 144
110 195 144
110 195 144
110 195 144
110 195 144
110 195 144
101 174 138
110 195 144
110 195 144
110 195 144
110 195 144
110 195 144
110 195 144
110 195 144
110 195 144
110 195 144
110 195 144
102 174 138
102 174 139
110 195 144
110 195 144
110 195 144
102 174 139
110 195 144
102 174 139
110 195 144
110 195 144
110 195 144
102 174 139
110 195 144
110 195 144
110 195 144
110 195 144
102 174 139
110 195 144
110 195 144
102 174 139
102 174 139
102 174 139
102 174 139
110 195 144
110 195 144
110 195 144
110 195 144
110 195 144
110 195 144
110 195 144
110 195 144
110 195 144
110 195 144
102 174 139
102 174 139
102 174 139
102 174 139
102 174 139
110 195 144
110 195 144
110 195 144
102 174 139
110 195 144
110 195 144
110 195 144
110 195 144
110 195 144
110 195 144
102 174 139
102 174 139
102 174 139
102 174 139
102 174 139
102 174 139
102 174 139
102 174 139
102 174 139
102 174 139
110 195 144
110 195 144
110 195 144
110 195 144
110 195 144
110 195 144
110 195 144
110 195 144
30 50 32
30 50 32
30 50 32
30 50 32
30 50 32
30 50 32
30 50 32
30 50 32
30 50 32
30 50 32
30 50 32
30 50 32
91 156 94
110 195 144
110 195 144
102 174 139
110 195 144
30 50 32
30 50 32
31 50 32
31 51 32
31 51 32
31 51 33
91 156 95
91 156 95
91 156 95
91 156 95
91 156 95
91 156 95
91 156 95
91 156 95
110 195 145
102 174 139
102 174 139
110 195 144
102 174 139
102 174 139
110 195 144
102 174 139
110 195 144
102 174 139
110 195 144
102 174 139
102 174 139
102 174 139
102 174 139
102 174 139
110 195 144
35 57 47
35 57 47
35 57 47
35 57 47
35 57 47
35 57 47
35 57 47
103 174 139
103 174 139
103 174 139
103 174 139
30 46 33
30 46 33
36 58 48
36 58 48
36 58 48
36 58 48
36 58 48
103 174 140
103 174 140
103 174 140
103 174 140
111 195 145
111 195 145
111 195 145
111 195 145
111 195 145
111 195 145
92 157 96
92 157 96
92 157 96
92 157 96
92 157 96
92 157 96
84 136 91
84 136 91
84 136 91
84 136 91
84 136 91
85 136 91
103 174 140
103 174 140
103 174 140
103 174 140
111 195 146
111 195 146
111 195 146
111 195 146
111 195 146
111 195 146
111 195 146
111 195 146
111 195 146
111 195 146
103 174 140
103 174 140
103 174 140
111 195 146
111 195 146
111 195 146
111 195 145
111 195 145
103 174 140
111 195 145
111 195 145
111 195 145
111 195 145
111 195 145
111 195 145
111 195 145
103 174 140
111 195 145
111 195 145
111 195 145
111 195 145
111 195 145
111 195 145
95 160 99
103 174 140
111 195 145
111 195 145
111 195 145
111 195 145
111 195 145
111 195 145
111 195 145
111 195 145
111 195 145
111 195 145
111 195 145
103 174 140
103 174 140
87 139 94
87 139 94
87 139 94
87 139 93
87 139 93
87 139 93
102 174 139
102 174 139
102 174 139
110 195 144
110 195 144
110 195 144
110 195 144
110 195 144
110 195 144
110 195 144
94 160 98
94 159 98
94 159 97
102 174 139
110 195 144
110 195 144
110 195 144
102 174 139
110 195 144
110 195 144
36 62 47
94 159 97
94 159 97
94 159 97
109 195 143
101 174 138
109 195 143
109 195 143
109 195 143
101 174 138
109 195 144
109 195 144
109 195 144
101 174 138
101 174 138
109 195 144
109 195 144
101 174 138
101 174 138
101 174 138
109 195 144
86 138 91
86 138 91
86 138 91
85 138 91
85 138 91
85 138 91
85 138 91
27 43 29
27 43 29
109 195 143
101 173 138
109 195 143
101 173 138
101 173 138
109 195 143
109 195 143
109 195 143
109 195 143
101 173 138
109 195 143
109 195 143
109 195 143
101 173 138
109 195 143
109 195 143
101 173 138
109 195 143
101 173 138
109 195 143
101 173 138
101 173 138
101 173 138
109 195 143
109 195 143
109 195 143
109 195 143
109 195 143
101 174 138
109 195 143
109 195 143
109 195 143
109 195 143
109 195 143
101 174 138
101 174 138
109 195 144
109 195 144
109 195 144
109 195 144
101 174 138
101 174 138
109 195 144
110 195 144
110 195 144
101 174 138
110 195 144
110 195 144
101 174 138
110 195 144
110 195 144
110 195 144
110 195 144
110 195 144
110 195 144
110 195 144
110 195 144
110 195 144
110 195 144
110 195 144
102 174 138
110 195 144
110 195 144
110 195 144
102 174 139
110 195 144
110 195 144
110 195 144
110 195 144
110 195 144
110 195 144
110 195 144
110 195 144
110 195 144
110 195 144
110 195 144
110 195 144
110 195 144
110 195 144
102 174 139
110 195 144
110 195 144
110 195 144
110 195 144
110 195 144
110 195 144
110 195 144
110 195 144
110 195 144
110 195 144
102 174 139
102 174 139
102 174 139
102 174 139
110 195 144
110 195 144
110 195 144
102 174 139
110 195 144
110 195 144
110 195 144
110 195 144
110 195 144
110 195 144
110 195 144
110 195 144
102 174 139
110 195 144
102 174 139
102 174 139
102 174 139
102 174 139
102 174 139
110 195 144
110 195 144
110 195 144
110 195 144
110 195 144
110 195 144
110 195 144
110 195 144
110 195 144
110 195 144
102 174 138
110 195 144
30 50 32
30 50 32
30 50 32
30 50 32
30 50 32
30 50 32
30 50 32
30 50 32
30 50 32
30 50 32
36 62 47
36 62 47
110 195 144
102 174 139
110 195 144
110 195 144
110 195 144
31 50 32
31 51 32
31 51 33
31 51 33
31 51 33
31 51 33
31 51 33
31 51 33
31 51 33
91 156 95
91 156 95
110 195 145
110 195 145
110 195 145
102 174 139
102 174 139
102 174 139
102 174 139
102 174 139
102 174 139
102 174 139
110 195 144
110 195 144
102 174 139
102 174 139
110 195 144
102 174 139
102 174 139
102 174 139
83 135 89
35 57 47
35 57 47
35 57 47
35 57 47
35 57 47
35 57 47
35 57 47
103 174 139
103 174 139
103 174 139
103 174 139
103 174 139
36 58 48
36 58 48
36 58 48
36 58 48
38 64 49
36 58 48
36 58 48
103 174 140
103 174 140
103 174 140
103 174 140
111 195 145
111 195 145
111 195 145
111 195 145
92 157 96
92 157 96
92 157 96
92 157 96
92 157 96
92 157 96
92 157 96
84 136 91
84 136 91
84 136 91
84 136 91
103 174 140
103 174 140
103 174 140
103 174 140
103 174 140
103 174 140
103 174 140
111 195 146
111 195 146
111 195 146
111 195 146
111 195 146
111 195 146
111 195 146
111 195 145
103 174 140
103 174 140
103 174 140
103 174 140
103 174 140
111 195 145
111 195 145
111 195 145
111 195 145
111 195 145
111 195 145
111 195 145
111 195 145
111 195 145
111 195 145
103 174 140
103 174 140
103 174 140
103 174 140
111 195 145
111 195 145
111 195 145
111 195 145
111 195 145
95 160 99
95 160 99
103 174 140
111 195 145
111 195 145
111 195 145
111 195 145
111 195 145
103 174 140
111 195 145
111 195 145
111 195 145
103 174 140
103 174 140
103 174 140
103 174 140
87 139 94
87 139 94
87 139 94
87 139 93
102 174 139
102 174 139
102 174 139
102 174 139
102 174 139
110 195 144
110 195 144
110 195 144
110 195 144
110 195 144
110 195 144
94 160 98
94 160 98
94 159 98
94 159 97
110 195 144
110 195 144
110 195 144
110 195 144
110 195 144
110 195 144
94 159 97
94 159 97
94 159 97
94 159 97
94 159 97
109 195 143
109 195 143
109 195 143
109 195 143
101 174 138
109 195 143
109 195 143
109 195 144
109 195 144
109 195 144
101 174 138
101 174 138
101 174 138
101 174 138
101 174 138
101 174 138
101 174 138
86 138 91
86 138 91
86 138 91
85 138 91
27 43 30
27 43 30
27 43 30
101 173 138
101 173 138
109 195 143
101 173 138
101 173 138
101 173 138
109 195 143
101 173 138
109 195 143
109 195 143
101 173 138
109 195 143
109 195 143
109 195 143
109 195 143
109 195 143
101 173 138
101 173 138
109 195 143
109 195 143
101 173 138
101 173 138
101 173 138
101 173 138
101 173 138
101 173 138
109 195 143
109 195 143
109 195 143
109 195 143
109 195 143
109 195 143
109 195 143
109 195 143
109 195 143
109 195 143
109 195 143
109 195 143
109 195 144
101 174 138
101 174 138
101 174 138
101 174 138
101 174 138
109 195 144
109 195 144
110 195 144
110 195 144
101 174 138
110 195 144
110 195 144
110 195 144
102 174 138
110 195 144
110 195 144
110 195 144
110 195 144
110 195 144
110 195 144
110 195 144
110 195 144
110 195 144
102 174 138
110 195 144
102 174 139
110 195 144
110 195 144
102 174 139
110 195 144
110 195 144
110 195 144
110 195 144
110 195 144
102 174 139
110 195 144
110 195 144
110 195 144
110 195 144
110 195 144
110 195 144
110 195 144
110 195 144
110 195 144
102 174 139
110 195 144
110 195 144
110 195 144
110 195 144
110 195 144
110 195 144
110 195 144
102 174 139
102 174 139
110 195 144
110 195 144
110 195 144
110 195 144
110 195 144
110 195 144
110 195 144
110 195 144
110 195 144
110 195 144
110 195 144
110 195 144
110 195 144
110 195 144
110 195 144
102 174 139
102 174 139
102 174 139
102 174 139
110 195 144
110 195 144
110 195 144
110 195 144
110 195 144
110 195 144
110 195 144
110 195 144
110 195 144
102 174 138
102 174 138
102 174 138
110 195 144
102 174 138
30 50 32
30 50 32
30 50 32
30 50 32
30 50 32
30 50 32
30 50 32
30 50 32
36 62 47
36 62 47
36 62 47
36 62 47
36 62 47
110 195 144
110 195 144
110 195 144
102 174 139
31 51 32
31 51 33
31 51 33
31 51 33
31 51 33
31 51 33
31 51 33
31 51 33
31 51 33
31 51 33
37 63 48
110 195 145
110 195 144
110 195 144
110 195 144
110 195 144
102 174 139
102 174 139
102 174 139
102 174 139
102 174 139
102 174 139
102 174 139
102 174 139
110 195 144
102 174 139
102 174 139
83 135 89
83 135 89
83 135 89
35 57 47
35 57 47
35 57 47
35 57 47
35 57 47
35 57 47
103 174 139
103 174 139
103 174 139
103 174 139
103 174 139
103 174 139
83 135 90
36 58 48
36 58 48
36 58 48
36 57 48
36 57 48
103 174 140
111 195 145
103 174 140
103 174 140
103 174 140
111 195 145
111 195 145
92 157 96
92 157 96
92 157 96
92 157 96
92 157 96
92 157 96
92 157 96
92 157 96
92 157 96
84 136 91
84 136 91
84 136 91
103 174 140
103 174 140
103 174 140
103 174 140
103 174 140
103 174 140
103 174 140
103 174 140
103 174 140
111 195 146
111 195 145
111 195 145
111 195 145
111 195 145
103 174 140
103 174 140
103 174 140
103 174 140
103 174 140
111 195 145
103 174 140
103 174 140
103 174 140
111 195 145
111 195 145
111 195 145
111 195 145
111 195 145
111 195 145
103 174 140
103 174 140
103 174 140
103 174 140
103 174 140
103 174 140
103 174 140
103 174 140
111 195 145
111 195 145
111 195 145
95 160 99
95 160 99
95 160 99
111 195 145
111 195 145
111 195 145
111 195 145
111 195 145
111 195 145
111 195 145
111 195 145
103 174 140
103 174 140
103 174 140
103 174 140
103 174 140
103 174 140
87 139 94
87 139 94
102 174 139
102 174 139
102 174 139
102 174 139
102 174 139
102 174 139
102 174 139
110 195 144
110 195 144
110 195 144
110 195 144
110 195 144
94 160 98
94 160 98
94 160 98
94 159 98
94 159 97
110 195 144
110 195 144
110 195 144
110 195 144
110 195 144
94 159 97
94 159 97
94 159 97
94 159 97
94 159 97
94 159 97
94 159 97
101 174 138
109 195 143
101 174 138
101 174 138
101 174 138
109 195 143
109 195 143
109 195 143
101 174 138
101 174 138
101 174 138
101 174 138
101 174 138
101 174 138
101 174 138
101 174 138
101 174 138
86 138 91
28 43 30
28 43 30
27 43 30
101 173 138
101 173 138
101 173 138
101 173 138
101 173 138
101 173 138
101 173 138
101 173 138
101 173 138
101 173 138
109 195 143
109 195 143
109 195 143
109 195 143
109 195 143
109 195 143
109 195 143
109 195 143
109 195 143
109 195 143
101 173 138
101 173 138
101 173 138
101 173 138
109 195 143
101 173 138
101 173 138
101 173 138
101 173 138
109 195 143
101 173 138
109 195 143
109 195 143
109 195 143
109 195 143
101 174 138
109 195 143
101 174 138
109 195 143
109 195 143
109 195 143
101 174 138
101 174 138
101 174 138
101 174 138
101 174 138
101 174 138
109 195 144
109 195 144
110 195 144
110 195 144
110 195 144
110 195 144
110 195 144
101 174 138
110 195 144
102 174 138
110 195 144
102 174 138
110 195 144
110 195 144
110 195 144
102 174 138
102 174 138
110 195 144
102 174 138
110 195 144
110 195 144
110 195 144
110 195 144
102 174 139
110 195 144
110 195 144
110 195 144
110 195 144
110 195 144
110 195 144
102 174 139
110 195 144
110 195 144
110 195 144
110 195 144
102 174 139
102 174 139
110 195 144
110 195 144
110 195 144
110 195 144
110 195 144
110 195 144
110 195 144
110 195 144
102 174 139
110 195 144
110 195 144
110 195 144
102 174 139
110 195 144
110 195 144
110 195 144
102 174 139
110 195 144
110 195 144
110 195 144
110 195 144
110 195 144
110 195 144
110 195 144
110 195 144
102 174 139
102 174 139
102 174 139
110 195 144
110 195 144
110 195 144
110 195 144
110 195 144
110 195 144
110 195 144
102 174 138
102 174 138
110 195 144
102 174 138
110 195 144
102 174 138
110 195 144
110 195 144
30 50 32
30 50 32
30 50 32
30 50 32
30 50 32
30 50 32
30 50 32
36 62 47
36 62 47
36 62 47
34 55 45
36 62 47
36 62 47
110 195 144
110 195 144
110 195 144
110 195 144
110 195 144
31 51 33
31 51 33
31 51 33
31 51 33
31 51 33
31 51 33
31 51 33
34 56 46
37 63 48
37 63 48
110 195 144
102 174 139
102 174 139
110 195 144
110 195 144
102 174 139
102 174 139
102 174 139
110 195 144
102 174 139
102 174 139
102 174 139
102 174 139
110 195 144
102 174 139
83 135 89
83 135 89
83 135 89
83 135 89
83 135 89
35 57 47
35 57 47
35 57 47
35 57 47
103 174 139
103 174 139
103 174 139
103 174 139
103 174 139
103 174 139
83 135 90
83 135 90
36 57 48
36 57 48
38 64 49
36 57 48
36 57 48
103 174 140
103 174 140
103 174 140
103 174 140
103 174 140
103 174 140
32 52 34
92 157 96
92 157 96
92 157 96
92 157 96
92 157 96
92 157 96
92 157 96
92 157 96
92 157 96
84 136 91
103 174 140
103 174 140
103 174 140
103 174 140
111 195 146
103 174 140
103 174 140
103 174 140
103 174 140
111 195 145
111 195 145
103 174 140
111 195 145
111 195 145
111 195 145
103 174 140
103 174 140
103 174 140
103 174 140
103 174 140
103 174 140
103 174 140
103 174 140
103 174 140
103 174 140
111 195 145
111 195 145
111 195 145
111 195 145
103 174 140
103 174 140
103 174 140
103 174 140
103 174 140
103 174 140
103 174 140
103 174 140
103 174 140
103 174 140
111 195 145
111 195 145
111 195 145
95 160 99
95 160 99
95 160 99
95 160 99
111 195 145
111 195 145
111 195 145
111 195 145
103 174 140
111 195 145
103 174 140
111 195 145
103 174 140
103 174 140
103 174 140
103 174 140
103 174 140
102 174 139
102 174 139
102 174 139
102 174 139
102 174 139
102 174 139
102 174 139
102 174 139
102 174 139
102 174 139
110 195 144
110 195 144
110 195 144
110 195 144
94 160 98
94 160 98
94 160 98
94 160 98
94 159 98
94 159 97
110 195 144
110 195 144
110 195 144
110 195 144
94 159 97
94 159 97
94 159 97
94 159 97
94 159 97
94 159 97
94 159 97
94 159 97
109 195 143
109 195 143
109 195 143
109 195 143
109 195 143
101 174 138
101 174 138
101 174 138
101 174 138
101 174 138
101 174 138
101 174 138
101 174 138
101 174 138
109 195 144
101 174 138
32 54 44
28 44 30
28 43 30
101 173 138
101 173 138
101 173 138
101 173 138
101 173 138
101 173 138
101 173 138
101 173 138
101 173 138
101 173 138
101 173 138
109 195 143
109 195 143
109 195 143
101 173 138
109 195 143
109 195 143
101 173 138
109 195 143
109 195 143
101 173 138
101 173 138
101 173 138
101 173 138
101 173 138
101 173 138
101 173 138
101 173 138
109 195 143
101 173 138
101 173 138
109 195 143
109 195 143
109 195 143
101 173 138
109 195 143
101 173 138
109 195 143
109 195 143
109 195 143
109 195 143
101 174 138
101 174 138
101 174 138
101 174 138
101 174 138
101 174 138
101 174 138
101 174 138
101 174 138
109 195 144
109 195 144
110 195 144
110 195 144
101 174 138
101 174 138
110 195 144
110 195 144
110 195 144
110 195 144
102 174 138
110 195 144
110 195 144
110 195 144
110 195 144
110 195 144
102 174 138
102 174 138
110 195 144
110 195 144
110 195 144
110 195 144
110 195 144
110 195 144
110 195 144
110 195 144
110 195 144
110 195 144
110 195 144
110 195 144
110 195 144
110 195 144
102 174 139
102 174 139
110 195 144
102 174 139
102 174 139
110 195 144
110 195 144
110 195 144
110 195 144
110 195 144
110 195 144
110 195 144
110 195 144
110 195 144
110 195 144
110 195 144
102 174 139
110 195 144
110 195 144
110 195 144
102 174 139
110 195 144
110 195 144
110 195 144
110 195 144
110 195 144
110 195 144
110 195 144
102 174 139
110 195 144
110 195 144
102 174 139
102 174 139
110 195 144
110 195 144
110 195 144
110 195 144
110 195 144
110 195 144
110 195 144
102 174 138
110 195 144
110 195 144
110 195 144
110 195 144
110 195 144
110 195 144
30 50 32
30 50 32
30 50 32
30 50 32
34 56 45
34 56 45
34 55 45
36 62 47
36 62 47
36 62 47
36 62 47
33 55 45
36 62 47
110 195 144
110 195 144
102 174 139
110 195 144
31 51 33
31 51 33
31 51 33
31 51 33
31 51 33
37 63 48
37 63 48
34 56 46
37 62 48
37 62 48
37 62 48
110 195 144
110 195 144
110 195 144
102 174 139
102 174 139
102 174 139
110 195 144
102 174 139
102 174 139
102 174 139
102 174 139
110 195 144
83 135 89
83 135 89
83 135 89
83 135 89
83 135 89
83 135 89
83 135 89
35 57 47
35 57 47
35 57 47
35 57 47
103 174 139
103 174 139
103 174 139
103 174 139
83 135 90
83 135 90
83 135 90
83 135 90
36 57 48
36 57 48
36 57 48
35 57 48
103 174 140
103 174 140
103 174 140
103 174 140
103 174 140
111 195 145
111 195 145
111 195 145
32 52 35
32 52 35
32 52 35
92 157 96
92 157 96
92 157 96
92 157 96
92 157 96
92 157 96
103 174 140
103 174 140
103 174 140
103 174 140
103 174 140
103 174 140
103 174 140
103 174 140
103 174 140
103 174 140
103 174 140
103 174 140
103 174 140
103 174 140
111 195 145
103 174 140
103 174 140
103 174 140
111 195 145
103 174 140
103 174 140
103 174 140
103 174 140
111 195 145
103 174 140
103 174 140
103 174 140
111 195 145
111 195 145
111 195 145
103 174 140
103 174 140
103 174 140
103 174 140
111 195 145
103 174 140
103 174 140
103 174 140
103 174 140
103 174 140
103 174 140
111 195 145
111 195 145
95 160 99
95 160 99
95 160 99
95 160 99
95 160 99
111 195 145
111 195 145
103 174 140
103 174 140
103 174 140
103 174 140
103 174 140
103 174 140
103 174 140
103 174 140
103 174 140
102 174 139
102 174 139
102 174 139
102 174 139
102 174 139
102 174 139
102 174 139
102 174 139
102 174 139
102 174 139
102 174 139
102 174 139
110 195 144
110 195 144
110 195 144
94 160 98
94 160 98
94 160 98
94 160 98
94 159 98
94 159 98
94 159 97
110 195 144
102 174 139
110 195 144
94 159 97
94 159 97
94 159 97
94 159 97
94 159 97
94 159 97
94 159 97
94 159 97
94 159 97
109 195 143
109 195 143
101 174 138
101 174 138
109 195 143
101 174 138
109 195 143
101 174 138
101 174 138
101 174 138
109 195 143
101 174 138
101 174 138
109 195 144
32 54 44
32 54 44
32 54 44
101 173 138
101 173 138
101 173 138
101 173 138
109 195 143
101 173 138
101 173 138
101 173 138
109 195 143
101 173 138
101 173 138
101 173 138
101 173 138
109 195 143
101 173 138
109 195 143
101 173 138
109 195 143
101 173 138
109 195 143
109 195 143
109 195 143
101 173 138
101 173 138
101 173 138
101 173 138
109 195 143
101 173 138
109 195 143
101 173 138
101 173 138
109 195 143
101 173 138
101 173 138
109 195 143
109 195 143
109 195 143
109 195 143
109 195 143
109 195 143
109 195 143
101 174 138
101 174 138
109 195 143
101 174 138
101 174 138
101 174 138
101 174 138
101 174 138
101 174 138
101 174 138
109 195 144
101 174 138
109 195 144
109 195 144
110 195 144
110 195 144
110 195 144
110 195 144
110 195 144
110 195 144
110 195 144
102 174 138
110 195 144
110 195 144
102 174 138
102 174 138
102 174 138
102 174 138
102 174 138
102 174 138
110 195 144
102 174 139
110 195 144
110 195 144
102 174 139
110 195 144
110 195 144
110 195 144
110 195 144
110 195 144
110 195 144
102 174 139
102 174 139
110 195 144
102 174 139
102 174 139
102 174 139
110 195 144
102 174 139
110 195 144
110 195 144
110 195 144
110 195 144
110 195 144
110 195 144
110 195 144
102 174 139
110 195 144
110 195 144
110 195 144
110 195 144
110 195 144
110 195 144
110 195 144
110 195 144
110 195 144
110 195 144
110 195 144
110 195 144
110 195 144
102 174 139
110 195 144
102 174 139
102 174 138
110 195 144
110 195 144
110 195 144
110 195 144
110 195 144
110 195 144
110 195 144
110 195 144
110 195 144
110 195 144
110 195 144
110 195 144
101 174 138
110 195 144
110 195 144
30 50 32
30 50 32
36 62 47
36 62 47
36 62 47
36 62 47
34 55 45
36 62 47
36 62 47
33 55 45
36 62 47
36 62 47
110 195 144
110 195 144
102 174 139
110 195 144
102 174 139
102 174 139
31 51 33
31 51 33
37 63 48
37 63 48
34 56 46
34 56 46
37 62 48
37 62 48
37 62 48
36 62 48
110 195 144
110 195 144
110 195 144
102 174 139
110 195 144
102 174 139
102 174 139
102 174 139
110 195 144
110 195 144
83 135 89
83 135 89
83 135 89
83 135 89
83 135 89
83 135 89
83 135 89
83 135 89
83 135 89
35 57 47
35 57 47
35 57 47
103 174 139
103 174 139
102 174 139
83 135 90
83 135 90
83 135 90
83 135 90
83 135 90
84 135 90
35 57 48
35 57 48
35 57 48
35 57 48
103 174 140
103 174 140
103 174 140
103 174 140
111 195 145
111 195 145
111 195 145
111 195 145
111 195 145
32 52 35
33 52 35
33 53 35
33 53 35
33 53 35
92 157 96
111 195 146
111 195 145
111 195 145
103 174 140
103 174 140
103 174 140
103 174 140
103 174 140
103 174 140
103 174 140
103 174 140
103 174 140
103 174 140
103 174 140
103 174 140
111 195 145
111 195 145
103 174 140
103 174 140
103 174 140
111 195 145
111 195 145
103 174 140
103 174 140
103 174 140
103 174 140
103 174 140
111 195 145
103 174 140
103 174 140
103 174 140
103 174 140
103 174 140
103 174 140
111 195 145
103 174 140
103 174 140
111 195 145
103 174 140
103 174 140
103 174 140
103 174 140
103 174 140
103 174 140
111 195 145
96 160 100
95 160 99
95 160 99
95 160 99
95 160 99
95 160 99
111 195 145
103 174 139
103 174 139
111 195 145
103 174 139
103 174 139
103 174 139
103 174 139
111 195 145
102 174 139
102 174 139
102 174 139
102 174 139
102 174 139
102 174 139
102 174 139
102 174 139
102 174 139
102 174 139
102 174 139
102 174 139
102 174 139
102 174 139
110 195 144
110 195 144
94 160 98
94 160 98
94 160 98
94 160 98
94 160 98
94 159 98
94 159 97
94 159 97
94 159 97
110 195 144
94 159 97
94 159 97
94 159 97
94 159 97
94 159 97
94 159 97
94 159 97
94 159 97
94 159 97
94 159 97
109 195 143
101 173 138
101 173 138
109 195 143
101 174 138
101 174 138
101 174 138
101 174 138
101 174 138
101 174 138
101 174 138
101 174 138
32 54 44
32 54 44
32 54 44
101 173 138
101 173 138
101 173 138
101 173 138
101 173 138
101 173 138
101 173 138
101 173 138
101 173 138
101 173 138
109 195 143
101 173 138
101 173 138
101 173 138
101 173 138
101 173 138
109 195 143
101 173 138
109 195 143
109 195 143
101 173 138
101 173 138
101 173 138
101 173 138
101 173 138
101 173 138
109 195 143
101 173 138
101 173 138
101 173 138
101 173 138
101 173 138
101 173 138
101 173 138
101 173 138
101 173 138
109 195 143
109 195 143
101 173 138
101 173 138
109 195 143
101 173 138
109 195 143
101 174 138
101 174 138
101 174 138
101 174 138
101 174 138
101 174 138
101 174 138
101 174 138
101 174 138
101 174 138
109 195 144
109 195 144
109 195 144
109 195 144
109 195 144
110 195 144
110 195 144
101 174 138
101 174 138
101 174 138
101 174 138
110 195 144
102 174 138
102 174 138
102 174 138
102 174 138
102 174 138
102 174 138
102 174 138
102 174 138
102 174 138
110 195 144
102 174 139
110 195 144
110 195 144
110 195 144
110 195 144
110 195 144
110 195 144
110 195 144
110 195 144
102 174 139
102 174 139
102 174 139
102 174 139
102 174 139
102 174 139
102 174 139
110 195 144
102 174 139
110 195 144
110 195 144
110 195 144
110 195 144
110 195 144
102 174 139
110 195 144
110 195 144
110 195 144
110 195 144
102 174 139
110 195 144
110 195 144
110 195 144
102 174 139
110 195 144
110 195 144
102 174 139
102 174 139
102 174 139
110 195 144
110 195 144
110 195 144
110 195 144
110 195 144
110 195 144
110 195 144
110 195 144
102 174 138
110 195 144
110 195 144
110 195 144
110 195 144
110 195 144
101 174 138
110 195 144
110 195 144
90 156 93
90 156 93
36 62 47
36 62 47
36 62 47
34 55 45
36 62 47
36 62 47
36 62 47
36 62 47
36 62 47
36 62 47
110 195 144
102 174 139
110 195 144
110 195 144
110 195 144
110 195 144
110 195 144
34 56 46
37 63 48
37 63 48
34 56 46
37 62 48
37 62 48
34 56 46
36 62 48
36 62 48
36 62 48
110 195 144
110 195 144
110 195 144
102 174 139
110 195 144
102 174 139
102 174 139
102 174 139
102 174 139
83 135 89
83 135 89
83 135 89
83 135 89
83 135 89
83 135 89
83 135 89
83 135 89
83 135 89
83 135 89
35 57 47
35 56 47
102 174 139
102 174 139
102 174 139
83 135 90
83 135 90
83 135 90
83 135 90
84 135 90
84 135 90
84 135 90
84 135 90
35 57 48
35 57 48
103 174 140
103 174 140
103 174 140
111 195 145
103 174 140
111 195 145
111 195 145
111 195 145
111 195 145
111 195 145
33 52 35
33 53 35
33 53 35
33 53 35
33 53 35
39 64 50
39 64 50
111 195 145
111 195 145
111 195 145
103 174 140
111 195 145
103 174 140
103 174 140
103 174 140
103 174 140
103 174 140
103 174 140
103 174 140
103 174 140
111 195 145
111 195 145
103 174 140
111 195 145
103 174 140
103 174 140
103 174 140
103 174 140
103 174 140
103 174 140
103 174 140
103 174 140
103 174 140
103 174 140
103 174 140
111 195 145
111 195 145
103 174 140
103 174 140
103 174 140
103 174 140
103 174 140
111 195 145
103 174 140
103 174 140
103 174 140
103 174 140
103 174 140
103 174 140
103 174 140
111 195 145
96 160 100
95 160 99
95 160 99
95 160 99
95 160 99
95 160 99
95 160 99
103 174 139
103 174 139
103 174 139
103 174 139
103 174 139
103 174 139
103 174 139
103 174 139
102 174 139
102 174 139
102 174 139
102 174 139
102 174 139
102 174 139
102 174 139
102 174 139
102 174 139
102 174 139
102 174 139
102 174 139
102 174 139
102 174 139
102 174 139
102 174 139
94 160 98
94 160 98
94 160 98
94 160 98
94 160 98
94 160 98
94 159 98
94 159 97
94 159 97
94 159 97
94 159 97
94 159 97
94 159 97
94 159 97
94 159 97
94 159 97
94 159 97
94 159 97
94 159 97
94 159 97
93 159 97
101 173 138
109 195 143
101 173 138
101 173 138
109 195 143
101 174 138
109 195 143
101 174 138
101 174 138
101 174 138
101 174 138
32 54 44
32 54 44
85 137 90
101 173 137
101 173 138
101 173 138
101 173 138
101 173 138
109 195 143
101 173 138
101 173 138
101 173 138
109 195 143
101 173 138
101 173 138
109 195 143
101 173 138
101 173 138
101 173 138
109 195 143
101 173 138
101 173 138
109 195 143
101 173 138
109 195 143
101 173 138
101 173 138
101 173 138
101 173 138
101 173 138
101 173 138
109 195 143
101 173 138
101 173 138
101 173 138
101 173 138
101 173 138
109 195 143
101 173 138
101 173 138
101 173 138
109 195 143
109 195 143
109 195 143
101 173 138
101 173 138
101 173 138
101 173 138
101 174 138
109 195 143
101 174 138
101 174 138
101 174 138
101 174 138
101 174 138
109 195 144
101 174 138
109 195 144
101 174 138
101 174 138
109 195 144
109 195 144
109 195 144
110 195 144
110 195 144
110 195 144
101 174 138
101 174 138
101 174 138
102 174 138
102 174 138
110 195 144
102 174 138
102 174 138
102 174 138
102 174 138
102 174 138
102 174 138
102 174 138
110 195 144
110 195 144
110 195 144
110 195 144
110 195 144
110 195 144
102 174 139
102 174 139
102 174 139
102 174 139
102 174 139
102 174 139
102 174 139
102 174 139
102 174 139
110 195 144
102 174 139
102 174 139
110 195 144
110 195 144
110 195 144
110 195 144
110 195 144
110 195 144
110 195 144
102 174 139
110 195 144
102 174 139
110 195 144
102 174 139
102 174 139
102 174 139
102 174 139
102 174 139
110 195 144
102 174 138
102 174 138
110 195 144
110 195 144
110 195 144
110 195 144
110 195 144
110 195 144
110 195 144
102 174 138
110 195 144
110 195 144
110 195 144
101 174 138
110 195 144
101 174 138
110 195 144
109 195 144
90 156 93
90 156 93
90 156 93
36 62 47
36 62 47
36 62 47
36 62 47
36 62 47
36 62 47
36 62 47
36 62 47
36 62 47
36 62 47
110 195 144
110 195 144
110 195 144
110 195 144
110 195 144
102 174 139
110 195 144
90 156 94
34 56 46
34 56 46
34 56 46
37 62 48
36 62 48
36 62 48
36 62 48
34 56 46
110 195 144
110 195 144
110 195 144
110 195 144
102 174 139
110 195 144
110 195 144
110 195 144
83 135 89
83 135 89
83 135 89
83 135 89
83 135 89
83 135 89
83 135 89
83 135 89
83 135 89
83 135 89
83 135 89
83 135 90
83 135 90
35 56 47
102 174 139
83 135 90
83 135 90
83 135 90
83 135 90
83 135 90
84 135 90
84 135 90
84 135 90
84 135 90
84 135 90
35 57 47
103 174 140
103 174 140
111 195 145
111 195 145
111 195 145
111 195 145
111 195 145
111 195 145
111 195 145
111 195 145
111 195 145
111 195 145
33 53 35
33 53 35
38 64 50
38 64 50
38 64 50
36 58 48
111 195 145
111 195 145
111 195 145
111 195 145
103 174 140
103 174 140
103 174 140
103 174 140
103 174 140
103 174 140
103 174 140
111 195 145
111 195 145
111 195 145
111 195 145
111 195 145
111 195 145
111 195 145
103 174 140
103 174 140
103 174 140
103 174 140
111 195 145
103 174 140
103 174 140
103 174 140
103 174 140
111 195 145
111 195 145
111 195 145
111 195 145
103 174 140
103 174 140
103 174 140
103 174 140
111 195 145
103 174 140
103 174 140
103 174 140
111 195 145
103 174 140
103 174 140
111 195 145
111 195 145
111 195 145
96 160 100
95 160 99
95 160 99
95 160 99
95 160 99
95 160 99
87 139 94
103 174 139
103 174 139
103 174 139
103 174 139
103 174 139
111 195 145
87 138 93
86 138 93
102 174 139
102 174 139
102 174 139
102 174 139
102 174 139
102 174 139
102 174 139
102 174 139
102 174 139
102 174 139
102 174 139
102 174 139
102 174 139
102 174 139
110 195 144
110 195 144
94 160 98
94 160 98
94 160 98
94 160 98
94 160 98
94 160 98
94 159 98
31 51 33
110 195 144
110 195 144
94 159 97
94 159 97
94 159 97
94 159 97
94 159 97
94 159 97
94 159 97
94 159 97
30 50 31
109 195 143
109 195 143
109 195 143
109 195 143
101 173 138
101 173 138
101 173 138
109 195 143
101 173 138
101 174 138
101 174 138
101 174 138
32 54 44
32 54 44
85 137 90
85 137 90
85 137 90
109 195 143
101 173 137
101 173 138
101 173 138
101 173 138
101 173 138
101 173 138
101 173 138
101 173 138
101 173 138
101 173 138
101 173 138
101 173 138
101 173 138
101 173 138
101 173 138
101 173 138
109 195 143
101 173 138
101 173 138
101 173 138
101 173 138
101 173 138
101 173 138
101 173 138
101 173 138
101 173 138
101 173 138
101 173 138
109 195 143
101 173 138
101 173 138
101 173 138
109 195 143
101 173 138
101 173 138
101 173 138
109 195 143
101 173 138
101 173 138
101 173 138
109 195 143
101 173 138
101 173 138
109 195 143
101 174 138
101 174 138
101 174 138
101 174 138
101 174 138
101 174 138
101 174 138
101 174 138
101 174 138
101 174 138
101 174 138
109 195 144
109 195 144
109 195 144
101 174 138
101 174 138
110 195 144
101 174 138
110 195 144
101 174 138
101 174 138
102 174 138
110 195 144
110 195 144
102 174 138
102 174 138
102 174 138
102 174 138
102 174 138
102 174 138
102 174 138
110 195 144
102 174 139
110 195 144
110 195 144
110 195 144
110 195 144
110 195 144
102 174 139
110 195 144
102 174 139
102 174 139
102 174 139
102 174 139
102 174 139
102 174 139
102 174 139
102 174 139
110 195 144
102 174 139
110 195 144
110 195 144
110 195 144
110 195 144
102 174 139
110 195 144
110 195 144
102 174 139
110 195 144
110 195 144
102 174 139
102 174 139
110 195 144
102 174 138
102 174 138
102 174 138
102 174 138
110 195 144
110 195 144
110 195 144
110 195 144
102 174 138
110 195 144
110 195 144
101 174 138
110 195 144
110 195 144
110 195 144
110 195 144
109 195 144
90 156 93
90 156 93
90 156 93
90 156 93
90 156 93
90 156 93
36 62 47
36 62 47
36 62 47
36 62 47
33 55 45
36 62 47
36 62 47
36 62 47
110 195 144
110 195 144
102 174 139
102 174 139
110 195 144
110 195 144
90 156 94
90 156 94
90 156 94
37 62 48
37 62 48
36 62 48
36 62 48
36 62 48
36 62 47
34 56 46
36 62 47
102 174 139
110 195 144
110 195 144
110 195 144
110 195 144
110 195 144
102 174 139
28 44 31
28 44 31
83 135 89
83 135 89
83 135 89
83 135 89
83 135 89
83 135 89
83 135 89
83 135 89
83 135 90
83 135 90
83 135 90
83 135 90
83 135 90
83 135 90
83 135 90
83 135 90
83 135 90
83 135 90
84 135 90
84 135 90
84 135 90
84 135 90
84 135 90
84 135 90
35 57 47
111 195 145
111 195 145
111 195 145
111 195 145
111 195 145
111 195 145
111 195 145
111 195 145
111 195 145
111 195 145
103 174 140
111 195 145
111 195 145
38 64 50
38 64 50
38 64 50
38 64 50
38 64 50
38 64 50
111 195 145
111 195 145
111 195 145
111 195 145
103 174 140
103 174 140
103 174 140
103 174 140
103 174 140
111 195 145
111 195 145
111 195 145
111 195 145
111 195 145
111 195 145
111 195 145
111 195 145
103 174 140
103 174 140
103 174 140
103 174 140
103 174 140
103 174 140
103 174 140
111 195 145
111 195 145
111 195 145
111 195 145
111 195 145
103 174 140
111 195 145
103 174 140
103 174 140
103 174 140
103 174 140
103 174 140
103 174 140
111 195 145
103 174 140
103 174 140
111 195 145
111 195 145
111 195 145
111 195 145
111 195 145
96 160 99
95 160 99
95 160 99
95 160 99
95 160 99
87 139 94
87 139 94
103 174 139
111 195 145
103 174 139
103 174 139
103 174 139
87 138 93
87 138 93
86 138 93
102 174 139
102 174 139
102 174 139
102 174 139
102 174 139
102 174 139
102 174 139
102 174 139
102 174 139
102 174 139
102 174 139
110 195 144
110 195 144
110 195 144
110 195 144
110 195 144
94 160 98
94 160 98
94 160 98
94 160 98
94 160 98
110 195 144
110 195 144
110 195 144
102 174 138
110 195 144
94 159 97
94 159 97
94 159 97
94 159 97
94 159 97
94 159 97
30 50 32
109 195 143
109 195 143
101 173 138
101 173 138
109 195 143
101 173 138
109 195 143
101 173 138
101 173 138
101 173 138
101 173 138
101 173 138
109 195 143
35 61 45
32 54 44
85 137 91
85 137 90
85 137 90
85 137 90
101 173 137
101 173 137
101 173 137
109 195 143
109 195 143
109 195 143
109 195 143
101 173 138
101 173 138
101 173 138
101 173 138
101 173 138
109 195 143
101 173 138
101 173 138
109 195 143
109 195 143
109 195 143
109 195 143
101 173 138
109 195 143
101 173 138
101 173 138
101 173 138
101 173 138
101 173 138
109 195 143
101 173 138
101 173 138
101 173 138
101 173 138
101 173 138
101 173 138
101 173 138
101 173 138
101 173 138
101 173 138
109 195 143
101 173 138
101 173 138
101 173 138
109 195 143
101 173 138
101 173 138
101 173 138
101 174 138
101 174 138
101 174 138
109 195 143
109 195 143
101 174 138
101 174 138
101 174 138
101 174 138
101 174 138
101 174 138
109 195 144
101 174 138
109 195 144
101 174 138
101 174 138
101 174 138
101 174 138
101 174 138
101 174 138
110 195 144
101 174 138
102 174 138
110 195 144
102 174 138
102 174 138
102 174 138
102 174 138
102 174 138
102 174 138
102 174 138
110 195 144
102 174 138
110 195 144
102 174 139
102 174 139
102 174 139
110 195 144
102 174 139
102 174 139
110 195 144
102 174 139
102 174 139
102 174 139
102 174 139
110 195 144
102 174 139
110 195 144
110 195 144
110 195 144
110 195 144
110 195 144
110 195 144
102 174 139
110 195 144
110 195 144
102 174 139
102 174 139
110 195 144
102 174 139
110 195 144
102 174 138
102 174 138
110 195 144
102 174 138
102 174 138
110 195 144
110 195 144
102 174 138
110 195 144
110 195 144
110 195 144
110 195 144
110 195 144
110 195 144
110 195 144
109 195 144
90 156 93
90 156 93
90 156 93
90 156 93
90 156 93
90 156 93
90 156 93
90 156 93
36 62 47
36 62 47
36 62 47
36 62 47
36 62 47
36 62 47
36 62 47
110 195 144
110 195 144
110 195 144
110 195 144
110 195 144
90 156 94
90 156 94
90 156 94
91 156 94
91 156 94
34 56 46
36 62 48
36 62 48
34 56 46
36 62 47
36 62 47
34 56 46
110 195 144
102 174 139
110 195 144
110 195 144
110 195 144
110 195 144
110 195 144
102 174 139
110 195 144
28 44 31
28 44 31
28 44 31
28 44 31
28 44 31
28 44 31
83 135 89
83 135 89
83 135 90
83 135 90
83 135 90
83 135 90
102 174 139
29 45 32
29 45 32
29 45 32
83 135 90
83 135 90
84 135 90
84 135 90
84 135 90
84 135 90
84 135 90
84 135 90
84 135 90
111 195 145
111 195 145
111 195 145
111 195 145
111 195 145
111 195 145
111 195 145
111 195 145
111 195 145
111 195 145
111 195 145
103 174 140
103 174 140
111 195 145
111 195 145
38 64 50
38 64 50
38 64 50
38 64 50
36 58 48
111 195 145
111 195 145
111 195 145
111 195 145
103 174 140
103 174 140
103 174 140
103 174 140
111 195 145
111 195 145
111 195 145
111 195 145
111 195 145
111 195 145
111 195 145
111 195 145
111 195 145
103 174 140
103 174 140
103 174 140
103 174 140
103 174 140
103 174 140
111 195 145
103 174 140
103 174 140
111 195 145
111 195 145
103 174 140
111 195 145
111 195 145
111 195 145
103 174 140
103 174 140
103 174 140
103 174 140
111 195 145
103 174 140
111 195 145
111 195 145
111 195 145
111 195 145
111 195 145
111 195 145
111 195 145
111 195 145
95 160 99
95 160 99
95 160 99
95 160 99
87 139 94
87 139 94
87 139 93
103 174 139
103 174 139
103 174 139
110 195 145
87 138 93
87 138 93
86 138 93
86 138 93
86 138 93
102 174 139
102 174 139
102 174 139
102 174 139
102 174 139
102 174 139
102 174 139
102 174 139
110 195 144
110 195 144
110 195 144
110 195 144
110 195 144
110 195 144
110 195 144
94 160 98
94 160 98
31 51 33
110 195 144
110 195 144
110 195 144
110 195 144
102 174 138
110 195 144
110 195 144
110 195 144
94 159 97
94 159 97
30 50 32
30 50 32
109 195 143
109 195 143
101 173 138
101 173 138
101 173 138
101 173 138
109 195 143
101 173 138
101 173 138
101 173 138
101 173 138
101 173 138
101 173 138
109 195 143
32 54 44
32 54 44
85 137 91
85 137 91
85 137 90
85 137 90
85 137 90
101 173 137
109 195 143
109 195 143
109 195 143
101 173 137
101 173 138
109 195 143
101 173 138
109 195 143
109 195 143
109 195 143
101 173 138
101 173 138
109 195 143
109 195 143
109 195 143
109 195 143
101 173 138
109 195 143
101 173 138
109 195 143
101 173 138
109 195 143
101 173 138
109 195 143
101 173 138
101 173 138
101 173 138
101 173 138
109 195 143
101 173 138
101 173 138
101 173 138
109 195 143
101 173 138
101 173 138
101 173 138
109 195 143
101 173 138
101 173 138
101 173 138
101 173 138
109 195 143
109 195 143
101 173 138
101 173 138
109 195 143
101 174 138
101 174 138
101 174 138
101 174 138
101 174 138
101 174 138
101 174 138
101 174 138
109 195 144
109 195 144
109 195 144
101 174 138
101 174 138
101 174 138
101 174 138
101 174 138
101 174 138
101 174 138
110 195 144
101 174 138
102 174 138
102 174 138
110 195 144
102 174 138
102 174 138
102 174 138
102 174 138
110 195 144
102 174 138
102 174 138
110 195 144
102 174 139
110 195 144
102 174 139
102 174 139
102 174 139
102 174 139
110 195 144
102 174 139
102 174 139
102 174 139
102 174 139
102 174 139
102 174 139
110 195 144
110 195 144
110 195 144
110 195 144
110 195 144
110 195 144
110 195 144
102 174 139
102 174 139
110 195 144
102 174 139
102 174 138
102 174 138
102 174 138
102 174 138
102 174 138
102 174 138
102 174 138
110 195 144
110 195 144
110 195 144
102 174 138
110 195 144
110 195 144
110 195 144
110 195 144
110 195 144
110 195 144
90 156 93
90 156 93
90 156 93
90 156 93
90 156 93
90 156 93
90 156 93
90 156 93
90 156 93
90 156 94
33 55 45
36 62 47
36 62 47
36 62 47
36 62 47
36 62 47
110 195 144
110 195 144
110 195 144
110 195 144
90 156 94
90 156 94
90 156 94
90 156 94
91 156 94
91 156 94
91 156 94
91 156 94
36 62 47
36 62 47
36 62 47
34 56 46
36 62 47
110 195 144
110 195 144
110 195 144
110 195 144
102 174 139
102 174 139
102 174 139
102 174 139
102 174 139
102 174 139
102 174 139
28 44 31
28 44 31
28 44 31
28 44 31
28 44 31
29 44 31
29 45 31
29 45 31
29 45 31
102 174 139
102 174 139
102 174 139
102 174 139
29 45 32
29 45 32
29 45 32
29 45 32
29 45 32
29 45 32
84 135 90
84 135 90
84 135 90
84 135 90
103 174 140
103 174 140
111 195 145
111 195 145
111 195 145
111 195 145
111 195 145
111 195 145
111 195 145
111 195 145
111 195 145
111 195 145
111 195 145
111 195 145
111 195 145
111 195 145
38 64 50
38 64 50
38 64 50
38 64 50
38 64 50
111 195 145
111 195 145
111 195 145
111 195 145
111 195 145
103 174 140
103 174 140
111 195 145
111 195 145
111 195 145
111 195 145
111 195 145
111 195 145
111 195 145
111 195 145
111 195 145
103 174 140
111 195 145
111 195 145
103 174 140
111 195 145
103 174 140
111 195 145
111 195 145
111 195 145
111 195 145
111 195 145
111 195 145
111 195 145
111 195 145
111 195 145
111 195 145
111 195 145
103 174 140
103 174 140
103 174 140
103 174 140
111 195 145
111 195 145
111 195 145
111 195 145
111 195 145
111 195 145
111 195 145
111 195 145
111 195 145
111 195 145
95 160 99
95 160 99
95 160 99
87 139 94
87 139 94
87 139 94
87 139 93
102 174 139
102 174 139
102 174 139
87 138 93
87 138 93
87 138 93
86 138 93
86 138 93
86 138 93
102 174 139
102 174 139
102 174 139
102 174 139
102 174 139
102 174 139
110 195 144
110 195 144
110 195 144
110 195 144
110 195 144
110 195 144
110 195 144
110 195 144
110 195 144
31 51 33
102 174 138
110 195 144
110 195 144
110 195 144
110 195 144
110 195 144
110 195 144
102 174 138
110 195 144
110 195 144
30 50 32
30 50 32
109 195 143
109 195 143
109 195 143
101 173 138
109 195 143
109 195 143
109 195 143
109 195 143
101 173 138
109 195 143
109 195 143
101 173 138
109 195 143
101 173 138
101 173 138
34 60 45
85 137 91
85 137 91
85 137 91
85 137 91
85 137 90
85 137 90
85 137 90
85 137 90
101 173 137
101 173 137
101 173 137
101 173 137
109 195 143
101 173 138
109 195 143
101 173 138
101 173 138
109 195 143
109 195 143
101 173 138
109 195 143
109 195 143
109 195 143
109 195 143
109 195 143
109 195 143
101 173 138
101 173 138
101 173 138
101 173 138
101 173 138
109 195 143
101 173 138
101 173 138
101 173 138
101 173 138
101 173 138
101 173 138
101 173 138
101 173 138
109 195 143
109 195 143
101 173 138
109 195 143
109 195 143
109 195 143
101 173 138
101 173 138
101 173 138
101 173 138
101 173 138
101 173 138
101 173 138
101 173 138
101 174 138
101 174 138
101 174 138
101 174 138
109 195 143
101 174 138
101 174 138
101 174 138
109 195 144
109 195 144
109 195 144
101 174 138
109 195 144
101 174 138
101 174 138
101 174 138
101 174 138
101 174 138
101 174 138
101 174 138
101 174 138
102 174 138
102 174 138
102 174 138
110 195 144
102 174 138
102 174 138
102 174 138
110 195 144
110 195 144
102 174 138
102 174 138
102 174 139
110 195 144
102 174 139
102 174 139
102 174 139
102 174 139
102 174 139
102 174 139
102 174 139
102 174 139
102 174 139
110 195 144
110 195 144
110 195 144
102 174 139
110 195 144
102 174 139
102 174 139
102 174 139
102 174 139
102 174 138
102 174 138
102 174 138
102 174 138
102 174 138
102 174 138
102 174 138
110 195 144
110 195 144
102 174 138
110 195 144
110 195 144
110 195 144
110 195 144
110 195 144
110 195 144
101 174 138
90 156 93
90 156 93
90 156 93
90 156 93
90 156 93
90 156 93
90 156 93
90 156 93
90 156 93
90 156 94
90 156 94
90 156 94
90 156 94
36 62 47
33 55 45
36 62 47
36 62 47
110 195 144
110 195 144
110 195 144
110 195 144
90 156 94
90 156 94
90 156 94
91 156 94
91 156 94
91 156 94
91 156 94
91 156 94
91 156 94
36 62 47
36 62 47
34 56 46
36 62 47
110 195 144
110 195 144
110 195 144
110 195 144
102 174 139
102 174 139
102 174 139
102 174 139
102 174 139
102 174 139
102 174 139
110 195 144
28 44 31
28 44 31
28 44 31
28 44 31
29 44 31
29 45 31
29 45 31
29 45 32
34 56 46
34 56 46
102 174 139
102 174 139
102 174 139
102 174 139
29 45 32
29 45 32
29 45 32
29 45 32
29 45 32
29 45 32
29 45 32
35 57 47
111 195 145
103 174 140
103 174 140
103 174 140
111 195 145
111 195 145
111 195 145
111 195 145
111 195 145
111 195 145
111 195 145
111 195 145
111 195 145
111 195 145
111 195 145
111 195 145
92 156 95
92 156 95
38 64 50
36 58 48
38 64 50
111 195 145
111 195 145
111 195 145
111 195 145
111 195 145
103 174 140
103 174 140
111 195 145
111 195 145
111 195 145
103 174 140
111 195 145
111 195 145
111 195 145
111 195 145
103 174 140
111 195 145
111 195 145
111 195 145
111 195 145
111 195 145
111 195 145
111 195 145
111 195 145
111 195 145
111 195 145
111 195 145
111 195 145
111 195 145
111 195 145
111 195 145
111 195 145
111 195 145
111 195 145
111 195 145
103 174 140
103 174 140
111 195 145
111 195 145
111 195 145
111 195 145
111 195 145
111 195 145
111 195 145
111 195 145
111 195 145
111 195 145
111 195 145
111 195 145
95 160 99
87 139 94
87 139 94
87 139 94
87 139 94
87 139 94
87 139 93
102 174 139
102 174 139
87 138 93
87 138 93
87 138 93
87 138 93
86 138 93
86 138 93
86 138 92
102 174 139
102 174 139
102 174 139
102 174 139
110 195 144
110 195 144
110 195 144
110 195 144
110 195 144
110 195 144
110 195 144
110 195 144
110 195 144
36 62 47
110 195 144
101 174 138
110 195 144
110 195 144
110 195 144
110 195 144
110 195 144
110 195 144
110 195 144
110 195 144
35 61 46
35 61 46
109 195 143
109 195 143
109 195 143
109 195 143
109 195 143
109 195 143
109 195 143
109 195 143
109 195 143
109 195 143
109 195 143
101 173 138
109 195 143
101 173 138
101 173 138
101 173 138
34 60 45
85 137 91
85 137 91
85 137 91
85 137 91
85 137 91
85 137 90
85 137 90
85 137 90
85 137 90
101 173 137
101 173 137
101 173 137
101 173 137
101 173 137
101 173 137
109 195 143
101 173 138
101 173 138
109 195 143
101 173 138
101 173 138
109 195 143
109 195 143
101 173 138
109 195 143
109 195 143
109 195 143
109 195 143
101 173 138
101 173 138
109 195 143
101 173 138
101 173 138
109 195 143
101 173 138
101 173 138
109 195 143
101 173 138
101 173 138
109 195 143
109 195 143
109 195 143
109 195 143
109 195 143
109 195 143
101 173 138
109 195 143
109 195 143
101 173 138
101 173 138
101 173 138
101 173 138
109 195 143
101 173 138
101 173 138
101 173 138
109 195 143
101 174 138
101 174 138
101 174 138
109 195 143
101 174 138
109 195 143
101 174 138
101 174 138
109 195 144
109 195 144
101 174 138
101 174 138
101 174 138
101 174 138
110 195 144
101 174 138
101 174 138
101 174 138
101 174 138
101 174 138
110 195 144
102 174 138
110 195 144
110 195 144
102 174 138
110 195 144
110 195 144
110 195 144
110 195 144
102 174 138
102 174 138
102 174 139
102 174 139
102 174 139
102 174 139
102 174 139
102 174 139
102 174 139
102 174 139
102 174 139
110 195 144
110 195 144
110 195 144
102 174 139
102 174 139
102 174 139
110 195 144
102 174 138
102 174 138
102 174 138
102 174 138
102 174 138
102 174 138
102 174 138
102 174 138
110 195 144
102 174 138
102 174 138
101 174 138
101 174 138
110 195 144
110 195 144
110 195 144
110 195 144
90 156 93
90 156 93
90 156 93
90 156 93
90 156 93
90 156 93
90 156 93
90 156 93
90 156 93
90 156 94
90 156 94
90 156 94
90 156 94
90 156 94
90 156 94
33 55 45
36 62 47
36 62 47
102 174 139
110 195 144
110 195 144
90 156 94
90 156 94
90 156 94
91 156 94
91 156 94
91 156 94
91 156 94
91 156 94
91 156 94
91 156 94
91 156 94
36 62 47
36 62 47
36 62 47
36 62 47
110 195 144
102 174 139
102 174 139
110 195 144
102 174 139
102 174 139
102 174 139
110 195 144
102 174 139
102 174 139
102 174 139
102 174 139
102 174 139
28 44 31
29 44 31
29 45 31
29 45 31
29 45 31
34 56 46
34 56 46
34 56 46
34 56 46
102 174 139
102 174 139
102 174 139
102 174 139
29 45 32
29 45 32
29 45 32
29 45 32
29 45 32
29 45 32
35 57 47
35 57 47
103 174 140
103 174 140
103 174 140
103 174 140
111 195 145
111 195 145
111 195 145
111 195 145
111 195 145
111 195 145
111 195 145
111 195 145
111 195 145
111 195 145
92 156 95
92 156 95
92 156 95
92 156 96
38 64 50
38 64 50
38 64 50
111 195 145
111 195 145
103 174 140
111 195 145
103 174 140
103 174 140
111 195 145
103 174 140
111 195 145
111 195 145
111 195 145
111 195 145
111 195 145
111 195 145
111 195 145
111 195 145
111 195 145
111 195 145
111 195 145
111 195 145
103 174 140
103 174 140
111 195 145
111 195 145
111 195 145
111 195 145
111 195 145
111 195 145
111 195 145
111 195 145
111 195 145
111 195 145
111 195 145
111 195 145
111 195 145
103 174 140
111 195 145
111 195 145
111 195 145
111 195 145
103 174 140
111 195 145
111 195 145
111 195 145
111 195 145
111 195 145
111 195 145
111 195 145
111 195 145
103 174 140
87 139 94
87 139 94
87 139 94
87 139 94
87 139 94
87 139 93
87 139 93
102 174 139
87 138 93
87 138 93
87 138 93
87 138 93
87 138 93
86 138 93
86 138 93
86 138 92
102 174 139
102 174 139
110 195 144
110 195 144
110 195 144
110 195 144
110 195 144
110 195 144
110 195 144
110 195 144
110 195 144
36 62 47
110 195 144
101 174 138
110 195 144
101 174 138
101 174 138
110 195 144
110 195 144
110 195 144
110 195 144
110 195 144
35 61 46
35 61 46
109 195 143
109 195 143
109 195 143
109 195 143
101 173 138
109 195 143
109 195 143
109 195 143
109 195 143
109 195 143
109 195 143
109 195 143
109 195 143
101 173 138
101 173 138
109 195 143
101 173 138
32 54 43
85 137 91
85 137 91
85 137 91
85 137 91
85 137 91
85 137 91
85 137 90
85 137 90
85 137 90
85 137 90
101 173 137
101 173 137
101 173 137
109 195 143
101 173 137
101 173 137
101 173 137
109 195 143
109 195 143
101 173 138
109 195 143
109 195 143
109 195 143
101 173 138
109 195 143
109 195 143
109 195 143
109 195 143
109 195 143
101 173 138
101 173 138
101 173 138
101 173 138
101 173 138
101 173 138
109 195 143
101 173 138
101 173 138
109 195 143
109 195 143
109 195 143
109 195 143
109 195 143
101 173 138
109 195 143
109 195 143
109 195 143
109 195 143
109 195 143
101 173 138
101 173 138
109 195 143
101 173 138
101 173 138
101 173 138
101 173 138
101 173 138
101 173 138
101 174 138
101 174 138
109 195 143
109 195 143
109 195 143
109 195 143
109 195 143
109 195 144
109 195 144
109 195 144
101 174 138
109 195 144
101 174 138
101 174 138
101 174 138
101 174 138
110 195 144
101 174 138
101 174 138
110 195 144
101 174 138
102 174 138
102 174 138
102 174 138
110 195 144
110 195 144
110 195 144
110 195 144
110 195 144
110 195 144
102 174 138
102 174 138
110 195 144
102 174 139
102 174 139
102 174 139
102 174 139
102 174 139
110 195 144
102 174 139
102 174 139
102 174 139
102 174 139
102 174 139
102 174 139
110 195 144
110 195 144
102 174 138
102 174 138
102 174 138
110 195 144
102 174 138
102 174 138
102 174 138
102 174 138
102 174 138
101 174 138
110 195 144
101 174 138
101 174 138
110 195 144
90 156 93
90 156 93
90 156 93
90 156 93
90 156 93
90 156 93
90 156 93
90 156 93
90 156 93
90 156 94
90 156 94
90 156 94
90 156 94
90 156 94
90 156 94
90 156 94
90 156 94
90 156 94
36 62 46
36 61 46
110 195 144
90 156 94
90 156 94
90 156 94
90 156 94
91 156 94
91 156 94
91 156 94
91 156 94
91 156 94
91 156 94
91 156 94
91 156 94
91 156 94
91 156 94
36 62 47
36 62 47
110 195 144
110 195 144
102 174 139
110 195 144
102 174 139
102 174 139
110 195 144
102 174 139
102 174 139
102 174 139
110 195 144
102 174 139
102 174 139
102 174 139
29 44 31
29 45 31
29 45 31
34 56 46
34 56 46
34 56 46
34 56 46
34 56 46
34 56 46
34 56 46
102 174 139
102 174 139
102 174 139
102 174 139
29 45 32
29 45 32
29 45 32
38 63 49
35 57 47
35 57 47
35 57 47
35 57 47
103 174 140
103 174 140
103 174 140
103 174 140
111 195 145
111 195 145
111 195 145
111 195 145
111 195 145
111 195 145
111 195 145
111 195 145
92 156 95
92 156 95
92 156 95
92 156 96
92 156 96
38 64 50
36 58 48
111 195 145
111 195 145
111 195 145
111 195 145
103 174 140
103 174 140
103 174 140
103 174 140
103 174 140
103 174 140
111 195 145
111 195 145
111 195 145
111 195 145
111 195 145
111 195 145
111 195 145
111 195 145
111 195 145
111 195 145
103 174 140
111 195 145
103 174 140
103 174 140
111 195 145
111 195 145
111 195 145
111 195 145
111 195 145
111 195 145
111 195 145
111 195 145
111 195 145
111 195 145
111 195 145
103 174 140
111 195 145
103 174 140
111 195 145
111 195 145
103 174 140
111 195 145
103 174 140
111 195 145
111 195 145
111 195 145
111 195 145
111 195 145
111 195 145
103 174 140
111 195 145
111 195 145
87 139 94
87 139 94
87 139 94
87 139 94
87 139 94
87 139 93
87 139 93
102 174 139
87 138 93
87 138 93
87 138 93
87 138 93
86 138 93
86 138 93
86 138 93
86 138 92
110 195 144
110 195 144
110 195 144
110 195 144
110 195 144
110 195 144
110 195 144
110 195 144
110 195 144
36 62 47
110 195 144
110 195 144
101 174 138
110 195 144
101 174 138
110 195 144
110 195 144
110 195 144
110 195 144
110 195 144
110 195 144
33 55 44
109 195 143
109 195 143
109 195 143
101 173 138
109 195 143
109 195 143
109 195 143
109 195 143
109 195 143
101 173 138
109 195 143
109 195 143
109 195 143
101 173 138
109 195 143
109 195 143
109 195 143
101 173 138
32 54 43
85 137 91
85 137 91
85 137 91
85 137 91
85 137 91
85 137 91
85 137 91
85 137 90
85 137 90
85 137 90
85 137 90
85 137 90
101 173 137
101 173 137
101 173 137
109 195 143
109 195 143
109 195 143
101 173 137
109 195 143
109 195 143
109 195 143
109 195 143
101 173 138
109 195 143
109 195 143
109 195 143
101 173 138
109 195 143
109 195 143
109 195 143
109 195 143
101 173 138
101 173 138
109 195 143
101 173 138
101 173 138
109 195 143
109 195 143
109 195 143
109 195 143
109 195 143
101 173 138
109 195 143
109 195 143
109 195 143
109 195 143
109 195 143
109 195 143
109 195 143
101 173 138
101 173 138
101 173 138
101 173 138
101 173 138
101 173 138
101 173 138
109 195 143
109 195 143
109 195 143
109 195 143
101 174 138
101 174 138
109 195 143
109 195 143
101 174 138
109 195 143
109 195 144
101 174 138
101 174 138
109 195 144
101 174 138
101 174 138
101 174 138
101 174 138
101 174 138
110 195 144
101 174 138
110 195 144
101 174 138
102 174 138
110 195 144
110 195 144
110 195 144
110 195 144
102 174 138
110 195 144
110 195 144
110 195 144
102 174 138
110 195 144
102 174 139
102 174 139
102 174 139
102 174 139
102 174 139
102 174 139
110 195 144
110 195 144
102 174 139
102 174 139
102 174 138
102 174 138
102 174 138
102 174 138
110 195 144
102 174 138
102 174 138
102 174 138
102 174 138
102 174 138
102 174 138
110 195 144
101 174 138
101 174 138
101 174 138
101 174 138
101 174 138
90 156 93
90 156 93
90 156 93
90 156 93
90 156 93
90 156 93
90 156 93
90 156 93
90 156 94
90 156 94
90 156 94
90 156 94
90 156 94
90 156 94
90 156 94
90 156 94
90 156 94
90 156 94
90 156 94
36 61 46
90 156 94
90 156 94
90 156 94
90 156 94
91 156 94
91 156 94
91 156 94
91 156 94
91 156 94
91 156 94
91 156 94
91 156 94
91 156 94
91 156 94
91 156 94
91 156 94
34 56 46
110 195 144
102 174 139
102 174 139
110 195 144
102 174 139
110 195 144
110 195 144
102 174 139
102 174 139
102 174 139
102 174 139
102 174 139
102 174 139
102 174 139
102 174 139
102 174 139
29 45 31
34 56 46
34 56 46
34 56 46
34 56 46
34 56 46
34 56 46
34 56 46
34 56 46
34 56 46
102 174 139
102 174 139
102 174 139
102 174 139
29 45 32
35 57 47
35 57 47
35 57 47
35 57 47
35 57 47
35 57 47
35 57 47
103 174 140
103 174 140
103 174 140
103 174 140
111 195 145
111 195 145
111 195 145
111 195 145
111 195 145
91 156 95
92 156 95
92 156 95
92 156 95
92 156 96
92 156 96
92 156 96
38 64 50
38 64 50
111 195 145
111 195 145
111 195 145
103 174 140
103 174 140
111 195 145
111 195 145
103 174 140
103 174 140
103 174 140
103 174 140
111 195 145
111 195 145
111 195 145
103 174 140
111 195 145
111 195 145
111 195 145
103 174 140
103 174 140
103 174 140
111 195 145
111 195 145
103 174 140
103 174 140
111 195 145
111 195 145
111 195 145
111 195 145
111 195 145
111 195 145
111 195 145
111 195 145
111 195 145
103 174 140
103 174 140
103 174 140
103 174 140
103 174 140
111 195 145
111 195 145
111 195 145
111 195 145
111 195 145
111 195 145
111 195 145
111 195 145
111 195 145
103 174 140
111 195 145
103 174 140
103 174 140
103 174 140
87 139 94
87 139 94
87 139 94
87 139 94
87 139 94
102 174 139
102 174 139
102 174 139
87 138 93
87 138 93
87 138 93
87 138 93
86 138 93
86 138 93
102 174 139
102 174 139
110 195 144
110 195 144
110 195 144
110 195 144
110 195 144
110 195 144
110 195 144
36 62 47
101 174 138
101 174 138
109 195 144
110 195 144
110 195 144
101 174 138
101 174 138
110 195 144
101 174 138
110 195 144
110 195 144
110 195 144
93 159 96
109 195 143
109 195 143
101 173 138
109 195 143
109 195 143
101 173 138
109 195 143
109 195 143
109 195 143
109 195 143
109 195 143
109 195 143
109 195 143
101 173 138
109 195 143
109 195 143
109 195 143
109 195 143
32 54 43
85 137 91
85 137 91
85 137 91
85 137 91
85 137 91
85 137 91
85 137 91
85 137 91
85 137 90
85 137 90
85 137 90
85 137 90
85 137 90
101 173 137
101 173 137
109 195 143
109 195 143
109 195 143
101 173 137
109 195 143
109 195 143
109 195 143
109 195 143
109 195 143
101 173 138
109 195 143
109 195 143
109 195 143
109 195 143
109 195 143
109 195 143
101 173 138
101 173 138
101 173 138
101 173 138
109 195 143
101 173 138
109 195 143
109 195 143
101 173 138
101 173 138
109 195 143
109 195 143
109 195 143
101 173 138
109 195 143
109 195 143
109 195 143
109 195 143
109 195 143
109 195 143
109 195 143
101 173 138
101 173 138
101 173 138
101 173 138
101 173 138
101 173 138
109 195 143
109 195 143
109 195 143
109 195 143
109 195 143
109 195 143
109 195 143
109 195 143
109 195 143
109 195 143
109 195 144
109 195 144
101 174 138
101 174 138
101 174 138
101 174 138
101 174 138
101 174 138
101 174 138
110 195 144
101 174 138
101 174 138
110 195 144
101 174 138
110 195 144
110 195 144
110 195 144
110 195 144
110 195 144
110 195 144
102 174 138
110 195 144
110 195 144
102 174 138
102 174 138
102 174 139
102 174 139
102 174 139
102 174 139
110 195 144
102 174 139
102 174 138
102 174 138
102 174 138
102 174 138
102 174 138
102 174 138
102 174 138
102 174 138
102 174 138
102 174 138
102 174 138
110 195 144
110 195 144
101 174 138
101 174 138
101 174 138
101 174 138
82 134 88
82 134 88
90 156 93
90 156 93
90 156 93
90 156 93
90 156 93
90 156 93
90 156 94
90 156 94
90 156 94
90 156 94
90 156 94
90 156 94
90 156 94
90 156 94
90 156 94
90 156 94
90 156 94
90 156 94
110 195 144
110 195 144
30 50 31
30 50 31
91 156 94
91 156 94
91 156 94
91 156 94
91 156 94
91 156 94
91 156 94
91 156 94
91 156 94
91 156 94
91 156 94
91 156 94
91 156 94
91 156 94
102 174 139
102 174 139
110 195 144
102 174 139
102 174 139
102 174 139
102 174 139
102 174 139
102 174 139
102 174 139
102 174 139
102 174 139
102 174 139
102 174 139
102 174 139
102 174 139
102 174 139
102 174 139
34 56 46
34 56 46
34 56 46
34 56 46
34 56 46
34 56 46
34 56 46
34 56 46
102 174 139
102 174 139
102 174 139
102 174 139
102 174 139
35 57 47
35 57 47
35 57 47
35 57 47
35 57 47
35 57 47
35 57 47
35 57 47
103 174 140
103 174 140
103 174 140
111 195 145
111 195 145
111 195 145
103 174 139
111 195 145
91 156 95
92 156 95
92 156 95
92 156 95
92 156 96
92 156 96
92 156 96
92 156 96
38 64 49
111 195 145
111 195 145
103 174 140
103 174 140
103 174 140
103 174 140
103 174 140
103 174 140
103 174 140
103 174 140
103 174 140
103 174 140
111 195 145
111 195 145
111 195 145
111 195 145
111 195 145
111 195 145
103 174 140
103 174 140
103 174 140
103 174 140
103 174 140
111 195 145
103 174 140
103 174 140
103 174 140
111 195 145
111 195 145
111 195 145
111 195 145
111 195 145
111 195 145
111 195 145
103 174 140
103 174 140
103 174 140
103 174 140
103 174 140
103 174 140
103 174 140
103 174 140
111 195 145
111 195 145
111 195 145
103 174 140
111 195 145
111 195 145
103 174 140
103 174 140
103 174 140
103 174 140
111 195 145
103 174 140
103 174 140
87 139 94
87 139 94
30 46 33
102 174 139
102 174 139
110 195 145
102 174 139
102 174 139
87 138 93
87 138 93
87 138 93
29 45 32
102 174 139
102 174 139
102 174 139
102 174 139
110 195 144
110 195 144
110 195 144
110 195 144
110 195 144
36 62 47
101 174 138
101 174 138
101 174 138
101 174 138
109 195 144
109 195 144
109 195 144
109 195 144
101 174 138
110 195 144
110 195 144
110 195 144
35 61 46
93 159 96
93 159 96
109 195 143
101 173 138
109 195 143
109 195 143
109 195 143
109 195 143
109 195 143
109 195 143
109 195 143
101 173 138
101 173 138
109 195 143
101 173 138
109 195 143
101 173 138
109 195 143
109 195 143
101 173 138
85 137 91
85 137 91
85 137 91
85 137 91
85 137 91
85 137 91
85 137 91
85 137 91
85 137 91
85 137 90
85 137 90
85 137 90
85 137 90
85 137 90
109 195 143
109 195 143
109 195 143
109 195 143
101 173 137
109 195 143
101 173 137
109 195 143
109 195 143
109 195 143
101 173 138
109 195 143
109 195 143
101 173 138
101 173 138
109 195 143
109 195 143
109 195 143
109 195 143
109 195 143
101 173 138
101 173 138
109 195 143
101 173 138
109 195 143
101 173 138
101 173 138
101 173 138
101 173 138
101 173 138
109 195 143
109 195 143
109 195 143
109 195 143
101 173 138
109 195 143
109 195 143
101 173 138
109 195 143
109 195 143
109 195 143
101 173 138
101 173 138
101 173 138
101 173 138
109 195 143
101 173 138
109 195 143
109 195 143
109 195 143
109 195 143
109 195 143
109 195 143
109 195 143
109 195 143
109 195 143
109 195 144
109 195 144
109 195 144
101 174 138
101 174 138
101 174 138
109 195 144
101 174 138
101 174 138
101 174 138
110 195 144
110 195 144
110 195 144
101 174 138
110 195 144
110 195 144
110 195 144
110 195 144
110 195 144
110 195 144
110 195 144
110 195 144
110 195 144
102 174 138
102 174 138
102 174 139
102 174 139
110 195 144
110 195 144
102 174 138
102 174 138
102 174 138
102 174 138
102 174 138
102 174 138
102 174 138
102 174 138
102 174 138
110 195 144
110 195 144
110 195 144
101 174 138
101 174 138
110 195 144
82 134 88
82 134 88
82 134 88
82 134 88
82 134 88
90 156 93
90 156 93
90 156 93
90 156 94
90 156 94
90 156 94
90 156 94
90 156 94
90 156 94
90 156 94
90 156 94
90 156 94
90 156 94
90 156 94
90 156 94
90 156 94
102 174 139
110 195 144
102 174 138
30 50 32
30 50 32
30 50 32
30 50 32
30 50 32
30 50 32
30 50 32
30 50 32
91 156 94
91 156 94
91 156 94
91 156 94
91 156 94
91 156 94
91 156 94
110 195 144
110 195 144
102 174 139
102 174 139
102 174 139
102 174 139
102 174 139
102 174 139
102 174 139
102 174 139
102 174 139
102 174 139
102 174 139
102 174 139
110 195 144
102 174 139
102 174 139
102 174 139
102 174 139
34 56 46
34 56 46
34 56 46
34 56 46
34 56 46
34 56 46
34 56 46
102 174 139
102 174 139
102 174 139
102 174 139
102 174 139
102 174 139
102 174 139
35 57 47
37 63 49
35 57 47
35 57 47
35 57 47
35 57 47
103 174 140
103 174 140
103 174 140
111 195 145
103 174 139
103 174 139
111 195 145
91 156 95
92 156 95
92 156 95
92 156 95
92 156 95
92 156 96
92 156 96
92 156 96
92 156 96
92 157 96
38 64 49
111 195 145
103 174 140
103 174 140
103 174 140
103 174 140
103 174 140
103 174 140
103 174 140
103 174 140
103 174 140
111 195 145
103 174 140
103 174 140
111 195 145
111 195 145
111 195 145
111 195 145
103 174 140
111 195 145
111 195 145
103 174 140
103 174 140
111 195 145
103 174 140
103 174 140
103 174 140
103 174 140
103 174 140
111 195 145
111 195 145
111 195 145
111 195 145
103 174 140
103 174 140
103 174 140
103 174 140
103 174 140
111 195 145
103 174 140
103 174 140
103 174 140
111 195 145
111 195 145
111 195 145
111 195 145
111 195 145
111 195 145
111 195 145
103 174 140
103 174 140
103 174 140
103 174 140
111 195 145
103 174 140
103 174 140
103 174 140
102 174 139
102 174 139
102 174 139
102 174 139
102 174 139
102 174 139
102 174 139
102 174 139
87 138 93
102 174 139
102 174 139
102 174 139
102 174 139
102 174 139
102 174 139
102 174 139
110 195 144
110 195 144
36 62 47
36 62 47
101 174 138
101 174 138
101 174 138
109 195 144
101 174 138
101 174 138
109 195 144
109 195 144
109 195 144
109 195 144
109 195 144
109 195 144
109 195 144
33 54 44
93 159 96
93 159 96
93 159 96
109 195 143
109 195 143
109 195 143
109 195 143
101 173 138
109 195 143
109 195 143
109 195 143
101 173 138
109 195 143
101 173 138
101 173 138
109 195 143
101 173 138
109 195 143
101 173 138
101 173 138
109 195 143
85 137 91
85 137 91
85 137 91
85 137 91
85 137 91
85 137 91
85 137 91
85 137 91
85 137 91
85 137 90
85 137 90
85 137 90
85 137 90
93 159 96
93 159 96
101 173 137
109 195 143
101 173 137
109 195 143
109 195 143
109 195 143
109 195 143
109 195 143
109 195 143
109 195 143
101 173 138
109 195 143
109 195 143
109 195 143
109 195 143
101 173 138
109 195 143
109 195 143
109 195 143
109 195 143
109 195 143
109 195 143
109 195 143
109 195 143
109 195 143
109 195 143
101 173 138
109 195 143
109 195 143
109 195 143
109 195 143
109 195 143
109 195 143
109 195 143
101 173 138
109 195 143
101 173 138
109 195 143
109 195 143
101 173 138
109 195 143
109 195 143
101 173 138
109 195 143
109 195 143
109 195 143
109 195 143
109 195 143
109 195 143
101 174 138
109 195 143
109 195 143
109 195 143
101 174 138
109 195 143
109 195 143
109 195 144
109 195 144
109 195 144
101 174 138
101 174 138
101 174 138
101 174 138
109 195 144
101 174 138
110 195 144
110 195 144
101 174 138
101 174 138
110 195 144
110 195 144
110 195 144
110 195 144
110 195 144
110 195 144
110 195 144
110 195 144
110 195 144
110 195 144
102 174 138
102 174 139
102 174 138
110 195 144
102 174 138
110 195 144
102 174 138
102 174 138
102 174 138
102 174 138
102 174 138
102 174 138
101 174 138
101 174 138
110 195 144
101 174 138
110 195 144
82 134 88
82 134 88
82 134 88
82 134 88
82 134 88
82 134 88
82 134 88
90 156 93
90 156 94
90 156 94
90 156 94
90 156 94
90 156 94
90 156 94
90 156 94
90 156 94
90 156 94
90 156 94
90 156 94
90 156 94
90 156 94
110 195 144
110 195 144
110 195 144
110 195 144
110 195 144
30 50 32
30 50 32
30 50 32
30 50 32
30 50 32
30 50 32
30 50 32
30 50 32
30 50 32
30 50 32
30 50 32
30 50 32
30 50 32
110 195 144
110 195 144
110 195 144
110 195 144
102 174 139
102 174 139
102 174 139
102 174 139
102 174 139
110 195 144
110 195 144
102 174 139
102 174 139
102 174 139
102 174 139
102 174 139
102 174 139
102 174 139
102 174 139
82 134 89
83 134 89
34 56 46
34 56 46
34 56 46
34 56 46
34 56 46
34 56 46
34 56 46
102 174 139
102 174 139
102 174 139
102 174 139
102 174 139
102 174 139
83 135 89
35 57 47
35 57 47
37 63 49
35 57 47
35 57 47
35 57 47
103 174 140
103 174 139
103 174 139
103 174 139
103 174 139
103 174 139
103 174 139
32 51 34
32 52 34
92 156 95
92 156 96
92 156 96
92 156 96
92 156 96
92 156 96
92 157 96
92 157 96
111 195 145
103 174 140
103 174 140
103 174 140
103 174 140
103 174 140
111 195 145
103 174 140
103 174 140
103 174 140
103 174 140
103 174 140
103 174 140
103 174 140
103 174 140
111 195 145
103 174 140
103 174 140
103 174 140
111 195 145
103 174 140
103 174 140
103 174 140
103 174 140
103 174 140
103 174 140
103 174 140
103 174 140
103 174 140
111 195 145
111 195 145
111 195 145
103 174 140
103 174 140
103 174 140
103 174 140
103 174 140
103 174 140
103 174 140
111 195 145
103 174 140
103 174 140
103 174 140
103 174 140
111 195 145
111 195 145
111 195 145
111 195 145
103 174 140
103 174 140
103 174 140
111 195 145
103 174 140
111 195 145
103 174 140
103 174 140
102 174 139
102 174 139
102 174 139
102 174 139
102 174 139
102 174 139
102 174 139
110 195 145
102 174 139
102 174 139
102 174 139
102 174 139
102 174 139
102 174 139
102 174 139
102 174 139
102 174 139
102 174 139
36 62 47
36 62 47
109 195 144
101 174 138
101 174 138
101 174 138
101 174 138
101 174 138
101 174 138
101 174 138
109 195 144
109 195 144
109 195 144
109 195 144
109 195 144
109 195 144
35 61 46
93 159 96
93 159 96
93 159 96
93 159 96
109 195 143
101 173 138
109 195 143
109 195 143
101 173 138
109 195 143
101 173 138
109 195 143
101 173 138
109 195 143
109 195 143
101 173 138
109 195 143
101 173 138
109 195 143
101 173 138
101 173 138
109 195 143
109 195 143
85 137 91
85 137 91
85 137 91
85 137 91
85 137 91
85 137 91
85 137 91
85 137 91
85 137 90
85 137 90
85 137 90
93 159 96
93 159 96
93 159 96
109 195 143
109 195 143
109 195 143
109 195 143
109 195 143
109 195 143
109 195 143
101 173 137
109 195 143
109 195 143
109 195 143
109 195 143
109 195 143
109 195 143
109 195 143
109 195 143
109 195 143
109 195 143
101 173 138
101 173 138
109 195 143
109 195 143
109 195 143
109 195 143
109 195 143
101 173 138
109 195 143
109 195 143
109 195 143
109 195 143
101 173 138
109 195 143
101 173 138
109 195 143
109 195 143
109 195 143
109 195 143
101 173 138
109 195 143
101 173 138
109 195 143
109 195 143
109 195 143
109 195 143
109 195 143
109 195 143
101 173 138
109 195 143
109 195 143
109 195 143
109 195 143
109 195 143
109 195 143
109 195 143
109 195 143
109 195 143
109 195 144
101 174 138
101 174 138
109 195 144
101 174 138
101 174 138
101 174 138
109 195 144
110 195 144
101 174 138
110 195 144
101 174 138
110 195 144
110 195 144
110 195 144
110 195 144
110 195 144
110 195 144
110 195 144
110 195 144
102 174 138
110 195 144
110 195 144
110 195 144
110 195 144
110 195 144
102 174 138
102 174 138
102 174 138
102 174 138
102 174 138
102 174 138
110 195 144
101 174 138
101 174 138
101 174 138
101 174 138
82 134 88
82 134 88
82 134 88
82 134 88
82 134 88
82 134 88
82 134 88
82 134 88
82 134 88
82 134 88
90 156 94
90 156 94
90 156 94
90 156 94
90 156 94
90 156 94
90 156 94
90 156 94
90 156 94
90 156 94
90 156 94
102 174 139
102 174 139
110 195 144
110 195 144
110 195 144
102 174 138
110 195 144
110 195 144
30 50 32
30 50 32
30 50 32
30 50 32
30 50 32
30 50 32
30 50 32
30 50 32
30 50 32
30 50 32
36 62 47
36 62 47
34 56 45
110 195 144
110 195 144
110 195 144
110 195 144
102 174 139
102 174 139
110 195 144
102 174 139
102 174 139
102 174 139
102 174 139
102 174 139
102 174 139
102 174 139
110 195 144
102 174 139
110 195 144
82 134 89
83 134 89
83 134 89
83 134 89
34 56 46
34 56 46
34 56 46
34 56 46
34 56 46
102 174 139
102 174 139
102 174 139
102 174 139
102 174 139
83 135 89
83 135 89
83 135 89
35 57 47
35 57 47
35 57 47
35 57 47
35 57 47
111 195 145
103 174 139
111 195 145
103 174 139
103 174 139
111 195 145
111 195 145
111 195 145
111 195 145
32 52 34
32 52 34
32 52 34
32 52 34
32 52 34
92 156 96
92 157 96
92 157 96
111 195 145
111 195 145
111 195 145
111 195 145
103 174 140
103 174 140
103 174 140
111 195 145
103 174 140
103 174 140
103 174 140
111 195 145
111 195 145
103 174 140
103 174 140
103 174 140
111 195 145
103 174 140
103 174 140
103 174 140
103 174 140
103 174 140
103 174 140
103 174 140
103 174 140
103 174 140
103 174 140
103 174 140
111 195 145
103 174 140
103 174 140
111 195 145
103 174 140
111 195 145
103 174 140
103 174 140
103 174 140
103 174 140
103 174 140
103 174 140
103 174 140
103 174 140
103 174 140
103 174 140
103 174 140
111 195 145
111 195 145
111 195 145
103 174 140
103 174 140
103 174 140
103 174 140
111 195 145
111 195 145
103 174 140
103 174 140
102 174 139
102 174 139
102 174 139
102 174 139
102 174 139
102 174 139
102 174 139
102 174 139
102 174 139
102 174 139
102 174 139
102 174 139
102 174 139
102 174 139
102 174 139
102 174 139
102 174 139
102 174 139
33 55 45
33 55 45
101 174 138
101 174 138
109 195 144
101 174 138
101 174 138
101 174 138
101 174 138
101 174 138
101 174 138
109 195 144
101 174 138
109 195 144
109 195 144
109 195 144
109 195 144
93 159 96
93 159 96
93 159 96
93 159 96
93 159 96
93 159 96
109 195 143
109 195 143
109 195 143
109 195 143
109 195 143
101 173 138
109 195 143
109 195 143
109 195 143
109 195 143
109 195 143
109 195 143
101 173 138
101 173 138
101 173 138
109 195 143
101 173 138
109 195 143
101 173 138
85 137 91
85 137 91
85 137 91
85 137 91
85 137 91
85 137 91
85 137 91
85 137 91
85 137 90
93 159 96
93 159 96
93 159 96
93 159 96
93 159 96
109 195 143
101 173 137
109 195 143
101 173 137
109 195 143
109 195 143
101 173 137
101 173 137
109 195 143
109 195 143
109 195 143
101 173 137
101 173 138
101 173 138
109 195 143
109 195 143
101 173 138
109 195 143
101 173 138
101 173 138
101 173 138
109 195 143
109 195 143
109 195 143
101 173 138
109 195 143
109 195 143
109 195 143
109 195 143
109 195 143
109 195 143
109 195 143
109 195 143
109 195 143
109 195 143
101 173 138
109 195 143
109 195 143
101 173 138
109 195 143
109 195 143
109 195 143
101 173 138
101 173 138
109 195 143
109 195 143
109 195 143
109 195 143
101 173 138
109 195 143
109 195 143
109 195 143
109 195 143
109 195 143
109 195 143
109 195 143
109 195 143
109 195 144
109 195 144
109 195 144
109 195 144
101 174 138
109 195 144
109 195 144
109 195 144
110 195 144
110 195 144
110 195 144
110 195 144
101 174 138
101 174 138
110 195 144
102 174 138
110 195 144
110 195 144
110 195 144
110 195 144
110 195 144
110 195 144
110 195 144
110 195 144
102 174 138
102 174 138
102 174 138
102 174 138
110 195 144
101 174 138
101 174 138
101 174 138
101 174 138
82 134 88
82 134 88
82 134 88
82 134 88
82 134 88
82 134 88
82 134 88
82 134 88
82 134 88
82 134 88
82 134 88
82 134 88
90 156 94
90 156 94
90 156 94
90 156 94
90 156 94
90 156 94
90 156 94
90 156 94
90 156 94
102 174 139
110 195 144
102 174 139
110 195 144
110 195 144
110 195 144
102 174 138
102 174 138
102 174 138
102 174 138
30 50 32
30 50 32
30 50 32
30 50 32
30 50 32
30 50 32
30 50 32
30 50 32
30 50 32
36 62 47
34 56 45
36 62 47
36 62 47
102 174 139
110 195 144
110 195 144
110 195 144
102 174 139
102 174 139
102 174 139
102 174 139
102 174 139
102 174 139
102 174 139
102 174 139
110 195 144
102 174 139
110 195 144
82 134 89
83 134 89
83 134 89
83 134 89
83 134 89
83 135 89
34 56 46
34 56 46
34 56 46
34 56 46
102 174 139
102 174 139
102 174 139
102 174 139
102 174 139
83 135 89
83 135 89
83 135 89
83 135 89
83 135 89
35 57 47
35 57 47
35 57 47
35 57 47
103 174 139
103 174 139
103 174 139
103 174 139
111 195 145
111 195 145
111 195 145
111 195 145
110 195 145
32 52 34
32 52 34
32 52 34
32 52 34
32 52 34
32 52 34
38 64 49
38 64 49
111 195 145
111 195 145
111 195 145
103 174 140
103 174 140
103 174 140
103 174 140
103 174 140
103 174 140
103 174 140
111 195 145
103 174 140
103 174 140
103 174 140
111 195 145
111 195 145
111 195 145
111 195 145
103 174 140
103 174 140
111 195 145
103 174 140
103 174 140
103 174 140
103 174 140
103 174 140
103 174 140
111 195 145
103 174 140
103 174 140
103 174 140
111 195 145
103 174 140
103 174 140
103 174 140
111 195 145
103 174 140
103 174 140
103 174 140
103 174 140
103 174 140
103 174 140
103 174 140
103 174 140
103 174 140
103 174 140
103 174 140
103 174 140
103 174 140
103 174 140
103 174 140
103 174 140
103 174 140
103 174 140
103 174 140
102 174 139
102 174 139
102 174 139
102 174 139
102 174 139
102 174 139
102 174 139
102 174 139
110 195 144
102 174 139
102 174 139
102 174 139
102 174 139
102 174 139
102 174 139
102 174 139
102 174 139
102 174 139
33 55 45
33 55 45
101 174 138
101 174 138
109 195 143
101 174 138
109 195 143
109 195 144
109 195 144
101 174 138
101 174 138
109 195 144
109 195 144
101 174 138
101 174 138
109 195 144
101 174 138
109 195 144
93 159 97
93 159 96
93 159 96
93 159 96
93 159 96
93 159 96
93 159 96
93 159 96
109 195 143
109 195 143
109 195 143
109 195 143
109 195 143
109 195 143
109 195 143
109 195 143
101 173 138
109 195 143
101 173 138
101 173 138
101 173 138
109 195 143
101 173 138
101 173 138
101 173 138
101 173 138
85 137 91
85 137 91
85 137 91
85 137 91
85 137 91
85 137 91
85 137 91
85 137 91
93 159 96
93 159 96
93 159 96
93 159 96
93 159 96
93 159 96
93 159 96
109 195 143
109 195 143
109 195 143
109 195 143
109 195 143
109 195 143
109 195 143
101 173 137
109 195 143
101 173 137
109 195 143
109 195 143
109 195 143
101 173 138
109 195 143
101 173 138
101 173 138
101 173 138
101 173 138
101 173 138
101 173 138
109 195 143
109 195 143
101 173 138
109 195 143
109 195 143
101 173 138
109 195 143
109 195 143
101 173 138
109 195 143
109 195 143
109 195 143
109 195 143
109 195 143
109 195 143
101 173 138
101 173 138
101 173 138
101 173 138
109 195 143
109 195 143
101 173 138
109 195 143
101 173 138
109 195 143
109 195 143
109 195 143
109 195 143
109 195 143
109 195 143
109 195 143
101 174 138
109 195 143
109 195 143
109 195 143
101 174 138
101 174 138
101 174 138
101 174 138
101 174 138
109 195 144
109 195 144
109 195 144
101 174 138
110 195 144
110 195 144
110 195 144
110 195 144
110 195 144
102 174 138
110 195 144
110 195 144
110 195 144
110 195 144
110 195 144
110 195 144
110 195 144
110 195 144
110 195 144
102 174 138
102 174 138
101 174 138
101 174 138
101 174 138
101 174 138
82 134 88
82 134 88
82 134 88
82 134 88
82 134 88
82 134 88
82 134 88
82 134 88
82 134 88
82 134 88
82 134 88
82 134 88
82 134 88
82 134 88
82 134 88
90 156 94
90 156 94
90 156 94
90 156 94
90 156 94
90 156 94
90 156 94
110 195 144
110 195 144
110 195 144
110 195 144
110 195 144
110 195 144
110 195 144
110 195 144
110 195 144
110 195 144
110 195 144
110 195 144
30 50 32
30 50 32
30 50 32
30 50 32
30 50 32
30 50 32
36 62 47
36 62 47
36 62 47
36 62 47
34 55 45
36 62 47
36 62 47
102 174 139
110 195 144
110 195 144
110 195 144
102 174 139
110 195 144
102 174 139
102 174 139
102 174 139
102 174 139
102 174 139
102 174 139
82 134 89
82 134 89
83 134 89
83 134 89
83 134 89
83 134 89
83 135 89
83 135 89
34 56 46
34 56 46
34 56 46
34 56 46
102 174 139
102 174 139
102 174 139
83 135 89
83 135 89
83 135 89
83 135 89
83 135 89
83 135 89
83 135 89
35 57 47
35 57 47
35 57 47
103 174 139
103 174 139
103 174 139
103 174 139
111 195 145
111 195 145
111 195 145
110 195 145
110 195 145
103 174 139
110 195 145
32 52 34
32 52 34
32 52 34
32 52 34
35 57 48
38 64 49
38 64 49
111 195 145
111 195 145
103 174 140
111 195 145
103 174 140
103 174 140
103 174 140
103 174 140
111 195 145
111 195 145
103 174 140
103 174 140
103 174 140
111 195 145
111 195 145
111 195 145
111 195 145
111 195 145
111 195 145
103 174 140
103 174 140
103 174 140
103 174 140
103 174 140
103 174 140
103 174 140
111 195 145
103 174 140
103 174 140
111 195 145
111 195 145
111 195 145
111 195 145
103 174 140
103 174 140
103 174 140
103 174 140
103 174 140
103 174 140
103 174 140
103 174 140
103 174 140
103 174 140
103 174 140
103 174 140
111 195 145
111 195 145
111 195 145
103 174 140
103 174 140
103 174 140
103 174 140
103 174 140
103 174 140
110 195 144
102 174 139
102 174 139
102 174 139
110 195 144
102 174 139
102 174 139
102 174 139
102 174 139
102 174 139
102 174 139
102 174 139
102 174 139
102 174 139
102 174 139
102 174 139
102 174 139
102 174 139
102 174 139
33 55 45
101 174 138
101 174 138
109 195 143
101 174 138
101 174 138
101 174 138
101 174 138
101 174 138
101 174 138
101 174 138
101 174 138
101 174 138
101 174 138
101 174 138
101 174 138
109 195 144
109 195 144
93 159 97
93 159 97
93 159 96
93 159 96
93 159 96
93 159 96
93 159 96
93 159 96
93 159 96
109 195 143
109 195 143
109 195 143
109 195 143
109 195 143
109 195 143
101 173 138
101 173 138
101 173 138
101 173 138
101 173 138
101 173 138
109 195 143
101 173 138
101 173 138
101 173 138
101 173 138
101 173 138
101 173 138
85 137 91
85 137 91
85 137 91
85 137 91
85 137 91
85 137 91
93 159 96
93 159 96
93 159 96
93 159 96
93 159 96
93 159 96
93 159 96
93 159 96
109 195 143
109 195 143
109 195 143
109 195 143
109 195 143
109 195 143
109 195 143
109 195 143
109 195 143
109 195 143
109 195 143
101 173 137
101 173 137
101 173 138
101 173 138
101 173 138
101 173 138
109 195 143
109 195 143
109 195 143
109 195 143
109 195 143
109 195 143
109 195 143
109 195 143
109 195 143
109 195 143
101 173 138
109 195 143
109 195 143
109 195 143
109 195 143
109 195 143
109 195 143
109 195 143
101 173 138
101 173 138
101 173 138
101 173 138
101 173 138
109 195 143
109 195 143
109 195 143
109 195 143
109 195 143
109 195 143
101 173 138
101 173 138
109 195 143
109 195 143
109 195 143
109 195 143
109 195 143
109 195 143
109 195 143
109 195 143
101 174 138
109 195 144
101 174 138
101 174 138
109 195 144
109 195 144
109 195 144
109 195 144
109 195 144
101 174 138
110 195 144
110 195 144
110 195 144
110 195 144
110 195 144
110 195 144
110 195 144
110 195 144
110 195 144
110 195 144
110 195 144
110 195 144
110 195 144
101 174 138
101 174 138
101 174 138
110 195 144
82 134 88
82 134 88
82 134 88
82 134 88
82 134 88
82 134 88
82 134 88
82 134 88
82 134 88
82 134 88
82 134 88
82 134 88
82 134 88
82 134 88
82 134 88
82 134 88
82 134 88
90 156 94
90 156 94
90 156 94
90 156 94
90 156 94
110 195 144
102 174 139
110 195 144
110 195 144
110 195 144
110 195 144
110 195 144
102 174 138
110 195 144
110 195 144
110 195 144
110 195 144
110 195 144
102 174 138
30 50 32
30 50 32
30 50 32
30 50 32
36 62 47
34 56 45
36 62 47
34 56 45
36 62 47
34 55 45
36 62 47
34 55 45
33 55 45
102 174 139
110 195 144
102 174 139
110 195 144
110 195 144
110 195 144
110 195 144
102 174 139
110 195 144
102 174 139
102 174 139
82 134 89
82 134 89
83 134 89
83 134 89
83 134 89
83 134 89
83 135 89
83 135 89
83 135 89
83 135 89
34 56 46
34 56 46
102 174 139
102 174 139
102 174 139
83 135 89
83 135 89
83 135 89
83 135 89
83 135 89
83 135 89
83 135 90
83 135 90
35 57 47
35 57 47
111 195 145
103 174 139
103 174 139
111 195 145
111 195 145
110 195 145
110 195 145
110 195 145
110 195 145
110 195 145
110 195 145
110 195 145
110 195 145
32 52 34
32 52 34
38 64 49
38 64 49
38 64 49
38 64 49
38 64 49
111 195 145
111 195 145
111 195 145
111 195 145
103 174 140
103 174 140
103 174 140
103 174 140
103 174 140
103 174 140
103 174 140
111 195 145
111 195 145
111 195 145
111 195 145
111 195 145
111 195 145
111 195 145
103 174 140
103 174 140
103 174 140
103 174 140
103 174 140
103 174 140
103 174 140
103 174 140
111 195 145
111 195 145
111 195 145
111 195 145
111 195 145
111 195 145
111 195 145
103 174 140
103 174 140
103 174 140
103 174 140
103 174 140
103 174 140
103 174 140
103 174 140
103 174 140
103 174 140
111 195 145
111 195 145
103 174 140
111 195 145
111 195 145
103 174 140
103 174 140
111 195 145
35 57 47
102 174 139
110 195 144
110 195 144
102 174 139
102 174 139
102 174 139
102 174 139
102 174 139
102 174 139
102 174 139
102 174 139
102 174 139
102 174 139
102 174 139
102 174 139
102 174 139
102 174 139
102 174 139
102 174 139
101 174 138
101 174 138
109 195 143
109 195 143
101 174 138
101 174 138
101 174 138
101 174 138
101 174 138
101 174 138
101 174 138
101 174 138
101 174 138
101 174 138
101 174 138
101 174 138
101 174 138
101 174 138
109 195 144
94 159 97
93 159 97
93 159 97
93 159 96
93 159 96
93 159 96
93 159 96
93 159 96
93 159 96
93 159 96
109 195 143
109 195 143
109 195 143
109 195 143
101 173 138
101 173 138
109 195 143
101 173 138
101 173 138
101 173 138
101 173 138
101 173 138
101 173 138
109 195 143
109 195 143
109 195 143
101 173 138
101 173 138
101 173 138
85 137 91
85 137 91
85 137 91
85 137 91
85 137 91
93 159 96
93 159 96
93 159 96
93 159 96
93 159 96
93 159 96
93 159 96
93 159 96
93 159 96
109 195 143
109 195 143
109 195 143
109 195 143
109 195 143
101 173 137
109 195 143
109 195 143
109 195 143
101 173 137
101 173 137
101 173 137
109 195 143
109 195 143
101 173 138
101 173 138
101 173 138
101 173 138
109 195 143
109 195 143
101 173 138
109 195 143
101 173 138
109 195 143
109 195 143
109 195 143
109 195 143
101 173 138
109 195 143
109 195 143
109 195 143
109 195 143
101 173 138
101 173 138
101 173 138
101 173 138
101 173 138
101 173 138
101 173 138
109 195 143
109 195 143
109 195 143
101 173 138
109 195 143
109 195 143
109 195 143
109 195 143
109 195 143
109 195 143
109 195 143
109 195 143
109 195 143
101 174 138
109 195 143
109 195 143
101 174 138
101 174 138
101 174 138
101 174 138
101 174 138
109 195 144
109 195 144
109 195 144
109 195 144
109 195 144
109 195 144
110 195 144
110 195 144
101 174 138
101 174 138
110 195 144
110 195 144
110 195 144
110 195 144
110 195 144
102 174 138
110 195 144
101 174 138
101 174 138
101 174 138
101 174 138
82 134 88
82 134 88
82 134 88
82 134 88
82 134 88
82 134 88
82 134 88
82 134 88
82 134 88
82 134 88
82 134 88
82 134 88
82 134 88
82 134 88
82 134 88
82 134 88
82 134 88
82 134 88
90 156 94
90 156 94
90 156 94
110 195 144
110 195 144
102 174 139
110 195 144
110 195 144
110 195 144
102 174 138
102 174 138
110 195 144
102 174 138
110 195 144
110 195 144
110 195 144
110 195 144
110 195 144
110 195 144
110 195 144
30 50 32
30 50 32
34 56 45
36 62 47
36 62 47
36 62 47
34 55 45
36 62 47
36 62 47
36 62 47
36 62 47
36 62 47
110 195 144
102 174 139
110 195 144
102 174 139
102 174 139
102 174 139
102 174 139
102 174 139
110 195 144
82 134 89
82 134 89
83 134 89
83 134 89
83 134 89
83 134 89
83 135 89
83 135 89
83 135 89
83 135 89
83 135 89
83 135 89
34 56 46
34 56 46
102 174 139
83 135 89
83 135 89
83 135 89
83 135 89
83 135 89
83 135 89
83 135 89
83 135 90
83 135 90
83 135 90
35 57 47
35 57 47
103 174 139
111 195 145
111 195 145
110 195 145
110 195 145
110 195 145
110 195 145
110 195 145
110 195 145
102 174 139
102 174 139
110 195 145
102 174 139
38 64 49
38 64 49
35 57 48
38 64 49
38 64 49
38 64 49
38 64 49
38 64 49
111 195 145
111 195 145
111 195 145
111 195 145
103 174 140
103 174 140
103 174 140
103 174 140
111 195 145
111 195 145
111 195 145
111 195 145
111 195 145
111 195 145
111 195 145
111 195 145
103 174 140
111 195 145
103 174 140
103 174 140
103 174 140
111 195 145
103 174 140
103 174 140
103 174 140
111 195 145
111 195 145
111 195 145
103 174 140
111 195 145
111 195 145
103 174 140
111 195 145
103 174 140
103 174 140
103 174 140
103 174 140
111 195 145
103 174 140
111 195 145
103 174 140
111 195 145
111 195 145
111 195 145
111 195 145
111 195 145
111 195 145
111 195 145
103 174 140
110 195 144
110 195 144
110 195 144
110 195 144
110 195 144
102 174 139
102 174 139
102 174 139
102 174 139
102 174 139
102 174 139
102 174 139
86 138 92
102 174 139
102 174 139
102 174 139
102 174 139
102 174 139
102 174 139
102 174 139
102 174 139
85 138 91
101 174 138
101 174 138
101 174 138
109 195 143
109 195 143
101 174 138
109 195 143
101 174 138
101 174 138
101 174 138
109 195 143
101 174 138
101 174 138
101 174 138
109 195 143
109 195 143
101 174 138
101 174 138
94 159 97
94 159 97
93 159 97
93 159 97
93 159 96
93 159 96
93 159 96
93 159 96
93 159 96
93 159 96
93 159 96
109 195 143
109 195 143
109 195 143
101 173 138
109 195 143
101 173 138
109 195 143
101 173 138
101 173 138
101 173 138
109 195 143
101 173 138
101 173 138
101 173 138
101 173 138
101 173 138
101 173 138
109 195 143
109 195 143
85 137 91
85 137 91
85 137 91
93 159 96
93 159 96
93 159 96
93 159 96
93 159 96
93 159 96
93 159 96
93 159 96
93 159 96
93 159 96
93 159 96
93 159 96
109 195 143
101 173 137
109 195 143
109 195 143
101 173 137
101 173 137
109 195 143
101 173 137
101 173 137
101 173 137
101 173 137
101 173 137
101 173 137
109 195 143
109 195 143
109 195 143
101 173 138
101 173 138
101 173 138
101 173 138
109 195 143
101 173 138
101 173 138
109 195 143
109 195 143
109 195 143
109 195 143
109 195 143
109 195 143
101 173 138
109 195 143
101 173 138
101 173 138
101 173 138
109 195 143
101 173 138
101 173 138
109 195 143
101 173 138
109 195 143
109 195 143
109 195 143
109 195 143
101 173 138
101 173 138
109 195 143
101 173 138
109 195 143
109 195 143
109 195 143
109 195 143
109 195 143
101 174 138
101 174 138
101 174 138
101 174 138
109 195 143
101 174 138
101 174 138
109 195 144
109 195 144
109 195 144
109 195 144
109 195 144
109 195 144
109 195 144
110 195 144
110 195 144
110 195 144
110 195 144
101 174 138
110 195 144
102 174 138
110 195 144
101 174 138
110 195 144
101 174 138
82 134 88
82 134 88
82 134 88
82 134 88
82 134 88
82 134 88
82 134 88
82 134 88
82 134 88
82 134 88
82 134 88
82 134 88
82 134 88
82 134 88
82 134 88
82 134 88
82 134 88
82 134 88
82 134 88
82 134 88
82 134 88
102 174 139
110 195 144
110 195 144
110 195 144
110 195 144
110 195 144
110 195 144
110 195 144
110 195 144
110 195 144
110 195 144
110 195 144
110 195 144
102 174 138
110 195 144
110 195 144
110 195 144
110 195 144
110 195 144
36 62 47
36 62 47
36 62 47
36 62 47
36 62 47
36 62 47
36 62 47
36 62 47
36 62 47
36 62 47
33 55 45
102 174 139
110 195 144
102 174 139
102 174 139
110 195 144
110 195 144
102 174 139
102 174 139
82 134 89
82 134 89
82 134 89
83 134 89
83 134 89
83 134 89
83 134 89
83 135 89
83 135 89
83 135 89
83 135 89
83 135 89
83 135 89
83 135 89
34 56 46
102 174 139
83 135 89
83 135 89
83 135 89
83 135 89
83 135 89
83 135 89
83 135 89
83 135 90
83 135 90
83 135 90
83 135 90
83 135 90
111 195 145
110 195 145
103 174 139
110 195 145
110 195 145
110 195 145
110 195 145
110 195 145
110 195 145
110 195 145
110 195 145
110 195 145
110 195 145
102 174 139
110 195 145
38 64 49
38 64 49
35 57 47
38 64 49
38 64 49
35 57 47
38 64 49
103 174 140
111 195 145
103 174 140
111 195 145
103 174 140
103 174 140
103 174 140
111 195 145
103 174 140
111 195 145
111 195 145
103 174 140
111 195 145
103 174 140
111 195 145
111 195 145
111 195 145
111 195 145
111 195 145
103 174 140
103 174 140
103 174 140
103 174 140
111 195 145
111 195 145
103 174 140
103 174 140
111 195 145
111 195 145
111 195 145
111 195 145
103 174 140
111 195 145
111 195 145
103 174 140
103 174 140
103 174 140
103 174 140
103 174 140
111 195 145
103 174 140
111 195 145
111 195 145
111 195 145
111 195 145
111 195 145
111 195 145
111 195 145
110 195 144
110 195 144
110 195 144
110 195 144
110 195 144
110 195 144
102 174 139
102 174 139
102 174 139
102 174 139
102 174 139
110 195 144
86 138 92
86 138 92
86 138 92
102 174 139
102 174 139
102 174 139
102 174 139
102 174 139
102 174 139
102 174 139
85 138 91
85 138 91
101 173 138
101 173 138
109 195 143
101 174 138
101 174 138
101 174 138
101 174 138
101 174 138
101 174 138
101 174 138
109 195 143
109 195 143
109 195 143
101 174 138
101 174 138
101 174 138
109 195 143
109 195 143
94 159 97
93 159 97
93 159 97
93 159 97
93 159 96
93 159 96
93 159 96
93 159 96
93 159 96
93 159 96
93 159 96
109 195 143
109 195 143
101 173 138
109 195 143
101 173 138
109 195 143
101 173 138
109 195 143
101 173 138
101 173 138
101 173 138
101 173 138
109 195 143
101 173 138
109 195 143
109 195 143
101 173 138
101 173 138
101 173 138
85 137 91
85 137 91
93 159 96
93 159 96
93 159 96
93 159 96
93 159 96
93 159 96
93 159 96
93 159 96
93 159 96
93 159 96
93 159 96
93 159 96
93 159 96
101 173 137
109 195 143
109 195 143
109 195 143
109 195 143
101 173 137
101 173 137
101 173 137
101 173 137
101 173 137
101 173 137
109 195 143
109 195 143
101 173 137
101 173 137
109 195 143
101 173 138
109 195 143
109 195 143
101 173 138
101 173 138
109 195 143
109 195 143
109 195 143
109 195 143
101 173 138
109 195 143
109 195 143
101 173 138
101 173 138
101 173 138
101 173 138
109 195 143
101 173 138
101 173 138
101 173 138
101 173 138
101 173 138
101 173 138
101 173 138
101 173 138
109 195 143
109 195 143
109 195 143
109 195 143
109 195 143
109 195 143
109 195 143
101 173 138
109 195 143
101 173 138
101 173 138
101 174 138
101 174 138
101 174 138
101 174 138
109 195 143
101 174 138
101 174 138
101 174 138
101 174 138
109 195 144
109 195 144
109 195 144
109 195 144
101 174 138
110 195 144
101 174 138
110 195 144
110 195 144
101 174 138
110 195 144
101 174 138
101 174 138
90 156 93
90 156 93
82 134 88
82 134 88
82 134 88
82 134 88
82 134 88
82 134 88
82 134 88
82 134 88
82 134 88
82 134 88
82 134 88
82 134 88
82 134 88
82 134 88
82 134 88
82 134 88
82 134 88
82 134 88
82 134 88
110 195 144
102 174 139
102 174 139
110 195 144
110 195 144
110 195 144
102 174 138
110 195 144
102 174 138
110 195 144
110 195 144
110 195 144
110 195 144
102 174 138
110 195 144
102 174 138
110 195 144
101 174 138
110 195 144
101 174 138
101 174 138
36 62 47
34 56 45
36 62 47
34 55 45
36 62 47
36 62 47
33 55 45
36 62 47
33 55 45
36 62 47
102 174 139
110 195 144
102 174 139
110 195 144
110 195 144
102 174 139
110 195 144
110 195 144
82 134 89
82 134 89
83 134 89
83 134 89
83 134 89
83 134 89
83 135 89
83 135 89
83 135 89
83 135 89
83 135 89
83 135 89
83 135 89
83 135 89
83 135 89
28 44 31
28 44 31
83 135 89
83 135 89
83 135 89
83 135 89
83 135 89
83 135 89
83 135 90
83 135 90
83 135 90
83 135 90
83 135 90
103 174 139
110 195 145
110 195 145
102 174 139
110 195 145
110 195 145
102 174 139
110 195 145
110 195 145
102 174 139
110 195 145
110 195 145
110 195 145
110 195 145
110 195 145
110 195 145
110 195 145
38 64 49
38 64 49
38 64 49
38 64 49
38 63 49
38 63 49
38 63 49
111 195 145
111 195 145
111 195 145
111 195 145
103 174 140
111 195 145
111 195 145
103 174 140
111 195 145
111 195 145
111 195 145
111 195 145
111 195 145
111 195 145
111 195 145
111 195 145
111 195 145
111 195 145
111 195 145
103 174 140
111 195 145
111 195 145
103 174 140
111 195 145
111 195 145
111 195 145
111 195 145
111 195 145
111 195 145
111 195 145
111 195 145
111 195 145
111 195 145
111 195 145
103 174 140
103 174 140
103 174 140
103 174 140
111 195 145
111 195 145
111 195 145
111 195 145
111 195 145
111 195 145
111 195 145
111 195 145
110 195 144
110 195 144
110 195 144
110 195 144
110 195 144
110 195 144
110 195 144
110 195 144
110 195 144
102 174 139
102 174 139
102 174 139
102 174 139
86 138 92
86 138 92
86 138 92
86 138 92
102 174 138
102 174 138
102 174 138
102 174 138
102 174 138
102 174 138
86 138 91
85 138 91
85 138 91
109 195 143
101 173 138
101 173 138
101 173 138
101 173 138
101 173 138
101 174 138
101 174 138
101 174 138
101 174 138
101 174 138
109 195 143
101 174 138
101 174 138
109 195 143
109 195 143
101 174 138
109 195 143
94 159 97
93 159 97
93 159 97
93 159 96
93 159 96
93 159 96
93 159 96
93 159 96
93 159 96
29 49 30
109 195 143
109 195 143
101 173 138
101 173 138
109 195 143
101 173 138
109 195 143
101 173 138
101 173 138
109 195 143
101 173 138
109 195 143
109 195 143
101 173 138
109 195 143
101 173 138
101 173 138
101 173 138
101 173 138
109 195 143
101 173 138
93 159 96
93 159 96
93 159 96
93 159 96
93 159 96
93 159 96
93 159 96
93 159 96
93 159 96
93 159 96
93 159 96
93 159 96
93 159 96
93 159 96
109 195 143
109 195 143
109 195 143
101 173 137
101 173 137
101 173 137
101 173 137
101 173 137
109 195 143
101 173 137
101 173 137
101 173 137
101 173 137
101 173 137
101 173 137
101 173 138
109 195 143
101 173 138
109 195 143
101 173 138
109 195 143
109 195 143
101 173 138
109 195 143
109 195 143
109 195 143
101 173 138
109 195 143
101 173 138
101 173 138
101 173 138
101 173 138
109 195 143
101 173 138
101 173 138
101 173 138
101 173 138
109 195 143
101 173 138
109 195 143
109 195 143
109 195 143
109 195 143
109 195 143
101 173 138
109 195 143
109 195 143
101 173 138
101 173 138
101 173 138
109 195 143
101 173 138
101 174 138
101 174 138
101 174 138
109 195 143
101 174 138
101 174 138
101 174 138
101 174 138
101 174 138
101 174 138
109 195 144
109 195 144
101 174 138
109 195 144
109 195 144
110 195 144
110 195 144
101 174 138
101 174 138
90 156 93
90 156 93
90 156 93
90 156 93
82 134 88
82 134 88
82 134 88
82 134 88
82 134 88
82 134 88
82 134 88
82 134 88
82 134 88
82 134 88
82 134 88
82 134 88
82 134 88
82 134 88
82 134 88
82 134 88
82 134 88
82 134 88
102 174 139
102 174 139
102 174 139
102 174 138
102 174 138
102 174 138
102 174 138
110 195 144
110 195 144
110 195 144
110 195 144
110 195 144
110 195 144
110 195 144
110 195 144
110 195 144
110 195 144
110 195 144
110 195 144
110 195 144
110 195 144
90 156 93
90 156 93
36 62 47
36 62 47
36 62 47
33 55 45
36 62 47
33 55 45
36 62 47
36 62 47
33 55 45
110 195 144
110 195 144
110 195 144
110 195 144
102 174 139
110 195 144
102 174 139
102 174 139
102 174 139
28 43 30
28 43 30
28 44 30
28 44 30
28 44 30
28 44 30
83 135 89
83 135 89
83 135 89
83 135 89
83 135 89
83 135 89
102 174 139
102 174 139
102 174 139
28 44 31
28 44 31
28 44 31
28 44 31
28 44 31
29 44 31
29 45 31
83 135 90
83 135 90
83 135 90
83 135 90
103 174 139
102 174 139
102 174 139
102 174 139
110 195 145
110 195 145
110 195 145
110 195 145
110 195 145
110 195 145
110 195 145
110 195 145
110 195 145
110 195 145
110 195 145
110 195 145
110 195 145
102 174 139
102 174 139
38 64 49
38 63 49
38 63 49
38 63 49
38 63 49
38 63 49
38 63 49
111 195 145
111 195 145
103 174 140
103 174 140
111 195 145
103 174 140
111 195 145
111 195 145
103 174 140
111 195 145
111 195 145
103 174 140
103 174 140
111 195 145
111 195 145
111 195 145
111 195 145
111 195 145
111 195 145
111 195 145
111 195 145
111 195 145
111 195 145
111 195 145
111 195 145
111 195 145
111 195 145
111 195 145
111 195 145
111 195 145
111 195 145
111 195 145
111 195 145
111 195 145
103 174 140
111 195 145
111 195 145
111 195 145
111 195 145
111 195 145
111 195 145
111 195 145
111 195 145
111 195 145
110 195 144
110 195 144
110 195 144
110 195 144
102 174 139
110 195 144
110 195 144
110 195 144
110 195 144
110 195 144
110 195 144
102 174 139
102 174 139
102 174 139
86 138 92
86 138 92
86 138 92
86 138 92
86 138 92
102 174 138
102 174 138
102 174 138
102 174 138
102 174 138
86 138 91
86 138 91
85 138 91
85 138 91
101 173 138
101 173 138
101 173 138
109 195 143
101 173 138
101 173 138
109 195 143
109 195 143
101 173 138
109 195 143
101 174 138
101 174 138
101 174 138
109 195 143
109 195 143
109 195 143
109 195 143
109 195 143
94 159 97
93 159 97
93 159 97
93 159 96
93 159 96
93 159 96
29 49 31
29 49 31
109 195 143
109 195 143
109 195 143
109 195 143
101 173 138
109 195 143
101 173 138
101 173 138
101 173 138
101 173 138
109 195 143
109 195 143
101 173 138
101 173 138
101 173 138
109 195 143
101 173 138
101 173 138
101 173 138
109 195 143
109 195 143
109 195 143
109 195 143
93 159 96
93 159 96
93 159 96
93 159 96
93 159 96
93 159 96
93 159 96
93 159 96
93 159 96
93 159 96
93 159 96
93 159 96
93 159 96
93 159 96
93 159 96
109 195 143
109 195 143
101 173 137
101 173 137
101 173 137
101 173 137
109 195 143
101 173 137
101 173 137
101 173 137
101 173 137
109 195 143
101 173 137
101 173 137
101 173 137
109 195 143
101 173 138
101 173 138
109 195 143
101 173 138
101 173 138
109 195 143
109 195 143
101 173 138
109 195 143
101 173 138
101 173 138
101 173 138
101 173 138
101 173 138
101 173 138
101 173 138
101 173 138
101 173 138
101 173 138
101 173 138
101 173 138
101 173 138
101 173 138
101 173 138
101 173 138
101 173 138
109 195 143
109 195 143
109 195 143
109 195 143
101 173 138
101 173 138
101 173 138
109 195 143
101 173 138
101 173 138
101 174 138
101 174 138
101 174 138
101 174 138
109 195 143
101 174 138
101 174 138
101 174 138
101 174 138
109 195 144
109 195 144
109 195 144
109 195 144
109 195 144
110 195 144
110 195 144
101 174 138
90 156 93
90 156 93
90 156 93
90 156 93
90 156 94
82 134 88
82 134 88
82 134 88
82 134 88
82 134 88
82 134 88
82 134 88
82 134 88
82 134 88
82 134 88
82 134 88
82 134 88
82 134 88
82 134 88
82 134 88
102 174 139
102 174 139
102 174 139
102 174 138
110 195 144
102 174 138
110 195 144
110 195 144
110 195 144
110 195 144
110 195 144
110 195 144
110 195 144
102 174 138
102 174 138
110 195 144
110 195 144
110 195 144
110 195 144
101 174 138
110 195 144
90 156 93
90 156 93
90 156 93
90 156 93
36 62 47
36 62 47
36 62 47
36 62 47
36 62 47
36 62 47
36 62 47
36 62 47
110 195 144
110 195 144
102 174 139
110 195 144
110 195 144
102 174 139
102 174 139
110 195 144
110 195 144
102 174 139
28 44 30
28 44 30
28 44 30
28 44 30
28 44 30
28 44 30
28 44 30
28 44 31
28 44 31
28 44 31
28 44 31
102 174 139
102 174 139
102 174 139
102 174 139
102 174 139
28 44 31
28 44 31
29 44 31
29 45 31
29 45 31
29 45 31
29 45 32
29 45 32
35 56 47
102 174 139
102 174 139
102 174 139
110 195 145
110 195 145
110 195 145
110 195 145
110 195 145
110 195 145
110 195 145
110 195 145
110 195 145
102 174 139
110 195 145
110 195 145
110 195 145
110 195 145
102 174 139
102 174 139
102 174 139
38 63 49
38 63 49
38 63 49
38 63 49
38 63 49
38 63 49
38 63 49
38 63 49
111 195 145
103 174 140
103 174 140
103 174 140
111 195 145
111 195 145
111 195 145
111 195 145
111 195 145
111 195 145
111 195 145
111 195 145
111 195 145
111 195 145
111 195 145
111 195 145
111 195 145
111 195 145
111 195 145
111 195 145
111 195 145
111 195 145
111 195 145
111 195 145
111 195 145
111 195 145
111 195 145
111 195 145
111 195 145
111 195 145
111 195 145
111 195 145
111 195 145
111 195 145
111 195 145
111 195 145
111 195 145
111 195 145
111 195 145
111 195 145
111 195 145
111 195 145
110 195 144
110 195 144
110 195 144
110 195 144
110 195 144
110 195 144
110 195 144
110 195 144
102 174 139
110 195 144
110 195 144
102 174 139
110 195 144
102 174 139
102 174 139
86 138 93
86 138 92
86 138 92
86 138 92
86 138 92
86 138 92
102 174 138
102 174 138
102 174 138
102 174 138
86 138 92
86 138 91
85 138 91
85 138 91
85 138 91
101 173 138
101 173 138
101 173 138
109 195 143
101 173 138
109 195 143
101 173 138
101 173 138
101 173 138
101 173 138
109 195 143
109 195 143
109 195 143
109 195 143
109 195 143
101 174 138
109 195 143
109 195 143
94 159 97
93 159 97
93 159 97
30 50 31
30 50 31
29 49 31
109 195 143
109 195 143
109 195 143
109 195 143
109 195 143
109 195 143
101 173 138
109 195 143
101 173 138
101 173 138
101 173 138
101 173 138
101 173 138
101 173 138
101 173 138
101 173 138
101 173 138
101 173 138
109 195 143
101 173 138
101 173 138
109 195 143
109 195 143
109 195 143
109 195 143
93 159 96
93 159 96
93 159 96
93 159 96
93 159 96
93 159 96
93 159 96
93 159 96
93 159 96
93 159 96
93 159 96
93 159 96
93 159 96
93 159 96
85 137 90
109 195 143
101 173 137
101 173 137
101 173 137
101 173 137
101 173 137
109 195 143
109 195 143
109 195 143
101 173 137
101 173 137
101 173 137
109 195 143
101 173 137
101 173 137
101 173 137
101 173 138
101 173 138
101 173 138
101 173 138
101 173 138
109 195 143
101 173 138
101 173 138
101 173 138
101 173 138
101 173 138
101 173 138
109 195 143
101 173 138
101 173 138
101 173 138
101 173 138
101 173 138
101 173 138
101 173 138
101 173 138
109 195 143
101 173 138
101 173 138
101 173 138
101 173 138
109 195 143
109 195 143
109 195 143
101 173 138
101 173 138
101 173 138
101 173 138
101 173 138
101 173 138
101 173 138
109 195 143
101 174 138
101 174 138
101 174 138
101 174 138
101 174 138
101 174 138
109 195 144
109 195 144
101 174 138
109 195 144
109 195 144
101 174 138
109 195 144
109 195 144
110 195 144
90 156 93
90 156 93
90 156 94
90 156 94
90 156 94
82 134 88
82 134 88
82 134 88
82 134 88
82 134 88
82 134 88
82 134 88
82 134 88
82 134 88
82 134 88
82 134 88
82 134 88
82 134 88
102 174 139
102 174 139
110 195 144
102 174 139
102 174 138
102 174 138
102 174 138
110 195 144
110 195 144
110 195 144
110 195 144
110 195 144
102 174 138
110 195 144
110 195 144
102 174 138
110 195 144
101 174 138
110 195 144
101 174 138
110 195 144
110 195 144
90 156 93
90 156 93
90 156 93
90 156 93
90 156 93
90 156 94
36 62 47
36 62 47
36 62 47
36 62 47
33 55 45
33 55 45
110 195 144
110 195 144
110 195 144
102 174 139
110 195 144
102 174 139
102 174 139
102 174 139
102 174 139
102 174 139
102 174 139
102 174 138
28 44 30
28 44 30
28 44 30
28 44 30
28 44 31
28 44 31
28 44 31
28 44 31
34 56 46
34 56 46
34 56 46
102 174 139
102 174 139
102 174 139
102 174 139
28 44 31
29 44 31
29 45 31
29 45 31
29 45 32
29 45 32
29 45 32
35 56 47
35 56 47
37 63 48
102 174 139
110 195 145
102 174 139
102 174 139
110 195 145
110 195 145
110 195 145
110 195 145
110 195 145
110 195 145
110 195 145
110 195 145
110 195 145
102 174 139
110 195 145
102 174 139
102 174 139
102 174 139
102 174 139
102 174 139
38 63 49
38 63 49
38 63 49
38 63 49
37 63 49
37 63 49
35 57 47
103 174 140
111 195 145
103 174 140
103 174 140
111 195 145
111 195 145
103 174 140
111 195 145
111 195 145
111 195 145
111 195 145
111 195 145
111 195 145
111 195 145
103 174 140
103 174 140
103 174 140
103 174 140
103 174 140
111 195 145
111 195 145
111 195 145
111 195 145
111 195 145
111 195 145
103 174 139
111 195 145
111 195 145
111 195 145
111 195 145
111 195 145
111 195 145
103 174 139
103 174 139
111 195 145
111 195 145
103 174 139
111 195 145
111 195 145
111 195 145
37 63 48
110 195 144
110 195 144
110 195 144
110 195 144
110 195 144
110 195 144
110 195 144
110 195 144
110 195 144
110 195 144
110 195 144
110 195 144
110 195 144
110 195 144
110 195 144
102 174 139
86 138 93
86 138 92
86 138 92
86 138 92
86 138 92
86 138 92
86 138 92
102 174 138
102 174 138
102 174 138
86 138 92
86 138 92
86 138 91
85 138 91
85 138 91
85 138 91
85 137 91
109 195 143
109 195 143
101 173 138
101 173 138
101 173 138
101 173 138
101 173 138
101 173 138
109 195 143
109 195 143
109 195 143
109 195 143
109 195 143
109 195 143
109 195 143
109 195 143
101 174 138
32 54 44
30 50 31
30 50 31
30 50 31
101 173 138
109 195 143
101 173 138
101 173 138
109 195 143
109 195 143
109 195 143
109 195 143
101 173 138
101 173 138
101 173 138
101 173 138
101 173 138
109 195 143
101 173 138
101 173 138
101 173 138
101 173 138
109 195 143
109 195 143
109 195 143
101 173 138
109 195 143
109 195 143
109 195 143
101 173 138
101 173 138
93 159 96
93 159 96
93 159 96
93 159 96
93 159 96
93 159 96
93 159 96
93 159 96
93 159 96
93 159 96
93 159 96
93 159 96
93 159 96
85 137 90
85 137 90
109 195 143
101 173 137
101 173 137
109 195 143
101 173 137
109 195 143
101 173 137
109 195 143
101 173 137
101 173 137
101 173 137
101 173 137
101 173 137
101 173 137
101 173 137
109 195 143
109 195 143
109 195 143
101 173 138
109 195 143
85 137 91
101 173 138
101 173 138
101 173 138
101 173 138
101 173 138
101 173 138
109 195 143
101 173 138
109 195 143
101 173 138
101 173 138
101 173 138
101 173 138
101 173 138
101 173 138
101 173 138
101 173 138
101 173 138
101 173 138
101 173 138
101 173 138
109 195 143
101 173 138
101 173 138
101 173 138
101 173 138
101 173 138
109 195 143
109 195 143
109 195 143
101 173 138
101 173 138
101 174 138
101 174 138
101 174 138
109 195 143
101 174 138
101 174 138
101 174 138
109 195 144
101 174 138
101 174 138
109 195 144
109 195 144
109 195 144
101 174 138
90 156 94
90 156 94
90 156 94
90 156 94
90 156 94
90 156 94
82 134 88
82 134 88
82 134 88
82 134 88
82 134 88
82 134 88
82 134 88
82 134 88
82 134 88
82 134 88
102 174 139
102 174 139
102 174 139
102 174 139
102 174 138
102 174 138
110 195 144
102 174 138
102 174 138
102 174 138
102 174 138
110 195 144
110 195 144
110 195 144
110 195 144
110 195 144
110 195 144
110 195 144
110 195 144
110 195 144
101 174 138
101 174 138
90 156 93
90 156 93
90 156 93
90 156 93
90 156 93
90 156 93
90 156 94
90 156 94
33 55 45
36 62 47
33 55 45
36 62 47
36 62 47
110 195 144
110 195 144
102 174 139
102 174 139
110 195 144
110 195 144
102 174 139
102 174 139
110 195 144
102 174 139
102 174 139
110 195 144
110 195 144
28 44 30
28 44 30
28 44 30
28 44 31
28 44 31
28 44 31
28 44 31
34 56 46
34 56 46
34 56 46
34 56 46
102 174 139
102 174 139
102 174 139
102 174 139
102 174 139
29 45 31
29 45 31
29 45 32
29 45 32
29 45 32
35 56 47
37 63 48
35 56 46
34 56 46
34 56 46
102 174 139
102 174 139
102 174 139
102 174 139
110 195 145
110 195 145
110 195 145
110 195 145
110 195 145
110 195 145
102 174 139
110 195 145
102 174 139
102 174 139
102 174 139
102 174 139
102 174 139
102 174 139
110 195 144
102 174 139
37 63 49
37 63 49
37 63 49
35 57 47
35 57 47
35 57 47
35 57 47
103 174 140
103 174 140
103 174 140
103 174 140
111 195 145
111 195 145
111 195 145
111 195 145
111 195 145
111 195 145
103 174 140
111 195 145
111 195 145
103 174 140
103 174 140
103 174 140
103 174 140
103 174 139
103 174 139
111 195 145
111 195 145
111 195 145
111 195 145
111 195 145
111 195 145
111 195 145
111 195 145
111 195 145
111 195 145
111 195 145
103 174 139
103 174 139
103 174 139
103 174 139
111 195 145
111 195 145
111 195 145
111 195 145
102 174 139
102 174 139
102 174 139
110 195 144
110 195 144
110 195 144
110 195 144
102 174 139
110 195 144
110 195 144
110 195 144
110 195 144
110 195 144
110 195 144
110 195 144
110 195 144
110 195 144
110 195 144
86 138 93
86 138 93
86 138 92
86 138 92
86 138 92
86 138 92
86 138 92
86 138 92
102 174 138
102 174 138
86 138 92
86 138 92
86 138 92
86 138 91
85 138 91
85 138 91
85 138 91
85 137 91
101 173 138
101 173 138
101 173 138
101 173 138
109 195 143
109 195 143
101 173 138
109 195 143
101 173 138
109 195 143
109 195 143
101 173 138
101 173 138
109 195 143
109 195 143
32 54 44
35 61 45
35 61 45
30 50 31
109 195 143
109 195 143
109 195 143
101 173 138
109 195 143
109 195 143
109 195 143
109 195 143
109 195 143
101 173 138
101 173 138
101 173 138
101 173 138
101 173 138
101 173 138
101 173 138
101 173 138
101 173 138
101 173 138
101 173 138
101 173 138
109 195 143
109 195 143
101 173 138
109 195 143
109 195 143
109 195 143
109 195 143
101 173 138
109 195 143
93 159 96
93 159 96
93 159 96
93 159 96
93 159 96
93 159 96
93 159 96
93 159 96
93 159 96
93 159 96
85 137 90
85 137 90
85 137 90
85 137 90
85 137 90
109 195 143
101 173 137
101 173 137
101 173 137
101 173 137
109 195 143
101 173 137
109 195 143
109 195 143
101 173 137
109 195 143
101 173 137
101 173 137
101 173 137
109 195 143
109 195 143
101 173 138
81 134 87
85 137 91
85 137 91
85 137 91
101 173 138
101 173 138
101 173 138
101 173 138
101 173 138
101 173 138
101 173 138
101 173 138
101 173 138
101 173 138
101 173 138
101 173 138
101 173 138
101 173 138
101 173 138
101 173 138
101 173 138
101 173 138
101 173 138
109 195 143
101 173 138
101 173 138
101 173 138
109 195 143
101 173 138
101 173 138
101 173 138
101 173 138
101 173 138
101 173 138
109 195 143
101 173 138
101 174 138
109 195 143
101 174 138
101 174 138
101 174 138
109 195 143
101 174 138
101 174 138
109 195 144
109 195 144
109 195 144
101 174 138
90 156 94
90 156 94
90 156 94
90 156 94
90 156 94
90 156 94
90 156 94
82 134 88
82 134 88
82 134 88
82 134 88
82 134 88
82 134 88
82 134 88
82 134 88
102 174 139
102 174 139
102 174 139
102 174 139
102 174 138
102 174 138
102 174 138
102 174 138
102 174 138
110 195 144
102 174 138
102 174 138
110 195 144
110 195 144
110 195 144
110 195 144
110 195 144
110 195 144
110 195 144
110 195 144
110 195 144
90 156 93
90 156 93
90 156 93
90 156 93
90 156 93
90 156 93
90 156 94
90 156 94
90 156 94
90 156 94
36 62 47
36 62 47
36 62 47
36 62 47
36 62 47
110 195 144
110 195 144
102 174 139
102 174 139
102 174 139
110 195 144
102 174 139
102 174 139
102 174 139
102 174 138
102 174 138
102 174 138
110 195 144
110 195 144
28 44 30
28 44 31
28 44 31
28 44 31
34 56 46
34 56 46
34 56 46
34 56 46
34 56 46
34 56 46
34 56 46
102 174 139
102 174 139
102 174 139
102 174 139
29 45 31
29 45 32
29 45 32
35 56 47
35 56 47
35 56 46
34 56 46
34 56 46
34 56 46
34 56 46
102 174 139
110 195 145
102 174 139
102 174 139
110 195 145
110 195 145
110 195 145
110 195 145
110 195 145
110 195 145
110 195 144
102 174 139
102 174 139
102 174 139
110 195 144
102 174 139
102 174 139
102 174 139
102 174 139
102 174 139
37 63 49
37 63 49
35 57 47
37 63 49
35 57 47
35 57 47
35 57 47
37 63 49
103 174 140
103 174 140
111 195 145
103 174 140
111 195 145
103 174 140
111 195 145
111 195 145
111 195 145
111 195 145
111 195 145
103 174 139
103 174 139
103 174 139
103 174 139
103 174 139
111 195 145
103 174 139
103 174 139
111 195 145
111 195 145
111 195 145
111 195 145
111 195 145
103 174 139
111 195 145
111 195 145
111 195 145
103 174 139
103 174 139
111 195 145
111 195 145
103 174 139
103 174 139
111 195 145
111 195 145
102 174 139
102 174 139
102 174 139
102 174 139
110 195 144
110 195 144
110 195 144
110 195 144
110 195 144
110 195 144
110 195 144
110 195 144
110 195 144
110 195 144
110 195 144
110 195 144
110 195 144
110 195 144
102 174 139
110 195 144
86 138 93
86 138 93
86 138 92
86 138 92
86 138 92
86 138 92
86 138 92
86 138 92
102 174 138
86 138 92
86 138 92
86 138 92
86 138 91
86 138 91
85 138 91
85 138 91
85 138 91
85 137 91
101 173 138
101 173 138
101 173 138
109 195 143
109 195 143
101 173 138
109 195 143
109 195 143
109 195 143
109 195 143
109 195 143
109 195 143
101 173 138
35 60 45
32 54 44
35 61 45
35 61 45
109 195 143
109 195 143
109 195 143
109 195 143
109 195 143
101 173 137
101 173 137
101 173 138
109 195 143
101 173 138
101 173 138
109 195 143
109 195 143
101 173 138
101 173 138
101 173 138
101 173 138
101 173 138
101 173 138
109 195 143
101 173 138
101 173 138
109 195 143
109 195 143
109 195 143
109 195 143
101 173 138
109 195 143
101 173 138
101 173 138
109 195 143
109 195 143
93 159 96
93 159 96
93 159 96
93 159 96
93 159 96
93 159 96
93 159 96
93 159 96
93 159 96
85 137 90
85 137 90
85 137 90
85 137 90
85 137 90
85 137 90
101 173 137
101 173 137
101 173 137
101 173 137
101 173 137
101 173 137
101 173 137
101 173 137
101 173 137
101 173 137
101 173 137
101 173 137
101 173 137
101 173 137
101 173 137
101 173 137
85 137 91
85 137 91
85 137 91
85 137 91
85 137 91
101 173 138
101 173 138
101 173 138
101 173 138
101 173 138
101 173 138
101 173 138
101 173 138
101 173 138
101 173 138
101 173 138
101 173 138
101 173 138
101 173 138
101 173 138
109 195 143
109 195 143
101 173 138
109 195 143
101 173 138
109 195 143
101 173 138
101 173 138
101 173 138
101 173 138
101 173 138
101 173 138
101 173 138
101 173 138
101 173 138
109 195 143
101 173 138
101 174 138
101 174 138
101 174 138
101 174 138
109 195 143
109 195 143
101 174 138
101 174 138
101 174 138
86 138 91
101 174 138
90 156 94
90 156 94
90 156 94
90 156 94
90 156 94
90 156 94
90 156 94
82 134 88
82 134 88
82 134 88
82 134 88
82 134 88
82 134 88
102 174 139
102 174 139
102 174 139
102 174 139
102 174 138
102 174 138
110 195 144
102 174 138
102 174 138
102 174 138
102 174 138
102 174 138
102 174 138
102 174 138
110 195 144
110 195 144
101 174 138
110 195 144
110 195 144
110 195 144
110 195 144
90 156 93
90 156 93
90 156 93
90 156 93
90 156 93
90 156 93
90 156 94
90 156 94
90 156 94
90 156 94
90 156 94
90 156 94
90 156 94
36 62 47
36 62 47
36 62 47
110 195 144
102 174 139
102 174 139
102 174 139
110 195 144
102 174 139
102 174 139
102 174 139
110 195 144
102 174 138
102 174 138
102 174 138
102 174 138
102 174 138
102 174 138
28 44 31
28 44 31
28 44 31
34 56 46
34 56 46
34 56 46
34 56 46
34 56 46
34 56 46
34 56 46
34 56 45
34 56 45
102 174 139
102 174 139
102 174 139
102 174 139
29 45 32
35 56 47
35 56 46
37 63 48
34 56 46
34 56 46
34 56 46
34 56 46
34 56 46
34 56 46
102 174 139
102 174 139
102 174 139
102 174 139
110 195 145
110 195 145
110 195 144
110 195 144
102 174 139
102 174 139
102 174 139
102 174 139
102 174 139
102 174 139
102 174 139
102 174 139
110 195 144
110 195 144
102 174 139
102 174 139
35 57 47
35 57 47
35 57 47
35 57 47
35 57 47
35 57 47
35 57 47
35 57 47
103 174 140
103 174 140
103 174 140
103 174 140
111 195 145
111 195 145
111 195 145
111 195 145
111 195 145
103 174 139
103 174 139
103 174 139
111 195 145
103 174 139
103 174 139
103 174 139
103 174 139
103 174 139
103 174 139
111 195 145
111 195 145
111 195 145
111 195 145
103 174 139
111 195 145
103 174 139
103 174 139
103 174 139
103 174 139
103 174 139
103 174 139
103 174 139
103 174 139
103 174 139
102 174 139
102 174 139
102 174 139
102 174 139
102 174 139
102 174 139
110 195 144
110 195 144
110 195 144
110 195 144
110 195 144
110 195 144
110 195 144
110 195 144
110 195 144
110 195 144
110 195 144
110 195 144
102 174 139
110 195 144
102 174 139
102 174 139
86 138 93
86 138 92
86 138 92
86 138 92
86 138 92
86 138 92
28 44 31
102 174 138
102 174 138
86 138 92
86 138 92
86 138 92
86 138 91
85 138 91
85 138 91
85 138 91
85 138 91
85 137 91
101 173 138
109 195 143
101 173 138
109 195 143
101 173 138
109 195 143
109 195 143
101 173 138
109 195 143
109 195 143
109 195 143
101 173 138
34 60 45
32 54 44
32 54 44
109 195 143
109 195 143
109 195 143
101 173 137
109 195 143
109 195 143
109 195 143
109 195 143
109 195 143
109 195 143
109 195 143
101 173 138
109 195 143
109 195 143
109 195 143
101 173 138
101 173 138
101 173 138
101 173 138
101 173 138
101 173 138
101 173 138
109 195 143
109 195 143
101 173 138
109 195 143
109 195 143
101 173 138
109 195 143
109 195 143
109 195 143
109 195 143
109 195 143
101 173 138
93 159 96
93 159 96
93 159 96
93 159 96
93 159 96
93 159 96
93 159 96
93 159 96
85 137 90
85 137 90
85 137 90
85 137 90
85 137 90
85 137 90
85 137 90
101 173 137
101 173 137
101 173 137
101 173 137
101 173 137
101 173 137
101 173 137
101 173 137
109 195 143
109 195 143
101 173 137
101 173 137
109 195 143
101 173 137
81 134 87
85 137 91
85 137 91
85 137 91
85 137 91
85 137 91
85 137 91
101 173 138
101 173 138
101 173 138
109 195 143
101 173 138
109 195 143
101 173 138
101 173 138
101 173 138
101 173 138
101 173 138
101 173 138
101 173 138
109 195 143
101 173 138
101 173 138
109 195 143
109 195 143
109 195 143
109 195 143
101 173 138
101 173 138
101 173 138
101 173 138
101 173 138
101 173 138
101 173 138
109 195 143
101 173 138
101 173 138
101 173 138
109 195 143
101 173 138
101 174 138
101 174 138
101 174 138
109 195 143
101 174 138
101 174 138
101 174 138
86 138 92
86 138 91
